AI-SPARC/uncalibrated-visual-servoing/results/data/1_feat_mckf.csv
,t,q_1,q_2,q_3,q_4,q_5,q_6,camera_x,camera_y,camera_z,camera_roll,camera_pitch,camera_yaw,f_1,f_2,desired_f_1,desired_f_2
0,0.0,9.298324584960938e-06,-0.39263248443603516,1.963494062423706,7.224082946777344e-05,-1.5707952976226807,-2.384185791015625e-07,0.44632619619369507,0.1690625101327896,0.5921626687049866,-3.1413076666281032,0.00012220975734266807,1.5708383127210188,186.06118546845124,56.89866156787763,128.0,128.0
1,0.05,0.0023763179779052734,-0.3940236568450928,1.963186502456665,0.0008625984191894531,-1.5687353610992432,0.0009548664093017578,0.44524040818214417,0.17033864557743073,0.5929052829742432,3.140960550071635,-0.0019345975180498668,1.5722540547736863,186.88145315487571,56.82600382409178,128.0,128.0
2,0.1,-0.04919624328613281,-0.3530430793762207,2.0121052265167236,-0.05148935317993164,-1.6210911273956299,-0.051404714584350586,0.47029855847358704,0.14072754979133606,0.547012448310852,-3.102210170254794,0.04865421259369014,1.5749222802595413,170.83091787439614,52.05636070853462,128.0,128.0
3,0.15000000000000002,-0.05617332458496094,-0.3422846794128418,2.0125133991241455,-0.05753445625305176,-1.626105546951294,-0.05881357192993164,0.4762193262577057,0.13635805249214172,0.5423305034637451,-3.0961989946274615,0.05276627377806627,1.575777798669454,168.81299524564184,52.43581616481775,128.0,128.0
4,0.2,-0.05645179748535156,-0.341341495513916,2.012373208999634,-0.05859231948852539,-1.6261041164398193,-0.060117244720458984,0.4767162501811981,0.136234313249588,0.5421404838562012,-3.0964599456648454,0.052752020375913186,1.5768303374145531,168.9387755102041,52.70800627943485,128.0,128.0
5,0.25,-0.05676627159118652,-0.340407133102417,2.0122482776641846,-0.05961203575134277,-1.6261518001556396,-0.06137967109680176,0.4772672653198242,0.13605163991451263,0.5418959856033325,-3.0966067592111997,0.05276471311331883,1.5777766912095823,168.92488262910797,53.003129890453835,128.0,128.0
6,0.30000000000000004,-0.05709242820739746,-0.33951425552368164,2.0121357440948486,-0.06056690216064453,-1.6262257099151611,-0.06256771087646484,0.4778003990650177,0.1358521580696106,0.5416520833969116,-3.0967137221365495,0.052796684065019854,1.578633818221121,168.94043887147336,53.2460815047022,128.0,128.0
7,0.35000000000000003,-0.05743670463562012,-0.33864593505859375,2.012033700942993,-0.0614774227142334,-1.6263267993927002,-0.0637047290802002,0.4783188998699188,0.13564133644104004,0.5414081811904907,-3.0967905056378706,0.05285606102468159,1.5794240419030747,168.85488958990535,53.47791798107256,128.0,128.0
8,0.4,-0.057770490646362305,-0.33782076835632324,2.0119402408599854,-0.06233334541320801,-1.6264312267303467,-0.06477737426757812,0.4788113832473755,0.13543656468391418,0.5411730408668518,-3.096851359097724,0.05292031817403415,1.5801612280727024,168.8982785602504,53.69327073552426,128.0,128.0
9,0.45,-0.05813097953796387,-0.337007999420166,2.0118567943573,-0.06315755844116211,-1.6265690326690674,-0.06581425666809082,0.479295939207077,0.13521642982959747,0.5409334897994995,-3.096881673469378,0.05301723306538507,1.5808392660006891,168.795631825273,53.88299531981279,128.0,128.0
10,0.5,-0.05847358703613281,-0.33623337745666504,2.01177716255188,-0.06393814086914062,-1.626699686050415,-0.06679916381835938,0.4797573685646057,0.13500657677650452,0.5407038927078247,-3.0969051708299555,0.05310981663194182,1.5814830820939407,168.77258566978193,54.04361370716511,128.0,128.0
11,0.55,-0.0588228702545166,-0.33547329902648926,2.0117037296295166,-0.06469511985778809,-1.626842737197876,-0.06775665283203125,0.480209618806839,0.13479310274124146,0.540475070476532,-3.0969145559142697,0.05321406144039433,1.5820942994489637,168.7231726283048,54.251944012441676,128.0,128.0
12,0.6000000000000001,-0.05917096138000488,-0.33474302291870117,2.011636972427368,-0.06541037559509277,-1.6269943714141846,-0.06866574287414551,0.48064371943473816,0.13458022475242615,0.5402511358261108,-3.096907276196257,0.05332828818479785,1.5826600444567893,168.6964006259781,54.417840375586856,128.0,128.0
13,0.65,-0.0595245361328125,-0.3340284824371338,2.011575937271118,-0.0661005973815918,-1.6271569728851318,-0.06954598426818848,0.4810674786567688,0.13436439633369446,0.5400282144546509,-3.096885535834188,0.053453877056032655,1.583192117166317,168.7,54.59375,128.0,128.0
14,0.7000000000000001,-0.05989360809326172,-0.3333253860473633,2.011521100997925,-0.06676626205444336,-1.6273400783538818,-0.07039785385131836,0.4814845621585846,0.1341393142938614,0.5398029685020447,-3.0968433730635403,0.05359927764599802,1.5836827245014227,168.58320373250388,54.80870917573873,128.0,128.0
15,0.75,-0.06023907661437988,-0.33266496658325195,2.0114705562591553,-0.06738519668579102,-1.627511739730835,-0.07119464874267578,0.48187530040740967,0.1339283585548401,0.5395904779434204,-3.0967970168859615,0.05373544161263614,1.584141481102961,168.52106084243368,54.950078003120126,128.0,128.0
16,0.8,-0.060578346252441406,-0.33202052116394043,2.0114219188690186,-0.06798434257507324,-1.6276829242706299,-0.07196784019470215,0.48225557804107666,0.13372083008289337,0.5393821597099304,-3.0967460506093527,0.05387135987450337,1.584583604172469,168.47900466562987,55.00622083981337,128.0,128.0
17,0.8500000000000001,-0.06091666221618652,-0.3313741683959961,2.0113728046417236,-0.06858658790588379,-1.6278517246246338,-0.07274532318115234,0.48263734579086304,0.13351397216320038,0.5391731858253479,-3.0966967359358346,0.05400536262930311,1.585030250481107,168.47893915756632,55.049921996879874,128.0,128.0
18,0.9,-0.06126761436462402,-0.3307149410247803,2.0113251209259033,-0.06920146942138672,-1.6280300617218018,-0.07353591918945312,0.4830266833305359,0.13329896330833435,0.5389586687088013,-3.0966431586134604,0.05414769159856377,1.5854783213046122,168.3953488372093,55.22945736434109,128.0,128.0
19,0.9500000000000001,-0.06160473823547363,-0.33008551597595215,2.0112802982330322,-0.06978058815002441,-1.6282036304473877,-0.07428598403930664,0.483397513628006,0.1330922693014145,0.5387517809867859,-3.0965840608967055,0.05428652150752875,1.585899265735853,168.29797191887675,55.38377535101404,128.0,128.0
20,1.0,-0.06192469596862793,-0.3294813632965088,2.0112359523773193,-0.07033348083496094,-1.6283667087554932,-0.07500505447387695,0.48375236988067627,0.13289600610733032,0.5385534167289734,-3.096525071601877,0.05441633760157107,1.5863067780928266,168.2671875,55.5265625,128.0,128.0
21,1.05,-0.06224870681762695,-0.3288877010345459,2.0111958980560303,-0.07086992263793945,-1.628537893295288,-0.07570433616638184,0.4841010570526123,0.13269716501235962,0.5383557081222534,-3.096456226784416,0.054553850031445535,1.5866909730491663,168.25897035881437,55.7207488299532,128.0,128.0
22,1.1,-0.06258487701416016,-0.3283088207244873,2.011162519454956,-0.07137870788574219,-1.628727674484253,-0.07637214660644531,0.4844404458999634,0.1324913203716278,0.5381577610969543,-3.0963681668118714,0.0547091965422278,1.5870332737051953,168.15038759689924,55.76589147286822,128.0,128.0
23,1.1500000000000001,-0.06289887428283691,-0.32773709297180176,2.011124849319458,-0.07188892364501953,-1.6288955211639404,-0.0770411491394043,0.4847751259803772,0.1322982907295227,0.5379654765129089,-3.0962944088416875,0.05484451081708833,1.5873979025366387,168.08333333333334,55.86882716049383,128.0,128.0
24,1.2000000000000002,-0.06320476531982422,-0.32717466354370117,2.0110867023468018,-0.07239007949829102,-1.6290581226348877,-0.07769942283630371,0.48510393500328064,0.13210998475551605,0.5377770662307739,-3.096221805858083,0.05497471381859241,1.5877587348761983,167.92449922958397,55.97226502311248,128.0,128.0
25,1.25,-0.0634765625,-0.32663512229919434,2.0110456943511963,-0.07287812232971191,-1.6291911602020264,-0.07834076881408691,0.48541831970214844,0.13194173574447632,0.5375999212265015,-3.096165543084038,0.05507765830181181,1.5881354684841216,167.9,56.06153846153846,128.0,128.0
26,1.3,-0.06375265121459961,-0.3260960578918457,2.011005163192749,-0.07336235046386719,-1.6293294429779053,-0.07897830009460449,0.48573222756385803,0.13177074491977692,0.5374215245246887,-3.096104749122589,0.05518528844742613,1.5885040812798132,167.82126348228044,56.16024653312789,128.0,128.0
27,1.35,-0.06401848793029785,-0.32556676864624023,2.0109641551971436,-0.07383871078491211,-1.6294596195220947,-0.0796060562133789,0.4860401451587677,0.13160590827465057,0.5372475385665894,-3.0960472638966134,0.0552854816952107,1.5888730807018818,167.75192604006165,56.18181818181818,128.0,128.0
28,1.4000000000000001,-0.06427431106567383,-0.32503485679626465,2.0109198093414307,-0.07432341575622559,-1.6295783519744873,-0.08024382591247559,0.486349493265152,0.13144691288471222,0.5370751619338989,-3.095999609628146,0.055374174843693336,1.589260815260533,167.71007751937984,56.33643410852713,128.0,128.0
29,1.4500000000000002,-0.06453204154968262,-0.32451558113098145,2.010878801345825,-0.07478976249694824,-1.6297032833099365,-0.08086013793945312,0.4866509735584259,0.13128653168678284,0.5369042158126831,-3.0959425169211583,0.055469517417862026,1.589625968598344,167.7153965785381,56.50388802488336,128.0,128.0
30,1.5,-0.06480526924133301,-0.3240034580230713,2.0108439922332764,-0.07523775100708008,-1.6298472881317139,-0.08145523071289062,0.4869478642940521,0.13111717998981476,0.5367310643196106,-3.095867818813848,0.05558338202562754,1.5899564508409771,167.65331278890602,56.64714946070878,128.0,128.0
31,1.55,-0.06507420539855957,-0.3235042095184326,2.0108115673065186,-0.07567024230957031,-1.629990816116333,-0.0820319652557373,0.48723727464675903,0.13095039129257202,0.5365604758262634,-3.0957892043290203,0.05569698158810367,1.5902728904887131,167.62345679012347,56.72839506172839,128.0,128.0
32,1.6,-0.06534600257873535,-0.32300543785095215,2.0107791423797607,-0.07610011100769043,-1.6301376819610596,-0.08260607719421387,0.48752591013908386,0.13078197836875916,0.5363897681236267,-3.0957079545303667,0.05581351689156692,1.5905847463753775,167.53692307692307,56.79692307692308,128.0,128.0
33,1.6500000000000001,-0.06560444831848145,-0.3225126266479492,2.0107452869415283,-0.07652878761291504,-1.6302721500396729,-0.08317852020263672,0.4878111183643341,0.13062117993831635,0.5362228155136108,-3.0956346055804214,0.05591870459679677,1.5909064122828713,167.47140649149924,56.91035548686244,128.0,128.0
34,1.7000000000000002,-0.0658571720123291,-0.32202839851379395,2.010711431503296,-0.07694792747497559,-1.630403757095337,-0.0837395191192627,0.4880903363227844,0.1304638385772705,0.5360584259033203,-3.095560664316923,0.056020997508307094,1.5912229160951978,167.47058823529412,56.969040247678016,128.0,128.0
35,1.75,-0.06611943244934082,-0.32153868675231934,2.01067852973938,-0.07736945152282715,-1.6305434703826904,-0.0843043327331543,0.4883733093738556,0.13030049204826355,0.5358908176422119,-3.095481327514624,0.05613126007224945,1.5915342169819595,167.48062015503876,56.989147286821705,128.0,128.0
36,1.8,-0.06639409065246582,-0.32103610038757324,2.0106470584869385,-0.07780337333679199,-1.6306922435760498,-0.08488273620605469,0.4886638820171356,0.13012970983982086,0.5357179641723633,-3.095398636812138,0.056249157761029664,1.5918475168851813,167.41885625965998,57.08346213292118,128.0,128.0
37,1.85,-0.06666254997253418,-0.3205399513244629,2.0106141567230225,-0.07823038101196289,-1.6308367252349854,-0.08545422554016113,0.48895007371902466,0.12996259331703186,0.5355477929115295,-3.095317140275693,0.05636306147563332,1.5921589125519937,167.36153846153846,57.238461538461536,128.0,128.0
38,1.9000000000000001,-0.06692814826965332,-0.32005810737609863,2.010584592819214,-0.07863855361938477,-1.6309826374053955,-0.08600330352783203,0.4892277419567108,0.12979695200920105,0.5353803038597107,-3.0952297617872873,0.0564792735033767,1.5924522291800063,167.34408602150538,57.25192012288787,128.0,128.0
39,1.9500000000000002,-0.06719803810119629,-0.3195664882659912,2.0105535984039307,-0.07905864715576172,-1.631129503250122,-0.08656668663024902,0.4895113408565521,0.1296287626028061,0.535210132598877,-3.0951436963382974,0.056595976023674305,1.5927551049532946,167.24769230769232,57.323076923076925,128.0,128.0
40,2.0,-0.06745076179504395,-0.31908273696899414,2.0105206966400146,-0.07947731018066406,-1.6312615871429443,-0.0871267318725586,0.48978984355926514,0.1294705718755722,0.5350450277328491,-3.095068022219677,0.05669794140837972,1.5930707217656215,167.15821812596005,57.47926267281106,128.0,128.0
41,2.0500000000000003,-0.06769251823425293,-0.3186166286468506,2.010488748550415,-0.07987737655639648,-1.6313869953155518,-0.08766436576843262,0.49005740880966187,0.12931911647319794,0.5348855257034302,-3.094991890557693,0.05679528078333849,1.5933747642277276,167.09146341463415,57.57012195121951,128.0,128.0
42,2.1,-0.06792759895324707,-0.31815648078918457,2.0104563236236572,-0.08027267456054688,-1.6315076351165771,-0.0881962776184082,0.4903210699558258,0.12917165458202362,0.5347281694412231,-3.094918244298975,0.05688718502335179,1.5936793084350755,167.0886850152905,57.65902140672783,128.0,128.0
43,2.15,-0.06817245483398438,-0.31769490242004395,2.0104258060455322,-0.08066344261169434,-1.6316382884979248,-0.08872485160827637,0.4905858039855957,0.12901820242404938,0.5345684885978699,-3.09483613799825,0.05698891115106822,1.5939713929037285,167.02134146341464,57.78658536585366,128.0,128.0
44,2.2,-0.06841158866882324,-0.3172435760498047,2.010396718978882,-0.08104348182678223,-1.6317660808563232,-0.08923935890197754,0.49084410071372986,0.12886792421340942,0.5344117283821106,-3.0947528896029746,0.057088212059751196,1.594255626236623,166.9466463414634,57.861280487804876,128.0,128.0
45,2.25,-0.06864166259765625,-0.31679677963256836,2.0103657245635986,-0.0814213752746582,-1.6318857669830322,-0.0897517204284668,0.49109914898872375,0.12872329354286194,0.5342577695846558,-3.094674613302524,0.05717987387712932,1.594546072249881,166.91908396946565,57.89160305343511,128.0,128.0
46,2.3000000000000003,-0.06887292861938477,-0.3163447380065918,2.0103342533111572,-0.08180642127990723,-1.632004976272583,-0.09027218818664551,0.49135786294937134,0.12857773900032043,0.5341025590896606,-3.094598372137991,0.057270657740370656,1.594843083949453,166.85128983308041,57.96661608497724,128.0,128.0
47,2.35,-0.06909680366516113,-0.31589674949645996,2.0103018283843994,-0.08218979835510254,-1.6321179866790771,-0.0907902717590332,0.4916136562824249,0.12843641638755798,0.5339493155479431,-3.094525909921164,0.05735529269026335,1.595144748471289,166.80395136778117,58.0531914893617,128.0,128.0
48,2.4000000000000004,-0.06931900978088379,-0.31545186042785645,2.0102694034576416,-0.08256912231445312,-1.6322295665740967,-0.09130406379699707,0.49186769127845764,0.1282961517572403,0.5337972044944763,-3.094452931156235,0.05743947857535179,1.5954437457481425,166.76829268292684,58.07164634146341,128.0,128.0
49,2.45,-0.06953954696655273,-0.3150010108947754,2.010235071182251,-0.08295726776123047,-1.6323378086090088,-0.09182858467102051,0.4921247661113739,0.12815643846988678,0.5336440205574036,-3.094384165259529,0.057519488464259125,1.5957546479040738,166.7166921898928,58.14854517611026,128.0,128.0
50,2.5,-0.06975698471069336,-0.31455278396606445,2.0102007389068604,-0.0833442211151123,-1.6324436664581299,-0.09235048294067383,0.4923803210258484,0.12801870703697205,0.533491849899292,-3.0943167258768125,0.0575973335966167,1.5960661091419708,166.64110429447854,58.20398773006135,128.0,128.0
51,2.5500000000000003,-0.06996417045593262,-0.31410741806030273,2.0101635456085205,-0.08373236656188965,-1.6325390338897705,-0.09287428855895996,0.4926341772079468,0.12788687646389008,0.5333430171012878,-3.0942569665854247,0.05766569244331826,1.5963885005390541,166.6265243902439,58.31707317073171,128.0,128.0
52,2.6,-0.07017898559570312,-0.31366491317749023,2.0101301670074463,-0.08411240577697754,-1.6326439380645752,-0.09338879585266113,0.4928862452507019,0.12775041162967682,0.53319251537323,-3.0941887099261174,0.05774309092151353,1.596694979027389,166.580547112462,58.42553191489362,128.0,128.0
53,2.6500000000000004,-0.07039356231689453,-0.31322813034057617,2.0100972652435303,-0.08448410034179688,-1.6327502727508545,-0.09389376640319824,0.49313464760780334,0.1276143342256546,0.5330427885055542,-3.094116815168143,0.05782163715264207,1.5969930570686608,166.59056316590562,58.528158295281585,128.0,128.0
54,2.7,-0.07062125205993652,-0.3127901554107666,2.01006817817688,-0.08485078811645508,-1.6328709125518799,-0.09439277648925781,0.49338382482528687,0.12747012078762054,0.5328902006149292,-3.0940339842892484,0.05791360211400242,1.5972723303875134,166.53191489361703,58.65501519756839,128.0,128.0
55,2.75,-0.0708458423614502,-0.3123612403869629,2.0100409984588623,-0.08520746231079102,-1.6329905986785889,-0.094879150390625,0.4936273694038391,0.12732791900634766,0.5327393412590027,-3.0939484793748706,0.058005244001929385,1.5975425571986406,166.48328267477203,58.702127659574465,128.0,128.0
56,2.8000000000000003,-0.07106685638427734,-0.31193113327026367,2.010011911392212,-0.08556628227233887,-1.6331064701080322,-0.09536957740783691,0.49387115240097046,0.12718786299228668,0.5325891375541687,-3.093866946532293,0.058092863070866474,1.5978199285258772,166.46189024390245,58.73170731707317,128.0,128.0
57,2.85,-0.07129049301147461,-0.311495304107666,2.009981870651245,-0.08593177795410156,-1.6332228183746338,-0.09586763381958008,0.4941186010837555,0.12704600393772125,0.5324370265007019,-3.0937860364608465,0.05818082700570897,1.5981031541930208,166.4344512195122,58.8094512195122,128.0,128.0
58,2.9000000000000004,-0.0715169906616211,-0.31105923652648926,2.0099523067474365,-0.08629512786865234,-1.6333425045013428,-0.09636354446411133,0.49436601996421814,0.12690220773220062,0.5322845578193665,-3.093702294452596,0.0582719238174667,1.5983809403946998,166.3526717557252,58.87480916030535,128.0,128.0
59,2.95,-0.0717320442199707,-0.31062793731689453,2.009920835494995,-0.08665823936462402,-1.633451223373413,-0.09685921669006348,0.4946107268333435,0.12676537036895752,0.532135546207428,-3.093626008215175,0.05835270885335155,1.5986689368604514,166.33993902439025,58.96798780487805,128.0,128.0
60,3.0,-0.07195425033569336,-0.310197114944458,2.0098912715911865,-0.08701705932617188,-1.6335680484771729,-0.09734988212585449,0.49485501646995544,0.1266240030527115,0.5319849848747253,-3.0935429314788676,0.058440914846935685,1.5989457886272436,166.29832572298326,59.012176560121766,128.0,128.0
61,3.0500000000000003,-0.0721745491027832,-0.30976414680480957,2.0098612308502197,-0.08738017082214355,-1.6336820125579834,-0.09784507751464844,0.49510037899017334,0.12648384273052216,0.5318341851234436,-3.093462776014065,0.05852609316914519,1.5992290395513231,166.25377643504532,59.101208459214504,128.0,128.0
62,3.1,-0.07239365577697754,-0.30933451652526855,2.009831666946411,-0.0877387523651123,-1.633795976638794,-0.09833502769470215,0.49534350633621216,0.12634429335594177,0.5316841006278992,-3.093381304497999,0.05861168769891821,1.5995081641215292,166.22658610271904,59.12386706948641,128.0,128.0
63,3.1500000000000004,-0.07261347770690918,-0.3088984489440918,2.0098001956939697,-0.08810567855834961,-1.6339080333709717,-0.09883475303649902,0.49559035897254944,0.12620379030704498,0.5315322875976562,-3.093302652253425,0.05869556688810151,1.599795654478983,166.19242424242424,59.17121212121212,128.0,128.0
64,3.2,-0.07283329963684082,-0.3084597587585449,2.0097687244415283,-0.08847641944885254,-1.6340196132659912,-0.09933876991271973,0.49583899974823,0.1260635107755661,0.5313801169395447,-3.093225695082029,0.05877820542239086,1.600087826784413,166.1248120300752,59.32781954887218,128.0,128.0
65,3.25,-0.07304883003234863,-0.30803513526916504,2.0097391605377197,-0.08882927894592285,-1.6341311931610107,-0.0998225212097168,0.4960790276527405,0.12592588365077972,0.5312314629554749,-3.093143617039804,0.05886123863429175,1.6003637614679227,166.05572289156626,59.41867469879518,128.0,128.0
66,3.3000000000000003,-0.0732572078704834,-0.3076164722442627,2.009709119796753,-0.08917760848999023,-1.6342370510101318,-0.10030078887939453,0.49631497263908386,0.12579257786273956,0.5310853123664856,-3.0930642199432614,0.05893939957081715,1.600641385554231,166.05128205128204,59.536953242835594,128.0,128.0
67,3.35,-0.07347559928894043,-0.30720019340515137,2.0096824169158936,-0.08951735496520996,-1.634354829788208,-0.10076904296875,0.4965495467185974,0.12565316259860992,0.5309373736381531,-3.0929746166564906,0.059028278220153364,1.600900178782517,166.01208459214502,59.56948640483384,128.0,128.0
68,3.4000000000000004,-0.07369208335876465,-0.3067805767059326,2.0096542835235596,-0.08986306190490723,-1.6344692707061768,-0.10124397277832031,0.49678611755371094,0.12551477551460266,0.530788779258728,-3.09288842657002,0.05911415003789758,1.6011672318856767,165.98203592814372,59.68413173652694,128.0,128.0
69,3.45,-0.07391238212585449,-0.3063654899597168,2.0096285343170166,-0.09020018577575684,-1.634589433670044,-0.10170936584472656,0.4970199465751648,0.12537425756454468,0.5306404829025269,-3.0927967555432456,0.05920527829713014,1.6014215677655501,165.92192192192192,59.753753753753756,128.0,128.0
70,3.5,-0.0741269588470459,-0.3059530258178711,2.0096018314361572,-0.09053611755371094,-1.6347038745880127,-0.1021733283996582,0.49725207686424255,0.12523692846298218,0.5304938554763794,-3.092707751625886,0.05929140596984837,1.6016801570626156,165.8524096385542,59.852409638554214,128.0,128.0
71,3.5500000000000003,-0.07433462142944336,-0.30554723739624023,2.0095746517181396,-0.0908668041229248,-1.6348135471343994,-0.1026310920715332,0.4974798858165741,0.12510374188423157,0.530349612236023,-3.0926207827084644,0.059372847377208535,1.6019377435362951,165.789156626506,59.894578313253014,128.0,128.0
72,3.6,-0.07453513145446777,-0.3051414489746094,2.0095455646514893,-0.0912010669708252,-1.6349155902862549,-0.10309267044067383,0.4977079927921295,0.12497493624687195,0.5302071571350098,-3.09254026321858,0.05944704074465179,1.6022067831469018,165.80780780780782,59.933933933933936,128.0,128.0
73,3.6500000000000004,-0.07474780082702637,-0.30472731590270996,2.0095179080963135,-0.09153962135314941,-1.6350276470184326,-0.10355997085571289,0.49794045090675354,0.1248384416103363,0.5300601124763489,-3.092453008821908,0.05953049098615189,1.602470247962945,165.76576576576576,59.94294294294294,128.0,128.0
74,3.7,-0.07495689392089844,-0.3043076992034912,2.009488344192505,-0.091888427734375,-1.635133981704712,-0.10403895378112793,0.49817657470703125,0.12470407783985138,0.5299127697944641,-3.0923719600508592,0.05960793650186012,1.6027483324261835,165.72012102874433,60.05446293494705,128.0,128.0
75,3.75,-0.0751655101776123,-0.30389404296875,2.0094597339630127,-0.09222888946533203,-1.6352417469024658,-0.1045081615447998,0.4984089732170105,0.12456989288330078,0.5297664403915405,-3.092287559714961,0.05968738958719176,1.6030170043791123,165.6913767019667,60.07564296520424,128.0,128.0
76,3.8000000000000003,-0.07537412643432617,-0.30347466468811035,2.009430170059204,-0.09257793426513672,-1.6353485584259033,-0.10498690605163574,0.49864432215690613,0.1244354397058487,0.5296189188957214,-3.092206776046865,0.05976495885002934,1.6032950113426505,165.6,60.16818181818182,128.0,128.0
77,3.85,-0.07557010650634766,-0.30306386947631836,2.0093986988067627,-0.09292101860046387,-1.635443925857544,-0.10545921325683594,0.4988746643066406,0.12430864572525024,0.5294756889343262,-3.0921320893560855,0.05983270855366863,1.6035780244214322,165.5560606060606,60.236363636363635,128.0,128.0
78,3.9000000000000004,-0.07576441764831543,-0.3026540279388428,2.009366750717163,-0.09326362609863281,-1.63553786277771,-0.10593056678771973,0.49910441040992737,0.12418272346258163,0.529333233833313,-3.092058201080968,0.05989887782282365,1.6038626632995936,165.539156626506,60.338855421686745,128.0,128.0
79,3.95,-0.07596492767333984,-0.3022463321685791,2.0093376636505127,-0.09360027313232422,-1.6356394290924072,-0.10639500617980957,0.49933284521102905,0.12405326217412949,0.5291895866394043,-3.0919773947281803,0.05997186015543856,1.6041342337389877,165.51957831325302,60.41716867469879,128.0,128.0
80,4.0,-0.07617020606994629,-0.30183839797973633,2.0093095302581787,-0.09393453598022461,-1.6357452869415283,-0.1068568229675293,0.4995614290237427,0.12392077594995499,0.5290447473526001,-3.0918923059531127,0.06004959751196312,1.6043989866628403,165.50374812593702,60.47826086956522,128.0,128.0
81,4.05,-0.07638025283813477,-0.30142784118652344,2.009281873703003,-0.09426999092102051,-1.6358559131622314,-0.10731983184814453,0.4997909367084503,0.12378531694412231,0.5288982391357422,-3.091804390031412,0.06013107254366271,1.6046607204241936,165.48498498498498,60.54054054054054,128.0,128.0
82,4.1000000000000005,-0.07659459114074707,-0.30101513862609863,2.0092546939849854,-0.0946052074432373,-1.6359703540802002,-0.10778379440307617,0.500022292137146,0.12364710867404938,0.528750479221344,-3.0917140643134102,0.06021609086700163,1.604919241025459,165.4189189189189,60.58408408408408,128.0,128.0
83,4.15,-0.07680058479309082,-0.30060291290283203,2.009225606918335,-0.09494471549987793,-1.6360762119293213,-0.10825181007385254,0.500252902507782,0.12351381033658981,0.5286043882369995,-3.0916304932377727,0.06029280580783563,1.6051894834633782,165.35532233883058,60.643178410794604,128.0,128.0
84,4.2,-0.07699942588806152,-0.30019283294677734,2.00919508934021,-0.09528517723083496,-1.6361744403839111,-0.10872054100036621,0.5004822015762329,0.12338489294052124,0.5284604430198669,-3.09155209135177,0.06036287697585433,1.6054670113186613,165.28912071535024,60.68852459016394,128.0,128.0
85,4.25,-0.07718992233276367,-0.29978346824645996,2.009162187576294,-0.09562873840332031,-1.6362645626068115,-0.10919308662414551,0.5007110834121704,0.12326066941022873,0.5283182263374329,-3.0914805833539356,0.060424614472142826,1.6057555756446038,165.2125748502994,60.81736526946108,128.0,128.0
86,4.3,-0.07737374305725098,-0.29938483238220215,2.0091307163238525,-0.09596109390258789,-1.6363508701324463,-0.10965180397033691,0.5009335279464722,0.12314090877771378,0.5281798243522644,-3.091408970257824,0.060483643129948306,1.6060373506734151,165.16491754122939,60.892053973013496,128.0,128.0
87,4.3500000000000005,-0.07755517959594727,-0.29898834228515625,2.009098768234253,-0.09629154205322266,-1.6364357471466064,-0.11010885238647461,0.501154363155365,0.12302235513925552,0.5280416011810303,-3.091337506699565,0.06054065659828266,1.606319053939013,165.16017964071855,60.99101796407186,128.0,128.0
88,4.4,-0.07774519920349121,-0.29859232902526855,2.009068727493286,-0.09661626815795898,-1.6365296840667725,-0.11055946350097656,0.5013750195503235,0.12289854139089584,0.5279019474983215,-3.091257972008834,0.06060695090118273,1.6065873634397734,165.13643178410794,61.03748125937032,128.0,128.0
89,4.45,-0.07793736457824707,-0.29819321632385254,2.0090391635894775,-0.09694409370422363,-1.6366245746612549,-0.11101412773132324,0.5015971064567566,0.12277338653802872,0.5277609825134277,-3.0911783601718112,0.06067367583639764,1.606857292258173,165.09865470852017,61.05829596412556,128.0,128.0
90,4.5,-0.07812714576721191,-0.2977898120880127,2.009007692337036,-0.09727978706359863,-1.6367161273956299,-0.11147713661193848,0.501822292804718,0.1226496696472168,0.5276196002960205,-3.091103248696826,0.06073648454784956,1.6071377870719947,165.07142857142858,61.07440476190476,128.0,128.0
91,4.55,-0.07831668853759766,-0.2973802089691162,2.00897479057312,-0.09762358665466309,-1.6368052959442139,-0.11195039749145508,0.5020508170127869,0.12252543121576309,0.5274769067764282,-3.0910314873045563,0.060797758087811696,1.6074278487278977,165.03560830860533,61.14836795252226,128.0,128.0
92,4.6000000000000005,-0.0785067081451416,-0.29697132110595703,2.008941888809204,-0.09796524047851562,-1.6368954181671143,-0.11242175102233887,0.5022785663604736,0.12240104377269745,0.5273343920707703,-3.0909583496012787,0.06085920393201038,1.6077159817060271,165.03851851851852,61.2562962962963,128.0,128.0
93,4.65,-0.07870841026306152,-0.29656338691711426,2.008913278579712,-0.09829974174499512,-1.6369984149932861,-0.112884521484375,0.5025055408477783,0.12226958572864532,0.5271892547607422,-3.090873934763944,0.060932540520795095,1.607985387717073,164.98365527488855,61.31054977711739,128.0,128.0
94,4.7,-0.07890486717224121,-0.2961561679840088,2.008882761001587,-0.09863662719726562,-1.6370956897735596,-0.11334943771362305,0.502732515335083,0.12214124202728271,0.5270451307296753,-3.09079352817851,0.061001061739657886,1.6082613836599713,164.92455621301775,61.357988165680474,128.0,128.0
95,4.75,-0.07909488677978516,-0.2957494258880615,2.0088508129119873,-0.09897589683532715,-1.6371862888336182,-0.11381721496582031,0.5029587745666504,0.12201683223247528,0.526902437210083,-3.0907190960610573,0.061062987213241285,1.608546508382632,164.88296296296295,61.52148148148148,128.0,128.0
96,4.800000000000001,-0.07928776741027832,-0.29535365104675293,2.008822202682495,-0.09929752349853516,-1.6372835636138916,-0.11426496505737305,0.5031784176826477,0.1218908354640007,0.5267612934112549,-3.0906355534273318,0.061131559459839564,1.608809217823145,164.8626292466765,61.587887740029544,128.0,128.0
97,4.8500000000000005,-0.07948422431945801,-0.29495692253112793,2.0087945461273193,-0.09961962699890137,-1.6373846530914307,-0.11471271514892578,0.5033986568450928,0.1217624843120575,0.5266190767288208,-3.0905488636100493,0.06120313341007174,1.609068536249437,164.82890855457228,61.647492625368734,128.0,128.0
98,4.9,-0.0796811580657959,-0.2945594787597656,2.0087664127349854,-0.09994173049926758,-1.6374857425689697,-0.11516141891479492,0.503619372844696,0.12163373827934265,0.526476263999939,-3.0904625439411686,0.06127521138849906,1.6093285955774463,164.79911373707534,61.69423929098966,128.0,128.0
99,4.95,-0.07987856864929199,-0.2941596508026123,2.0087382793426514,-0.10026741027832031,-1.6375868320465088,-0.11561346054077148,0.50384122133255,0.12150464206933975,0.5263329148292542,-3.0903768814373196,0.061346697700215336,1.6095913895142813,164.7787610619469,61.700589970501476,128.0,128.0
100,5.0,-0.0800774097442627,-0.29375195503234863,2.0087082386016846,-0.10060262680053711,-1.6376864910125732,-0.11607766151428223,0.5040676593780518,0.1213744580745697,0.5261879563331604,-3.0902941729955185,0.06141681470312407,1.6098646417060212,164.72065378900444,61.83952451708767,128.0,128.0
101,5.050000000000001,-0.08027386665344238,-0.29335474967956543,2.008680582046509,-0.10092520713806152,-1.6377875804901123,-0.11652588844299316,0.5042878985404968,0.1212458536028862,0.5260451436042786,-3.0902076178597517,0.06148830742551307,1.6101249999283684,164.71130952380952,61.90327380952381,128.0,128.0
102,5.1000000000000005,-0.08047652244567871,-0.2929549217224121,2.0086538791656494,-0.10124778747558594,-1.6378939151763916,-0.1169745922088623,0.5045092701911926,0.12111320346593857,0.5259003639221191,-3.0901169106042374,0.061565058698449526,1.6103795826915839,164.65081723625556,61.90936106983655,128.0,128.0
103,5.15,-0.08067059516906738,-0.29255127906799316,2.0086238384246826,-0.10157990455627441,-1.6379902362823486,-0.11743474006652832,0.5047330856323242,0.1209857165813446,0.5257564187049866,-3.0900355686682794,0.061631421369782155,1.610653376740842,164.5851851851852,61.98814814814815,128.0,128.0
104,5.2,-0.08085799217224121,-0.29215216636657715,2.0085928440093994,-0.10190868377685547,-1.6380808353424072,-0.11789059638977051,0.5049540996551514,0.1208622083067894,0.5256149172782898,-3.0899575529954415,0.06169313783458218,1.610929683803017,164.52154531946508,62.037147102526006,128.0,128.0
105,5.25,-0.08103799819946289,-0.29175448417663574,2.0085604190826416,-0.10224008560180664,-1.6381638050079346,-0.11834907531738281,0.5051742792129517,0.12074320763349533,0.5254756212234497,-3.0898851705438193,0.06174766907149026,1.6112144254999465,164.51483679525222,62.12908011869436,128.0,128.0
106,5.300000000000001,-0.08122611045837402,-0.29135680198669434,2.0085299015045166,-0.10256648063659668,-1.6382553577423096,-0.11880278587341309,0.5053942799568176,0.12061924487352371,0.5253340005874634,-3.089805388414711,0.061810281099157385,1.611487543373636,164.48516320474778,62.22106824925816,128.0,128.0
107,5.3500000000000005,-0.08141660690307617,-0.29096150398254395,2.008500814437866,-0.10288858413696289,-1.6383507251739502,-0.11925101280212402,0.5056127309799194,0.12049373239278793,0.5251926183700562,-3.089722025885981,0.06187602179438114,1.61175300903495,164.43026706231453,62.311572700296736,128.0,128.0
108,5.4,-0.0816037654876709,-0.2905707359313965,2.0084726810455322,-0.10320615768432617,-1.6384437084197998,-0.11969423294067383,0.5058283805847168,0.12037046998739243,0.5250524878501892,-3.089638653351342,0.06193976456588038,1.6120165120491123,164.34365781710915,62.37315634218289,128.0,128.0
109,5.45,-0.08177900314331055,-0.29018449783325195,2.008441209793091,-0.10352301597595215,-1.6385252475738525,-0.12013649940490723,0.5060411095619202,0.12025420367717743,0.5249157547950745,-3.089563028141915,0.06199325235224945,1.6122907268345514,164.29955947136563,62.40528634361233,128.0,128.0
110,5.5,-0.08195090293884277,-0.2897958755493164,2.008409261703491,-0.10384607315063477,-1.6386024951934814,-0.12058448791503906,0.5062556862831116,0.12014000117778778,0.5247793793678284,-3.089492094212658,0.062042366758641165,1.6125729018820891,164.31710914454277,62.46312684365782,128.0,128.0
111,5.550000000000001,-0.08213448524475098,-0.2894020080566406,2.008378267288208,-0.10416865348815918,-1.6386902332305908,-0.12103414535522461,0.506473183631897,0.1200183629989624,0.524638831615448,-3.089413262929242,0.06210114688096599,1.612846672370585,164.33234859675036,62.52141802067947,128.0,128.0
112,5.6000000000000005,-0.08232998847961426,-0.2890026569366455,2.0083506107330322,-0.10449457168579102,-1.6387889385223389,-0.12148618698120117,0.5066933631896973,0.1198895126581192,0.5244948863983154,-3.0893269331410753,0.06216944413238866,1.6131111532085431,164.28088235294118,62.6,128.0,128.0
113,5.65,-0.08252215385437012,-0.2886064052581787,2.00832200050354,-0.10481667518615723,-1.638885736465454,-0.12193465232849121,0.5069119930267334,0.11976265162229538,0.5243518352508545,-3.089241691206673,0.06223572016110366,1.6133758402201939,164.2164948453608,62.66715758468336,128.0,128.0
114,5.7,-0.08270740509033203,-0.28821349143981934,2.0082924365997314,-0.10513806343078613,-1.6389758586883545,-0.12238192558288574,0.5071285367012024,0.11963999271392822,0.5242109894752502,-3.089160616005654,0.062296703284255545,1.6136450236476185,164.17967599410898,62.68777614138439,128.0,128.0
115,5.75,-0.08289051055908203,-0.28781604766845703,2.00826096534729,-0.10546612739562988,-1.6390621662139893,-0.12283730506896973,0.5073474645614624,0.1195184513926506,0.5240698456764221,-3.0890837640825506,0.062353473120928066,1.613924616741453,164.15882352941176,62.74852941176471,128.0,128.0
116,5.800000000000001,-0.08307671546936035,-0.287416934967041,2.0082294940948486,-0.10579466819763184,-1.6391518115997314,-0.12329363822937012,0.5075675845146179,0.11939464509487152,0.5239276885986328,-3.089005036708484,0.062413246639485526,1.6142021275265397,164.09264705882353,62.86764705882353,128.0,128.0
117,5.8500000000000005,-0.08325815200805664,-0.28702688217163086,2.008199453353882,-0.10611319541931152,-1.6392390727996826,-0.12373805046081543,0.507781982421875,0.11927416920661926,0.523788332939148,-3.0889252325129894,0.06247113436927816,1.6144727501978238,164.06047197640117,62.93805309734513,128.0,128.0
118,5.9,-0.08344054222106934,-0.2866373062133789,2.0081698894500732,-0.1064310073852539,-1.6393272876739502,-0.12418127059936523,0.5079962015151978,0.11915314197540283,0.5236487984657288,-3.088843984033223,0.06252986603135909,1.6147407947536871,164.051775147929,62.98076923076923,128.0,128.0
119,5.95,-0.08362793922424316,-0.286243200302124,2.008140802383423,-0.10675311088562012,-1.6394193172454834,-0.12462854385375977,0.5082130432128906,0.11902859807014465,0.5235067009925842,-3.088760823190052,0.06259209965380652,1.615008687891729,163.98227474150664,63.039881831610046,128.0,128.0
120,6.0,-0.08380699157714844,-0.28585219383239746,2.008110284805298,-0.10707473754882812,-1.6395037174224854,-0.1250762939453125,0.5084279775619507,0.11890912801027298,0.5233665704727173,-3.0886835349162816,0.06264701758328645,1.6152841249107732,164.00441176470588,63.14264705882353,128.0,128.0
121,6.050000000000001,-0.08400106430053711,-0.2854597568511963,2.0080835819244385,-0.1073908805847168,-1.6396033763885498,-0.12551665306091309,0.508643388748169,0.11878062039613724,0.5232235789299011,-3.0885935270107456,0.06271626420068765,1.6155394824900997,163.9868035190616,63.17008797653959,128.0,128.0
122,6.1000000000000005,-0.084197998046875,-0.2850615978240967,2.0080559253692627,-0.1077122688293457,-1.639704942703247,-0.12596487998962402,0.5088619589805603,0.1186501681804657,0.523078203201294,-3.088503875633109,0.06278628315777571,1.6157990494023047,163.91386861313867,63.28029197080292,128.0,128.0
123,6.15,-0.08438754081726074,-0.28467249870300293,2.0080292224884033,-0.10802531242370605,-1.639801263809204,-0.1264030933380127,0.5090757012367249,0.11852430552244186,0.5229363441467285,-3.088415076353724,0.0628521573238801,1.6160559558417456,163.87408491947292,63.29428989751098,128.0,128.0
124,6.2,-0.08457398414611816,-0.28427886962890625,2.008000135421753,-0.10834646224975586,-1.639892339706421,-0.12685012817382812,0.5092915296554565,0.11840015649795532,0.5227940082550049,-3.0883315003994425,0.06291324188321522,1.6163247374123186,163.85233918128654,63.400584795321635,128.0,128.0
125,6.25,-0.08476519584655762,-0.2838883399963379,2.0079729557037354,-0.10865974426269531,-1.6399900913238525,-0.1272890567779541,0.509505569934845,0.11827316135168076,0.5226510763168335,-3.088241662348847,0.06297988135677988,1.6165808050202588,163.81950509461427,63.4410480349345,128.0,128.0
126,6.300000000000001,-0.08495593070983887,-0.2834954261779785,2.0079448223114014,-0.10897707939147949,-1.6400864124298096,-0.1277320384979248,0.5097208023071289,0.11814625561237335,0.5225080251693726,-3.0881535536317126,0.06304575932753452,1.6168414355745404,163.80640465793303,63.51382823871907,128.0,128.0
127,6.3500000000000005,-0.08515238761901855,-0.28310155868530273,2.007917642593384,-0.10929250717163086,-1.6401889324188232,-0.1281733512878418,0.5099367499351501,0.1180158481001854,0.5223629474639893,-3.0880605522167555,0.06311624327346409,1.6170952618315353,163.76350364963503,63.58686131386861,128.0,128.0
128,6.4,-0.08534717559814453,-0.28270936012268066,2.0078909397125244,-0.10960626602172852,-1.640289545059204,-0.12861275672912598,0.5101515054702759,0.11788633465766907,0.5222195386886597,-3.0879684185774092,0.06318625398741373,1.6173483541796203,163.73792093704245,63.612005856515374,128.0,128.0
129,6.45,-0.08554267883300781,-0.28231239318847656,2.0078632831573486,-0.10992670059204102,-1.6403896808624268,-0.1290595531463623,0.510369062423706,0.117756187915802,0.5220744013786316,-3.087878242868382,0.06325472484033191,1.6176085431290934,163.7046783625731,63.64035087719298,128.0,128.0
130,6.5,-0.08573722839355469,-0.28191137313842773,2.0078346729278564,-0.11025285720825195,-1.6404869556427002,-0.12951350212097168,0.5105888843536377,0.11762649565935135,0.5219284296035767,-3.087790944774985,0.06332084764867797,1.6178762356656269,163.64628820960698,63.69286754002911,128.0,128.0
131,6.550000000000001,-0.08592534065246582,-0.2815117835998535,2.0078041553497314,-0.1105804443359375,-1.6405785083770752,-0.12996888160705566,0.5108078122138977,0.11750058829784393,0.5217840075492859,-3.087708275820212,0.0633811624206747,1.6181511240126971,163.57122093023256,63.799418604651166,128.0,128.0
132,6.6000000000000005,-0.0861055850982666,-0.28112101554870605,2.0077736377716064,-0.1109001636505127,-1.6406643390655518,-0.13041472434997559,0.5110214948654175,0.11737977713346481,0.521643340587616,-3.087627861398971,0.06343679431620973,1.6184240882792211,163.49781659388645,63.86026200873363,128.0,128.0
133,6.65,-0.08627676963806152,-0.2807340621948242,2.0077412128448486,-0.11121845245361328,-1.6407415866851807,-0.1308596134185791,0.5112329721450806,0.1172642782330513,0.5215053558349609,-3.0875535481037106,0.06348442463618112,1.61870437756174,163.48688046647231,63.91545189504373,128.0,128.0
134,6.7,-0.08645296096801758,-0.28034400939941406,2.0077102184295654,-0.11153888702392578,-1.6408231258392334,-0.13130617141723633,0.5114460587501526,0.11714579164981842,0.5213655233383179,-3.087475927729155,0.0635361199477153,1.6189820443391918,163.42565597667638,63.98250728862974,128.0,128.0
135,6.75,-0.0866231918334961,-0.2799570560455322,2.0076773166656494,-0.11185741424560547,-1.640899419784546,-0.13175106048583984,0.5116576552391052,0.11703072488307953,0.5212273001670837,-3.0874017965394223,0.06358252466496668,1.6192633760481672,163.40058479532163,64.08040935672514,128.0,128.0
136,6.800000000000001,-0.08679699897766113,-0.2795727252960205,2.0076467990875244,-0.11217045783996582,-1.6409809589385986,-0.13218927383422852,0.5118668675422668,0.11691369116306305,0.5210892558097839,-3.087322906714684,0.06363361208494137,1.6195349598707949,163.34738372093022,64.2078488372093,128.0,128.0
137,6.8500000000000005,-0.08696937561035156,-0.27919673919677734,2.0076181888580322,-0.1124732494354248,-1.6410634517669678,-0.1326150894165039,0.5120717287063599,0.11679761111736298,0.5209527015686035,-3.08724013496167,0.0636861898447585,1.6197960235525977,163.3139534883721,64.23255813953489,128.0,128.0
138,6.9,-0.08714056015014648,-0.27881693840026855,2.0075876712799072,-0.11278176307678223,-1.6411430835723877,-0.13304758071899414,0.5122783184051514,0.11668220907449722,0.5208154320716858,-3.0871604482045143,0.06373612061522539,1.6200645670148066,163.2322206095791,64.31349782293178,128.0,128.0
139,6.95,-0.08730244636535645,-0.2784433364868164,2.007556200027466,-0.11308622360229492,-1.6412146091461182,-0.13347530364990234,0.512481689453125,0.11657264083623886,0.5206816792488098,-3.0870862477825565,0.06377862818345795,1.6203372151777147,163.2322206095791,64.31349782293178,128.0,128.0
140,7.0,-0.08746862411499023,-0.2780609130859375,2.007524251937866,-0.11340093612670898,-1.6412880420684814,-0.13391494750976562,0.5126901268959045,0.11645984649658203,0.520545482635498,-3.0870127493899573,0.06382261045186152,1.6206167061989594,163.17851959361394,64.3599419448476,128.0,128.0
141,7.050000000000001,-0.08763003349304199,-0.2776787281036377,2.007490396499634,-0.11371755599975586,-1.6413567066192627,-0.13435721397399902,0.5128982067108154,0.11635011434555054,0.5204094052314758,-3.0869431384167734,0.0638616217985598,1.6209034804007676,163.1315028901734,64.44653179190752,128.0,128.0
142,7.1000000000000005,-0.08778953552246094,-0.2773001194000244,2.0074574947357178,-0.11403059959411621,-1.6414244174957275,-0.1347942352294922,0.5131040811538696,0.116241455078125,0.5202749371528625,-3.0868730940340305,0.06390013153984553,1.6211870226064387,163.14884393063585,64.48554913294798,128.0,128.0
143,7.15,-0.08795928955078125,-0.2769145965576172,2.007425546646118,-0.11434745788574219,-1.64150071144104,-0.13523650169372559,0.513313889503479,0.11612632870674133,0.5201367139816284,-3.0867977720273045,0.06394674533488022,1.6214662335926766,163.1228323699422,64.51156069364161,128.0,128.0
144,7.2,-0.08812928199768066,-0.27652478218078613,2.0073931217193604,-0.1146705150604248,-1.641575574874878,-0.13568592071533203,0.513526439666748,0.11601096391677856,0.5199974179267883,-3.0867247695382845,0.06399156895015036,1.621752155978827,163.0749279538905,64.57780979827089,128.0,128.0
145,7.25,-0.08829641342163086,-0.2761366367340088,2.007359266281128,-0.11499190330505371,-1.641648530960083,-0.13613390922546387,0.5137377977371216,0.11589730530977249,0.5198585987091064,-3.086652887124031,0.06403392977551609,1.6220394810516652,163.06349206349208,64.66233766233766,128.0,128.0
146,7.300000000000001,-0.0884695053100586,-0.27574872970581055,2.0073277950286865,-0.1153097152709961,-1.6417276859283447,-0.13657808303833008,0.5139485001564026,0.11577979475259781,0.5197190046310425,-3.086575150520545,0.06408267464400096,1.6223173786495146,163.03762662807526,64.73082489146165,128.0,128.0
147,7.3500000000000005,-0.08864498138427734,-0.2753608226776123,2.0072968006134033,-0.11562657356262207,-1.6418092250823975,-0.13702082633972168,0.5141596794128418,0.11566099524497986,0.5195786356925964,-3.0864954351727225,0.06413345743037845,1.6225921125787683,163.03762662807526,64.73082489146165,128.0,128.0
148,7.4,-0.08882570266723633,-0.2749629020690918,2.007265329360962,-0.11595463752746582,-1.6418936252593994,-0.13747668266296387,0.5143763422966003,0.1155383363366127,0.5194346904754639,-3.0864161159510006,0.0641860209847497,1.6228744324892777,162.96526772793052,64.82489146164978,128.0,128.0
149,7.45,-0.08899855613708496,-0.27457261085510254,2.007232904434204,-0.11627578735351562,-1.6419718265533447,-0.1379249095916748,0.5145883560180664,0.11542084068059921,0.519294023513794,-3.086339714003574,0.0642335775780522,1.62315648328375,162.96092619392186,64.93198263386397,128.0,128.0
150,7.5,-0.08918023109436035,-0.2741842269897461,2.0072033405303955,-0.11658978462219238,-1.6420605182647705,-0.13836455345153809,0.514799177646637,0.11529792845249176,0.5191519856452942,-3.0862542442162524,0.0642906342244895,1.6234225764550505,162.91942446043166,65.03741007194245,128.0,128.0
151,7.550000000000001,-0.08936190605163574,-0.273801326751709,2.0071752071380615,-0.11689591407775879,-1.642150640487671,-0.1387951374053955,0.5150067210197449,0.11517524719238281,0.5190107226371765,-3.0861651879023375,0.06434898942177336,1.6236798346892134,162.8757225433526,65.16763005780346,128.0,128.0
152,7.6000000000000005,-0.08954405784606934,-0.2734262943267822,2.0071489810943604,-0.11719083786010742,-1.6422441005706787,-0.13921284675598145,0.5152095556259155,0.11505234241485596,0.5188711285591125,-3.0860714167917935,0.06441053645427716,1.6239242888306016,162.84537572254337,65.19364161849711,128.0,128.0
153,7.65,-0.08972549438476562,-0.27304744720458984,2.0071218013763428,-0.11749076843261719,-1.6423351764678955,-0.13963675498962402,0.5154144763946533,0.11492951214313507,0.518730640411377,-3.0859799950213866,0.06446996012318848,1.6241752733058876,162.84913793103448,65.25718390804597,128.0,128.0
154,7.7,-0.08991551399230957,-0.27266550064086914,2.0070960521698,-0.11779069900512695,-1.64243483543396,-0.1400606632232666,0.5156207084655762,0.11480141431093216,0.5185878872871399,-3.085882046849485,0.06453669310845582,1.6244184842975398,162.82758620689654,65.29022988505747,128.0,128.0
155,7.75,-0.09010744094848633,-0.2722795009613037,2.0070698261260986,-0.11809515953063965,-1.6425344944000244,-0.14049005508422852,0.5158298015594482,0.11467201262712479,0.5184433460235596,-3.0857851358440205,0.06460345797005176,1.624665321177552,162.76115107913668,65.33812949640287,128.0,128.0
156,7.800000000000001,-0.09029126167297363,-0.271895170211792,2.0070412158966064,-0.11840105056762695,-1.6426265239715576,-0.14092135429382324,0.5160374641418457,0.11454763263463974,0.5183010697364807,-3.0856942307301836,0.0646628553151072,1.6249212575109568,162.76040172166427,65.38593974175036,128.0,128.0
157,7.8500000000000005,-0.09048223495483398,-0.27150630950927734,2.007014513015747,-0.11871075630187988,-1.6427247524261475,-0.1413559913635254,0.5162482261657715,0.11441861093044281,0.5181564092636108,-3.085599881585304,0.06472814048086485,1.6251740015754756,162.70977011494253,65.45545977011494,128.0,128.0
158,7.9,-0.09066939353942871,-0.2711200714111328,2.0069868564605713,-0.1190176010131836,-1.6428196430206299,-0.14178848266601562,0.5164569616317749,0.11429189145565033,0.5180128216743469,-3.085506973117822,0.06479054161817915,1.6254279094483572,162.63180515759313,65.4756446991404,128.0,128.0
159,7.95,-0.09084463119506836,-0.2707340717315674,2.0069563388824463,-0.11933112144470215,-1.642902135848999,-0.1422281265258789,0.516666054725647,0.11417236179113388,0.5178719162940979,-3.085424450514072,0.064840874757554,1.6256995545268595,162.5888252148997,65.56876790830945,128.0,128.0
160,8.0,-0.0910191535949707,-0.2703521251678467,2.0069267749786377,-0.11963891983032227,-1.6429846286773682,-0.14266109466552734,0.5168721675872803,0.11405342817306519,0.5177319049835205,-3.085340545212332,0.0648920076829691,1.6259656490817982,162.54375896700142,65.63988522238164,128.0,128.0
161,8.05,-0.09119153022766113,-0.2699723243713379,2.006896734237671,-0.11994481086730957,-1.643066167831421,-0.14309167861938477,0.5170770287513733,0.11393585801124573,0.5175925493240356,-3.0852567881396236,0.06494145287153809,1.6262318454130673,162.52857142857144,65.68142857142857,128.0,128.0
162,8.1,-0.09136700630187988,-0.2695889472961426,2.0068676471710205,-0.1202547550201416,-1.6431496143341064,-0.1435260772705078,0.517284095287323,0.1138160228729248,0.5174517035484314,-3.085172314274496,0.06499316312620487,1.626498280657341,162.47925608011445,65.7510729613734,128.0,128.0
163,8.15,-0.09153938293457031,-0.2692081928253174,2.006838083267212,-0.12056207656860352,-1.643230676651001,-0.14395785331726074,0.5174894332885742,0.11369812488555908,0.5173115730285645,-3.085089129078513,0.06504235573063212,1.6267655641595002,162.42120343839542,65.76647564469914,128.0,128.0
164,8.200000000000001,-0.0917046070098877,-0.26882505416870117,2.006805181503296,-0.12087631225585938,-1.6433031558990479,-0.14439797401428223,0.5176963806152344,0.11358459293842316,0.5171729326248169,-3.08501358229056,0.06508360917114314,1.6270470187166395,162.41750358680056,65.78766140602582,128.0,128.0
165,8.25,-0.09187459945678711,-0.2684347629547119,2.00677227973938,-0.12119817733764648,-1.643378496170044,-0.14484667778015137,0.5179071426391602,0.11346780508756638,0.5170316100120544,-3.0849376330914673,0.0651277373492845,1.627332363100174,162.34950071326676,65.91583452211127,128.0,128.0
166,8.3,-0.09203958511352539,-0.2680552005767822,2.0067408084869385,-0.12150716781616211,-1.6434519290924072,-0.14528107643127441,0.5181115865707397,0.1133541688323021,0.5168935656547546,-3.0848600253783207,0.0651698722076374,1.6276085443561346,162.3062678062678,66.0,128.0,128.0
167,8.35,-0.09220337867736816,-0.26767897605895996,2.006709337234497,-0.1218116283416748,-1.6435253620147705,-0.14571022987365723,0.5183141231536865,0.11324156075716019,0.5167564153671265,-3.0847812125104035,0.06521201919262719,1.6278810316755894,162.28102710413694,66.06134094151213,128.0,128.0
168,8.4,-0.09236907958984375,-0.2673020362854004,2.006678819656372,-0.1221168041229248,-1.6436007022857666,-0.14613962173461914,0.5185171365737915,0.11312775313854218,0.5166186690330505,-3.084701041025246,0.0652556955109734,1.6281518328479068,162.24571428571429,66.13714285714286,128.0,128.0
169,8.450000000000001,-0.09253478050231934,-0.26692700386047363,2.006648302078247,-0.12241911888122559,-1.643676519393921,-0.14656615257263184,0.5187183022499084,0.11301375925540924,0.5164808034896851,-3.0846195269516477,0.06530010333323702,1.6284195155254448,162.23242467718794,66.19799139167863,128.0,128.0
170,8.5,-0.09270501136779785,-0.26655030250549316,2.0066192150115967,-0.12272191047668457,-1.6437561511993408,-0.14699268341064453,0.5189207792282104,0.11289704591035843,0.5163419246673584,-3.0845352940522757,0.06534784394211768,1.6286839756037554,162.15142857142857,66.29857142857144,128.0,128.0
171,8.55,-0.09286642074584961,-0.26618170738220215,2.00658917427063,-0.12301754951477051,-1.643829584121704,-0.14741086959838867,0.5191187858581543,0.1127857193350792,0.5162063241004944,-3.084453906431553,0.06538992435155101,1.6289476016780096,162.1060171919771,66.36962750716333,128.0,128.0
172,8.6,-0.09302592277526855,-0.26581525802612305,2.006559133529663,-0.12331104278564453,-1.6439015865325928,-0.1478269100189209,0.519315242767334,0.11267587542533875,0.5160719156265259,-3.0843734438822334,0.0654306963402172,1.6292112969879045,162.08285714285714,66.41285714285715,128.0,128.0
173,8.65,-0.09318661689758301,-0.26544642448425293,2.0065290927886963,-0.12360739707946777,-1.6439745426177979,-0.14824581146240234,0.5195131301879883,0.11256495118141174,0.5159367918968201,-3.0842929166508832,0.0654720695447574,1.629476472567018,162.04291845493563,66.46065808297568,128.0,128.0
174,8.700000000000001,-0.09334540367126465,-0.2650771141052246,2.0064985752105713,-0.12390542030334473,-1.644045114517212,-0.1486668586730957,0.5197109580039978,0.11245507001876831,0.5158012509346008,-3.0842140310575905,0.06551164991263564,1.6297454699041776,162.01997146932953,66.49358059914408,128.0,128.0
175,8.75,-0.0935051441192627,-0.26470422744750977,2.006467580795288,-0.1242074966430664,-1.6441152095794678,-0.1490921974182129,0.519910991191864,0.11234447360038757,0.5156647562980652,-3.0841360153998565,0.06555062376093608,1.6300185887168075,162.0,66.5,128.0,128.0
176,8.8,-0.09366559982299805,-0.2643251419067383,2.006434679031372,-0.12451767921447754,-1.644183874130249,-0.14952778816223145,0.5201144814491272,0.11223328113555908,0.5155264139175415,-3.0840610441442418,0.06558775813761239,1.6303001471878114,162.0099573257468,66.51920341394026,128.0,128.0
177,8.85,-0.09383368492126465,-0.26393747329711914,2.0064022541046143,-0.12483572959899902,-1.6442582607269287,-0.14997267723083496,0.5203230381011963,0.11211705207824707,0.5153853297233582,-3.0839835915876734,0.06562981873660641,1.6305834328602855,162.01709401709402,66.58119658119658,128.0,128.0
178,8.9,-0.09401154518127441,-0.2635462284088135,2.006371259689331,-0.1251533031463623,-1.644341230392456,-0.15041804313659668,0.520533561706543,0.11199457943439484,0.5152408480644226,-3.083899103091252,0.06567980489153775,1.6308590243914163,161.97860199714694,66.6305278174037,128.0,128.0
179,8.950000000000001,-0.09418749809265137,-0.2631542682647705,2.0063397884368896,-0.1254730224609375,-1.6444227695465088,-0.1508653163909912,0.5207442045211792,0.11187317967414856,0.5150966644287109,-3.0838168299574367,0.06572769184806398,1.6311377047540208,161.93304843304844,66.66809116809117,128.0,128.0
180,9.0,-0.0943596363067627,-0.26276111602783203,2.0063068866729736,-0.12579703330993652,-1.6444995403289795,-0.15131664276123047,0.520955502986908,0.11175408959388733,0.5149527788162231,-3.083738475816528,0.06577160797091212,1.6314242738412816,161.87110481586402,66.81161473087819,128.0,128.0
181,9.05,-0.0945281982421875,-0.26238036155700684,2.0062758922576904,-0.12610530853271484,-1.6445772647857666,-0.1517500877380371,0.5211596488952637,0.11163732409477234,0.5148125886917114,-3.083656735006599,0.06581648112726286,1.6316958638316594,161.85734463276836,66.87570621468926,128.0,128.0
182,9.1,-0.09470129013061523,-0.26199817657470703,2.0062458515167236,-0.12641263008117676,-1.6446588039398193,-0.15218281745910645,0.5213643908500671,0.11151788383722305,0.5146710276603699,-3.0835716070475767,0.06586534097223899,1.63196362370041,161.8099290780142,66.99574468085106,128.0,128.0
183,9.15,-0.09487342834472656,-0.2616236209869385,2.0062172412872314,-0.1267094612121582,-1.6447417736053467,-0.1526036262512207,0.5215644836425781,0.11139913648366928,0.5145308375358582,-3.08348233909729,0.06591527632942609,1.6322204465412797,161.8127659574468,67.04539007092198,128.0,128.0
184,9.200000000000001,-0.09505295753479004,-0.2612450122833252,2.006190061569214,-0.12700867652893066,-1.6448314189910889,-0.15302681922912598,0.5217669606208801,0.11127573251724243,0.5143882036209106,-3.0833883677005582,0.06597089130829643,1.6324729341512945,161.76977401129943,67.11299435028249,128.0,128.0
185,9.25,-0.0952305793762207,-0.2608680725097656,2.006162405014038,-0.1273050308227539,-1.6449196338653564,-0.15344834327697754,0.521967887878418,0.1111535057425499,0.5142462849617004,-3.0832949021393734,0.06602518096565911,1.6327253458020201,161.71729957805908,67.13502109704642,128.0,128.0
186,9.3,-0.09540247917175293,-0.26048922538757324,2.0061333179473877,-0.1276087760925293,-1.6450011730194092,-0.15387630462646484,0.5221704840660095,0.11103455722332001,0.5141051411628723,-3.083207634975813,0.06607318405902635,1.6329893750233224,161.68785310734464,67.26977401129943,128.0,128.0
187,9.35,-0.09557771682739258,-0.260117769241333,2.0061066150665283,-0.1278996467590332,-1.6450884342193604,-0.15429019927978516,0.5223682522773743,0.11091380566358566,0.5139647126197815,-3.0831130964101816,0.06612700043391456,1.633236533082416,161.61354019746122,67.34273624823696,128.0,128.0
188,9.4,-0.09574484825134277,-0.259751558303833,2.0060789585113525,-0.1281883716583252,-1.6451690196990967,-0.15470075607299805,0.5225635170936584,0.11079832166433334,0.5138270854949951,-3.083023446291045,0.06617425562752945,1.6334883752370293,161.59322033898306,67.34745762711864,128.0,128.0
189,9.450000000000001,-0.09591245651245117,-0.25937891006469727,2.006049394607544,-0.12848520278930664,-1.6452476978302002,-0.1551210880279541,0.5227620601654053,0.11068207025527954,0.5136880278587341,-3.0829370633721673,0.06622011652474838,1.6337488629735046,161.54442877291962,67.37940761636108,128.0,128.0
190,9.5,-0.09607553482055664,-0.259005069732666,2.006019353866577,-0.1287860870361328,-1.6453211307525635,-0.1555461883544922,0.5229614973068237,0.11056853085756302,0.5135496854782104,-3.082855311137396,0.06626086958966378,1.6340178087544033,161.52247191011236,67.4311797752809,128.0,128.0
191,9.55,-0.09624075889587402,-0.25862956047058105,2.005988359451294,-0.1290874481201172,-1.6453964710235596,-0.15597224235534668,0.5231617093086243,0.11045367270708084,0.5134102702140808,-3.082772028627511,0.06630299773073946,1.6342866530048008,161.4943820224719,67.46207865168539,128.0,128.0
192,9.600000000000001,-0.0964055061340332,-0.2582509517669678,2.0059564113616943,-0.1293933391571045,-1.6454699039459229,-0.1564040184020996,0.5233638882637024,0.1103387400507927,0.5132706165313721,-3.082690975565439,0.06634388470448775,1.6345603665391277,161.47752808988764,67.5688202247191,128.0,128.0
193,9.65,-0.09657549858093262,-0.2578756809234619,2.005927324295044,-0.12969160079956055,-1.6455509662628174,-0.15682649612426758,0.5235636234283447,0.11022062599658966,0.5131300687789917,-3.0826029175043983,0.0663906562748364,1.634821199637453,161.40845070422534,67.59859154929578,128.0,128.0
194,9.700000000000001,-0.09673666954040527,-0.25750088691711426,2.0058958530426025,-0.12999415397644043,-1.6456215381622314,-0.15725374221801758,0.5237633585929871,0.11010818183422089,0.5129916071891785,-3.082522540547022,0.06642938268034138,1.6350942861906335,161.34739803094234,67.64275668073137,128.0,128.0
195,9.75,-0.09689116477966309,-0.2571272850036621,2.0058629512786865,-0.13029837608337402,-1.645686388015747,-0.1576831340789795,0.5239624381065369,0.10999959707260132,0.5128547549247742,-3.0824477301210433,0.06646139659370302,1.6353751904748302,161.33005617977528,67.65449438202248,128.0,128.0
196,9.8,-0.09704709053039551,-0.2567474842071533,2.005829095840454,-0.13061094284057617,-1.645749807357788,-0.15812158584594727,0.5241650342941284,0.10989011824131012,0.5127162337303162,-3.0823748047971966,0.06649291952554613,1.635664336070467,161.2965034965035,67.78741258741259,128.0,128.0
197,9.850000000000001,-0.09720563888549805,-0.2563755512237549,2.0057976245880127,-0.13091015815734863,-1.6458194255828857,-0.15854525566101074,0.5243628621101379,0.10977904498577118,0.5125787258148193,-3.0822948961371055,0.06652935898465406,1.6359365297008617,161.2594670406732,67.83450210378682,128.0,128.0
198,9.9,-0.09736275672912598,-0.25600290298461914,2.005765199661255,-0.1312110424041748,-1.6458871364593506,-0.15897107124328613,0.5245609879493713,0.10966886579990387,0.5124412775039673,-3.082216602546246,0.0665646298307927,1.6362118927713654,161.26293706293706,67.8993006993007,128.0,128.0
199,9.950000000000001,-0.09752750396728516,-0.2556276321411133,2.00573468208313,-0.13151216506958008,-1.6459619998931885,-0.15939617156982422,0.5247604846954346,0.10955365002155304,0.5123014450073242,-3.082132219211393,0.06660611824972112,1.6364797489220964,161.22829131652662,67.94117647058823,128.0,128.0
200,10.0,-0.09769105911254883,-0.2552509307861328,2.005704164505005,-0.13181638717651367,-1.6460354328155518,-0.15982437133789062,0.524960994720459,0.10943923145532608,0.5121614933013916,-3.082050051021291,0.0666459982009317,1.636751748324848,161.17737430167597,68.04888268156425,128.0,128.0
201,10.05,-0.09785270690917969,-0.2548809051513672,2.00567364692688,-0.1321113109588623,-1.646108865737915,-0.16024303436279297,0.5251570343971252,0.10932615399360657,0.5120230913162231,-3.0819659115839215,0.06668619162838066,1.6370159338631958,161.12587412587413,68.0979020979021,128.0,128.0
202,10.100000000000001,-0.09800982475280762,-0.25451183319091797,2.005643129348755,-0.13240766525268555,-1.6461775302886963,-0.16066265106201172,0.5253530740737915,0.10921575129032135,0.5118861198425293,-3.081885397029118,0.06672215384304231,1.6372853889669725,161.07983193277312,68.12885154061625,128.0,128.0
203,10.15,-0.09816312789916992,-0.25414133071899414,2.005610227584839,-0.1327073574066162,-1.6462419033050537,-0.1610870361328125,0.5255494713783264,0.10910777002573013,0.5117494463920593,-3.081808868183996,0.06675387804461805,1.6375630950939861,161.06030855539973,68.17812061711079,128.0,128.0
204,10.200000000000001,-0.09831857681274414,-0.2537689208984375,2.005577802658081,-0.13300824165344238,-1.646308183670044,-0.1615135669708252,0.5257473587989807,0.10899823158979416,0.511612057685852,-3.081730895150584,0.06678712116730437,1.6378404997820344,161.03641456582633,68.30252100840336,128.0,128.0
205,10.25,-0.09847831726074219,-0.2534022331237793,2.0055477619171143,-0.1332993507385254,-1.6463806629180908,-0.1619274616241455,0.5259412527084351,0.10888615995645523,0.5114746689796448,-3.081645548577089,0.06682608152952298,1.6381025916547574,160.98589562764457,68.3836389280677,128.0,128.0
206,10.3,-0.09863495826721191,-0.2530395984649658,2.0055181980133057,-0.13358640670776367,-1.6464512348175049,-0.162337064743042,0.5261332392692566,0.1087760478258133,0.5113386511802673,-3.0815611563682337,0.06686360565667049,1.638362652146588,160.98589562764457,68.3836389280677,128.0,128.0
207,10.350000000000001,-0.09879612922668457,-0.2526686191558838,2.0054876804351807,-0.13388276100158691,-1.6465237140655518,-0.16275739669799805,0.526329755783081,0.1086629331111908,0.5112002491950989,-3.081477298502901,0.066902435297255,1.6386296084637104,160.984441301273,68.44978783592644,128.0,128.0
208,10.4,-0.09896397590637207,-0.25229573249816895,2.0054590702056885,-0.13417840003967285,-1.6466028690338135,-0.1631772518157959,0.526526927947998,0.10854559391736984,0.5110592842102051,-3.0813881065312003,0.06694682038246275,1.6388891278426208,160.95332390381895,68.51909476661952,128.0,128.0
209,10.450000000000001,-0.09913229942321777,-0.2519237995147705,2.0054304599761963,-0.13447141647338867,-1.6466829776763916,-0.16359472274780273,0.5267236232757568,0.10842772573232651,0.5109182596206665,-3.08129699953136,0.06699225905982148,1.6391466020920802,160.95332390381895,68.51909476661952,128.0,128.0
210,10.5,-0.09930562973022461,-0.2515430450439453,2.005401372909546,-0.13477516174316406,-1.6467654705047607,-0.16402387619018555,0.5269252061843872,0.10830649733543396,0.5107743144035339,-3.0812064797836154,0.06703967254182545,1.6394108636774007,160.8835904628331,68.59747545582047,128.0,128.0
211,10.55,-0.0994713306427002,-0.25116825103759766,2.005371332168579,-0.13507437705993652,-1.6468417644500732,-0.16444778442382812,0.5271236300468445,0.10819010436534882,0.5106333494186401,-3.0811201250154934,0.06708140575574303,1.63967713914604,160.82147838214783,68.61366806136681,128.0,128.0
212,10.600000000000001,-0.09962892532348633,-0.2507917881011963,2.005338430404663,-0.13537931442260742,-1.6469085216522217,-0.16487860679626465,0.5273231267929077,0.10807870328426361,0.5104937553405762,-3.081041912084201,0.06711518562206535,1.639957079581107,160.74687065368568,68.72183588317107,128.0,128.0
213,10.65,-0.09977936744689941,-0.2504246234893799,2.0053060054779053,-0.13567590713500977,-1.6469709873199463,-0.1652987003326416,0.5275170207023621,0.10797196626663208,0.5103575587272644,-3.0809649709513214,0.06714442660566798,1.6402330099579152,160.75972222222222,68.80694444444444,128.0,128.0
214,10.700000000000001,-0.09994006156921387,-0.25005602836608887,2.0052759647369385,-0.13596844673156738,-1.6470434665679932,-0.16571474075317383,0.5277114510536194,0.10785894840955734,0.510219156742096,-3.0808791657728833,0.06718313836642634,1.6404962184370366,160.74238227146813,68.83102493074792,128.0,128.0
215,10.75,-0.10010242462158203,-0.24968314170837402,2.0052459239959717,-0.13626670837402344,-1.6471168994903564,-0.1661374568939209,0.5279085636138916,0.10774452984333038,0.5100788474082947,-3.080794186510728,0.06722176713102888,1.6407637823604715,160.7125,68.9,128.0,128.0
216,10.8,-0.1002655029296875,-0.24931097030639648,2.005216360092163,-0.13656258583068848,-1.6471912860870361,-0.16655778884887695,0.5281049609184265,0.10762950778007507,0.509938657283783,-3.0807077430440257,0.0672617118783624,1.6410289400136653,160.70441988950276,69.0013812154696,128.0,128.0
217,10.850000000000001,-0.10043501853942871,-0.24894118309020996,2.005188226699829,-0.13685131072998047,-1.647273302078247,-0.16697072982788086,0.5282995700836182,0.10751055181026459,0.5097970366477966,-3.0806131717924625,0.06730838828347634,1.6412806391485149,160.62413314840498,69.04576976421636,128.0,128.0
218,10.9,-0.10059404373168945,-0.24857449531555176,2.0051586627960205,-0.13714265823364258,-1.6473453044891357,-0.16738462448120117,0.52849280834198,0.10739830136299133,0.5096588134765625,-3.080527533660618,0.06734587669073737,1.6415432301851616,160.56846473029046,69.07192254495159,128.0,128.0
219,10.950000000000001,-0.10074710845947266,-0.24820709228515625,2.005126714706421,-0.137437105178833,-1.6474106311798096,-0.16780328750610352,0.5286864042282104,0.10728964954614639,0.509521484375,-3.080447802129377,0.06737750075436896,1.6418159300151025,160.56906077348066,69.13259668508287,128.0,128.0
220,11.0,-0.1009068489074707,-0.24783706665039062,2.005096197128296,-0.13773202896118164,-1.64748215675354,-0.16822218894958496,0.5288815498352051,0.10717678815126419,0.5093826651573181,-3.0803630444164716,0.06741467865789515,1.6420825659445888,160.54896551724138,69.18758620689655,128.0,128.0
221,11.05,-0.10106873512268066,-0.2474658489227295,2.005065679550171,-0.13802647590637207,-1.6475555896759033,-0.1686418056488037,0.5290769338607788,0.10706223547458649,0.5092424154281616,-3.080276748015194,0.06745356553598085,1.6423475342161091,160.51239669421489,69.23691460055096,128.0,128.0
222,11.100000000000001,-0.10122942924499512,-0.24709415435791016,2.005035638809204,-0.13832378387451172,-1.6476280689239502,-0.16906213760375977,0.5292727947235107,0.10694857686758041,0.509102463722229,-3.080191458343672,0.06749098345748918,1.642615352979301,160.45103448275862,69.28689655172414,128.0,128.0
223,11.15,-0.10138368606567383,-0.24672460556030273,2.0050032138824463,-0.13861989974975586,-1.6476938724517822,-0.16948318481445312,0.5294674038887024,0.10683886706829071,0.5089640021324158,-3.0801112520715312,0.06752298747261457,1.6428888221355404,160.3836565096953,69.43074792243767,128.0,128.0
224,11.200000000000001,-0.10153388977050781,-0.2463665008544922,2.0049726963043213,-0.1389024257659912,-1.6477587223052979,-0.16988778114318848,0.5296550989151001,0.10673205554485321,0.5088294744491577,-3.080027960781106,0.06755458298461854,1.6431500942705466,160.39473684210526,69.46952908587258,128.0,128.0
225,11.25,-0.10169148445129395,-0.2460033893585205,2.0049431324005127,-0.13918805122375488,-1.6478307247161865,-0.17029643058776855,0.5298458933830261,0.10662034898996353,0.5086919069290161,-3.079940575991657,0.067591455194969,1.6434087011139968,160.38781163434902,69.5,128.0,128.0
226,11.3,-0.1018531322479248,-0.2456357479095459,2.004913568496704,-0.13947844505310059,-1.6479051113128662,-0.17071032524108887,0.5300390124320984,0.10650590807199478,0.5085523128509521,-3.079852015599829,0.06763075529085978,1.6436688286000987,160.35595567867037,69.51108033240997,128.0,128.0
227,11.350000000000001,-0.10201311111450195,-0.24526333808898926,2.004882574081421,-0.13977503776550293,-1.6479761600494385,-0.17113256454467773,0.5302347540855408,0.10639242827892303,0.5084119439125061,-3.0797675521694585,0.06766689663375791,1.643938657802226,160.30982019363762,69.5491009681881,128.0,128.0
228,11.4,-0.10216927528381348,-0.24489045143127441,2.0048506259918213,-0.1400749683380127,-1.648042917251587,-0.17155790328979492,0.5304310321807861,0.10628117620944977,0.5082721710205078,-3.079686201039586,0.06769905026650352,1.6442147200559603,160.27685950413223,69.67768595041322,128.0,128.0
229,11.450000000000001,-0.10232758522033691,-0.24452519416809082,2.0048210620880127,-0.14036321640014648,-1.6481144428253174,-0.17196965217590332,0.5306225419044495,0.10616877675056458,0.5081334114074707,-3.0795990111997376,0.06773575862527033,1.6444759350465745,160.24861878453038,69.70856353591161,128.0,128.0
230,11.5,-0.10248565673828125,-0.244157075881958,2.0047905445098877,-0.1406552791595459,-1.6481850147247314,-0.17238616943359375,0.5308157205581665,0.10605636239051819,0.5079939365386963,-3.079513117424728,0.0677710347621135,1.6447417502071622,160.22099447513813,69.73756906077348,128.0,128.0
231,11.55,-0.10264348983764648,-0.24378585815429688,2.0047590732574463,-0.14095139503479004,-1.648254632949829,-0.1728076934814453,0.531010627746582,0.10594397783279419,0.5078542232513428,-3.0794291562041605,0.06780538893675661,1.645012833125057,160.1755829903978,69.85048010973937,128.0,128.0
232,11.600000000000001,-0.10280060768127441,-0.2434215545654297,2.0047295093536377,-0.14123916625976562,-1.6483252048492432,-0.1732184886932373,0.5312010049819946,0.10583232343196869,0.5077157020568848,-3.0793418804454613,0.06784087355555951,1.6452741128877346,160.14718019257222,69.89958734525447,128.0,128.0
233,11.65,-0.10295772552490234,-0.2430562973022461,2.004699945449829,-0.14152741432189941,-1.648395299911499,-0.1736302375793457,0.5313923954963684,0.10572031885385513,0.5075768828392029,-3.0792550986275993,0.06787633908332777,1.6455364557186543,160.09766162310868,69.95048143053646,128.0,128.0
234,11.700000000000001,-0.10311102867126465,-0.242692232131958,2.004669427871704,-0.1418163776397705,-1.6484620571136475,-0.1740422248840332,0.5315830111503601,0.1056109368801117,0.5074390172958374,-3.0791711325907074,0.06790784794599403,1.6458025818017294,160.07270233196158,69.98216735253773,128.0,128.0
235,11.75,-0.10326480865478516,-0.2423253059387207,2.0046379566192627,-0.14210891723632812,-1.6485278606414795,-0.17445898056030273,0.5317750573158264,0.10550107061862946,0.5073004961013794,-3.0790884593819845,0.067939325211908,1.6460726968197739,160.05075445816186,70.01783264746227,128.0,128.0
236,11.8,-0.10341954231262207,-0.24195551872253418,2.0046064853668213,-0.14240527153015137,-1.6485941410064697,-0.1748800277709961,0.5319691300392151,0.10539036989212036,0.5071611404418945,-3.0790063212577103,0.06797065839364715,1.6463458015153352,159.99586776859505,70.09779614325069,128.0,128.0
237,11.850000000000001,-0.10357022285461426,-0.24159026145935059,2.00457501411438,-0.14269709587097168,-1.6486575603485107,-0.17529559135437012,0.5321601033210754,0.10528232902288437,0.5070233345031738,-3.078925313204949,0.06799936247124429,1.6466176362661178,159.9504132231405,70.13636363636364,128.0,128.0
238,11.9,-0.10371756553649902,-0.2412245273590088,2.0045416355133057,-0.1429901123046875,-1.6487171649932861,-0.17571353912353516,0.532351553440094,0.10517638921737671,0.5068862438201904,-3.0788478179290966,0.06802483299954139,1.6468951938275045,159.90358126721762,70.18044077134986,128.0,128.0
239,11.950000000000001,-0.10386109352111816,-0.2408592700958252,2.0045077800750732,-0.14328503608703613,-1.648773431777954,-0.1761336326599121,0.5325430631637573,0.10507272183895111,0.5067505240440369,-3.078773154274563,0.06804665497395802,1.647177274894887,159.86107290233838,70.21870701513068,128.0,128.0
240,12.0,-0.10400152206420898,-0.2404932975769043,2.0044729709625244,-0.14358305931091309,-1.6488254070281982,-0.17655587196350098,0.532734751701355,0.1049710214138031,0.5066150426864624,-3.078701782436094,0.06806592029184513,1.647465321337446,159.82943603851444,70.27372764786796,128.0,128.0
241,12.05,-0.1041417121887207,-0.2401270866394043,2.0044376850128174,-0.14388084411621094,-1.6488773822784424,-0.17697858810424805,0.5329263806343079,0.10486921668052673,0.5064793229103088,-3.0786307371025927,0.0680843114357386,1.6477529911027287,159.78571428571428,70.38598901098901,128.0,128.0
242,12.100000000000001,-0.10428166389465332,-0.23976778984069824,2.004404306411743,-0.14416980743408203,-1.6489317417144775,-0.17739033699035645,0.5331142544746399,0.10476792603731155,0.5063453912734985,-3.0785561925783234,0.06810455078177136,1.6480308823564394,159.79201101928373,70.46969696969697,128.0,128.0
243,12.15,-0.10442972183227539,-0.23940777778625488,2.0043728351593018,-0.1444542407989502,-1.6489942073822021,-0.17779850959777832,0.5333018898963928,0.10466133058071136,0.5062088370323181,-3.078474010887656,0.06813256630533253,1.6482979407436775,159.6978021978022,70.53021978021978,128.0,128.0
244,12.200000000000001,-0.10456585884094238,-0.23905372619628906,2.004340410232544,-0.14473819732666016,-1.6490461826324463,-0.17820405960083008,0.5334866642951965,0.10456249117851257,0.5060767531394958,-3.0783995027803055,0.06815096139871647,1.648573174814171,159.69904240766073,70.59370725034199,128.0,128.0
245,12.25,-0.10470843315124512,-0.23869776725769043,2.004307985305786,-0.1450202465057373,-1.6491038799285889,-0.17860913276672363,0.5336720943450928,0.10445954650640488,0.5059423446655273,-3.0783204030168148,0.06817478576141546,1.6488422827994345,159.71272229822162,70.66621067031464,128.0,128.0
246,12.3,-0.10485982894897461,-0.23833942413330078,2.0042784214019775,-0.14530110359191895,-1.649170160293579,-0.17901206016540527,0.5338587760925293,0.10435094684362411,0.5058057904243469,-3.078233755179434,0.06820582234178506,1.6491015554060873,159.71584699453553,70.68715846994536,128.0,128.0
247,12.350000000000001,-0.10501646995544434,-0.2379748821258545,2.0042483806610107,-0.14558744430541992,-1.6492407321929932,-0.17942214012145996,0.5340484976768494,0.1042385995388031,0.5056660771369934,-3.078145242504871,0.06823996020846342,1.6493626221617217,159.69429347826087,70.74728260869566,128.0,128.0
248,12.4,-0.10517525672912598,-0.2376101016998291,2.0042192935943604,-0.1458737850189209,-1.64931321144104,-0.17983174324035645,0.5342386364936829,0.10412490367889404,0.505526065826416,-3.0780548014216187,0.06827594505482446,1.649621190603466,159.63636363636363,70.83853459972863,128.0,128.0
249,12.450000000000001,-0.10532975196838379,-0.23725104331970215,2.004190683364868,-0.14615440368652344,-1.6493828296661377,-0.18023419380187988,0.5344248414039612,0.10401424020528793,0.5053880214691162,-3.0779655141242723,0.06830983043028953,1.6498771077597618,159.625,70.85597826086956,128.0,128.0
250,12.5,-0.10548686981201172,-0.23688673973083496,2.0041611194610596,-0.1464405059814453,-1.64945387840271,-0.18064355850219727,0.5346142649650574,0.10390177369117737,0.505247950553894,-3.077876441086729,0.0683442058540095,1.6501374950394927,159.60379918588873,70.89145183175035,128.0,128.0
251,12.55,-0.10564494132995605,-0.23651957511901855,2.0041306018829346,-0.1467292308807373,-1.6495249271392822,-0.18105721473693848,0.534805178642273,0.10378806293010712,0.5051069259643555,-3.077787770821801,0.06837886558019379,1.6504001799504904,159.59891598915988,70.91192411924119,128.0,128.0
252,12.600000000000001,-0.10580730438232422,-0.2361464500427246,2.0041005611419678,-0.14702486991882324,-1.6495983600616455,-0.18147826194763184,0.5349998474121094,0.10367164015769958,0.5049640536308289,-3.077698517174951,0.06841575443295222,1.6506668183535536,159.52702702702703,71.02837837837838,128.0,128.0
253,12.65,-0.10596323013305664,-0.23578357696533203,2.004070997238159,-0.1473093032836914,-1.6496684551239014,-0.1818859577178955,0.5351881384849548,0.10355981439352036,0.504824697971344,-3.077609506802936,0.06844907964932304,1.650926893888867,159.4708276797829,71.11261872455903,128.0,128.0
254,12.700000000000001,-0.10611486434936523,-0.2354259490966797,2.004041910171509,-0.14758849143981934,-1.649735689163208,-0.18228793144226074,0.5353736877441406,0.10345062613487244,0.5046872496604919,-3.0775213030975817,0.06848047556919562,1.6511845579620248,159.42547425474254,71.15853658536585,128.0,128.0
255,12.75,-0.10626339912414551,-0.23506879806518555,2.004011869430542,-0.14786958694458008,-1.6497995853424072,-0.18269038200378418,0.5355587601661682,0.10334339737892151,0.5045500993728638,-3.0774355496750476,0.06850878580929284,1.6514462631345321,159.4081081081081,71.19594594594595,128.0,128.0
256,12.8,-0.1064138412475586,-0.2347087860107422,2.003981828689575,-0.14815354347229004,-1.649864912033081,-0.18309688568115234,0.5357456207275391,0.10323482006788254,0.5044121742248535,-3.0773500222185888,0.06853785258947138,1.651709453094976,159.41565452091768,71.24156545209176,128.0,128.0
257,12.850000000000001,-0.10657119750976562,-0.234344482421875,2.0039522647857666,-0.1484386920928955,-1.6499364376068115,-0.18350601196289062,0.5359346270561218,0.10312150418758392,0.5042718648910522,-3.07726000645744,0.06857244548490497,1.6519689873017342,159.37432432432433,71.25945945945946,128.0,128.0
258,12.9,-0.10672521591186523,-0.2339773178100586,2.0039217472076416,-0.14872980117797852,-1.65000319480896,-0.18392133712768555,0.5361251831054688,0.10301028937101364,0.5041314363479614,-3.0771745074570003,0.06860283912546858,1.6522378213760172,159.3897158322057,71.27334235453316,128.0,128.0
259,12.950000000000001,-0.1068875789642334,-0.23360157012939453,2.0038902759552,-0.14902853965759277,-1.6500756740570068,-0.18434643745422363,0.5363204479217529,0.10289344936609268,0.5039868950843811,-3.077085965695248,0.06863828346560853,1.652508309362558,159.30790190735695,71.36103542234332,128.0,128.0
260,13.0,-0.1070399284362793,-0.23323440551757812,2.003858804702759,-0.1493206024169922,-1.6501410007476807,-0.18476319313049316,0.5365110039710999,0.10278311371803284,0.5038468241691589,-3.0770022342428267,0.06866677468833889,1.6527796224844828,159.29604365620736,71.40518417462484,128.0,128.0
261,13.05,-0.10719561576843262,-0.2328643798828125,2.003826856613159,-0.1496140956878662,-1.6502082347869873,-0.1851823329925537,0.5367032289505005,0.10267053544521332,0.5037053823471069,-3.076916855894979,0.0686977192089927,1.6530507258739695,159.27679782903664,71.52103120759837,128.0,128.0
262,13.100000000000001,-0.10735559463500977,-0.2324995994567871,2.003798246383667,-0.14989781379699707,-1.6502821445465088,-0.18559002876281738,0.5368923544883728,0.10255546867847443,0.5035641193389893,-3.0768236313615875,0.06873384677327718,1.653307117344925,159.2639455782313,71.6,128.0,128.0
263,13.15,-0.10751986503601074,-0.23213553428649902,2.003770589828491,-0.1501784324645996,-1.6503612995147705,-0.18599390983581543,0.5370801687240601,0.1024375706911087,0.5034216642379761,-3.0767254502936785,0.06877440769354307,1.6535555951776446,159.21438263229308,71.65943012211669,128.0,128.0
264,13.200000000000001,-0.1076805591583252,-0.23177385330200195,2.0037424564361572,-0.15045762062072754,-1.6504366397857666,-0.18639659881591797,0.5372670292854309,0.10232222825288773,0.5032805800437927,-3.076630117476558,0.06881208467518427,1.6538060039872335,159.15311653116532,71.71138211382114,128.0,128.0
265,13.25,-0.1078348159790039,-0.231414794921875,2.0037128925323486,-0.15073609352111816,-1.6505062580108643,-0.1867985725402832,0.5374522805213928,0.10221074521541595,0.5031417012214661,-3.076538908679994,0.06884452935961984,1.6540617855367272,159.0920162381597,71.79837618403248,128.0,128.0
266,13.3,-0.10798430442810059,-0.23106122016906738,2.0036842823028564,-0.15101051330566406,-1.6505725383758545,-0.1871943473815918,0.5376346111297607,0.10210274159908295,0.5030050277709961,-3.07644879385908,0.0688740163527877,1.6543159041905975,159.03095558546434,71.86406460296097,128.0,128.0
267,13.350000000000001,-0.10812830924987793,-0.2307114601135254,2.003654718399048,-0.15128183364868164,-1.6506340503692627,-0.18758702278137207,0.537814736366272,0.10199791938066483,0.5028696060180664,-3.076362103098264,0.06889988503130774,1.6545718715200335,159.03095558546434,71.86406460296097,128.0,128.0
268,13.4,-0.1082761287689209,-0.23035430908203125,2.003624677658081,-0.15156221389770508,-1.6506974697113037,-0.1879894733428955,0.5379992127418518,0.10189062356948853,0.5027321577072144,-3.076275807530198,0.06892649252165006,1.654834086382592,158.95148247978437,71.90835579514825,128.0,128.0
269,13.450000000000001,-0.1084141731262207,-0.23000049591064453,2.0035927295684814,-0.1518421173095703,-1.6507513523101807,-0.18839216232299805,0.5381819009780884,0.10178959369659424,0.5025975108146667,-3.0761968151956065,0.06894501931391488,1.655104942952194,158.91756756756757,71.96081081081081,128.0,128.0
270,13.5,-0.1085515022277832,-0.22964692115783691,2.003560781478882,-0.15212273597717285,-1.6508047580718994,-0.18879485130310059,0.5383644700050354,0.10168861597776413,0.5024628043174744,-3.076118078938705,0.0689630238315396,1.6553766734764768,158.88694481830416,72.0,128.0,128.0
271,13.55,-0.1086881160736084,-0.2292919158935547,2.0035269260406494,-0.1524043083190918,-1.6508567333221436,-0.18920016288757324,0.5385475754737854,0.10158832371234894,0.5023279190063477,-3.0760408008569593,0.06897996670379714,1.6556516052498966,158.88140161725067,72.02021563342318,128.0,128.0
272,13.600000000000001,-0.10882806777954102,-0.22893142700195312,2.003493547439575,-0.15269255638122559,-1.6509110927581787,-0.18961262702941895,0.538733959197998,0.10148537904024124,0.5021912455558777,-3.075963459142985,0.06899827716039303,1.6559298791096158,158.8721399730821,72.03903095558546,128.0,128.0
273,13.65,-0.10897088050842285,-0.22856545448303223,2.0034596920013428,-0.1529865264892578,-1.6509664058685303,-0.1900315284729004,0.5389228463172913,0.10138046741485596,0.5020526647567749,-3.0758866840015275,0.06901764199921744,1.6562129641607006,158.78465679676987,72.14131897711978,128.0,128.0
274,13.700000000000001,-0.10910415649414062,-0.2282097339630127,2.0034258365631104,-0.15327167510986328,-1.6510145664215088,-0.19043993949890137,0.5391069054603577,0.10128205269575119,0.5019186735153198,-3.075813001261478,0.06903124909376256,1.6564935579260205,158.73422818791946,72.18926174496644,128.0,128.0
275,13.75,-0.10923314094543457,-0.22785520553588867,2.0033905506134033,-0.15355682373046875,-1.6510589122772217,-0.19084858894348145,0.5392899513244629,0.10118627548217773,0.5017852783203125,-3.075742369512586,0.06904098001459413,1.6567782883262026,158.71332436069986,72.22207267833109,128.0,128.0
276,13.8,-0.10936307907104492,-0.22749781608581543,2.0033552646636963,-0.15384602546691895,-1.6511032581329346,-0.19126129150390625,0.539474606513977,0.10108983516693115,0.5016511678695679,-3.075672479151408,0.06905059418401761,1.6570665330314427,158.68951612903226,72.26612903225806,128.0,128.0
277,13.850000000000001,-0.10949373245239258,-0.22713899612426758,2.003319501876831,-0.15413665771484375,-1.6511480808258057,-0.19167637825012207,0.5396599769592285,0.10099269449710846,0.5015165209770203,-3.075603115749291,0.06906052017580606,1.6573558694264099,158.6621983914209,72.37131367292226,128.0,128.0
278,13.9,-0.10962677001953125,-0.22678494453430176,2.003286123275757,-0.1544191837310791,-1.6511967182159424,-0.19208168983459473,0.5398424863815308,0.1008942723274231,0.5013824701309204,-3.07552845691844,0.06907429292021569,1.6576340782885621,158.60939597315436,72.45100671140939,128.0,128.0
279,13.950000000000001,-0.1097564697265625,-0.22643542289733887,2.003253221511841,-0.15469765663146973,-1.651242971420288,-0.19248199462890625,0.5400220155715942,0.10079804062843323,0.5012497305870056,-3.075454035971204,0.06908626410603841,1.6579102437271853,158.63941018766755,72.52949061662198,128.0,128.0
280,14.0,-0.10989785194396973,-0.22608304023742676,2.0032222270965576,-0.15497279167175293,-1.6513011455535889,-0.19287943840026855,0.5402030348777771,0.10069439560174942,0.5011135339736938,-3.0753697779432057,0.06910743975753973,1.6581735285354513,158.60695187165774,72.5975935828877,128.0,128.0
281,14.05,-0.11003899574279785,-0.22573232650756836,2.003192186355591,-0.15524601936340332,-1.6513597965240479,-0.19327449798583984,0.5403830409049988,0.10059088468551636,0.5009779334068298,-3.0752843520213293,0.06912933142949697,1.658434321829889,158.60857908847186,72.7171581769437,128.0,128.0
282,14.100000000000001,-0.11018800735473633,-0.22538495063781738,2.003164529800415,-0.15551042556762695,-1.6514275074005127,-0.19365954399108887,0.5405606031417847,0.10048249363899231,0.5008412003517151,-3.075189503466765,0.06915963373823135,1.658678610844586,158.5898123324397,72.74396782841823,128.0,128.0
283,14.15,-0.11033797264099121,-0.22503447532653809,2.003135919570923,-0.1557776927947998,-1.651496171951294,-0.19404959678649902,0.5407400131225586,0.10037318617105484,0.5007035732269287,-3.0750955328467167,0.06918946121960491,1.6589263628344206,158.57986577181208,72.76241610738255,128.0,128.0
284,14.200000000000001,-0.11049079895019531,-0.22467899322509766,2.0031068325042725,-0.1560511589050293,-1.6515653133392334,-0.19444584846496582,0.5409221649169922,0.10026202350854874,0.5005643963813782,-3.0750016090475296,0.06922086746765635,1.6591785076224528,158.55080213903744,72.79144385026738,128.0,128.0
285,14.25,-0.11064291000366211,-0.2243211269378662,2.003077745437622,-0.15632891654968262,-1.6516330242156982,-0.19484615325927734,0.5411055088043213,0.10015103965997696,0.5004249811172485,-3.074910253219846,0.06925047452243457,1.6594348000777912,158.48936170212767,72.87632978723404,128.0,128.0
286,14.3,-0.11078977584838867,-0.2239689826965332,2.0030481815338135,-0.1566004753112793,-1.6516973972320557,-0.19523978233337402,0.5412857532501221,0.10004360973834991,0.5002875924110413,-3.074820354824354,0.06927682772012621,1.6596892215776318,158.46409574468086,72.90691489361703,128.0,128.0
287,14.350000000000001,-0.11093688011169434,-0.22361445426940918,2.003018617630005,-0.1568756103515625,-1.6517608165740967,-0.19563746452331543,0.5414673686027527,0.09993600845336914,0.5001492500305176,-3.074731372484934,0.06930259743327367,1.6599474432648624,158.45272969374167,72.92410119840213,128.0,128.0
288,14.4,-0.11108613014221191,-0.22325491905212402,2.00298810005188,-0.15715646743774414,-1.651825189590454,-0.19604229927062988,0.5416514873504639,0.09982660412788391,0.5000092387199402,-3.074642635228037,0.0693288935060062,1.6602105046875173,158.39389920424404,73.0,128.0,128.0
289,14.450000000000001,-0.11123037338256836,-0.2229001522064209,2.0029571056365967,-0.15743279457092285,-1.651885747909546,-0.1964418888092041,0.541833221912384,0.09972061216831207,0.49987173080444336,-3.0745560274180854,0.0693520038529351,1.6604730689433584,158.3819628647215,73.0291777188329,128.0,128.0
290,14.5,-0.11137723922729492,-0.22254157066345215,2.0029261112213135,-0.1577134132385254,-1.6519477367401123,-0.19684648513793945,0.542016863822937,0.09961281716823578,0.4997325837612152,-3.0744695487800886,0.06937607936554899,1.660738003611986,158.35771276595744,73.06117021276596,128.0,128.0
291,14.55,-0.11152434349060059,-0.22218036651611328,2.002894639968872,-0.15799784660339355,-1.6520097255706787,-0.19725465774536133,0.5422022342681885,0.0995044857263565,0.49959269165992737,-3.0743837790375776,0.06939969171783077,1.66100663350465,158.348,73.12933333333334,128.0,128.0
292,14.600000000000001,-0.11167573928833008,-0.2218189239501953,2.0028645992279053,-0.1582801342010498,-1.6520755290985107,-0.1976609230041504,0.5423871874809265,0.09939341247081757,0.4994516372680664,-3.0742939690960354,0.06942737126242254,1.661269001242583,158.32486631016042,73.19117647058823,128.0,128.0
293,14.65,-0.11182880401611328,-0.22145771980285645,2.0028345584869385,-0.15856122970581055,-1.6521432399749756,-0.19806551933288574,0.5425718426704407,0.099281445145607,0.49931031465530396,-3.074202751132765,0.06945605239066595,1.6615289188781799,158.30707610146862,73.20160213618158,128.0,128.0
294,14.700000000000001,-0.11198282241821289,-0.22109103202819824,2.0028040409088135,-0.15884923934936523,-1.6522104740142822,-0.19847822189331055,0.542759895324707,0.0991685688495636,0.4991672933101654,-3.0741138002619897,0.06948426093271973,1.6617955876320538,158.21883289124668,73.22281167108753,128.0,128.0
295,14.75,-0.11212396621704102,-0.22072672843933105,2.002770185470581,-0.15914034843444824,-1.6522648334503174,-0.19889497756958008,0.5429466366767883,0.09906390309333801,0.4990277886390686,-3.0740352503767445,0.06950111888091128,1.6620771867018087,158.1752305665349,73.3425559947299,128.0,128.0
296,14.8,-0.11226439476013184,-0.22037053108215332,2.0027382373809814,-0.15942049026489258,-1.6523206233978271,-0.19929862022399902,0.5431288480758667,0.09895988553762436,0.4988899528980255,-3.073952524052283,0.06952014471849947,1.6623472572239053,158.14550264550263,73.40873015873017,128.0,128.0
297,14.850000000000001,-0.11240506172180176,-0.2200157642364502,2.00270676612854,-0.159698486328125,-1.6523778438568115,-0.19970011711120605,0.5433098673820496,0.09885578602552414,0.4987524449825287,-3.0738683956934554,0.06953920848803317,1.6626144888893868,158.0397877984085,73.5,128.0,128.0
298,14.9,-0.1125333309173584,-0.21967124938964844,2.0026743412017822,-0.15996885299682617,-1.6524245738983154,-0.20009183883666992,0.5434857606887817,0.09876003861427307,0.4986199140548706,-3.0737907956812283,0.06955014125318991,1.6628845847745293,158.06613756613757,73.52777777777777,128.0,128.0
299,14.950000000000001,-0.1126704216003418,-0.21932005882263184,2.0026419162750244,-0.16024351119995117,-1.6524784564971924,-0.20048999786376953,0.5436649918556213,0.09865833073854446,0.49848389625549316,-3.0737079922870234,0.06956681625530702,1.6631521405461827,158.0368906455863,73.54545454545455,128.0,128.0
300,15.0,-0.11280632019042969,-0.2189652919769287,2.00260853767395,-0.1605234146118164,-1.6525299549102783,-0.20089387893676758,0.5438461899757385,0.0985570028424263,0.4983474612236023,-3.073628741856485,0.06958176255949017,1.6634266297546885,158.02894736842106,73.64605263157895,128.0,128.0
301,15.05,-0.11294746398925781,-0.2186133861541748,2.002578020095825,-0.160797119140625,-1.652588129043579,-0.20129013061523438,0.5440258979797363,0.09845252335071564,0.4982105493545532,-3.073542506797476,0.06960162601672044,1.663688570039097,157.98814229249012,73.67193675889328,128.0,128.0
302,15.100000000000001,-0.11308574676513672,-0.2182600498199463,2.002546548843384,-0.16107511520385742,-1.6526429653167725,-0.201690673828125,0.5442056655883789,0.09834978729486465,0.4980733096599579,-3.0734599250394146,0.06961872549460088,1.663957710937608,157.94986807387863,73.76781002638522,128.0,128.0
303,15.15,-0.11322355270385742,-0.2179114818572998,2.0025155544281006,-0.1613454818725586,-1.6526987552642822,-0.20208334922790527,0.5443830490112305,0.09824742376804352,0.49793729186058044,-3.07337497568159,0.06963696596418698,1.6642193391703575,157.91447368421052,73.825,128.0,128.0
304,15.200000000000001,-0.11336064338684082,-0.21756386756896973,2.0024845600128174,-0.16161465644836426,-1.652754545211792,-0.20247483253479004,0.5445598363876343,0.09814585745334625,0.4978020191192627,-3.073290038245483,0.06965448739224069,1.6644808115622498,157.8982826948481,73.87186261558784,128.0,128.0
305,15.25,-0.11349964141845703,-0.21721482276916504,2.0024540424346924,-0.16188502311706543,-1.6528112888336182,-0.20286774635314941,0.5447372198104858,0.09804259240627289,0.4976658225059509,-3.0732035590237925,0.06967378835472396,1.6647418393416513,157.89153439153438,73.89153439153439,128.0,128.0
306,15.3,-0.11364150047302246,-0.21686077117919922,2.0024235248565674,-0.16216111183166504,-1.6528699398040771,-0.20326662063598633,0.5449174642562866,0.09793731570243835,0.49752718210220337,-3.0731169561852303,0.06969364193588203,1.6650063117510954,157.82694848084543,73.9669749009247,128.0,128.0
307,15.350000000000001,-0.11377763748168945,-0.21651196479797363,2.002392053604126,-0.16243195533752441,-1.652923822402954,-0.2036607265472412,0.5450946092605591,0.09783594310283661,0.49739131331443787,-3.073032849052255,0.06971005507224508,1.6652705908435486,157.77014531043594,74.02642007926023,128.0,128.0
308,15.4,-0.11390900611877441,-0.21616649627685547,2.0023605823516846,-0.16270184516906738,-1.6529738903045654,-0.20405197143554688,0.5452701449394226,0.09773775935173035,0.49725714325904846,-3.0729515277567154,0.06972259433442585,1.6655372715134678,157.74440052700922,74.05138339920948,128.0,128.0
309,15.450000000000001,-0.11404013633728027,-0.21581816673278809,2.0023272037506104,-0.16297483444213867,-1.6530225276947021,-0.20444798469543457,0.5454472899436951,0.09763950109481812,0.49712249636650085,-3.0728720746852685,0.06973441425650688,1.6658085760106192,157.71484888304863,74.07752956636006,128.0,128.0
310,15.5,-0.11417007446289062,-0.2154674530029297,2.002293825149536,-0.16325163841247559,-1.6530687808990479,-0.204848051071167,0.5456256866455078,0.09754166752099991,0.4969874620437622,-3.0727952676328916,0.0697441021449064,1.666084546541029,157.7092105263158,74.09736842105264,128.0,128.0
311,15.55,-0.1143031120300293,-0.21511149406433105,2.002260446548462,-0.16353464126586914,-1.6531174182891846,-0.20525527000427246,0.5458071827888489,0.09744194149971008,0.4968501031398773,-3.0727179029957874,0.06975496473984928,1.6663640714810164,157.7161629434954,74.11695137976346,128.0,128.0
312,15.600000000000001,-0.1144418716430664,-0.21474909782409668,2.0022261142730713,-0.16382384300231934,-1.6531693935394287,-0.20566964149475098,0.5459915995597839,0.09733802080154419,0.49671006202697754,-3.0726386913159502,0.0697690568416594,1.6666464698794092,157.65616797900262,74.24409448818898,128.0,128.0
313,15.65,-0.11457705497741699,-0.21439719200134277,2.0021941661834717,-0.16409993171691895,-1.6532213687896729,-0.2060685157775879,0.5461705923080444,0.09723678976297379,0.4965733289718628,-3.0725575377229655,0.0697830979330639,1.6669166646568236,157.59186351706037,74.30446194225722,128.0,128.0
314,15.700000000000001,-0.11470627784729004,-0.2140491008758545,2.0021607875823975,-0.16437363624572754,-1.6532680988311768,-0.2064647674560547,0.5463472008705139,0.09713972359895706,0.49643900990486145,-3.072479739096906,0.06979278379155086,1.6671896947520481,157.59868421052633,74.40394736842106,128.0,128.0
315,15.75,-0.11484313011169434,-0.21370244026184082,2.0021302700042725,-0.1646409034729004,-1.6533234119415283,-0.20685434341430664,0.5465227961540222,0.0970376580953598,0.49630287289619446,-3.072393335473954,0.06980972508091476,1.6674493994612412,157.5915678524374,74.4532279314888,128.0,128.0
316,15.8,-0.11498355865478516,-0.21335387229919434,2.002100706100464,-0.16490983963012695,-1.6533820629119873,-0.2072446346282959,0.546699047088623,0.09693299978971481,0.49616533517837524,-3.0723042332094685,0.06982947943357913,1.6677067095254765,157.58815789473684,74.50657894736842,128.0,128.0
317,15.850000000000001,-0.11512875556945801,-0.21300315856933594,2.0020716190338135,-0.16517853736877441,-1.6534454822540283,-0.20763564109802246,0.5468766093254089,0.09682544320821762,0.4960261881351471,-3.0722120418345638,0.0698527719187818,1.6679606185147509,157.5415019762846,74.54545454545455,128.0,128.0
318,15.9,-0.11527013778686523,-0.21265292167663574,2.002042055130005,-0.16544890403747559,-1.6535046100616455,-0.20802807807922363,0.5470535159111023,0.09672016650438309,0.4958878457546234,-3.072122427841488,0.0698729168870715,1.668219145152744,157.4822134387352,74.64163372859025,128.0,128.0
319,15.950000000000001,-0.11540746688842773,-0.2123093605041504,2.0020124912261963,-0.1657116413116455,-1.6535608768463135,-0.20841169357299805,0.5472269058227539,0.09661789238452911,0.49575188755989075,-3.0720332848531067,0.0698907244387927,1.6684732355585883,157.48226018396846,74.6819973718791,128.0,128.0
320,16.0,-0.11554932594299316,-0.21196246147155762,2.001983880996704,-0.16597700119018555,-1.6536219120025635,-0.20879840850830078,0.547402024269104,0.09651242196559906,0.49561411142349243,-3.0719417434714775,0.06991141974788426,1.6687251158276863,157.4633507853403,74.72643979057591,128.0,128.0
321,16.05,-0.1156926155090332,-0.21161413192749023,2.001955270767212,-0.1662430763244629,-1.6536839008331299,-0.20918655395507812,0.5475776195526123,0.09640593826770782,0.49547550082206726,-3.0718489158898428,0.06993363364844153,1.6689781048384649,157.43979057591622,74.75785340314137,128.0,128.0
322,16.1,-0.11583638191223145,-0.21126341819763184,2.0019266605377197,-0.16651320457458496,-1.6537449359893799,-0.2095777988433838,0.5477544665336609,0.09629906713962555,0.49533611536026,-3.0717573452948637,0.06995520695540307,1.6692338514989031,157.41677588466578,74.81389252948885,128.0,128.0
323,16.150000000000002,-0.1159811019897461,-0.21091246604919434,2.001897096633911,-0.16678118705749512,-1.653808355331421,-0.20996880531311035,0.5479313731193542,0.09619140625,0.49519628286361694,-3.0716644354988105,0.06997763064862816,1.6694876615304046,157.33289646133682,74.90301441677589,128.0,128.0
324,16.2,-0.11611700057983398,-0.2105700969696045,2.0018675327301025,-0.16704273223876953,-1.6538641452789307,-0.21035146713256836,0.5481038689613342,0.09608970582485199,0.4950608015060425,-3.071575154655259,0.0699949436212131,1.6697416058077108,157.3259162303665,74.93979057591623,128.0,128.0
325,16.25,-0.1162559986114502,-0.21022462844848633,2.001837968826294,-0.16730713844299316,-1.6539223194122314,-0.21073698997497559,0.5482779741287231,0.09598588198423386,0.49492380023002625,-3.0714846501735282,0.07001372188481733,1.6699957678759554,157.30930537352555,74.95150720838794,128.0,128.0
326,16.3,-0.11639595031738281,-0.20987439155578613,2.001807451248169,-0.16757726669311523,-1.6539804935455322,-0.21112990379333496,0.5484546422958374,0.09588122367858887,0.4947853088378906,-3.0713960187705776,0.07003166161894891,1.670255813077141,157.2438070404172,75.00912646675359,128.0,128.0
327,16.35,-0.11652946472167969,-0.20952820777893066,2.0017759799957275,-0.1678452491760254,-1.6540324687957764,-0.21151995658874512,0.5486293435096741,0.09578083455562592,0.494649201631546,-3.0713115644443976,0.07004529348560719,1.6705193687474533,157.22526041666666,75.01692708333333,128.0,128.0
328,16.400000000000002,-0.11666345596313477,-0.20917701721191406,2.0017435550689697,-0.1681199073791504,-1.654083013534546,-0.21191740036010742,0.5488068461418152,0.0956798642873764,0.49451184272766113,-3.0712295794928512,0.0700574720121531,1.6707897776129061,157.20052083333334,75.04557291666667,128.0,128.0
329,16.45,-0.11679720878601074,-0.20882344245910645,2.001711130142212,-0.16839885711669922,-1.6541330814361572,-0.21231937408447266,0.5489855408668518,0.09557898342609406,0.49437370896339417,-3.071149407547149,0.07006868732238931,1.6710639310409872,157.16036505867015,75.1264667535854,128.0,128.0
330,16.5,-0.11692976951599121,-0.20847368240356445,2.001678705215454,-0.1686716079711914,-1.6541831493377686,-0.21271562576293945,0.5491620302200317,0.09547889977693558,0.4942370057106018,-3.0710677213739728,0.07007998163812315,1.6713339852360163,157.08842652795838,75.25357607282184,128.0,128.0
331,16.55,-0.11705708503723145,-0.20813488960266113,2.001648187637329,-0.16893243789672852,-1.6542308330535889,-0.21309709548950195,0.5493320226669312,0.0953826755285263,0.49410349130630493,-3.070984294463018,0.07008960874441385,1.6715950310931447,157.07911802853437,75.2905317769131,128.0,128.0
332,16.6,-0.1171870231628418,-0.2077932357788086,2.0016167163848877,-0.16919589042663574,-1.6542809009552002,-0.21348142623901367,0.549503743648529,0.09528452903032303,0.4939686059951782,-3.070899652277128,0.07010068309196327,1.6718559487578624,157.03756476683938,75.31217616580311,128.0,128.0
333,16.650000000000002,-0.11731386184692383,-0.20744991302490234,2.00158429145813,-0.1694622039794922,-1.654327154159546,-0.21387028694152832,0.5496763586997986,0.09518834203481674,0.493834525346756,-3.070819499565405,0.07010850032064177,1.6721241692559978,157.0324254215305,75.33203631647211,128.0,128.0
