AI-SPARC/uncalibrated-visual-servoing/results/data/1_feat_mckf.csv
,t,q_1,q_2,q_3,q_4,q_5,q_6,camera_x,camera_y,camera_z,camera_roll,camera_pitch,camera_yaw,f_1,f_2,desired_f_1,desired_f_2
0,0.0,8.821487426757812e-06,0.00015425682067871094,1.5707957744598389,0.0001304149627685547,-1.5707952976226807,7.152557373046875e-07,0.680819034576416,0.16908136010169983,0.6382145881652832,-3.1409235490667897,0.00014262589818666297,1.5708377616351568,181.67405764966742,137.32594235033258,128.0,128.0
1,0.05,-6.413459777832031e-05,-0.0009768009185791016,1.570652723312378,0.0010869503021240234,-1.5711643695831299,0.0010781288146972656,0.6801613569259644,0.16900213062763214,0.6389885544776917,-3.141251650672451,0.0005101606297368258,1.5696874759935637,181.50110375275938,137.02649006622516,128.0,128.0
2,0.1,-0.0001125335693359375,-0.0021114349365234375,1.5705106258392334,0.002043485641479492,-1.5715110301971436,0.0021581649780273438,0.6794971227645874,0.16894224286079407,0.6397600173950195,-3.14157920351407,0.0008556145566624867,1.568558723560678,181.43015521064302,136.76496674057648,128.0,128.0
3,0.15000000000000002,-0.000133514404296875,-0.0032782554626464844,1.5703661441802979,0.003025054931640625,-1.571838140487671,0.003269195556640625,0.6788122057914734,0.16890373826026917,0.6405472159385681,3.1412723850776443,0.0011819213025481019,1.5674267232895065,181.25555555555556,136.58666666666667,128.0,128.0
4,0.2,-0.00013208389282226562,-0.0044231414794921875,1.5702245235443115,0.003993034362792969,-1.5721380710601807,0.004361867904663086,0.6781358122825623,0.16888348758220673,0.6413171887397766,3.140950632657044,0.0014802678237417976,1.5663350528044537,181.17633928571428,136.40401785714286,128.0,128.0
5,0.25,-0.00010013580322265625,-0.005594730377197266,1.5700814723968506,0.0049817562103271484,-1.5724141597747803,0.005480527877807617,0.6774376630783081,0.16888630390167236,0.6421036720275879,3.140620799795388,0.0017541779833610727,1.5652473224433827,181.0,136.02739726027397,128.0,128.0
6,0.30000000000000004,1.2636184692382812e-05,-0.006794452667236328,1.5699379444122314,0.0059969425201416016,-1.5726168155670166,0.006630897521972656,0.6767081618309021,0.16895177960395813,0.6429056525230408,3.1402879928008534,0.0019540320522574628,1.5642095569277084,181.0,135.97260273972603,128.0,128.0
7,0.35000000000000003,0.0001480579376220703,-0.008062124252319336,1.5697877407073975,0.007061481475830078,-1.5728137493133545,0.007842540740966797,0.675934374332428,0.16903361678123474,0.6437524557113647,3.139929402525135,0.002146509293386256,1.5631328572017815,180.86486486486487,135.60585585585585,128.0,128.0
8,0.4,0.0004432201385498047,-0.009443998336791992,1.5696308612823486,0.008218765258789062,-1.5728800296783447,0.00916743278503418,0.6750646233558655,0.1692374050617218,0.6446696519851685,3.139542386501285,0.0022075374167787056,1.5621023838363706,180.81614349775785,135.4103139013453,128.0,128.0
9,0.45,0.0009291172027587891,-0.011055946350097656,1.5694553852081299,0.00955343246459961,-1.572812795639038,0.010710000991821289,0.6740261912345886,0.16958507895469666,0.6457352042198181,3.1390833170814805,0.0021334011784935325,1.5610458400831657,180.97477064220183,135.0091743119266,128.0,128.0
10,0.5,-0.002812623977661133,-0.005405426025390625,1.5699427127838135,0.005392551422119141,-1.575211763381958,0.00551152229309082,0.6779688000679016,0.16675162315368652,0.6419886946678162,3.1411253731233515,0.004547415883922614,1.5624948121009743,179.78181818181818,136.06363636363636,128.0,128.0
11,0.55,-0.0030794143676757812,-0.005560159683227539,1.5699031352996826,0.005660057067871094,-1.575516939163208,0.005727291107177734,0.6779089570045471,0.16654200851917267,0.6421048641204834,3.1411810845828807,0.004853575854664552,1.5620142857012465,179.64414414414415,136.0,128.0,128.0
12,0.6000000000000001,-0.0033142566680908203,-0.005722999572753906,1.5698645114898682,0.005912065505981445,-1.5758168697357178,0.005937337875366211,0.6778179407119751,0.1663631796836853,0.642238199710846,3.1412004165275604,0.005159394914955414,1.5615746306786664,179.5258426966292,135.8988764044944,128.0,128.0
13,0.65,-0.0035474300384521484,-0.005875825881958008,1.5698273181915283,0.006157636642456055,-1.5761115550994873,0.006139993667602539,0.6777519583702087,0.16617780923843384,0.6423430442810059,3.1412512441326874,0.005454900328842027,1.561139539374672,179.40898876404495,135.8426966292135,128.0,128.0
14,0.7000000000000001,-0.003777742385864258,-0.00602269172668457,1.5697906017303467,0.006399393081665039,-1.576401948928833,0.006337642669677734,0.677690863609314,0.16599395871162415,0.6424422860145569,3.1413067959264978,0.005745942697512417,1.560711814877165,179.2760180995475,135.7941176470588,128.0,128.0
15,0.75,-0.004004955291748047,-0.006163835525512695,1.5697548389434814,0.0066375732421875,-1.576688528060913,0.006530284881591797,0.677632212638855,0.16581286489963531,0.6425378918647766,3.141364577659317,0.006032112397527684,1.5602924512422198,179.17233560090702,135.77324263038548,128.0,128.0
16,0.8,-0.00422978401184082,-0.006302356719970703,1.5697190761566162,0.0068738460540771484,-1.5769717693328857,0.006720304489135742,0.6775751709938049,0.16563346982002258,0.6426313519477844,3.1414238526627014,0.006316160149916517,1.5598775899777186,179.02488687782807,135.68778280542986,128.0,128.0
17,0.8500000000000001,-0.004450559616088867,-0.006430864334106445,1.5696842670440674,0.0071032047271728516,-1.5772483348846436,0.006902456283569336,0.6775224804878235,0.16545751690864563,0.6427183747291565,3.141487218022538,0.006593642307664413,1.559475270997944,178.89164785553046,135.60496613995485,128.0,128.0
18,0.9,-0.004667758941650391,-0.006550312042236328,1.5696508884429932,0.0073261260986328125,-1.5775196552276611,0.0070765018463134766,0.6774752140045166,0.1652846336364746,0.6427991390228271,3.1415542710433364,0.006864961289535869,1.5590841418783583,178.79775280898878,135.60898876404494,128.0,128.0
19,0.9500000000000001,-0.0048830509185791016,-0.006669759750366211,1.5696179866790771,0.0075490474700927734,-1.577789068222046,0.007250785827636719,0.6774272322654724,0.16511306166648865,0.6428794860839844,-3.141563617597171,0.007134769629934049,1.5586953194351987,178.63063063063063,135.5427927927928,128.0,128.0
20,1.0,-0.005093574523925781,-0.006780385971069336,1.5695860385894775,0.007766246795654297,-1.5780513286590576,0.007418155670166016,0.6773832440376282,0.16494552791118622,0.6429537534713745,-3.1414921732908847,0.00739804558057595,1.5583183470651751,178.5472972972973,135.5472972972973,128.0,128.0
21,1.05,-0.00530242919921875,-0.0068912506103515625,1.5695545673370361,0.007983684539794922,-1.578312635421753,0.0075855255126953125,0.6773392558097839,0.16477905213832855,0.6430279016494751,-3.1414205818493413,0.007659550494576441,1.5579425001550136,178.42792792792793,135.5,128.0,128.0
22,1.1,-0.0055084228515625,-0.00699615478515625,1.5695230960845947,0.008198022842407227,-1.5785691738128662,0.007748126983642578,0.6772976517677307,0.16461515426635742,0.6430981159210205,-3.14134623673172,0.007916984838180707,1.5575746426636121,178.3310810810811,135.47297297297297,128.0,128.0
23,1.1500000000000001,-0.005712270736694336,-0.007097959518432617,1.5694925785064697,0.008409500122070312,-1.5788228511810303,0.007907867431640625,0.6772577166557312,0.16445298492908478,0.6431660056114197,-3.141269996100563,0.008171298006259613,1.5572115906886022,178.20224719101122,135.39101123595506,128.0,128.0
24,1.2000000000000002,-0.0059125423431396484,-0.007190227508544922,1.5694630146026611,0.00861501693725586,-1.579071283340454,0.008059501647949219,0.6772225499153137,0.16429360210895538,0.643227219581604,-3.141189588171151,0.008420100298708755,1.5568603705856083,178.10835214446954,135.39503386004515,128.0,128.0
25,1.25,-0.0061109066009521484,-0.0072824954986572266,1.5694339275360107,0.008820056915283203,-1.579317331314087,0.008211374282836914,0.6771870851516724,0.16413573920726776,0.6432884335517883,-3.1411092144499855,0.008667221208007126,1.5565109332146803,177.9954648526077,135.29478458049886,128.0,128.0
26,1.3,-0.00630640983581543,-0.007363557815551758,1.569406270980835,0.009017467498779297,-1.5795581340789795,0.008353710174560547,0.6771577000617981,0.16398045420646667,0.6433422565460205,-3.1410239741929082,0.008908866435556013,1.5561741575911925,177.8881278538813,135.2420091324201,128.0,128.0
27,1.35,-0.006499528884887695,-0.00743865966796875,1.5693790912628174,0.009211063385009766,-1.5797946453094482,0.008490800857543945,0.6771314144134521,0.16382713615894318,0.6433913111686707,-3.140935729017189,0.009146492879170324,1.5558446805722876,177.77272727272728,135.1931818181818,128.0,128.0
28,1.4000000000000001,-0.006689548492431641,-0.007508277893066406,1.5693528652191162,0.009400367736816406,-1.5800268650054932,0.008623361587524414,0.6771076321601868,0.16367606818675995,0.643436849117279,-3.1408450379840156,0.009379626303934829,1.555523331805323,177.7022727272727,135.16590909090908,128.0,128.0
29,1.4500000000000002,-0.00687861442565918,-0.007575035095214844,1.5693271160125732,0.009587526321411133,-1.5802581310272217,0.008753538131713867,0.6770853996276855,0.16352590918540955,0.6434805393218994,-3.1407537161621146,0.009611467423560538,1.5552047597650946,177.60496613995485,135.10835214446954,128.0,128.0
30,1.5,-0.007065534591674805,-0.007635593414306641,1.5693018436431885,0.009770870208740234,-1.5804855823516846,0.008878707885742188,0.6770660877227783,0.1633775532245636,0.6435197591781616,-3.1406593388647637,0.009839953365282704,1.5548943165824431,177.50678733031674,135.08823529411765,128.0,128.0
31,1.55,-0.007250547409057617,-0.007693767547607422,1.569277048110962,0.009952545166015625,-1.5807101726531982,0.009001970291137695,0.6770479083061218,0.1632308065891266,0.6435573697090149,-3.140563774294534,0.010065802102359054,1.554587307150368,177.38009049773757,135.04751131221718,128.0,128.0
32,1.6,-0.007432222366333008,-0.00774693489074707,1.5692532062530518,0.010131359100341797,-1.5809309482574463,0.009120702743530273,0.6770321726799011,0.1630866825580597,0.6435911655426025,-3.1404657849442095,0.010286951941167681,1.5542879083060395,177.28571428571428,134.9795918367347,128.0,128.0
33,1.6500000000000001,-0.007611751556396484,-0.007792949676513672,1.5692293643951416,0.010305643081665039,-1.5811474323272705,0.009233474731445312,0.6770200133323669,0.16294418275356293,0.6436206102371216,-3.1403643205846405,0.010505304251042069,1.5539966330311905,177.10114942528736,134.98620689655172,128.0,128.0
34,1.7000000000000002,-0.007786273956298828,-0.007838249206542969,1.5692064762115479,0.010478973388671875,-1.5813586711883545,0.00934600830078125,0.6770078539848328,0.1628056764602661,0.6436492204666138,-3.140262114764501,0.010717628601599458,1.553711437881241,177.02522935779817,134.9908256880734,128.0,128.0
35,1.75,-0.007959604263305664,-0.007884025573730469,1.569183111190796,0.010653018951416016,-1.581568956375122,0.009459257125854492,0.6769947409629822,0.16266821324825287,0.6436780691146851,-3.1401601658664564,0.010928935680999851,1.5534263205236503,177.0,134.97260273972603,128.0,128.0
36,1.8,-0.008133411407470703,-0.007929086685180664,1.569159746170044,0.010826826095581055,-1.5817797183990479,0.009571552276611328,0.6769822239875793,0.1625301092863083,0.643706738948822,-3.1400582085675386,0.011140797929436033,1.553141297705656,176.97706422018348,134.9243119266055,128.0,128.0
37,1.85,-0.008308172225952148,-0.007969856262207031,1.5691373348236084,0.01099705696105957,-1.5819900035858154,0.00968027114868164,0.6769720911979675,0.16239166259765625,0.6437321305274963,-3.1399546108108676,0.011352713520340653,1.5528595499596425,176.87671232876713,134.81050228310502,128.0,128.0
38,1.9000000000000001,-0.008480548858642578,-0.007998466491699219,1.5691158771514893,0.011158943176269531,-1.582195520401001,0.009778022766113281,0.6769691705703735,0.16225507855415344,0.6437492966651917,-3.139845415941433,0.011559121050705872,1.5525907517799615,176.7840909090909,134.75454545454545,128.0,128.0
39,1.9500000000000002,-0.008651256561279297,-0.008021116256713867,1.5690958499908447,0.011316537857055664,-1.582397699356079,0.009871482849121094,0.6769689917564392,0.16211992502212524,0.6437625288963318,-3.139733759591742,0.011762544635739556,1.5523290569979558,176.6726862302483,134.6997742663657,128.0,128.0
40,2.0,-0.008819103240966797,-0.008037805557250977,1.5690762996673584,0.011469841003417969,-1.5825960636138916,0.00995945930480957,0.6769720911979675,0.16198699176311493,0.6437713503837585,-3.139619318976037,0.011961985549610568,1.5520746173072955,176.57692307692307,134.66289592760182,128.0,128.0
41,2.0500000000000003,-0.008985280990600586,-0.008050918579101562,1.5690572261810303,0.011620759963989258,-1.5827915668487549,0.010044097900390625,0.6769767999649048,0.1618555188179016,0.6437779664993286,-3.139503366963756,0.012159057696134764,1.5518255949142568,176.52607709750566,134.63038548752834,128.0,128.0
42,2.1,-0.009150981903076172,-0.008060932159423828,1.5690381526947021,0.011769771575927734,-1.5829861164093018,0.010126352310180664,0.676983118057251,0.16172417998313904,0.6437824368476868,-3.1393863795605803,0.012354861159123202,1.5515793220837548,176.45,134.61818181818182,128.0,128.0
43,2.15,-0.009315729141235352,-0.008070230484008789,1.5690195560455322,0.01191854476928711,-1.5831787586212158,0.0102081298828125,0.6769894957542419,0.1615939885377884,0.6437862515449524,-3.1392689271849106,0.012549528355681879,1.5513349597451214,176.38181818181818,134.55,128.0,128.0
44,2.2,-0.009479284286499023,-0.008072376251220703,1.569002389907837,0.012061834335327148,-1.583369493484497,0.010283708572387695,0.6770001649856567,0.16146446764469147,0.6437851786613464,-3.139147956744844,0.01274115968289386,1.5510976902175626,176.2721088435374,134.5532879818594,128.0,128.0
45,2.25,-0.00964045524597168,-0.008075237274169922,1.5689842700958252,0.012206077575683594,-1.5835578441619873,0.010359764099121094,0.6770100593566895,0.1613369584083557,0.64378422498703,-3.1390266755156335,0.012931022073428899,1.5508624891131493,176.20135746606334,134.52488687782807,128.0,128.0
46,2.3000000000000003,-0.00980067253112793,-0.008075475692749023,1.5689671039581299,0.012348413467407227,-1.583744764328003,0.010433435440063477,0.6770208477973938,0.1612100899219513,0.6437814235687256,-3.138905100867709,0.013119201183465169,1.5506303568667827,176.1266968325792,134.5,128.0,128.0
47,2.35,-0.009959697723388672,-0.00807332992553711,1.5689499378204346,0.012489080429077148,-1.5839297771453857,0.01050567626953125,0.6770331859588623,0.16108427941799164,0.6437774896621704,-3.138782065059256,0.013305875782735895,1.5504014677816853,176.01594533029612,134.47835990888382,128.0,128.0
48,2.4000000000000004,-0.010116338729858398,-0.008069038391113281,1.5689332485198975,0.012629032135009766,-1.5841119289398193,0.01057577133178711,0.6770462393760681,0.16096046566963196,0.6437718868255615,-3.138657873596959,0.013489586088120098,1.5501768089623489,175.9750566893424,134.39455782312925,128.0,128.0
49,2.45,-0.010272979736328125,-0.008056402206420898,1.5689170360565186,0.012762784957885742,-1.5842921733856201,0.010638952255249023,0.6770640015602112,0.1608366072177887,0.6437607407569885,-3.138530046550025,0.01367150566068268,1.5499595853356782,175.8733031674208,134.37556561085972,128.0,128.0
50,2.5,-0.010427474975585938,-0.008042097091674805,1.5689013004302979,0.012895345687866211,-1.5844700336456299,0.010700702667236328,0.6770825386047363,0.16071434319019318,0.64374840259552,-3.13840150712412,0.013850701361040425,1.5497457435014859,175.86167800453515,134.3514739229025,128.0,128.0
51,2.5500000000000003,-0.010583162307739258,-0.008025884628295898,1.5688860416412354,0.013026237487792969,-1.5846478939056396,0.010760784149169922,0.6771025061607361,0.16059131920337677,0.6437346935272217,-3.138272463678687,0.014030681293250353,1.5495321532489164,175.7392290249433,134.35374149659864,128.0,128.0
52,2.6,-0.01073598861694336,-0.008010387420654297,1.5688707828521729,0.013158321380615234,-1.5848233699798584,0.01082158088684082,0.6771213412284851,0.16047051548957825,0.643721342086792,-3.1381432053554397,0.014207783428066778,1.549321109751581,175.6031746031746,134.34240362811792,128.0,128.0
53,2.6500000000000004,-0.010885477066040039,-0.007993698120117188,1.5688560009002686,0.013289213180541992,-1.5849955081939697,0.010881662368774414,0.6771399974822998,0.1603522151708603,0.6437068581581116,-3.138012759265406,0.01438134922674099,1.5491137846431329,175.57692307692307,134.33710407239818,128.0,128.0
54,2.7,-0.011035680770874023,-0.00797724723815918,1.5688412189483643,0.013420343399047852,-1.5851681232452393,0.010941743850708008,0.6771590709686279,0.1602335423231125,0.6436925530433655,-3.137882767400254,0.01455582093231735,1.5489061960131063,175.51927437641723,134.24036281179139,128.0,128.0
55,2.75,-0.011185169219970703,-0.007950782775878906,1.5688269138336182,0.013545036315917969,-1.5853378772735596,0.010993003845214844,0.6771835684776306,0.1601153463125229,0.6436715722084045,-3.1377483574702465,0.014727149193315572,1.548707860212916,175.4547511312217,134.24660633484163,128.0,128.0
56,2.8000000000000003,-0.011333942413330078,-0.00792551040649414,1.5688130855560303,0.013670206069946289,-1.5855076313018799,0.011045694351196289,0.6772072911262512,0.15999764204025269,0.64365154504776,-3.1376146021667473,0.014898301665422983,1.5485092458414838,175.3877551020408,134.24263038548753,128.0,128.0
57,2.85,-0.011482000350952148,-0.007900476455688477,1.5687987804412842,0.013795614242553711,-1.5856759548187256,0.011098623275756836,0.6772308349609375,0.15988074243068695,0.6436314582824707,-3.1374805921637035,0.0150686782707025,1.5483111926671629,175.27625570776254,134.12328767123287,128.0,128.0
58,2.9000000000000004,-0.011627435684204102,-0.00786280632019043,1.568786382675171,0.013912439346313477,-1.585839033126831,0.011141061782836914,0.6772615313529968,0.15976575016975403,0.6436030268669128,-3.1373413266794365,0.015233347436247487,1.5481263715416225,175.19770114942528,134.1126436781609,128.0,128.0
59,2.95,-0.011771678924560547,-0.00782465934753418,1.5687739849090576,0.014028549194335938,-1.586000680923462,0.011182785034179688,0.6772916913032532,0.15965183079242706,0.6435737609863281,-3.1372014542464948,0.015396712713078558,1.5479427733321518,175.09722222222223,134.0625,128.0,128.0
60,3.0,-0.01191401481628418,-0.0077817440032958984,1.5687615871429443,0.014142036437988281,-1.5861594676971436,0.011220216751098633,0.6773247122764587,0.15953950583934784,0.6435416340827942,-3.1370597100932724,0.015557243513292915,1.5477657252098314,175.02522935779817,134.0091743119266,128.0,128.0
61,3.0500000000000003,-0.012055158615112305,-0.007733821868896484,1.5687506198883057,0.014251470565795898,-1.586315393447876,0.011253833770751953,0.6773602366447449,0.1594279557466507,0.6435058116912842,-3.1369154534157317,0.015715422956606023,1.5475944090865348,175.0,134.0,128.0,128.0
62,3.1,-0.012197017669677734,-0.007685184478759766,1.568739652633667,0.014360666275024414,-1.5864722728729248,0.011286735534667969,0.6773961186408997,0.1593160480260849,0.6434694528579712,-3.1367711987928835,0.015873828561921446,1.5474226558515425,175.0,134.0,128.0,128.0
63,3.1500000000000004,-0.012340307235717773,-0.0076372623443603516,1.5687282085418701,0.014470100402832031,-1.5866305828094482,0.011320114135742188,0.6774322390556335,0.1592029184103012,0.6434339284896851,-3.1366272303663685,0.016034098277608707,1.5472488081162026,175.0,134.0,128.0,128.0
64,3.2,-0.012485027313232422,-0.007589817047119141,1.568716287612915,0.014580011367797852,-1.5867908000946045,0.011353492736816406,0.6774680018424988,0.159088596701622,0.6433987021446228,-3.136483855421971,0.016195773953947244,1.5470737016927878,174.94942528735632,134.0,128.0,128.0
65,3.25,-0.01262974739074707,-0.007543087005615234,1.5687048435211182,0.014690637588500977,-1.5869505405426025,0.011388063430786133,0.6775035262107849,0.15897436439990997,0.6433639526367188,-3.136340780108459,0.016357604822909506,1.5468981499089256,174.85185185185185,133.95138888888889,128.0,128.0
66,3.3000000000000003,-0.012772321701049805,-0.007491350173950195,1.5686938762664795,0.014797687530517578,-1.5871069431304932,0.011418342590332031,0.6775413155555725,0.15886184573173523,0.6433257460594177,-3.136195116031092,0.016515958772836313,1.5467286480188551,174.77701149425286,133.93333333333334,128.0,128.0
67,3.35,-0.012913703918457031,-0.007438182830810547,1.568683385848999,0.014903545379638672,-1.5872619152069092,0.01144719123840332,0.6775797605514526,0.15875032544136047,0.6432868838310242,-3.1360485700989527,0.01667283829592268,1.5465612005337959,174.6727272727273,133.8840909090909,128.0,128.0
68,3.4000000000000004,-0.013052940368652344,-0.007380247116088867,1.5686733722686768,0.015006542205810547,-1.587414026260376,0.011472225189208984,0.6776208281517029,0.15864044427871704,0.6432438492774963,-3.1358999770135183,0.01682635346786501,1.5464006276767106,174.57954545454547,133.8840909090909,128.0,128.0
69,3.45,-0.013190269470214844,-0.007323265075683594,1.5686628818511963,0.015110254287719727,-1.58756422996521,0.011498212814331055,0.6776609420776367,0.15853191912174225,0.6432017683982849,-3.135751288933585,0.0169787156524374,1.5462405967033404,174.52607709750566,133.82539682539684,128.0,128.0
70,3.5,-0.01332712173461914,-0.00726008415222168,1.5686538219451904,0.015209436416625977,-1.5877130031585693,0.01151895523071289,0.677704393863678,0.15842385590076447,0.6431555151939392,-3.1356003170028037,0.017129095171491637,1.546086627282692,174.49886621315193,133.8049886621315,128.0,128.0
71,3.5500000000000003,-0.013464689254760742,-0.007195234298706055,1.5686442852020264,0.015307903289794922,-1.5878617763519287,0.011538267135620117,0.67774897813797,0.15831542015075684,0.6431083083152771,-3.135448499623097,0.017279635334420822,1.5459335551850826,174.41402714932127,133.76244343891403,128.0,128.0
72,3.6,-0.013600587844848633,-0.007126331329345703,1.5686352252960205,0.01540374755859375,-1.5880076885223389,0.011553525924682617,0.6777955889701843,0.15820811688899994,0.6430583000183105,-3.135294638868074,0.01742773804195982,1.5457851990388434,174.31447963800906,133.78506787330318,128.0,128.0
73,3.6500000000000004,-0.013734579086303711,-0.007061004638671875,1.5686256885528564,0.015502452850341797,-1.5881531238555908,0.011572122573852539,0.6778402924537659,0.15810230374336243,0.6430105566978455,-3.135142174974862,0.017574453919173703,1.545636029567873,174.26757369614512,133.7687074829932,128.0,128.0
74,3.7,-0.013868331909179688,-0.0069942474365234375,1.5686166286468506,0.015599966049194336,-1.5882980823516846,0.011589765548706055,0.6778849959373474,0.15799662470817566,0.6429621577262878,-3.1349890275507857,0.01772140554651388,1.545488427218964,174.2159090909091,133.75454545454545,128.0,128.0
75,3.75,-0.014001846313476562,-0.006926536560058594,1.568608045578003,0.015697002410888672,-1.588442087173462,0.011606693267822266,0.6779302954673767,0.15789121389389038,0.6429128646850586,-3.1348351534822094,0.017867531051759446,1.5453418802693202,174.127562642369,133.69703872437358,128.0,128.0
76,3.8000000000000003,-0.014133691787719727,-0.006853342056274414,1.5686004161834717,0.015788793563842773,-1.58858323097229,0.011618375778198242,0.6779789328575134,0.15778708457946777,0.6428593993186951,-3.1346788053246364,0.018010636927564775,1.5452018747591367,174.1027397260274,133.70776255707761,128.0,128.0
77,3.85,-0.014266252517700195,-0.006781816482543945,1.5685923099517822,0.015882492065429688,-1.5887253284454346,0.011631965637207031,0.678026556968689,0.15768247842788696,0.6428071856498718,-3.1345236035638986,0.01815476553913016,1.5450599190184813,174.09111617312072,133.68337129840546,128.0,128.0
78,3.9000000000000004,-0.01439976692199707,-0.006707668304443359,1.5685842037200928,0.01597452163696289,-1.5888683795928955,0.011643171310424805,0.6780754327774048,0.1575770527124405,0.6427533030509949,-3.134367249175619,0.01829944853703232,1.5449190404365647,174.0,133.63013698630138,128.0,128.0
79,3.95,-0.014531373977661133,-0.006628274917602539,1.5685770511627197,0.01606297492980957,-1.589008092880249,0.011649608612060547,0.6781275272369385,0.1574731022119522,0.642695963382721,-3.1342084621130666,0.018441120486165644,1.5447846985802467,173.93197278911563,133.63718820861678,128.0,128.0
80,4.0,-0.01466226577758789,-0.00655055046081543,1.5685694217681885,0.01615285873413086,-1.5891473293304443,0.01165771484375,0.6781783103942871,0.15736976265907288,0.64263916015625,-3.1340501526585003,0.01858212581509255,1.5446497326226145,173.9162895927602,133.6153846153846,128.0,128.0
81,4.05,-0.014794111251831055,-0.006470680236816406,1.5685622692108154,0.016240835189819336,-1.5892870426177979,0.011663675308227539,0.6782304644584656,0.15726575255393982,0.6425816416740417,-3.133890834404507,0.018723532301361076,1.5445161700981074,173.82086167800455,133.54195011337868,128.0,128.0
82,4.1000000000000005,-0.014923810958862305,-0.006383180618286133,1.5685560703277588,0.016323566436767578,-1.5894224643707275,0.011663675308227539,0.6782870292663574,0.15716318786144257,0.6425183415412903,-3.1337283780696388,0.018861589581802334,1.5443906392905327,173.75339366515837,133.5452488687783,128.0,128.0
83,4.15,-0.01505279541015625,-0.006296873092651367,1.5685498714447021,0.016406536102294922,-1.5895578861236572,0.011664390563964844,0.6783422231674194,0.15706156194210052,0.6424562931060791,-3.1335663328057177,0.018998273886016583,1.5442648135570287,173.67727272727274,133.5,128.0,128.0
84,4.2,-0.015180349349975586,-0.006206035614013672,1.5685441493988037,0.01648688316345215,-1.589690923690796,0.011661529541015625,0.6784001588821411,0.15696075558662415,0.6423906683921814,-3.1334026221136537,0.01913316867526456,1.544144523113166,173.62443438914028,133.5,128.0,128.0
85,4.25,-0.01530766487121582,-0.006115913391113281,1.5685384273529053,0.01656818389892578,-1.5898239612579346,0.011659383773803711,0.6784574389457703,0.15686027705669403,0.6423258781433105,-3.1332387842300897,0.01926806294278572,1.5440236209590992,173.62443438914028,133.5,128.0,128.0
86,4.3,-0.015436410903930664,-0.006026029586791992,1.5685327053070068,0.01664876937866211,-1.5899579524993896,0.011656761169433594,0.6785148978233337,0.15675859153270721,0.6422609686851501,-3.1330749045636224,0.019404360262217358,1.5439014581964812,173.56235827664398,133.46938775510205,128.0,128.0
87,4.3500000000000005,-0.015564441680908203,-0.005933046340942383,1.5685274600982666,0.016727447509765625,-1.5900909900665283,0.011651992797851562,0.6785740256309509,0.156657412648201,0.6421939730644226,-3.132909953970205,0.0195387745316923,1.5437828310044543,173.5124716553288,133.47619047619048,128.0,128.0
88,4.4,-0.01569223403930664,-0.005841732025146484,1.5685217380523682,0.01680731773376465,-1.5902235507965088,0.01164865493774414,0.6786320209503174,0.15655656158924103,0.642128050327301,-3.132745698921816,0.0196737679868955,1.5436629214442974,173.4502262443439,133.4343891402715,128.0,128.0
89,4.45,-0.015819311141967773,-0.005746126174926758,1.568516492843628,0.016884326934814453,-1.5903551578521729,0.011641502380371094,0.6786922216415405,0.1564563810825348,0.6420594453811646,-3.132579524775825,0.019806553341518044,1.5435472189108992,173.4004524886878,133.45248868778282,128.0,128.0
90,4.5,-0.015946149826049805,-0.00565338134765625,1.5685107707977295,0.016963720321655273,-1.590486764907837,0.011636972427368164,0.6787508130073547,0.15635617077350616,0.6419926881790161,-3.132414756701422,0.019940200246793983,1.5434293937948762,173.38181818181818,133.45,128.0,128.0
91,4.55,-0.01607370376586914,-0.005560874938964844,1.568505048751831,0.01704263687133789,-1.5906188488006592,0.011632680892944336,0.6788095831871033,0.15625536441802979,0.6419262886047363,-3.1322498174822035,0.0200744020933757,1.5433111343381818,173.2840909090909,133.4227272727273,128.0,128.0
92,4.6000000000000005,-0.016199350357055664,-0.0054662227630615234,1.5684998035430908,0.0171205997467041,-1.5907490253448486,0.011626005172729492,0.6788691282272339,0.15615610778331757,0.6418580412864685,-3.132084190266923,0.02020623811683463,1.5431960604204615,173.21266968325793,133.42760180995475,128.0,128.0
93,4.65,-0.01632380485534668,-0.0053730010986328125,1.5684940814971924,0.017200231552124023,-1.5908782482147217,0.011621475219726562,0.6789276003837585,0.15605759620666504,0.6417911052703857,-3.1319185371437412,0.02033756542686835,1.5430810301365228,173.15349887133183,133.37471783295712,128.0,128.0
94,4.7,-0.016447782516479492,-0.005274295806884766,1.5684893131256104,0.017275333404541016,-1.591005563735962,0.0116119384765625,0.6789893507957458,0.1559598445892334,0.6417204737663269,-3.1317502871420233,0.020466747931338996,1.5429712081931626,173.06802721088437,133.36281179138322,128.0,128.0
95,4.75,-0.016570091247558594,-0.005175352096557617,1.5684845447540283,0.01735091209411621,-1.5911309719085693,0.011602401733398438,0.679050624370575,0.15586312115192413,0.6416494250297546,-3.1315819758701915,0.02059394658576719,1.5428634063883013,173.06802721088437,133.36281179138322,128.0,128.0
96,4.800000000000001,-0.016693830490112305,-0.005076408386230469,1.5684797763824463,0.017426013946533203,-1.5912578105926514,0.011592626571655273,0.6791123151779175,0.15576519072055817,0.6415780782699585,-3.1314136881409556,0.020722666026649895,1.5427536803469986,172.9954648526077,133.29478458049886,128.0,128.0
97,4.8500000000000005,-0.016816377639770508,-0.004970073699951172,1.5684759616851807,0.017496109008789062,-1.5913817882537842,0.011576414108276367,0.6791778802871704,0.15566861629486084,0.6415019035339355,-3.131242023922232,0.02084834203889239,1.542652483545311,172.92922374429224,133.29908675799086,128.0,128.0
98,4.9,-0.016938209533691406,-0.004865169525146484,1.5684716701507568,0.01756763458251953,-1.591505765914917,0.01156163215637207,0.6792427897453308,0.155572310090065,0.6414268612861633,-3.1310710449392314,0.02097391940414035,1.5425501627220959,172.8972602739726,133.29223744292239,128.0,128.0
99,4.95,-0.017060279846191406,-0.004760026931762695,1.568467378616333,0.017638683319091797,-1.5916297435760498,0.011546611785888672,0.6793076395988464,0.15547582507133484,0.6413514614105225,-3.130899931202346,0.021099826996893296,1.5424482332420755,172.8881278538813,133.2420091324201,128.0,128.0
100,5.0,-0.017183303833007812,-0.004648447036743164,1.5684635639190674,0.017705202102661133,-1.5917532444000244,0.011526107788085938,0.679376482963562,0.15537862479686737,0.6412720084190369,-3.130726307338009,0.021224934719023383,1.5423506963373919,172.8633257403189,133.25284738041003,128.0,128.0
101,5.050000000000001,-0.017307043075561523,-0.004538536071777344,1.5684597492218018,0.017772912979125977,-1.5918781757354736,0.011506795883178711,0.6794440746307373,0.15528075397014618,0.641193687915802,-3.1305535077197755,0.02135135966451815,1.5422513961048652,172.78132118451026,133.21867881548974,128.0,128.0
102,5.1000000000000005,-0.017429113388061523,-0.004425525665283203,1.5684568881988525,0.017838478088378906,-1.5920007228851318,0.011485099792480469,0.6795135736465454,0.15518417954444885,0.6411132216453552,-3.130379054174543,0.021475646274640568,1.542156120725118,172.7239819004525,133.2058823529412,128.0,128.0
103,5.15,-0.01755070686340332,-0.004311800003051758,1.5684540271759033,0.017903566360473633,-1.5921223163604736,0.011462926864624023,0.6795833110809326,0.15508806705474854,0.6410319805145264,-3.130203907781062,0.021598957104445423,1.5420618843544411,172.68552036199094,133.21493212669682,128.0,128.0
104,5.2,-0.017672300338745117,-0.0041997432708740234,1.5684502124786377,0.01797032356262207,-1.5922443866729736,0.011442184448242188,0.6796517372131348,0.15499185025691986,0.640951931476593,-3.1300294377677242,0.02172292552362131,1.5419658666675524,172.63288288288288,133.21396396396398,128.0,128.0
105,5.25,-0.017793655395507812,-0.004088401794433594,1.5684473514556885,0.018036842346191406,-1.5923664569854736,0.011422157287597656,0.6797202229499817,0.15489599108695984,0.6408721208572388,-3.129855535759283,0.021846601379787427,1.5418700546381594,172.5653153153153,133.1644144144144,128.0,128.0
106,5.300000000000001,-0.017913818359375,-0.00397181510925293,1.5684444904327393,0.01810002326965332,-1.5924856662750244,0.011397361755371094,0.6797909736633301,0.15480078756809235,0.6407887935638428,-3.129679011977123,0.021967906990699646,1.5417797755036775,172.53950338600453,133.15801354401805,128.0,128.0
107,5.3500000000000005,-0.018034696578979492,-0.003854513168334961,1.5684421062469482,0.018162965774536133,-1.5926053524017334,0.011371850967407227,0.679862380027771,0.15470537543296814,0.6407052278518677,-3.1295022347219468,0.022089257838217448,1.541689887007106,172.47404063205417,133.1331828442438,128.0,128.0
108,5.4,-0.018154621124267578,-0.003735065460205078,1.5684397220611572,0.01822376251220703,-1.592724084854126,0.011344432830810547,0.6799353957176208,0.1546105146408081,0.6406199932098389,-3.1293243009416885,0.022209256146403532,1.54160253043099,172.45927601809956,133.1108597285068,128.0,128.0
109,5.45,-0.01827526092529297,-0.0036127567291259766,1.5684373378753662,0.018283367156982422,-1.5928423404693604,0.011314630508422852,0.6800095438957214,0.1545148640871048,0.640532374382019,-3.1291455690684633,0.02232946010218458,1.5415172352006388,172.4162895927602,133.079185520362,128.0,128.0
110,5.5,-0.01839590072631836,-0.00348663330078125,1.5684359073638916,0.01833963394165039,-1.5929601192474365,0.011281967163085938,0.6800861358642578,0.1544196903705597,0.6404433846473694,-3.128965112068233,0.022448455826441234,1.5414349871127189,172.33636363636364,133.07272727272726,128.0,128.0
111,5.550000000000001,-0.01851511001586914,-0.003361225128173828,1.5684340000152588,0.018397092819213867,-1.5930769443511963,0.011249303817749023,0.6801618933677673,0.15432539582252502,0.6403539776802063,-3.1287844102690276,0.02256650407401115,1.5413532706358446,172.28995433789953,133.08675799086757,128.0,128.0
112,5.6000000000000005,-0.01863408088684082,-0.0032384395599365234,1.568432092666626,0.018456220626831055,-1.593193769454956,0.011219501495361328,0.6802361011505127,0.1542312204837799,0.6402666568756104,-3.128605142533783,0.022685377680139444,1.5412700965230124,172.19908466819223,133.01830663615561,128.0,128.0
113,5.65,-0.018751144409179688,-0.0031082630157470703,1.5684311389923096,0.01851034164428711,-1.5933067798614502,0.01118326187133789,0.6803141236305237,0.15413853526115417,0.6401735544204712,-3.1284220858012652,0.022799895090907133,1.5411949367255897,172.10114942528736,133.01379310344828,128.0,128.0
114,5.7,-0.018866300582885742,-0.002979278564453125,1.5684301853179932,0.018564701080322266,-1.5934183597564697,0.011148214340209961,0.6803916692733765,0.15404745936393738,0.6400819420814514,-3.128239352266907,0.02291291105062113,1.5411206213126067,172.05057471264368,133.0,128.0,128.0
115,5.75,-0.018980979919433594,-0.0028493404388427734,1.5684292316436768,0.018619060516357422,-1.593529462814331,0.011112213134765625,0.6804691553115845,0.1539565920829773,0.6399890780448914,-3.128056619056302,0.023025409492124935,1.541047336836911,172.0,133.0,128.0,128.0
116,5.800000000000001,-0.019095420837402344,-0.0027201175689697266,1.5684282779693604,0.01867389678955078,-1.5936400890350342,0.011076927185058594,0.6805465221405029,0.1538659632205963,0.6398969292640686,-3.127873983545326,0.023137725143942207,1.540973927406306,172.0,133.0,128.0,128.0
117,5.8500000000000005,-0.019211292266845703,-0.002590656280517578,1.5684268474578857,0.018728017807006836,-1.593752145767212,0.011041641235351562,0.6806239485740662,0.15377432107925415,0.6398048400878906,-3.1276914037480585,0.02325128465285604,1.5408994238874938,172.0,133.0,128.0,128.0
118,5.9,-0.019328594207763672,-0.002460956573486328,1.5684254169464111,0.018782377243041992,-1.5938656330108643,0.011005640029907227,0.6807019114494324,0.15368148684501648,0.6397128701210022,-3.1275094246388733,0.023366014597140928,1.5408238153653402,172.0,133.0,128.0,128.0
119,5.95,-0.01944732666015625,-0.002330780029296875,1.5684239864349365,0.018836259841918945,-1.5939810276031494,0.010968923568725586,0.6807801127433777,0.1535874754190445,0.6396201848983765,-3.127326935077152,0.02348230071896369,1.5407474600367157,172.0,133.0,128.0,128.0
120,6.0,-0.01956772804260254,-0.0022001266479492188,1.5684230327606201,0.018889665603637695,-1.594097375869751,0.010931968688964844,0.6808591485023499,0.1534920036792755,0.6395275592803955,-3.127144412748211,0.023600306945670058,1.540670181858914,172.0,133.0,128.0,128.0
121,6.050000000000001,-0.019689559936523438,-0.002069234848022461,1.5684220790863037,0.018942832946777344,-1.5942151546478271,0.010894775390625,0.680938184261322,0.15339542925357819,0.6394347548484802,-3.126961580229724,0.02371969318423594,1.540591658554214,171.9243119266055,132.97706422018348,128.0,128.0
122,6.1000000000000005,-0.019810199737548828,-0.0019364356994628906,1.5684211254119873,0.018995046615600586,-1.5943310260772705,0.010856151580810547,0.6810181140899658,0.15330007672309875,0.6393401026725769,-3.126777584838121,0.023836880268640313,1.540515822810777,171.8548387096774,132.91935483870967,128.0,128.0
123,6.15,-0.01992940902709961,-0.0017964839935302734,1.5684211254119873,0.019042491912841797,-1.5944440364837646,0.010811090469360352,0.6811020374298096,0.15320560336112976,0.6392409205436707,-3.126590313100791,0.023951189750139178,1.5404475136098146,171.74715261958997,132.8633257403189,128.0,128.0
124,6.2,-0.020045995712280273,-0.0016508102416992188,1.5684220790863037,0.01908564567565918,-1.594552755355835,0.010761260986328125,0.6811889410018921,0.15311335027217865,0.6391374468803406,-3.126400238009593,0.024061309274882477,1.5403870324139568,171.6734693877551,132.85714285714286,128.0,128.0
125,6.25,-0.020161151885986328,-0.0015058517456054688,1.5684230327606201,0.01912975311279297,-1.5946605205535889,0.010712385177612305,0.6812751293182373,0.15302196145057678,0.6390343904495239,-3.126210197744392,0.024170266781497876,1.5403269038992338,171.65237020316027,132.8487584650113,128.0,128.0
126,6.300000000000001,-0.02027726173400879,-0.001359701156616211,1.5684239864349365,0.019173145294189453,-1.594768762588501,0.010662317276000977,0.6813618540763855,0.15293022990226746,0.63893061876297,-3.1260195322842725,0.02427972670949311,1.5402671737920521,171.56404494382022,132.80898876404495,128.0,128.0
127,6.3500000000000005,-0.020391225814819336,-0.0012097358703613281,1.5684254169464111,0.019213199615478516,-1.5948741436004639,0.010609149932861328,0.681450605392456,0.15283969044685364,0.6388241648674011,-3.1258272190892327,0.024386318062946093,1.5402127905488654,171.5258426966292,132.81348314606743,128.0,128.0
128,6.4,-0.020505428314208984,-0.0010609626770019531,1.5684263706207275,0.01925492286682129,-1.5949795246124268,0.010557174682617188,0.6815386414527893,0.1527491807937622,0.6387187242507935,-3.1256358376558033,0.02449323605704695,1.5401569370919022,171.5258426966292,132.81348314606743,128.0,128.0
129,6.45,-0.020621061325073242,-0.0009114742279052734,1.568427324295044,0.019295454025268555,-1.5950868129730225,0.010504484176635742,0.6816269755363464,0.15265746414661407,0.6386126279830933,-3.125443989233558,0.024601042422492354,1.5401003273871061,171.4876404494382,132.80898876404495,128.0,128.0
130,6.5,-0.0207369327545166,-0.0007619857788085938,1.5684282779693604,0.019336462020874023,-1.5951945781707764,0.010451555252075195,0.6817158460617065,0.15256573259830475,0.6385065913200378,-3.1252526237605447,0.024709543919814243,1.5400435999841686,171.43595505617978,132.80898876404495,128.0,128.0
131,6.550000000000001,-0.020852327346801758,-0.0006134510040283203,1.568429708480835,0.01937723159790039,-1.5953013896942139,0.010399580001831055,0.6818038821220398,0.15247420966625214,0.6384015679359436,-3.1250610949949356,0.024817873244456074,1.5399869215520008,171.413870246085,132.7897091722595,128.0,128.0
132,6.6000000000000005,-0.02096843719482422,-0.0004620552062988281,1.5684311389923096,0.01941657066345215,-1.5954086780548096,0.010344982147216797,0.681893527507782,0.15238215029239655,0.6382943391799927,-3.124868855679294,0.024925856045978485,1.5399317883923171,171.3677130044843,132.73318385650225,128.0,128.0
133,6.65,-0.021084070205688477,-0.0003027915954589844,1.5684330463409424,0.019450902938842773,-1.5955135822296143,0.010283470153808594,0.681988000869751,0.15229055285453796,0.6381814479827881,-3.124672519193842,0.025031512154575494,1.539884375849888,171.31838565022423,132.7152466367713,128.0,128.0
134,6.7,-0.02119922637939453,-0.00014138221740722656,1.5684359073638916,0.019483089447021484,-1.5956175327301025,0.010220050811767578,0.6820831894874573,0.15219908952713013,0.6380672454833984,-3.12447549827975,0.025136335919201076,1.5398390036188694,171.2921348314607,132.7191011235955,128.0,128.0
135,6.75,-0.02131509780883789,1.9073486328125e-05,1.5684382915496826,0.0195157527923584,-1.5957224369049072,0.010157585144042969,0.6821780204772949,0.1521071493625641,0.6379536390304565,-3.1242789120995584,0.025242301126318274,1.5397926920840954,171.2921348314607,132.7191011235955,128.0,128.0
136,6.800000000000001,-0.02143263816833496,0.0001804828643798828,1.5684401988983154,0.019548654556274414,-1.5958282947540283,0.010094404220581055,0.6822736859321594,0.15201404690742493,0.6378399729728699,-3.1240823627721213,0.0253491746376889,1.5397452791914423,171.231981981982,132.68243243243242,128.0,128.0
137,6.8500000000000005,-0.021549224853515625,0.0003464221954345703,1.5684430599212646,0.019578218460083008,-1.5959327220916748,0.010026931762695312,0.6823720335960388,0.15192155539989471,0.6377227306365967,-3.123883114892822,0.02545367992484814,1.5397027356651538,171.156462585034,132.6984126984127,128.0,128.0
138,6.9,-0.02166438102722168,0.0005075931549072266,1.5684454441070557,0.019611120223999023,-1.5960371494293213,0.0099639892578125,0.682466983795166,0.15183010697364807,0.6376088261604309,-3.123685593217652,0.02555853029387722,1.5396572247863474,171.1153846153846,132.71945701357467,128.0,128.0
139,6.95,-0.021779537200927734,0.0006647109985351562,1.5684473514556885,0.019646883010864258,-1.596142053604126,0.009904861450195312,0.6825594305992126,0.15173852443695068,0.6374975442886353,-3.1234903779490972,0.025664760347140006,1.5396082504157975,171.02941176470588,132.73076923076923,128.0,128.0
140,7.0,-0.021893024444580078,0.0008177757263183594,1.568448781967163,0.01968550682067871,-1.5962464809417725,0.00984954833984375,0.6826491951942444,0.1516483575105667,0.6373893022537231,-3.123296681463836,0.02576979814122691,1.5395571057963893,171.00675675675674,132.6846846846847,128.0,128.0
141,7.050000000000001,-0.022006988525390625,0.0009777545928955078,1.568451166152954,0.019719362258911133,-1.5963494777679443,0.009787797927856445,0.6827437281608582,0.1515578180551529,0.637275755405426,-3.1230997408096,0.02587366480304579,1.5395118633032248,170.98651685393259,132.66741573033707,128.0,128.0
142,7.1000000000000005,-0.022121667861938477,0.0011408329010009766,1.5684535503387451,0.019751787185668945,-1.5964524745941162,0.009723186492919922,0.6828395128250122,0.15146677196025848,0.6371605396270752,-3.122901562744389,0.025977339337385167,1.5394683496985655,170.98651685393259,132.66741573033707,128.0,128.0
143,7.15,-0.02223801612854004,0.00130462646484375,1.5684559345245361,0.019783496856689453,-1.5965569019317627,0.009657859802246094,0.6829357743263245,0.15137438476085663,0.6370446085929871,-3.1227027115019634,0.02608225067985765,1.5394247569853563,170.90293453724604,132.63882618510158,128.0,128.0
144,7.2,-0.02235269546508789,0.001470804214477539,1.5684587955474854,0.019812822341918945,-1.5966589450836182,0.009590387344360352,0.6830337047576904,0.1512833833694458,0.6369274854660034,-3.1225027199672533,0.02618495431819924,1.5393845029568503,170.85168539325844,132.62921348314606,128.0,128.0
145,7.25,-0.022466659545898438,0.0016374588012695312,1.5684621334075928,0.019841670989990234,-1.5967609882354736,0.009522438049316406,0.6831313371658325,0.15119270980358124,0.6368094682693481,-3.1223030628530437,0.02628681098204039,1.5393452667680463,170.8251121076233,132.62780269058297,128.0,128.0
146,7.300000000000001,-0.02258133888244629,0.0018041133880615234,1.5684645175933838,0.01987147331237793,-1.5968635082244873,0.009454488754272461,0.6832291483879089,0.1511014848947525,0.6366914510726929,-3.1221028944544784,0.0263898754248507,1.5393061215321129,170.77678571428572,132.61607142857142,128.0,128.0
147,7.3500000000000005,-0.022695541381835938,0.001971721649169922,1.568467378616333,0.01990032196044922,-1.5969650745391846,0.009385824203491211,0.6833276152610779,0.1510106772184372,0.6365731954574585,-3.121902579903543,0.02649207980647501,1.5392676595948005,170.75055679287306,132.61247216035636,128.0,128.0
148,7.4,-0.02281045913696289,0.0021398067474365234,1.5684702396392822,0.019928693771362305,-1.59706711769104,0.009316682815551758,0.6834262609481812,0.1509193629026413,0.6364545822143555,-3.1217020745530535,0.02659450027588486,1.53922925891379,170.703125,132.640625,128.0,128.0
149,7.45,-0.022925138473510742,0.0023021697998046875,1.568472146987915,0.01996159553527832,-1.5971705913543701,0.009252786636352539,0.6835213303565979,0.15082821249961853,0.6363400220870972,-3.1215041341835152,0.02669825065731362,1.5391862280182114,170.62946428571428,132.60714285714286,128.0,128.0
150,7.5,-0.023038148880004883,0.002468109130859375,1.5684750080108643,0.01999211311340332,-1.597271203994751,0.009185791015625,0.6836183667182922,0.1507379710674286,0.6362229585647583,-3.1213044236159937,0.02679964939061154,1.5391470455592877,170.58035714285714,132.61160714285714,128.0,128.0
151,7.550000000000001,-0.023150920867919922,0.00263214111328125,1.5684778690338135,0.020023345947265625,-1.59737229347229,0.009120941162109375,0.683713972568512,0.15064828097820282,0.6361063718795776,-3.121104737247623,0.026900883971793504,1.5391067381278194,170.58035714285714,132.61160714285714,128.0,128.0
152,7.6000000000000005,-0.023265361785888672,0.0027971267700195312,1.5684807300567627,0.020053625106811523,-1.5974743366241455,0.009055137634277344,0.6838105916976929,0.15055729448795319,0.6359898447990417,-3.1209053191772806,0.027003665028962013,1.5390655145683076,170.52796420581655,132.5615212527964,128.0,128.0
153,7.65,-0.023379087448120117,0.0029692649841308594,1.5684840679168701,0.020080089569091797,-1.5975744724273682,0.008983135223388672,0.6839113235473633,0.15046663582324982,0.6358678936958313,-3.1207025351422124,0.027103758833428335,1.5390316582861159,170.51569506726457,132.58520179372198,128.0,128.0
154,7.7,-0.02349400520324707,0.003137826919555664,1.5684869289398193,0.020108938217163086,-1.5976769924163818,0.008913755416870117,0.6840099692344666,0.1503751128911972,0.6357488036155701,-3.1205013102116834,0.027205856356503872,1.538993206327096,170.47309417040358,132.61659192825113,128.0,128.0
155,7.75,-0.023608922958374023,0.003300189971923828,1.5684893131256104,0.020141124725341797,-1.597780466079712,0.008849620819091797,0.6841050982475281,0.1502836048603058,0.6356337666511536,-3.120302342313754,0.027309874265318054,1.5389498110765694,170.413870246085,132.5682326621924,128.0,128.0
156,7.800000000000001,-0.02372288703918457,0.003469228744506836,1.568493127822876,0.020168781280517578,-1.597881555557251,0.008780479431152344,0.6842039227485657,0.15019278228282928,0.6355141997337341,-3.1201012531729635,0.0274111558113395,1.5389129249630187,170.38839285714286,132.57589285714286,128.0,128.0
157,7.8500000000000005,-0.023837566375732422,0.0036368370056152344,1.5684959888458252,0.020197629928588867,-1.5979831218719482,0.008712530136108398,0.6843016743659973,0.15010157227516174,0.6353955864906311,-3.1199003477498626,0.02751327114959209,1.5388741053429955,170.31543624161074,132.59284116331096,128.0,128.0
158,7.9,-0.023950815200805664,0.0037994384765625,1.5684988498687744,0.02023029327392578,-1.5980851650238037,0.008648872375488281,0.6843966245651245,0.1500110775232315,0.6352799534797668,-3.1197016442227157,0.027614770804691623,1.5388319451957169,170.26116071428572,132.58258928571428,128.0,128.0
159,7.95,-0.024063587188720703,0.003962516784667969,1.5685017108917236,0.020262479782104492,-1.5981862545013428,0.008584737777709961,0.6844916343688965,0.14992119371891022,0.6351645588874817,-3.1195024311758366,0.027716231134854073,1.5387910037859311,170.24276169265033,132.56347438752783,128.0,128.0
160,8.0,-0.024177074432373047,0.004128932952880859,1.5685045719146729,0.02029252052307129,-1.59828782081604,0.008517742156982422,0.684588611125946,0.14983081817626953,0.6350464820861816,-3.119301767804637,0.02781759191473846,1.5387521353427611,170.24276169265033,132.56347438752783,128.0,128.0
161,8.05,-0.0242922306060791,0.004296064376831055,1.568507432937622,0.02032184600830078,-1.5983903408050537,0.008450031280517578,0.6846864223480225,0.14973892271518707,0.6349281668663025,-3.1191009943937256,0.027920441403347557,1.538712681993039,170.16964285714286,132.546875,128.0,128.0
162,8.1,-0.024405956268310547,0.004464149475097656,1.5685107707977295,0.020351171493530273,-1.5984914302825928,0.008381128311157227,0.6847841143608093,0.14964814484119415,0.6348090171813965,-3.1188994877028198,0.0280214521637166,1.5386755749191732,170.15367483296214,132.52561247216036,128.0,128.0
163,8.15,-0.0245206356048584,0.004636049270629883,1.568514108657837,0.020377159118652344,-1.5985925197601318,0.008308887481689453,0.6848845481872559,0.1495567113161087,0.6346873044967651,-3.1186963078128067,0.028122442331937496,1.5386410415632874,170.12026726057906,132.4988864142539,128.0,128.0
164,8.200000000000001,-0.02463531494140625,0.0048122406005859375,1.5685184001922607,0.020400285720825195,-1.5986926555633545,0.008233308792114258,0.6849871277809143,0.14946500957012177,0.6345624923706055,-3.1184913732650594,0.028222431038659058,1.5386100572919506,170.06904231625836,132.51002227171492,128.0,128.0
165,8.25,-0.024749755859375,0.00498509407043457,1.5685217380523682,0.020426034927368164,-1.5987932682037354,0.00816035270690918,0.6850878000259399,0.14937379956245422,0.6344401240348816,-3.118287663010038,0.02832273675877144,1.538576442960455,170.02449888641425,132.51002227171492,128.0,128.0
166,8.3,-0.02486395835876465,0.005156993865966797,1.5685250759124756,0.020452260971069336,-1.5988938808441162,0.008089065551757812,0.6851878762245178,0.14928258955478668,0.6343185305595398,-3.1180847233840865,0.0284231075731882,1.538542525390757,169.95333333333335,132.47555555555556,128.0,128.0
167,8.35,-0.024976730346679688,0.0053327083587646484,1.5685293674468994,0.02047562599182129,-1.598992109298706,0.008013725280761719,0.6852898597717285,0.14919255673885345,0.6341942548751831,-3.117879824003577,0.028521075563345703,1.5385124572395885,169.93095768374164,132.48997772828508,128.0,128.0
168,8.4,-0.02509021759033203,0.005506038665771484,1.568533182144165,0.02050042152404785,-1.5990917682647705,0.007941007614135742,0.6853905320167542,0.14910197257995605,0.6340715885162354,-3.1176758652979517,0.02862024011774488,1.5384801176034395,169.87973273942094,132.5011135857461,128.0,128.0
169,8.450000000000001,-0.025203227996826172,0.00567626953125,1.5685369968414307,0.02052783966064453,-1.599191427230835,0.007870912551879883,0.685489296913147,0.149011492729187,0.6339507102966309,-3.117473624452029,0.0287199392456239,1.5384453083209402,169.84632516703786,132.47438752783964,128.0,128.0
170,8.5,-0.025316476821899414,0.005850553512573242,1.568540334701538,0.020552396774291992,-1.5992906093597412,0.0077972412109375,0.685590386390686,0.14892113208770752,0.6338270902633667,-3.1172693913814684,0.028818573614595888,1.5384138838482972,169.83035714285714,132.453125,128.0,128.0
171,8.55,-0.02543044090270996,0.006028890609741211,1.568544626235962,0.020574092864990234,-1.5993897914886475,0.007719755172729492,0.68569415807724,0.1488298773765564,0.633700966835022,-3.1170634975112583,0.028917263170922528,1.5383853652608768,169.75723830734967,132.43652561247217,128.0,128.0
172,8.6,-0.025543212890625,0.006207942962646484,1.5685489177703857,0.020595550537109375,-1.599487066268921,0.007641792297363281,0.6857976317405701,0.14873991906642914,0.6335742473602295,-3.1168569577401803,0.029014223471765587,1.5383590311202207,169.75723830734967,132.43652561247217,128.0,128.0
173,8.65,-0.02565741539001465,0.006387948989868164,1.5685532093048096,0.020617008209228516,-1.599585771560669,0.007562875747680664,0.6859022974967957,0.14864851534366608,0.6334469318389893,-3.1166498488343968,0.02911242479685996,1.5383321207458192,169.7260579064588,132.39420935412028,128.0,128.0
174,8.700000000000001,-0.0257720947265625,0.006575584411621094,1.5685584545135498,0.020632028579711914,-1.5996830463409424,0.007477760314941406,0.6860107183456421,0.1485568881034851,0.6333144307136536,-3.116439388137124,0.029208891870974734,1.53831144238286,169.68736141906874,132.42350332594236,128.0,128.0
175,8.75,-0.02588677406311035,0.006757020950317383,1.56856369972229,0.02065110206604004,-1.5997817516326904,0.007397651672363281,0.686116099357605,0.14846515655517578,0.633185863494873,-3.1162319288111555,0.029307093938823962,1.5382851331660754,169.63636363636363,132.41019955654102,128.0,128.0
176,8.8,-0.0260009765625,0.006939411163330078,1.5685689449310303,0.02066969871520996,-1.5998799800872803,0.0073168277740478516,0.6862217783927917,0.1483737677335739,0.6330564022064209,-3.1160239237485374,0.029404252224128482,1.5382601811352534,169.5991091314031,132.4476614699332,128.0,128.0
177,8.85,-0.02611517906188965,0.007114410400390625,1.568573236465454,0.020693540573120117,-1.599980115890503,0.007242441177368164,0.6863232851028442,0.14828230440616608,0.6329324245452881,-3.1158190099370366,0.029503667558277474,1.5382287804099541,169.52666666666667,132.45555555555555,128.0,128.0
178,8.9,-0.02622818946838379,0.00728607177734375,1.5685770511627197,0.02072000503540039,-1.6000792980194092,0.007170915603637695,0.68642258644104,0.1481919288635254,0.6328104138374329,-3.1156155267591115,0.029602375186570974,1.5381957144052707,169.5188470066519,132.43015521064302,128.0,128.0
179,8.950000000000001,-0.026342153549194336,0.007462501525878906,1.5685813426971436,0.020743370056152344,-1.6001784801483154,0.0070953369140625,0.6865246891975403,0.14810054004192352,0.6326852440834045,-3.1154098705821194,0.02970112383844882,1.5381662413308572,169.46444444444444,132.37555555555556,128.0,128.0
180,9.0,-0.02645564079284668,0.007647275924682617,1.5685865879058838,0.020760536193847656,-1.6002748012542725,0.007012605667114258,0.6866313815116882,0.14800989627838135,0.6325538754463196,-3.1152002527224387,0.029796440164067076,1.5381442886658192,169.46444444444444,132.37555555555556,128.0,128.0
181,9.05,-0.026570796966552734,0.007833242416381836,1.5685923099517822,0.020776033401489258,-1.6003730297088623,0.006928443908691406,0.6867390275001526,0.1479177325963974,0.6324222683906555,-3.1149905448598165,0.029893636842707235,1.538121940949334,169.42,132.38666666666666,128.0,128.0
182,9.1,-0.026685714721679688,0.008016109466552734,1.5685975551605225,0.020794391632080078,-1.6004717350006104,0.006847381591796875,0.6868449449539185,0.14782559871673584,0.6322924494743347,-3.1147823463868374,0.029991369736273737,1.5380969544492316,169.33407079646017,132.38716814159292,128.0,128.0
183,9.15,-0.026798486709594727,0.008195877075195312,1.5686018466949463,0.02081584930419922,-1.6005690097808838,0.006769418716430664,0.6869484782218933,0.14773526787757874,0.6321648359298706,-3.11457502095092,0.030087720275944425,1.538070955811189,169.31346578366447,132.3708609271523,128.0,128.0
184,9.200000000000001,-0.02691197395324707,0.008378744125366211,1.5686066150665283,0.020834922790527344,-1.6006662845611572,0.006688356399536133,0.6870539784431458,0.14764422178268433,0.6320353746414185,-3.114366307590183,0.03018413178672014,1.5380470376243083,169.28982300884957,132.38274336283186,128.0,128.0
185,9.25,-0.02702617645263672,0.008559465408325195,1.5686113834381104,0.02085566520690918,-1.600764513015747,0.0066089630126953125,0.6871587038040161,0.14755265414714813,0.6319072246551514,-3.114158474191343,0.030281679669494643,1.5380210126771305,169.2433628318584,132.40486725663717,128.0,128.0
186,9.3,-0.027140140533447266,0.008735179901123047,1.568615198135376,0.020879745483398438,-1.6008641719818115,0.006534099578857422,0.6872599720954895,0.14746132493019104,0.631782591342926,-3.1139525599183857,0.03037995071275714,1.5379910235976486,169.2433628318584,132.40486725663717,128.0,128.0
187,9.35,-0.027255773544311523,0.008911848068237305,1.5686190128326416,0.020903348922729492,-1.6009652614593506,0.0064585208892822266,0.6873618960380554,0.14736850559711456,0.6316572427749634,-3.1137465424339066,0.030479772432789896,1.537960129103119,169.21729490022173,132.40133037694014,128.0,128.0
188,9.4,-0.027371883392333984,0.009089231491088867,1.5686228275299072,0.020926237106323242,-1.6010668277740479,0.0063822269439697266,0.6874644160270691,0.14727535843849182,0.6315319538116455,-3.1135403925229035,0.03058013071140648,1.5379292986632003,169.1216814159292,132.37610619469027,128.0,128.0
189,9.450000000000001,-0.02748560905456543,0.009267568588256836,1.568627119064331,0.02094864845275879,-1.6011650562286377,0.0063054561614990234,0.6875671744346619,0.14718422293663025,0.6314052939414978,-3.113333524547234,0.030677920598096587,1.5379014509658295,169.07333333333332,132.36,128.0,128.0
190,9.5,-0.02759861946105957,0.009447574615478516,1.568631887435913,0.020969629287719727,-1.6012628078460693,0.006227016448974609,0.687670886516571,0.14709331095218658,0.6312775015830994,-3.113125586868666,0.030774178971528215,1.5378759574244625,169.0487804878049,132.37028824833703,128.0,128.0
191,9.55,-0.027712345123291016,0.009625911712646484,1.568636178970337,0.020992755889892578,-1.6013615131378174,0.006150484085083008,0.6877734661102295,0.14700199663639069,0.6311506628990173,-3.1129185130231822,0.03087196875463113,1.5378480435467399,168.98444444444445,132.33777777777777,128.0,128.0
192,9.600000000000001,-0.027824878692626953,0.009807825088500977,1.568640947341919,0.02101278305053711,-1.6014583110809326,0.00606989860534668,0.6878781318664551,0.1469116061925888,0.6310215592384338,-3.112709161464841,0.030967383010058247,1.5378243097874367,168.96230598669624,132.35254988913525,128.0,128.0
193,9.65,-0.027938127517700195,0.009987354278564453,1.568645715713501,0.021033763885498047,-1.6015565395355225,0.005991935729980469,0.6879813075065613,0.14682061970233917,0.6308942437171936,-3.1125013605060334,0.03106416487742726,1.5377986334572542,168.8852097130243,132.30684326710818,128.0,128.0
194,9.700000000000001,-0.028049707412719727,0.010172367095947266,1.568650484085083,0.021052122116088867,-1.6016514301300049,0.0059092044830322266,0.6880873441696167,0.14673101902008057,0.6307627558708191,-3.1122911975167473,0.03115770120500221,1.5377791109951728,168.8650442477876,132.28982300884957,128.0,128.0
195,9.75,-0.028162002563476562,0.0103607177734375,1.5686562061309814,0.02106785774230957,-1.6017463207244873,0.005823612213134766,0.6881956458091736,0.14664076268672943,0.6306295394897461,-3.1120794090199144,0.031251222290312866,1.5377616759126935,168.83885209713026,132.2869757174393,128.0,128.0
196,9.8,-0.0282747745513916,0.010549306869506836,1.5686609745025635,0.021083354949951172,-1.6018421649932861,0.005738019943237305,0.6883034110069275,0.1465500146150589,0.6304951906204224,-3.1118672418530324,0.031345073699667304,1.5377439720431658,168.79470198675497,132.27152317880794,128.0,128.0
197,9.850000000000001,-0.02838730812072754,0.010739803314208984,1.5686671733856201,0.021097421646118164,-1.6019365787506104,0.005650520324707031,0.6884130835533142,0.14645947515964508,0.6303603649139404,-3.1116546332348034,0.031438095585097206,1.5377282953608256,168.76991150442478,132.28097345132744,128.0,128.0
198,9.9,-0.02850055694580078,0.010928630828857422,1.5686724185943604,0.021113157272338867,-1.602031946182251,0.005564689636230469,0.6885212063789368,0.14636856317520142,0.6302266120910645,-3.1114423926508405,0.03153232765071884,1.5377107049964571,168.7212389380531,132.28982300884957,128.0,128.0
199,9.950000000000001,-0.02861332893371582,0.01111459732055664,1.5686776638031006,0.02113056182861328,-1.602128267288208,0.005481719970703125,0.6886276006698608,0.1462778002023697,0.6300944089889526,-3.1112313178025097,0.03162640511906201,1.5376902942143804,168.68942731277534,132.3215859030837,128.0,128.0
200,10.0,-0.02872633934020996,0.011294364929199219,1.5686824321746826,0.021152257919311523,-1.6022260189056396,0.005403995513916016,0.6887307167053223,0.1461867243051529,0.6299666166305542,-3.1110229544973764,0.03172275582411146,1.5376644432757343,168.63516483516483,132.26813186813186,128.0,128.0
201,10.05,-0.028838634490966797,0.01148223876953125,1.5686872005462646,0.02116870880126953,-1.6023213863372803,0.005319118499755859,0.6888381242752075,0.14609651267528534,0.6298332214355469,-3.1108109884008392,0.03181616019449075,1.537646453583279,168.61013215859032,132.25991189427313,128.0,128.0
202,10.100000000000001,-0.028951406478881836,0.01167154312133789,1.5686924457550049,0.02118396759033203,-1.6024162769317627,0.005233049392700195,0.6889464259147644,0.14600566029548645,0.6296991109848022,-3.1105986949228694,0.031909852408610204,1.5376295246212854,168.61013215859032,132.25991189427313,128.0,128.0
203,10.15,-0.029066085815429688,0.011862039566040039,1.5686981678009033,0.021197795867919922,-1.602513074874878,0.005145549774169922,0.6890560984611511,0.14591340720653534,0.6295640468597412,-3.1103858413647565,0.03200446939739522,1.5376118578732778,168.5701754385965,132.25219298245614,128.0,128.0
204,10.200000000000001,-0.029180526733398438,0.012053251266479492,1.56870436668396,0.02121114730834961,-1.6026098728179932,0.005057334899902344,0.6891652345657349,0.14582116901874542,0.6294281482696533,-3.110172568508698,0.0320992384642663,1.5375950855074967,168.52317880794703,132.2869757174393,128.0,128.0
205,10.25,-0.029294729232788086,0.012236833572387695,1.5687096118927002,0.02122974395751953,-1.602708101272583,0.0049762725830078125,0.6892704963684082,0.1457291692495346,0.6292979121208191,-3.109962774857271,0.032195549494632186,1.537571994230416,168.47692307692307,132.26373626373626,128.0,128.0
206,10.3,-0.02940845489501953,0.012423515319824219,1.5687143802642822,0.021247148513793945,-1.6028053760528564,0.0048923492431640625,0.6893773674964905,0.14563749730587006,0.6291652917861938,-3.1097516063392296,0.03229067980882706,1.537551779893432,168.47692307692307,132.26373626373626,128.0,128.0
207,10.350000000000001,-0.029523849487304688,0.01261138916015625,1.5687191486358643,0.02126336097717285,-1.6029036045074463,0.004807233810424805,0.6894850134849548,0.14554451406002045,0.6290320158004761,-3.109539752453456,0.03238733999113366,1.5375316811984128,168.4339207048458,132.26872246696036,128.0,128.0
208,10.4,-0.029639244079589844,0.012797355651855469,1.5687243938446045,0.021281003952026367,-1.6030018329620361,0.004723548889160156,0.689591646194458,0.14545157551765442,0.6289001703262329,-3.109328912036211,0.03248403480529346,1.537509603818151,168.38325991189427,132.27092511013217,128.0,128.0
209,10.450000000000001,-0.029753923416137695,0.012981414794921875,1.5687291622161865,0.021300315856933594,-1.603100061416626,0.00464177131652832,0.6896967887878418,0.145359069108963,0.6287690997123718,-3.1091182233663,0.03258006591656046,1.537486724355195,168.36483516483517,132.2901098901099,128.0,128.0
210,10.5,-0.029869556427001953,0.013162374496459961,1.5687334537506104,0.02132105827331543,-1.6032006740570068,0.004562854766845703,0.6898008584976196,0.1452658623456955,0.6286408305168152,-3.1089094131417596,0.03267831641150796,1.5374600796058304,168.3201754385965,132.25877192982455,128.0,128.0
211,10.55,-0.029984712600708008,0.013347864151000977,1.5687386989593506,0.021338701248168945,-1.6032989025115967,0.004479646682739258,0.689906895160675,0.1451728343963623,0.6285087466239929,-3.108698407138438,0.03277502952918453,1.5374381535391526,168.27292576419214,132.235807860262,128.0,128.0
212,10.600000000000001,-0.03009963035583496,0.013536453247070312,1.5687439441680908,0.021353960037231445,-1.6033961772918701,0.004393815994262695,0.690014660358429,0.14508026838302612,0.6283748149871826,-3.1084861972262288,0.03287002669620176,1.5374190701735102,168.27292576419214,132.235807860262,128.0,128.0
213,10.65,-0.030216217041015625,0.013726472854614258,1.5687496662139893,0.021368741989135742,-1.6034948825836182,0.004306793212890625,0.6901237368583679,0.14498627185821533,0.6282399892807007,-3.1082736428259152,0.03296652572373154,1.537399600978543,168.20568927789935,132.24288840262582,128.0,128.0
214,10.700000000000001,-0.03033137321472168,0.013912677764892578,1.5687549114227295,0.021385669708251953,-1.6035935878753662,0.004223346710205078,0.690230131149292,0.14489325881004333,0.6281074285507202,-3.108062129579884,0.033062589437556945,1.5373779701347663,168.1431718061674,132.27753303964758,128.0,128.0
215,10.75,-0.030445337295532227,0.014090776443481445,1.5687587261199951,0.02140974998474121,-1.6036922931671143,0.0041468143463134766,0.6903316974639893,0.14480111002922058,0.6279808282852173,-3.107854349701194,0.03316001950491999,1.53735050661044,168.11920529801324,132.28918322295806,128.0,128.0
216,10.8,-0.030560016632080078,0.014266729354858398,1.5687625408172607,0.021435022354125977,-1.6037929058074951,0.004072666168212891,0.6904320120811462,0.14470872282981873,0.6278558373451233,-3.107646871680906,0.03325798203914909,1.5373206087989533,168.00222222222223,132.26888888888888,128.0,128.0
217,10.850000000000001,-0.030671119689941406,0.014441967010498047,1.5687673091888428,0.02145981788635254,-1.6038901805877686,0.003999233245849609,0.6905317306518555,0.1446189135313034,0.6277309060096741,-3.107439630220776,0.033353079903264984,1.537292976586522,167.98669623059868,132.29046563192904,128.0,128.0
218,10.9,-0.03078317642211914,0.014613866806030273,1.5687711238861084,0.021487951278686523,-1.6039888858795166,0.003928661346435547,0.6906291842460632,0.14452826976776123,0.627607524394989,-3.1072338010361986,0.03345008552684838,1.537261592456393,167.9070796460177,132.2920353982301,128.0,128.0
219,10.950000000000001,-0.030893564224243164,0.014783143997192383,1.568774938583374,0.021517515182495117,-1.6040866374969482,0.0038604736328125,0.6907250285148621,0.14443908631801605,0.6274867653846741,-3.107028992285111,0.03354605145568708,1.5372293500710084,167.82079646017698,132.26769911504425,128.0,128.0
220,11.0,-0.031001806259155273,0.01495361328125,1.5687787532806396,0.021546602249145508,-1.6041820049285889,0.0037915706634521484,0.690821647644043,0.14435140788555145,0.6273645758628845,-3.10682326082897,0.03363965522123285,1.537200264583207,167.8159645232816,132.24168514412418,128.0,128.0
221,11.05,-0.031111478805541992,0.015128850936889648,1.5687825679779053,0.021572589874267578,-1.6042768955230713,0.003718137741088867,0.6909208297729492,0.14426271617412567,0.6272391676902771,-3.1066153519083577,0.03373286593068122,1.5371744286783655,167.77041942604856,132.22737306843268,128.0,128.0
222,11.100000000000001,-0.031220674514770508,0.015305519104003906,1.568786382675171,0.021598100662231445,-1.6043717861175537,0.003643512725830078,0.691020667552948,0.14417435228824615,0.6271133422851562,-3.1064072134401317,0.03382506993451514,1.537149771691163,167.7092511013216,132.18722466960352,128.0,128.0
223,11.15,-0.03132891654968262,0.015487194061279297,1.568791151046753,0.02162003517150879,-1.6044642925262451,0.003565073013305664,0.6911231875419617,0.1440868228673935,0.6269839406013489,-3.1061964111856013,0.03391540482973307,1.5371308251441167,167.69230769230768,132.16703296703298,128.0,128.0
224,11.200000000000001,-0.03143787384033203,0.01567244529724121,1.5687963962554932,0.021639108657836914,-1.6045567989349365,0.0034830570220947266,0.6912280917167664,0.14399859309196472,0.6268520355224609,-3.1059838588344575,0.03400536808659894,1.5371137921443299,167.69230769230768,132.16703296703298,128.0,128.0
225,11.25,-0.031548500061035156,0.015858888626098633,1.5688016414642334,0.021657466888427734,-1.6046507358551025,0.003400087356567383,0.6913331151008606,0.14390899240970612,0.6267189383506775,-3.1057709229817796,0.03409669931192044,1.5370967005496952,167.65645514223195,132.1487964989059,128.0,128.0
226,11.3,-0.03165912628173828,0.016047954559326172,1.5688068866729736,0.02167367935180664,-1.6047441959381104,0.003314495086669922,0.6914401650428772,0.1438194066286087,0.6265840530395508,-3.105557067480502,0.03418748628236828,1.537081991538505,167.6315789473684,132.1578947368421,128.0,128.0
227,11.350000000000001,-0.03177022933959961,0.0162353515625,1.5688121318817139,0.021691322326660156,-1.6048386096954346,0.0032308101654052734,0.6915462613105774,0.1437292993068695,0.6264504790306091,-3.105344118751805,0.034278981533647335,1.53706549041799,167.58515283842794,132.08078602620088,128.0,128.0
228,11.4,-0.031880855560302734,0.016435623168945312,1.5688188076019287,0.02169966697692871,-1.6049296855926514,0.0031359195709228516,0.6916592121124268,0.14363962411880493,0.6263080835342407,-3.1051254329661324,0.03436666368020964,1.5370603814087915,167.58515283842794,132.08078602620088,128.0,128.0
229,11.450000000000001,-0.03199315071105957,0.016637325286865234,1.5688254833221436,0.021706819534301758,-1.6050212383270264,0.0030393600463867188,0.6917737126350403,0.14354847371578217,0.6261647343635559,-3.1049062031480994,0.034455847269305645,1.5370552263865433,167.5,132.05240174672488,128.0,128.0
230,11.5,-0.03210330009460449,0.01684093475341797,1.5688321590423584,0.021713733673095703,-1.6051104068756104,0.0029408931732177734,0.6918884515762329,0.1434592306613922,0.6260201930999756,-3.104686023986564,0.03454147006207168,1.5370539999236372,167.5,132.05240174672488,128.0,128.0
231,11.55,-0.032215118408203125,0.017046213150024414,1.5688393115997314,0.021718502044677734,-1.605201005935669,0.002841472625732422,0.6920045614242554,0.143368661403656,0.6258742809295654,-3.104464563062345,0.03462881022812815,1.5370527650198569,167.47712418300654,132.0653594771242,128.0,128.0
232,11.600000000000001,-0.03232765197753906,0.017248868942260742,1.5688464641571045,0.021724939346313477,-1.605292558670044,0.002743959426879883,0.692119300365448,0.14327728748321533,0.6257299780845642,-3.1042451040733443,0.03471715869252074,1.537048553253609,167.47712418300654,132.0653594771242,128.0,128.0
233,11.65,-0.03244209289550781,0.01745319366455078,1.5688536167144775,0.02173018455505371,-1.6053860187530518,0.002644777297973633,0.6922351717948914,0.1431846022605896,0.6255849599838257,-3.104024707801591,0.034806885425265985,1.537044138320158,167.47712418300654,132.0653594771242,128.0,128.0
234,11.700000000000001,-0.032558441162109375,0.01765918731689453,1.5688602924346924,0.02173447608947754,-1.6054809093475342,0.002544403076171875,0.6923518776893616,0.14309026300907135,0.6254384517669678,-3.103804007397789,0.034898112570981146,1.5370395056354098,167.4295010845987,132.06073752711498,128.0,128.0
235,11.75,-0.03267407417297363,0.017864704132080078,1.5688679218292236,0.021738767623901367,-1.6055757999420166,0.0024442672729492188,0.6924686431884766,0.14299631118774414,0.6252930164337158,-3.1035834535583664,0.034989044116929414,1.5370350740915728,167.40434782608696,132.05434782608697,128.0,128.0
236,11.8,-0.032790422439575195,0.018071651458740234,1.5688750743865967,0.02174210548400879,-1.6056702136993408,0.002342700958251953,0.6925860047340393,0.14290189743041992,0.6251457333564758,-3.1033618582337237,0.03508032214529865,1.5370313989761946,167.37960954446854,132.0455531453362,128.0,128.0
237,11.850000000000001,-0.03290748596191406,0.018280506134033203,1.5688822269439697,0.021744251251220703,-1.6057655811309814,0.0022399425506591797,0.6927044987678528,0.14280690252780914,0.6249975562095642,-3.103140062868726,0.03517153091133022,1.5370286061922989,167.35434782608695,132.05217391304348,128.0,128.0
238,11.9,-0.033025264739990234,0.018487930297851562,1.5688893795013428,0.021747827529907227,-1.6058614253997803,0.002137899398803711,0.692822277545929,0.14271147549152374,0.6248502731323242,-3.102918446304516,0.03526366916377923,1.5370238957316196,167.33260869565217,132.04565217391306,128.0,128.0
239,11.950000000000001,-0.03314375877380371,0.018697023391723633,1.568897008895874,0.021749496459960938,-1.6059577465057373,0.002034902572631836,0.6929407715797424,0.14261513948440552,0.6247016787528992,-3.10269623290324,0.0353559397814028,1.5370202558531927,167.29501084598698,132.08026030368762,128.0,128.0
240,12.0,-0.03326225280761719,0.01889777183532715,1.5689036846160889,0.02175736427307129,-1.6060559749603271,0.0019385814666748047,0.6930548548698425,0.14251911640167236,0.6245589852333069,-3.102477341385935,0.03545052150662917,1.5370091735417832,167.27765726681127,132.03253796095444,128.0,128.0
241,12.05,-0.03338193893432617,0.019109249114990234,1.5689117908477783,0.02175760269165039,-1.6061532497406006,0.0018334388732910156,0.6931752562522888,0.1424219310283661,0.6244087815284729,-3.1022539871072765,0.03554347058590377,1.5370065261831458,167.24295010845987,132.07158351409979,128.0,128.0
242,12.100000000000001,-0.033501386642456055,0.01931142807006836,1.568917989730835,0.02176499366760254,-1.6062519550323486,0.0017361640930175781,0.6932899951934814,0.14232468605041504,0.6242647171020508,-3.102034455455461,0.03563872619353759,1.5369955832785565,167.16739130434783,132.08260869565217,128.0,128.0
243,12.15,-0.033618927001953125,0.01950812339782715,1.5689241886138916,0.02177572250366211,-1.6063501834869385,0.001644134521484375,0.6934013366699219,0.14222940802574158,0.6241249442100525,-3.101816921286107,0.035733156699421294,1.5369819290720077,167.0958605664488,132.08714596949892,128.0,128.0
244,12.200000000000001,-0.03373456001281738,0.019701242446899414,1.56892991065979,0.02178955078125,-1.606447458267212,0.0015552043914794922,0.6935103535652161,0.1421354115009308,0.6239875555038452,-3.1016012562650204,0.0358269432768965,1.5369664113711512,166.9891304347826,132.0413043478261,128.0,128.0
245,12.25,-0.03384685516357422,0.019898176193237305,1.5689361095428467,0.021801233291625977,-1.6065404415130615,0.001463174819946289,0.6936213970184326,0.1420440822839737,0.6238468885421753,-3.1013828145409144,0.035916258195231754,1.5369578398243198,166.8896103896104,131.978354978355,128.0,128.0
246,12.3,-0.033956289291381836,0.020102739334106445,1.5689432621002197,0.021806716918945312,-1.6066291332244873,0.0013647079467773438,0.6937359571456909,0.14195489883422852,0.6237009763717651,-3.101160959276002,0.036000684282218656,1.5369578731707427,166.8138528138528,131.96536796536796,128.0,128.0
247,12.350000000000001,-0.03406405448913574,0.020306825637817383,1.5689504146575928,0.021813631057739258,-1.6067163944244385,0.0012669563293457031,0.6938495635986328,0.14186711609363556,0.6235553026199341,-3.100939739477119,0.036083411492130624,1.5369595297205019,166.73866090712744,131.97624190064795,128.0,128.0
248,12.4,-0.03417015075683594,0.020505905151367188,1.5689570903778076,0.021824359893798828,-1.6068031787872314,0.0011737346649169922,0.6939609050750732,0.14178065955638885,0.6234132051467896,-3.100719748305171,0.036166717358937554,1.5369578844259857,166.71861471861473,131.9935064935065,128.0,128.0
249,12.450000000000001,-0.034276723861694336,0.020702362060546875,1.5689637660980225,0.021836280822753906,-1.6068909168243408,0.0010828971862792969,0.6940703392028809,0.1416936218738556,0.6232729554176331,-3.1005011736329875,0.036250732637469196,1.5369532838328883,166.71861471861473,131.9935064935065,128.0,128.0
250,12.5,-0.034384965896606445,0.02090001106262207,1.568969964981079,0.02184772491455078,-1.6069800853729248,0.0009906291961669922,0.6941806077957153,0.14160536229610443,0.623131513595581,-3.100281759004881,0.036335573328976856,1.5369489505857894,166.6831896551724,131.95689655172413,128.0,128.0
251,12.55,-0.034493207931518555,0.021103620529174805,1.5689775943756104,0.021854400634765625,-1.6070683002471924,0.0008935928344726562,0.6942943334579468,0.14151696860790253,0.6229862570762634,-3.100060231093602,0.036419528078398024,1.536949354234309,166.6414686825054,132.01295896328293,128.0,128.0
252,12.600000000000001,-0.03460121154785156,0.021296262741088867,1.5689833164215088,0.021869897842407227,-1.6071579456329346,0.0008058547973632812,0.6944015622138977,0.1414289027452469,0.6228485703468323,-3.09984332578573,0.03650591378330517,1.5369404303036744,166.61987041036718,132.00647948164146,128.0,128.0
253,12.65,-0.034709930419921875,0.021490097045898438,1.5689895153045654,0.02188396453857422,-1.6072485446929932,0.0007171630859375,0.694509744644165,0.14134030044078827,0.6227098703384399,-3.0996255955570327,0.03659204303858925,1.5369320747962165,166.61987041036718,132.00647948164146,128.0,128.0
254,12.700000000000001,-0.0348200798034668,0.021685123443603516,1.568995714187622,0.02189779281616211,-1.6073400974273682,0.0006272792816162109,0.6946185231208801,0.1412503570318222,0.6225704550743103,-3.099407222313425,0.036679631854354244,1.5369236768116292,166.5948275862069,132.0,128.0,128.0
255,12.75,-0.03493070602416992,0.0218813419342041,1.5690014362335205,0.021910905838012695,-1.6074321269989014,0.0005362033843994141,0.6947284936904907,0.1411600261926651,0.6224303841590881,-3.0991883170790993,0.036767452313977544,1.5369153529455835,166.57019438444925,131.9913606911447,128.0,128.0
256,12.8,-0.03504204750061035,0.0220792293548584,1.5690081119537354,0.021921873092651367,-1.6075241565704346,0.0004436969757080078,0.6948388814926147,0.1410692185163498,0.6222890615463257,-3.098969007905911,0.03685522911873908,1.5369084190498683,166.57019438444925,131.9913606911447,128.0,128.0
257,12.850000000000001,-0.03515481948852539,0.022278308868408203,1.569014310836792,0.021931886672973633,-1.6076176166534424,0.0003502368927001953,0.6949502825737,0.14097709953784943,0.6221465468406677,-3.098749185289695,0.03694420999967878,1.5369011007938105,166.5,132.0,128.0,128.0
258,12.9,-0.03526616096496582,0.02247333526611328,1.5690205097198486,0.02194523811340332,-1.6077101230621338,0.00026035308837890625,0.6950593590736389,0.1408863365650177,0.6220076084136963,-3.098531556893723,0.03703269684721327,1.5368915743172675,166.49674620390456,131.97396963123643,128.0,128.0
259,12.950000000000001,-0.03537893295288086,0.0226743221282959,1.5690271854400635,0.021954059600830078,-1.6078026294708252,0.0001652240753173828,0.6951720118522644,0.14079409837722778,0.6218640208244324,-3.098311125572983,0.037120996511010806,1.5368858335432962,166.47402597402598,131.96103896103895,128.0,128.0
260,13.0,-0.0354924201965332,0.022877931594848633,1.5690338611602783,0.021961450576782227,-1.6078956127166748,6.771087646484375e-05,0.695285975933075,0.14070147275924683,0.6217186450958252,-3.0980894839381823,0.03720928456461227,1.536881848800374,166.44924406047517,131.96976241900649,128.0,128.0
261,13.05,-0.03560662269592285,0.023079633712768555,1.5690405368804932,0.02196979522705078,-1.6079895496368408,-2.8371810913085938e-05,0.6953991055488586,0.14060838520526886,0.6215746998786926,-3.0978683787088643,0.03729843006954604,1.5368759366757572,166.40172786177106,131.97408207343412,128.0,128.0
262,13.100000000000001,-0.035720109939575195,0.023279190063476562,1.569047212600708,0.021979331970214844,-1.6080830097198486,-0.00012254714965820312,0.6955106258392334,0.14051559567451477,0.6214321851730347,-3.097648524041823,0.03738741373750096,1.5368686925895125,166.40172786177106,131.97408207343412,128.0,128.0
263,13.15,-0.03583550453186035,0.02348041534423828,1.5690538883209229,0.0219876766204834,-1.608177900314331,-0.0002186298370361328,0.6956232786178589,0.14042137563228607,0.6212886571884155,-3.0974283464617263,0.03747777122445851,1.5368613909045739,166.37149028077755,131.94168466522677,128.0,128.0
264,13.200000000000001,-0.03595113754272461,0.02368760108947754,1.569061517715454,0.021991968154907227,-1.6082723140716553,-0.0003192424774169922,0.6957395076751709,0.14032690227031708,0.6211406588554382,-3.097205148930691,0.03756654960363391,1.5368591734474522,166.35714285714286,131.91991341991343,128.0,128.0
265,13.25,-0.036067962646484375,0.02390003204345703,1.5690691471099854,0.02199268341064453,-1.6083662509918213,-0.0004248619079589844,0.6958587169647217,0.1402312070131302,0.6209883689880371,-3.096979621543417,0.03765562233199363,1.5368600893000883,166.34557235421167,131.8963282937365,128.0,128.0
266,13.3,-0.03618645668029785,0.024118900299072266,1.569077730178833,0.0219881534576416,-1.6084606647491455,-0.0005362033843994141,0.6959818005561829,0.14013463258743286,0.6208332180976868,-3.096751843260185,0.03774432396328306,1.5368656091645954,166.30669546436286,131.90064794816413,128.0,128.0
267,13.350000000000001,-0.03630471229553223,0.024335622787475586,1.5690853595733643,0.021985769271850586,-1.6085550785064697,-0.0006451606750488281,0.696103572845459,0.14003786444664001,0.6206787824630737,-3.0965250450519655,0.03783338713877824,1.536869327793492,166.28138528138527,131.9069264069264,128.0,128.0
268,13.4,-0.036423444747924805,0.024550914764404297,1.5690934658050537,0.021984577178955078,-1.6086504459381104,-0.0007536411285400391,0.6962243914604187,0.13994072377681732,0.6205255389213562,-3.0962989393466476,0.0379231089447004,1.5368709348424312,166.186295503212,131.91220556745182,128.0,128.0
269,13.450000000000001,-0.03653883934020996,0.02476024627685547,1.569101095199585,0.0219876766204834,-1.6087439060211182,-0.0008561611175537109,0.6963411569595337,0.13984622061252594,0.6203763484954834,-3.0960746275917668,0.03801121608886938,1.536870795307179,166.16239316239316,131.92307692307693,128.0,128.0
270,13.5,-0.03665471076965332,0.024967193603515625,1.5691087245941162,0.021991729736328125,-1.6088383197784424,-0.0009567737579345703,0.6964569687843323,0.1397513449192047,0.6202280521392822,-3.095851211196285,0.038100512462071044,1.5368682373277374,166.08297872340427,131.93829787234043,128.0,128.0
271,13.55,-0.036768436431884766,0.02516770362854004,1.5691149234771729,0.02200174331665039,-1.6089317798614502,-0.0010514259338378906,0.6965688467025757,0.13965828716754913,0.6200848817825317,-3.095630699170755,0.03818900464813408,1.5368614147518518,165.9765458422175,131.88699360341153,128.0,128.0
272,13.600000000000001,-0.03687882423400879,0.025372982025146484,1.569122076034546,0.022008657455444336,-1.609020471572876,-0.001150369644165039,0.6966828107833862,0.139568030834198,0.6199381947517395,-3.095407212011537,0.03827285970283909,1.536862541193303,165.8997867803838,131.85714285714286,128.0,128.0
273,13.65,-0.0369873046875,0.025580883026123047,1.5691297054290771,0.02201366424560547,-1.6091077327728271,-0.0012509822845458984,0.696797788143158,0.13947898149490356,0.6197893619537354,-3.0951824093244786,0.03835388215045229,1.5368669556253034,165.84861407249468,131.8592750533049,128.0,128.0
274,13.700000000000001,-0.037095069885253906,0.025786638259887695,1.5691368579864502,0.02202010154724121,-1.6091945171356201,-0.0013496875762939453,0.6969115734100342,0.13939058780670166,0.6196420192718506,-3.0949582203962267,0.03843548187157191,1.5368705897495514,165.8131634819533,131.86624203821657,128.0,128.0
275,13.75,-0.03720283508300781,0.02599048614501953,1.5691440105438232,0.02202773094177246,-1.6092817783355713,-0.0014467239379882812,0.6970242857933044,0.13930213451385498,0.6194959878921509,-3.094735223024832,0.038517437233649775,1.5368722435374922,165.76545842217485,131.88272921108742,128.0,128.0
276,13.8,-0.037309885025024414,0.02619028091430664,1.569150686264038,0.02203845977783203,-1.6093695163726807,-0.0015399456024169922,0.6971343755722046,0.13921421766281128,0.619353175163269,-3.0945142090366455,0.038599760272698846,1.5368707292355164,165.73931623931625,131.88247863247864,128.0,128.0
277,13.850000000000001,-0.03741741180419922,0.02638983726501465,1.569157361984253,0.0220489501953125,-1.6094577312469482,-0.0016326904296875,0.6972445249557495,0.13912582397460938,0.619209885597229,-3.0942930997484512,0.038682774082647864,1.5368689603625811,165.73931623931625,131.88247863247864,128.0,128.0
278,13.9,-0.03752636909484863,0.026590585708618164,1.5691640377044678,0.022059202194213867,-1.6095468997955322,-0.0017273426055908203,0.6973555088043213,0.13903623819351196,0.6190658211708069,-3.094071455578976,0.03876700181112032,1.5368666444415957,165.68443496801706,131.87420042643924,128.0,128.0
279,13.950000000000001,-0.03763461112976074,0.02679133415222168,1.5691711902618408,0.022069454193115234,-1.6096351146697998,-0.0018215179443359375,0.6974661946296692,0.13894739747047424,0.6189221739768982,-3.093849449954397,0.038849808768960575,1.5368654893204339,165.64102564102564,131.86324786324786,128.0,128.0
280,14.0,-0.03774237632751465,0.0269927978515625,1.5691773891448975,0.0220797061920166,-1.6097228527069092,-0.0019164085388183594,0.6975772976875305,0.13885891437530518,0.6187775731086731,-3.0936269837770536,0.03893196231755491,1.5368650380629405,165.64102564102564,131.86324786324786,128.0,128.0
281,14.05,-0.037851810455322266,0.02719569206237793,1.5691845417022705,0.022088050842285156,-1.6098120212554932,-0.0020127296447753906,0.6976892352104187,0.1387690305709839,0.618632435798645,-3.0934040672491663,0.039015312202337664,1.5368645363396214,165.64102564102564,131.86324786324786,128.0,128.0
282,14.100000000000001,-0.037962913513183594,0.02740001678466797,1.5691912174224854,0.02209615707397461,-1.6099021434783936,-0.0021104812622070312,0.6978021860122681,0.13867776095867157,0.6184859871864319,-3.093180705497076,0.03910005562538554,1.5368641620057175,165.64102564102564,131.86324786324786,128.0,128.0
283,14.15,-0.03807568550109863,0.027605772018432617,1.5691978931427002,0.022103071212768555,-1.6099941730499268,-0.0022094249725341797,0.6979163885116577,0.13858509063720703,0.6183387637138367,-3.092956642136539,0.03918579544145723,1.5368634096379217,165.62098501070665,131.8800856531049,128.0,128.0
284,14.200000000000001,-0.03818917274475098,0.027808666229248047,1.5692050457000732,0.022110939025878906,-1.6100876331329346,-0.0023055076599121094,0.6980286836624146,0.13849183917045593,0.6181935667991638,-3.092734151238328,0.0392736077955021,1.5368594073034616,165.55128205128204,131.87179487179486,128.0,128.0
285,14.25,-0.03830099105834961,0.02801036834716797,1.569211721420288,0.02212071418762207,-1.6101791858673096,-0.0024008750915527344,0.6981403827667236,0.13839995861053467,0.6180488467216492,-3.092511968752767,0.03935990950430135,1.5368555353449593,165.5289079229122,131.85867237687367,128.0,128.0
286,14.3,-0.03841352462768555,0.028214454650878906,1.569218397140503,0.02212834358215332,-1.6102712154388428,-0.0024983882904052734,0.6982533931732178,0.13830745220184326,0.6179025769233704,-3.09228852949676,0.039445823699323805,1.5368535752578651,165.5042735042735,131.85042735042734,128.0,128.0
287,14.350000000000001,-0.03852653503417969,0.028420209884643555,1.569225549697876,0.022135019302368164,-1.6103627681732178,-0.002597332000732422,0.6983671188354492,0.13821454346179962,0.6177555322647095,-3.092064852439799,0.03953175178148243,1.5368528341299006,165.46808510638297,131.83617021276595,128.0,128.0
288,14.4,-0.03863954544067383,0.028628110885620117,1.569232702255249,0.022140026092529297,-1.6104538440704346,-0.0026979446411132812,0.6984822154045105,0.13812156021595,0.6176064610481262,-3.0918395213705985,0.039616813534780686,1.5368536644470487,165.42521367521368,131.86324786324786,128.0,128.0
289,14.450000000000001,-0.038752079010009766,0.028829574584960938,1.5692389011383057,0.022150278091430664,-1.610546350479126,-0.002792835235595703,0.6985934972763062,0.13802911341190338,0.617462158203125,-3.091617571398202,0.039703109379479636,1.5368491442212857,165.42521367521368,131.86324786324786,128.0,128.0
290,14.5,-0.038866281509399414,0.029032468795776367,1.5692455768585205,0.022158384323120117,-1.610640287399292,-0.0028891563415527344,0.698705792427063,0.13793516159057617,0.6173169612884521,-3.0913949557292106,0.039790782332586476,1.5368444260598564,165.42521367521368,131.86324786324786,128.0,128.0
291,14.55,-0.03898215293884277,0.029236793518066406,1.5692527294158936,0.022165536880493164,-1.6107356548309326,-0.0029871463775634766,0.6988192796707153,0.1378396600484848,0.6171708106994629,-3.091171885250109,0.03988002880954411,1.5368398536811625,165.39316239316238,131.82264957264957,128.0,128.0
292,14.600000000000001,-0.039098501205444336,0.029448986053466797,1.5692598819732666,0.02216815948486328,-1.6108295917510986,-0.003092050552368164,0.6989367604255676,0.13774394989013672,0.6170186996459961,-3.090945272988244,0.03996759831332459,1.536841870851535,165.36830835117772,131.81584582441113,128.0,128.0
293,14.65,-0.0392155647277832,0.029662609100341797,1.5692675113677979,0.02216935157775879,-1.6109235286712646,-0.003197908401489258,0.6990551352500916,0.13764770328998566,0.616865873336792,-3.0907176735495314,0.040054842060140115,1.5368446302685628,165.32762312633832,131.78372591006425,128.0,128.0
294,14.700000000000001,-0.03933238983154297,0.029882192611694336,1.5692756175994873,0.02216625213623047,-1.611016035079956,-0.003309011459350586,0.699177086353302,0.13755148649215698,0.6167091131210327,-3.0904875846161928,0.04014047718609091,1.5368524534696832,165.24520255863538,131.7953091684435,128.0,128.0
295,14.75,-0.03944659233093262,0.03009486198425293,1.5692837238311768,0.02216792106628418,-1.611107587814331,-0.0034139156341552734,0.6992945671081543,0.1374574601650238,0.6165568232536316,-3.0902602468243474,0.040225172630964826,1.536856671762796,165.2132196162047,131.83582089552237,128.0,128.0
296,14.8,-0.039560556411743164,0.030298948287963867,1.5692903995513916,0.02217578887939453,-1.6112010478973389,-0.0035109519958496094,0.6994071006774902,0.1373634934425354,0.6164104342460632,-3.0900365260993086,0.040312521990054966,1.5368532752788677,165.11416490486258,131.8372093023256,128.0,128.0
297,14.850000000000001,-0.03967142105102539,0.030498266220092773,1.5692970752716064,0.022187232971191406,-1.6112921237945557,-0.0036041736602783203,0.6995166540145874,0.13727208971977234,0.6162676811218262,-3.089815081130062,0.04039746270181369,1.536848548256872,165.09684210526316,131.8357894736842,128.0,128.0
298,14.9,-0.03978300094604492,0.030698060989379883,1.5693037509918213,0.02219843864440918,-1.6113841533660889,-0.0036973953247070312,0.6996263265609741,0.13718003034591675,0.6161240339279175,-3.0895930030178844,0.04048313822221397,1.5368440971687765,164.99789029535864,131.7805907172996,128.0,128.0
299,14.950000000000001,-0.039891719818115234,0.03090357780456543,1.5693109035491943,0.02220606803894043,-1.6114723682403564,-0.003795623779296875,0.6997392177581787,0.13709034025669098,0.6159760355949402,-3.089367867757102,0.04056444606326975,1.536846926405769,164.9284210526316,131.78947368421052,128.0,128.0
300,15.0,-0.03999900817871094,0.03110504150390625,1.5693175792694092,0.0222165584564209,-1.6115596294403076,-0.0038890838623046875,0.6998489499092102,0.13700197637081146,0.6158314347267151,-3.0891445083742832,0.040645786202161645,1.5368472359039314,164.88372093023256,131.7674418604651,128.0,128.0
301,15.05,-0.040105581283569336,0.03130912780761719,1.5693247318267822,0.022224903106689453,-1.6116459369659424,-0.003985881805419922,0.6999604105949402,0.13691368699073792,0.6156845092773438,-3.088919950299485,0.04072537934418103,1.5368497172879572,164.88135593220338,131.7415254237288,128.0,128.0
302,15.100000000000001,-0.040213823318481445,0.031519174575805664,1.5693323612213135,0.02222919464111328,-1.6117322444915771,-0.004087924957275391,0.7000753879547119,0.13682422041893005,0.6155336499214172,-3.088693024597378,0.04080471663569438,1.536857486684139,164.84110169491527,131.76694915254237,128.0,128.0
303,15.15,-0.04032158851623535,0.0317234992980957,1.5693395137786865,0.022237062454223633,-1.6118195056915283,-0.004185199737548828,0.7001873254776001,0.13673518598079681,0.6153867840766907,-3.08846871759992,0.0408855043880552,1.536860270992706,164.81528662420382,131.76433121019107,128.0,128.0
304,15.200000000000001,-0.04042983055114746,0.031928300857543945,1.5693466663360596,0.022244930267333984,-1.6119072437286377,-0.004282474517822266,0.7002990245819092,0.13664567470550537,0.6152395606040955,-3.088244166896929,0.0409664552298401,1.5368632897759702,164.81528662420382,131.76433121019107,128.0,128.0
305,15.25,-0.04053974151611328,0.032134294509887695,1.5693542957305908,0.02225184440612793,-1.6119959354400635,-0.0043811798095703125,0.7004117369651794,0.13655488193035126,0.6150912046432495,-3.0880189264704874,0.04104844066432768,1.5368654305514695,164.76532769556025,131.76532769556025,128.0,128.0
306,15.3,-0.040648698806762695,0.032338619232177734,1.5693614482879639,0.022260427474975586,-1.612084150314331,-0.004477977752685547,0.7005234956741333,0.13646464049816132,0.6149442195892334,-3.0877942016595736,0.04112995574477426,1.5368670806536118,164.71337579617835,131.76645435244163,128.0,128.0
307,15.350000000000001,-0.040756940841674805,0.03254127502441406,1.5693681240081787,0.022270917892456055,-1.6121718883514404,-0.004573345184326172,0.7006337642669678,0.13637511432170868,0.6147984266281128,-3.0875698767084727,0.04121114194490873,1.536867911397767,164.71337579617835,131.76645435244163,128.0,128.0
308,15.4,-0.040866851806640625,0.0327451229095459,1.5693752765655518,0.022279739379882812,-1.6122610569000244,-0.004669904708862305,0.7007450461387634,0.13628439605236053,0.6146518588066101,-3.0873449363402163,0.041293320442799666,1.5368685342623813,164.67940552016987,131.7579617834395,128.0,128.0
309,15.450000000000001,-0.040976762771606445,0.03294992446899414,1.5693824291229248,0.022287607192993164,-1.6123497486114502,-0.004767894744873047,0.7008572220802307,0.1361934244632721,0.6145043969154358,-3.087119808681712,0.04137534837228543,1.5368700315297796,164.65677966101694,131.74576271186442,128.0,128.0
310,15.5,-0.04108715057373047,0.0331571102142334,1.5693895816802979,0.022294044494628906,-1.612438440322876,-0.0048675537109375,0.7009703516960144,0.13610215485095978,0.614355206489563,-3.0868938535313157,0.04145699488942718,1.5368732514226562,164.63269639065817,131.75583864118897,128.0,128.0
311,15.55,-0.041198015213012695,0.033362388610839844,1.569396734237671,0.022301912307739258,-1.6125285625457764,-0.004965305328369141,0.7010828852653503,0.13601034879684448,0.6142078638076782,-3.0866687151910432,0.0415395350225698,1.536874205547082,164.63269639065817,131.75583864118897,128.0,128.0
312,15.600000000000001,-0.04131054878234863,0.0335693359375,1.569403886795044,0.022308826446533203,-1.6126201152801514,-0.005064249038696289,0.7011959552764893,0.13591723144054413,0.6140590906143188,-3.0864430634901177,0.04162361052307589,1.5368751405026828,164.58562367864693,131.76109936575054,128.0,128.0
313,15.65,-0.04142260551452637,0.03377366065979004,1.5694105625152588,0.02231740951538086,-1.6127116680145264,-0.0051610469818115234,0.7013075351715088,0.13582462072372437,0.6139119863510132,-3.0862180412332973,0.04170803697739442,1.5368739436192684,164.53927813163483,131.7388535031847,128.0,128.0
314,15.700000000000001,-0.0415339469909668,0.0339808464050293,1.56941819190979,0.0223236083984375,-1.6128017902374268,-0.005260467529296875,0.7014209032058716,0.13573236763477325,0.6137632131576538,-3.0859919706036347,0.04179091270058896,1.5368759245677233,164.4968287526427,131.7293868921776,128.0,128.0
315,15.75,-0.041645050048828125,0.03418874740600586,1.5694258213043213,0.02232980728149414,-1.612891435623169,-0.005360603332519531,0.7015344500541687,0.13564039766788483,0.6136133074760437,-3.0857654283375457,0.04187308637642044,1.5368791019090933,164.48945147679325,131.70464135021098,128.0,128.0
316,15.8,-0.04175734519958496,0.03440260887145996,1.5694334506988525,0.022331953048706055,-1.6129810810089111,-0.005465984344482422,0.7016512751579285,0.13554725050926208,0.6134595274925232,-3.0855360430618344,0.04195501714057797,1.536886434353878,164.48945147679325,131.70464135021098,128.0,128.0
317,15.850000000000001,-0.04187178611755371,0.03461813926696777,1.5694410800933838,0.02233266830444336,-1.613072156906128,-0.005572795867919922,0.7017689347267151,0.1354525089263916,0.6133047342300415,-3.0853065647930267,0.042038301604226655,1.5368937116252164,164.43340380549682,131.72515856236785,128.0,128.0
318,15.9,-0.04198479652404785,0.034827232360839844,1.569448709487915,0.022338151931762695,-1.6131632328033447,-0.005674123764038086,0.7018833160400391,0.13535888493061066,0.6131545901298523,-3.085079436949574,0.042121847595733806,1.5368959666677475,164.40380549682877,131.68287526427062,128.0,128.0
319,15.950000000000001,-0.042098283767700195,0.03504443168640137,1.5694572925567627,0.022337675094604492,-1.613252878189087,-0.005782365798950195,0.7020022869110107,0.13526473939418793,0.6129986047744751,-3.084848458790159,0.0422034122490779,1.5369053160339878,164.40380549682877,131.68287526427062,128.0,128.0
320,16.0,-0.04221343994140625,0.0352635383605957,1.5694658756256104,0.022335529327392578,-1.613344430923462,-0.005892515182495117,0.7021222114562988,0.13516920804977417,0.6128409504890442,-3.084616972135951,0.04228634421460601,1.5369149823143984,164.37923728813558,131.6906779661017,128.0,128.0
321,16.05,-0.04232931137084961,0.03548097610473633,1.569474458694458,0.022334814071655273,-1.6134364604949951,-0.006000995635986328,0.7022415995597839,0.13507327437400818,0.6126846075057983,-3.0843864656270625,0.042370293668560995,1.5369225366108947,164.3044397463002,131.67441860465115,128.0,128.0
322,16.1,-0.042443037033081055,0.03569817543029785,1.5694830417633057,0.02233409881591797,-1.6135265827178955,-0.0061092376708984375,0.7023597955703735,0.13497890532016754,0.6125282049179077,-3.0841554230149755,0.04245205563273459,1.5369315492354607,164.22198731501058,131.6955602536998,128.0,128.0
323,16.150000000000002,-0.04255390167236328,0.03590703010559082,1.569490671157837,0.022340059280395508,-1.6136162281036377,-0.006209611892700195,0.7024733424186707,0.13488681614398956,0.6123777031898499,-3.08392798364584,0.042533690013945344,1.5369356182452698,164.1320754716981,131.71278825995807,128.0,128.0
324,16.2,-0.04266190528869629,0.03610849380493164,1.5694973468780518,0.02235126495361328,-1.6137049198150635,-0.006303071975708008,0.7025823593139648,0.13479703664779663,0.6122322082519531,-3.0837032183765896,0.04261474312647462,1.5369357630916147,164.09643605870022,131.68553459119497,128.0,128.0
325,16.25,-0.0427699089050293,0.03631424903869629,1.569504976272583,0.02235865592956543,-1.6137921810150146,-0.006400585174560547,0.7026937007904053,0.13470734655857086,0.6120840907096863,-3.083477008083473,0.0426945124804586,1.5369394396680398,164.09453781512605,131.6596638655462,128.0,128.0
326,16.3,-0.042879581451416016,0.03652596473693848,1.5695126056671143,0.022362470626831055,-1.6138794422149658,-0.0065038204193115234,0.7028089165687561,0.1346161812543869,0.6119313836097717,-3.0832482315493945,0.04277387871834985,1.5369470807794174,164.041928721174,131.66876310272536,128.0,128.0
327,16.35,-0.04298830032348633,0.03673434257507324,1.5695202350616455,0.022368431091308594,-1.613966703414917,-0.00660395622253418,0.7029215097427368,0.1345258355140686,0.6117809414863586,-3.0830210926193296,0.04285312056956824,1.5369531947107866,163.9979035639413,131.69601677148847,128.0,128.0
328,16.400000000000002,-0.043096303939819336,0.036936283111572266,1.5695273876190186,0.022379398345947266,-1.6140549182891846,-0.006698131561279297,0.7030308842658997,0.1344359964132309,0.6116350293159485,-3.082796254226545,0.04293346201362955,1.5369538168722008,163.9557894736842,131.66736842105263,128.0,128.0
329,16.45,-0.04320406913757324,0.037142276763916016,1.5695345401763916,0.02238774299621582,-1.6141421794891357,-0.006795644760131836,0.7031421661376953,0.13434626162052155,0.6114864349365234,-3.082569446662853,0.043012563352737815,1.5369585060054904,163.90486257928117,131.66807610993658,128.0,128.0
330,16.5,-0.043311119079589844,0.037346601486206055,1.5695416927337646,0.022397518157958984,-1.6142284870147705,-0.006892204284667969,0.7032520771026611,0.13425733149051666,0.6113387942314148,-3.082342942367844,0.04309136025764538,1.5369620478071613,163.86736842105262,131.64,128.0,128.0
