AI-SPARC/uncalibrated-visual-servoing/results/data/3_feat_mckf.csv
,t,q_1,q_2,q_3,q_4,q_5,q_6,camera_x,camera_y,camera_z,camera_roll,camera_pitch,camera_yaw,f_1,f_2,f_3,f_4,f_5,f_6,desired_f_1,desired_f_2,desired_f_3,desired_f_4,desired_f_5,desired_f_6
0,0.0,8.821487426757812e-06,0.00015425682067871094,1.5707957744598389,0.0001304149627685547,-1.5707952976226807,7.152557373046875e-07,0.680819034576416,0.16908136010169983,0.6382145881652832,-3.1409235490667897,0.00014262589818666297,1.5708377616351568,205.71618625277162,161.3569844789357,181.67405764966742,137.32594235033258,157.62334801762114,161.33920704845815,153.5,144.5,125.5,116.5,99.5,144.5
1,0.05,0.0006973743438720703,-0.00023937225341796875,1.5710952281951904,0.0012545585632324219,-1.5703237056732178,0.0011897087097167969,0.6803564429283142,0.16961070895195007,0.63815838098526,-3.1398968600902193,-0.00032397180205330197,1.5703384261758853,206.1036036036036,160.8716216216216,182.0,136.79464285714286,157.882618510158,160.92099322799098,153.5,144.5,125.5,116.5,99.5,144.5
2,0.1,0.0022008419036865234,-0.00015997886657714844,1.5720927715301514,0.0032854080200195312,-1.569101095199585,0.0033283233642578125,0.6798378825187683,0.17078101634979248,0.6371996998786926,-3.1367797231425785,-0.0015259463829615837,1.56969891928907,206.7130242825607,160.16114790286974,182.66153846153847,136.07472527472527,158.5726872246696,160.1718061674009,153.5,144.5,125.5,116.5,99.5,144.5
3,0.15000000000000002,0.0018513202667236328,-0.0008831024169921875,1.5715954303741455,0.0031783580780029297,-1.569549798965454,0.003197193145751953,0.6795853972434998,0.17048990726470947,0.6380500793457031,-3.138116193168471,-0.0010900019369507877,1.5694804666463726,206.57522123893804,160.26106194690266,182.47682119205297,136.21192052980132,158.4137168141593,160.30752212389382,153.5,144.5,125.5,116.5,99.5,144.5
4,0.2,0.0015501976013183594,-0.0016181468963623047,1.5711395740509033,0.0031576156616210938,-1.5699560642242432,0.003164529800415039,0.6793031096458435,0.170236736536026,0.6388691663742065,-3.139335989489622,-0.0006936429324699304,1.5692123016618793,206.28982300884957,160.38274336283186,182.28982300884957,136.38274336283186,158.23503325942352,160.43015521064302,153.5,144.5,125.5,116.5,99.5,144.5
5,0.25,0.0013127326965332031,-0.0023589134216308594,1.5707056522369385,0.003184080123901367,-1.5703070163726807,0.0031845569610595703,0.6790030598640442,0.1700395792722702,0.6396666169166565,-3.1404859214095033,-0.0003464338777932819,1.5689566455241848,206.08185840707964,160.46017699115043,182.0,136.5,158.05286343612335,160.5,153.5,144.5,125.5,116.5,99.5,144.5
6,0.30000000000000004,0.0010924339294433594,-0.0031425952911376953,1.5702931880950928,0.0032930374145507812,-1.5706584453582764,0.0032987594604492188,0.6786665320396423,0.16985489428043365,0.640468955039978,-3.141575036051102,1.7162620184371637e-06,1.5686223595023652,205.84632516703786,160.47438752783964,181.79379157427937,136.52549889135256,157.8711111111111,160.53555555555556,153.5,144.5,125.5,116.5,99.5,144.5
7,0.35000000000000003,0.0008924007415771484,-0.0038955211639404297,1.5699055194854736,0.0034193992614746094,-1.5709879398345947,0.0034301280975341797,0.6783376932144165,0.1696866750717163,0.6412312984466553,3.1405950799420355,0.0003280006472063058,1.5682910780616257,205.66071428571428,160.5,181.61160714285714,136.57589285714286,157.75055679287306,160.61247216035636,153.5,144.5,125.5,116.5,99.5,144.5
8,0.4,0.0006964206695556641,-0.004653215408325195,1.569533109664917,0.0035800933837890625,-1.571319341659546,0.003598928451538086,0.6779996752738953,0.16952107846736908,0.6419824957847595,3.1396238448762923,0.0006556938431300699,1.5679252093088563,205.4765100671141,160.51230425055928,181.47098214285714,136.67410714285714,157.5902004454343,160.68374164810692,153.5,144.5,125.5,116.5,99.5,144.5
9,0.45,0.0005574226379394531,-0.005398273468017578,1.5691816806793213,0.003768444061279297,-1.5715954303741455,0.0037975311279296875,0.6776530742645264,0.16940072178840637,0.6427074670791626,3.138714502908532,0.0009285021678745222,1.5675865359521906,205.28699551569505,160.5,181.33928571428572,136.69419642857142,157.5,160.71300448430495,153.5,144.5,125.5,116.5,99.5,144.5
10,0.5,0.0004184246063232422,-0.0061492919921875,1.5688302516937256,0.003963470458984375,-1.5718729496002197,0.004004001617431641,0.6773023009300232,0.16927991807460785,0.6434354782104492,3.1378052538745034,0.0012022131248144458,1.5672402095396747,205.11011235955056,160.57303370786516,181.16363636363636,136.74772727272727,157.36830357142858,160.73214285714286,153.5,144.5,125.5,116.5,99.5,144.5
11,0.55,0.0002837181091308594,-0.006915092468261719,1.568483591079712,0.004183292388916016,-1.5721518993377686,0.0042378902435302734,0.6769385933876038,0.16916221380233765,0.6441670060157776,3.136910700576753,0.0014763952519421873,1.5668688781905713,204.88988764044944,160.57303370786516,181.0,136.8675799086758,157.31838565022423,160.7152466367713,153.5,144.5,125.5,116.5,99.5,144.5
12,0.6000000000000001,0.0001506805419921875,-0.007835865020751953,1.5680835247039795,0.004441738128662109,-1.572455644607544,0.004530906677246094,0.6764941215515137,0.16904345154762268,0.6450375318527222,3.135844878961247,0.001774358883339129,1.5664397173155624,204.76576576576576,160.5,180.82687927107062,136.82687927107062,157.16363636363636,160.74772727272727,153.5,144.5,125.5,116.5,99.5,144.5
13,0.65,3.0279159545898438e-05,-0.008664608001708984,1.5677406787872314,0.004724740982055664,-1.5727379322052002,0.004841327667236328,0.6760866045951843,0.16893599927425385,0.6458016037940979,3.1349540126371362,0.0020504988254790987,1.5660053693495055,204.57207207207207,160.5,180.6606334841629,136.80769230769232,157.04328018223234,160.7995444191344,153.5,144.5,125.5,116.5,99.5,144.5
14,0.7000000000000001,-0.00010824203491210938,-0.009448528289794922,1.5674235820770264,0.005015373229980469,-1.5730335712432861,0.005156040191650391,0.6757025718688965,0.1688147783279419,0.6465166211128235,3.1341418303581436,0.0023397036349076493,1.56554853294292,204.44018058690745,160.4762979683973,180.51700680272108,136.85260770975057,156.93636363636364,160.78181818181818,153.5,144.5,125.5,116.5,99.5,144.5
15,0.75,-0.00022268295288085938,-0.010276556015014648,1.567103624343872,0.005340576171875,-1.5733158588409424,0.005513668060302734,0.6752864718437195,0.16871178150177002,0.6472600698471069,3.133316135760971,0.0026147283162889995,1.565072509722397,204.2721088435374,160.4467120181406,180.32954545454547,136.87727272727273,156.83636363636364,160.74772727272727,153.5,144.5,125.5,116.5,99.5,144.5
16,0.8,-0.00035119056701660156,-0.011191368103027344,1.5667669773101807,0.005716800689697266,-1.5736310482025146,0.005934953689575195,0.6748223900794983,0.16859661042690277,0.6480674147605896,3.132437169628788,0.002921265469292654,1.5645176521574014,204.0612244897959,160.39909297052154,180.12471131639722,136.9376443418014,156.72009029345372,160.72009029345372,153.5,144.5,125.5,116.5,99.5,144.5
17,0.8500000000000001,-0.00045609474182128906,-0.012307882308959961,1.5663950443267822,0.0062103271484375,-1.5739672183990479,0.006505489349365234,0.6742384433746338,0.16849638521671295,0.6490240693092346,3.131434545361766,0.003245239248302007,1.56383611074524,203.90160183066362,160.2654462242563,180.04872389791183,136.87935034802786,156.56916099773244,160.63718820861678,153.5,144.5,125.5,116.5,99.5,144.5
18,0.9,-0.00042700767517089844,-0.013181447982788086,1.566056489944458,0.006541252136230469,-1.574113130569458,0.0068738460540771484,0.6737741827964783,0.16850516200065613,0.6498072743415833,3.13055170707034,0.0033824086261061382,1.563492725507162,203.81379310344826,160.30574712643678,179.95127610208817,136.87935034802786,156.55,160.61818181818182,153.5,144.5,125.5,116.5,99.5,144.5
19,0.9500000000000001,-0.00045418739318847656,-0.014242172241210938,1.5656530857086182,0.006922245025634766,-1.5743486881256104,0.007315397262573242,0.673220157623291,0.1684669554233551,0.6507567167282104,3.12946469794444,0.0036052119163877314,1.5630181578325144,203.63761467889907,160.28899082568807,179.88837209302326,136.92558139534884,156.45,160.61818181818182,153.5,144.5,125.5,116.5,99.5,144.5
20,1.0,-0.0001735687255859375,-0.015344858169555664,1.5652053356170654,0.007256269454956055,-1.574275255203247,0.007709980010986328,0.6726013422012329,0.16866785287857056,0.6517685055732727,3.1282449071675056,0.003518930915187409,1.5629014970085808,203.6183908045977,160.3080459770115,179.88837209302326,136.92558139534884,156.5,160.6118721461187,153.5,144.5,125.5,116.5,99.5,144.5
21,1.05,-0.002314329147338867,-0.005331754684448242,1.5695674419403076,0.006515026092529297,-1.5749409198760986,0.005838871002197266,0.6778780817985535,0.1671300083398819,0.6420259475708008,-3.141185828598984,0.004299483428195144,1.562672990451402,203.95291479820628,159.57623318385652,180.0,135.97260273972603,156.3153153153153,159.96621621621622,153.5,144.5,125.5,116.5,99.5,144.5
22,1.1,-0.002592325210571289,-0.005484342575073242,1.5694005489349365,0.00655817985534668,-1.5752251148223877,0.005797624588012695,0.6778509616851807,0.1669103056192398,0.6422720551490784,-3.141502955554288,0.00457438005764595,1.5624354803609062,203.81614349775785,159.5896860986547,179.81981981981983,135.88963963963963,156.02739726027397,160.0,153.5,144.5,125.5,116.5,99.5,144.5
23,1.1500000000000001,-0.002750396728515625,-0.005721092224121094,1.5692470073699951,0.006656646728515625,-1.5754368305206299,0.005846977233886719,0.6777158975601196,0.16678425669670105,0.6425743699073792,3.141332181032563,0.004780924200523219,1.5622301656115667,203.6943820224719,159.5191011235955,179.63656884875846,135.93227990970655,156.0,160.0,153.5,144.5,125.5,116.5,99.5,144.5
24,1.2000000000000002,-0.002958059310913086,-0.005917787551879883,1.56911301612854,0.006754398345947266,-1.5756924152374268,0.005892038345336914,0.6776467561721802,0.1666182279586792,0.6427925229072571,3.141094175715384,0.005034917484661191,1.5619765588742607,203.55955056179775,159.52359550561798,179.57303370786516,135.88988764044944,156.0,160.0,153.5,144.5,125.5,116.5,99.5,144.5
25,1.25,-0.0032401084899902344,-0.006018161773681641,1.568993330001831,0.00679326057434082,-1.576000452041626,0.005861997604370117,0.6776473522186279,0.16639529168605804,0.6429375410079956,3.140912668315848,0.005341705342291998,1.5617228994002383,203.4527027027027,159.5472972972973,179.40224719101124,135.9370786516854,155.83031674208144,160.05882352941177,153.5,144.5,125.5,116.5,99.5,144.5
26,1.3,-0.003468036651611328,-0.006153583526611328,1.5688927173614502,0.00690150260925293,-1.5762684345245361,0.0059108734130859375,0.6776124835014343,0.1662142127752304,0.6430870890617371,3.140782460472022,0.005608720896785896,1.5614453103816581,203.3310810810811,159.52702702702703,179.31221719457014,135.9841628959276,155.66139954853273,160.02031602708803,153.5,144.5,125.5,116.5,99.5,144.5
27,1.35,-0.003615856170654297,-0.006294727325439453,1.5687921047210693,0.00701451301574707,-1.576458215713501,0.005966663360595703,0.6775606274604797,0.1660958081483841,0.6432395577430725,3.140652604262683,0.005798203227561372,1.5612412408609149,203.23423423423424,159.5,179.17351598173516,135.9543378995434,155.6121076233184,160.0403587443946,153.5,144.5,125.5,116.5,99.5,144.5
28,1.4000000000000001,-0.0038111209869384766,-0.006407499313354492,1.5687086582183838,0.007134675979614258,-1.5766923427581787,0.006026744842529297,0.6775290369987488,0.16594059765338898,0.6433604955673218,3.140574931774957,0.006032191053032724,1.5609850856709817,203.1331828442438,159.52595936794583,179.0,136.0,155.5615212527964,160.06935123042504,153.5,144.5,125.5,116.5,99.5,144.5
29,1.4500000000000002,-0.004070758819580078,-0.00645756721496582,1.568662405014038,0.007267951965332031,-1.576984167098999,0.00609588623046875,0.6775349378585815,0.16573528945446014,0.6434121131896973,3.1406107949743207,0.006323542240113478,1.560656457144833,202.9683257918552,159.46380090497738,179.0,136.0,155.37752808988765,159.98426966292135,153.5,144.5,125.5,116.5,99.5,144.5
30,1.5,-0.004175662994384766,-0.006501913070678711,1.5685913562774658,0.007348537445068359,-1.5771124362945557,0.006105661392211914,0.677527129650116,0.16565153002738953,0.6434820294380188,3.1405748942008724,0.006452607624085977,1.5605413009686755,202.90519187358916,159.43792325056432,179.0,136.0,155.35585585585585,160.0,153.5,144.5,125.5,116.5,99.5,144.5
31,1.55,-0.004266500473022461,-0.006532192230224609,1.5685198307037354,0.007413625717163086,-1.5772240161895752,0.006098270416259766,0.6775261759757996,0.16557928919792175,0.643544614315033,3.140538108695831,0.0065638145358971585,1.5604578044324013,202.84615384615384,159.45701357466064,178.94736842105263,135.9908466819222,155.35585585585585,160.0,153.5,144.5,125.5,116.5,99.5,144.5
32,1.6,-0.004415035247802734,-0.006475210189819336,1.5684678554534912,0.007437467575073242,-1.5773746967315674,0.006035327911376953,0.6775821447372437,0.16546259820461273,0.6435385346412659,3.140566848837785,0.006715155834450298,1.5603720962552625,202.77200902934538,159.47404063205417,178.83333333333334,135.94520547945206,155.225,160.03181818181818,153.5,144.5,125.5,116.5,99.5,144.5
33,1.6500000000000001,-0.004552364349365234,-0.00648951530456543,1.568415880203247,0.00752711296081543,-1.5775330066680908,0.006052255630493164,0.6775920987129211,0.16535347700119019,0.6435747146606445,3.1405893235417186,0.006873323012927188,1.5602179827836704,202.75339366515837,159.4547511312217,178.72374429223746,135.87671232876713,155.07798165137615,160.0,153.5,144.5,125.5,116.5,99.5,144.5
34,1.7000000000000002,-0.0046656131744384766,-0.006591796875,1.568347692489624,0.0076673030853271484,-1.5776865482330322,0.006133556365966797,0.6775482892990112,0.16526204347610474,0.6436767578125,3.140556658622436,0.007026475395304527,1.5600231377561218,202.63718820861678,159.43083900226756,178.6266968325792,135.90723981900453,155.02739726027397,160.0,153.5,144.5,125.5,116.5,99.5,144.5
35,1.75,-0.004784107208251953,-0.006646394729614258,1.5682966709136963,0.007796525955200195,-1.5778372287750244,0.006197690963745117,0.6775299310684204,0.1651672124862671,0.6437352895736694,3.140578154194932,0.007177577024621344,1.559840549552929,202.55555555555554,159.40816326530611,178.56433408577877,135.86230248306998,155.0,160.0,153.5,144.5,125.5,116.5,99.5,144.5
36,1.8,-0.004939556121826172,-0.006659746170043945,1.5682556629180908,0.00790548324584961,-1.5780165195465088,0.006236076354980469,0.6775405406951904,0.16504377126693726,0.6437607407569885,3.1406322438472114,0.0073569899811985395,1.5596466143727996,202.52380952380952,159.3877551020408,178.52477477477478,135.8400900900901,155.0,160.0,153.5,144.5,125.5,116.5,99.5,144.5
37,1.85,-0.005134105682373047,-0.006650209426879883,1.5682222843170166,0.008007526397705078,-1.578230619430542,0.006264686584472656,0.677568793296814,0.1648900806903839,0.6437669396400452,3.140708988902808,0.007571251644547959,1.5594235805146435,202.43083900226756,159.36281179138322,178.43595505617978,135.80898876404495,155.0,160.0,153.5,144.5,125.5,116.5,99.5,144.5
38,1.9000000000000001,-0.005442619323730469,-0.006510734558105469,1.5682260990142822,0.00806117057800293,-1.578533411026001,0.006227254867553711,0.6776841282844543,0.1646488904953003,0.643663763999939,3.140906056343674,0.007875247163849748,1.5591535849199205,202.3212669683258,159.34389140271495,178.2760180995475,135.7941176470588,154.78181818181818,159.93636363636364,153.5,144.5,125.5,116.5,99.5,144.5
39,1.9500000000000002,-0.005616664886474609,-0.006473541259765625,1.568208932876587,0.008170127868652344,-1.5787231922149658,0.00626063346862793,0.6777206659317017,0.16451190412044525,0.6436395645141602,3.141033473574102,0.008065782651767975,1.5589474141068356,202.20454545454547,159.2659090909091,178.20181405895693,135.79818594104307,154.6727272727273,159.8840909090909,153.5,144.5,125.5,116.5,99.5,144.5
40,2.0,-0.005736351013183594,-0.006422519683837891,1.568190336227417,0.008263111114501953,-1.5788547992706299,0.0062749385833740234,0.6777576208114624,0.1644180566072464,0.6436083316802979,3.1411578496066905,0.008199007668569326,1.5588143162506631,202.16363636363636,159.25227272727273,178.1366742596811,135.74715261958997,154.6266968325792,159.90723981900453,153.5,144.5,125.5,116.5,99.5,144.5
41,2.0500000000000003,-0.005883455276489258,-0.006396055221557617,1.5681712627410889,0.008377790451049805,-1.5790207386016846,0.006315708160400391,0.677783727645874,0.1643020063638687,0.6435921788215637,3.1412780158361446,0.008365419585812939,1.5586279193302863,202.1118721461187,159.2420091324201,178.09839816933638,135.7345537757437,154.5900900900901,159.86936936936937,153.5,144.5,125.5,116.5,99.5,144.5
42,2.1,-0.00603795051574707,-0.006331682205200195,1.568157434463501,0.008465766906738281,-1.5791857242584229,0.006323814392089844,0.6778333187103271,0.1641802340745926,0.6435487866401672,3.141416023499389,0.00853078237183331,1.5584659449782683,202.0137299771167,159.15560640732267,178.0,135.73181818181817,154.5258426966292,159.81348314606743,153.5,144.5,125.5,116.5,99.5,144.5
43,2.15,-0.006186246871948242,-0.006211280822753906,1.568157434463501,0.008530616760253906,-1.5793330669403076,0.006300687789916992,0.6779124140739441,0.1640642285346985,0.6434601545333862,-3.1415840299466167,0.008679632381438795,1.5583425325447406,202.0,159.07798165137615,177.9841628959276,135.68778280542986,154.43595505617978,159.80898876404495,153.5,144.5,125.5,116.5,99.5,144.5
44,2.2,-0.0062694549560546875,-0.006242990493774414,1.5681164264678955,0.00865626335144043,-1.579444169998169,0.00635981559753418,0.6778993606567383,0.16399720311164856,0.643497884273529,-3.1415332416102446,0.008791579144161453,1.558200661253516,201.97471264367817,159.08735632183908,177.91363636363636,135.65681818181818,154.4103139013453,159.81614349775785,153.5,144.5,125.5,116.5,99.5,144.5
45,2.25,-0.00639033317565918,-0.006271839141845703,1.568082571029663,0.008793115615844727,-1.5795953273773193,0.006431102752685547,0.677891731262207,0.1639007031917572,0.6435268521308899,-3.14146150376834,0.008942761789669717,1.5580094960354127,201.94252873563218,159.0758620689655,177.84650112866817,135.62528216704288,154.39101123595506,159.79775280898878,153.5,144.5,125.5,116.5,99.5,144.5
46,2.3000000000000003,-0.006551027297973633,-0.0062808990478515625,1.568056344985962,0.008928060531616211,-1.5797827243804932,0.006496429443359375,0.6779004335403442,0.16377298533916473,0.6435366272926331,-3.1413642493736895,0.009130724886013889,1.557783821027814,201.8604118993135,159.05263157894737,177.78603603603602,135.63288288288288,154.31460674157304,159.74157303370785,153.5,144.5,125.5,116.5,99.5,144.5
47,2.35,-0.006684064865112305,-0.0062482357025146484,1.5680348873138428,0.009032964706420898,-1.579932451248169,0.006525993347167969,0.6779291033744812,0.16366757452487946,0.6435179710388184,-3.1412484322894376,0.00928122143910444,1.5576226034007827,201.75854214123007,159.0501138952164,177.66289592760182,135.57692307692307,154.2545045045045,159.7117117117117,153.5,144.5,125.5,116.5,99.5,144.5
48,2.4000000000000004,-0.0068929195404052734,-0.006116151809692383,1.5680410861968994,0.009096860885620117,-1.580138921737671,0.006500959396362305,0.6780234575271606,0.1635041981935501,0.6434177756309509,-3.1410459222473452,0.009488621944929847,1.5574405426490796,201.64705882352942,159.04298642533936,177.57336343115125,135.5530474040632,154.16363636363636,159.74772727272727,153.5,144.5,125.5,116.5,99.5,144.5
49,2.45,-0.0070989131927490234,-0.0059773921966552734,1.5680582523345947,0.009177923202514648,-1.5803430080413818,0.006493330001831055,0.678117036819458,0.16334301233291626,0.6433035135269165,-3.140809861403295,0.009694466390723062,1.5572445148740022,201.53181818181818,158.9909090909091,177.5237020316027,135.55981941309255,154.04308390022675,159.7074829931973,153.5,144.5,125.5,116.5,99.5,144.5
50,2.5,-0.007218837738037109,-0.00583958625793457,1.568065881729126,0.009240150451660156,-1.580458402633667,0.0064656734466552734,0.6782000660896301,0.16324946284294128,0.64319908618927,-3.1406024776608508,0.009811908205953705,1.5571544679889993,201.53181818181818,158.9909090909091,177.4762979683973,135.55981941309255,154.02488687782807,159.68778280542986,153.5,144.5,125.5,116.5,99.5,144.5
51,2.5500000000000003,-0.007355928421020508,-0.005698204040527344,1.5680797100067139,0.009312152862548828,-1.5805928707122803,0.006448268890380859,0.6782850623130798,0.16314242780208588,0.6430864930152893,-3.1403759299999883,0.009947392654149166,1.5570373924550784,201.47845804988663,158.93424036281178,177.42792792792793,135.5,153.97968397291197,159.66139954853273,153.5,144.5,125.5,116.5,99.5,144.5
52,2.6,-0.0075113773345947266,-0.005564212799072266,1.568084955215454,0.009374380111694336,-1.5807440280914307,0.006420612335205078,0.6783710718154907,0.16302067041397095,0.6429859399795532,-3.140175133319001,0.01010057429026163,1.5569114664866461,201.39503386004515,158.89164785553046,177.37556561085972,135.5,153.90723981900453,159.6266968325792,153.5,144.5,125.5,116.5,99.5,144.5
53,2.6500000000000004,-0.007631778717041016,-0.005400180816650391,1.5680925846099854,0.009413957595825195,-1.5808537006378174,0.006365060806274414,0.6784697771072388,0.16292686760425568,0.6428655385971069,-3.139963315867915,0.010211026665046542,1.5568492144404362,201.36281179138322,158.93197278911563,177.37556561085972,135.5,153.85168539325844,159.62921348314606,153.5,144.5,125.5,116.5,99.5,144.5
54,2.7,-0.007726430892944336,-0.00525212287902832,1.5680911540985107,0.009450197219848633,-1.580939531326294,0.006307840347290039,0.6785573363304138,0.16285301744937897,0.6427628993988037,-3.1397803827117516,0.010297993947199557,1.5568138204844741,201.25570776255708,158.92694063926942,177.28699551569505,135.5,153.7847533632287,159.6322869955157,153.5,144.5,125.5,116.5,99.5,144.5
55,2.75,-0.007826089859008789,-0.005023002624511719,1.5681164264678955,0.009461402893066406,-1.5810158252716064,0.006215095520019531,0.6786875128746033,0.16277623176574707,0.6425896286964417,-3.1395139083880186,0.010376070134639927,1.556809565609697,201.25570776255708,158.92694063926942,177.23423423423424,135.5,153.7847533632287,159.6322869955157,153.5,144.5,125.5,116.5,99.5,144.5
56,2.8000000000000003,-0.00797271728515625,-0.004759788513183594,1.5681631565093994,0.009483575820922852,-1.5811359882354736,0.006130695343017578,0.6788395643234253,0.1626625657081604,0.6423762440681458,-3.1391802554138963,0.010497670701835403,1.5567508256719116,201.25570776255708,158.92694063926942,177.23423423423424,135.5,153.72035794183446,159.65548098434004,153.5,144.5,125.5,116.5,99.5,144.5
57,2.85,-0.008057355880737305,-0.004661083221435547,1.5681698322296143,0.009582281112670898,-1.5812265872955322,0.006146669387817383,0.6788919568061829,0.16259564459323883,0.6422958374023438,-3.138978305423125,0.010589930026809727,1.5566531276975855,201.21461187214612,158.8584474885845,177.18385650224215,135.4103139013453,153.65765765765767,159.62612612612614,153.5,144.5,125.5,116.5,99.5,144.5
58,2.9000000000000004,-0.008161067962646484,-0.004614353179931641,1.5681540966033936,0.009687423706054688,-1.5813448429107666,0.006173610687255859,0.6789218783378601,0.16251325607299805,0.6422650814056396,-3.1388448907998545,0.010709064647187955,1.5565242229306682,201.18764302059498,158.8604118993135,177.13063063063063,135.4099099099099,153.62387387387386,159.60585585585585,153.5,144.5,125.5,116.5,99.5,144.5
59,2.95,-0.008271932601928711,-0.004555225372314453,1.5681450366973877,0.009792089462280273,-1.5814688205718994,0.006199836730957031,0.6789590716362,0.16242524981498718,0.6422207951545715,-3.1386912044905992,0.010833747007081673,1.5563886720949256,201.11009174311926,158.86238532110093,177.10835214446954,135.39503386004515,153.59234234234233,159.57207207207207,153.5,144.5,125.5,116.5,99.5,144.5
60,3.0,-0.008390188217163086,-0.004407405853271484,1.5681474208831787,0.009835958480834961,-1.5815794467926025,0.006150960922241211,0.6790487766265869,0.1623327136039734,0.642113983631134,-3.1384960850772305,0.010945555361222539,1.5563219973858629,201.08064516129033,158.8548387096774,177.02257336343115,135.37020316027088,153.52359550561798,159.55955056179775,153.5,144.5,125.5,116.5,99.5,144.5
61,3.0500000000000003,-0.008518695831298828,-0.004302024841308594,1.568147897720337,0.009915590286254883,-1.5817110538482666,0.0061452388763427734,0.6791149973869324,0.16223154962062836,0.642034113407135,-3.1383114940017274,0.011077896195669788,1.5562015465586152,201.01830663615561,158.80091533180777,177.0,135.35585585585585,153.52359550561798,159.55955056179775,153.5,144.5,125.5,116.5,99.5,144.5
62,3.1,-0.008667230606079102,-0.004132986068725586,1.5681631565093994,0.009962797164916992,-1.5818493366241455,0.006098270416259766,0.6792181730270386,0.16211527585983276,0.6419047117233276,-3.138079909787342,0.011217504612734477,1.5561028024439985,200.9862700228833,158.84439359267733,176.90723981900453,135.3733031674208,153.4527027027027,159.5472972972973,153.5,144.5,125.5,116.5,99.5,144.5
63,3.1500000000000004,-0.008819103240966797,-0.00395965576171875,1.5681946277618408,0.010039806365966797,-1.5819942951202393,0.006082773208618164,0.679320216178894,0.1619964838027954,0.6417571902275085,-3.1377972678420303,0.011364183906962186,1.555969928380769,200.90846681922196,158.77574370709382,176.87074829931973,135.30385487528343,153.40898876404495,159.5191011235955,153.5,144.5,125.5,116.5,99.5,144.5
64,3.2,-0.008992910385131836,-0.0037584304809570312,1.5682175159454346,0.010074853897094727,-1.5821516513824463,0.0060176849365234375,0.6794447302818298,0.16186071932315826,0.6416021585464478,-3.1375392158569784,0.011522607751367358,1.5558650034231307,200.8881278538813,158.7579908675799,176.768018018018,135.31756756756758,153.3310810810811,159.52702702702703,153.5,144.5,125.5,116.5,99.5,144.5
65,3.25,-0.009144067764282227,-0.003654003143310547,1.5682399272918701,0.010198831558227539,-1.5823118686676025,0.006060123443603516,0.6795061826705933,0.16174174845218658,0.6415041089057922,-3.137290157151905,0.011684387116667066,1.5556747822849186,200.8216704288939,158.6726862302483,176.7078651685393,135.2808988764045,153.28699551569505,159.5,153.5,144.5,125.5,116.5,99.5,144.5
66,3.3000000000000003,-0.009298563003540039,-0.003544330596923828,1.5682628154754639,0.01031804084777832,-1.5824744701385498,0.006097078323364258,0.6795711517333984,0.16162019968032837,0.6414027214050293,-3.137040064620652,0.01184856963280167,1.5554868640939834,200.73589164785554,158.61851015801355,176.65919282511211,135.25336322869956,153.2134831460674,159.48314606741573,153.5,144.5,125.5,116.5,99.5,144.5
67,3.35,-0.009424686431884766,-0.0034334659576416016,1.568279504776001,0.010423421859741211,-1.582606554031372,0.006119489669799805,0.6796345710754395,0.16152086853981018,0.641305685043335,-3.136808120520632,0.011982197737730928,1.5553418088729907,200.70135746606334,158.55656108597285,176.5896860986547,135.18385650224215,153.16331096196868,159.42729306487695,153.5,144.5,125.5,116.5,99.5,144.5
68,3.4000000000000004,-0.009580135345458984,-0.0033423900604248047,1.5682833194732666,0.010522127151489258,-1.5827696323394775,0.006136178970336914,0.6796941161155701,0.1613982617855072,0.6412314176559448,-3.1366154871241996,0.012146486028164405,1.5551724979386934,200.63038548752834,158.52607709750566,176.5896860986547,135.18385650224215,153.11011235955056,159.42696629213484,153.5,144.5,125.5,116.5,99.5,144.5
69,3.45,-0.009689807891845703,-0.003243684768676758,1.5682804584503174,0.010600566864013672,-1.5828826427459717,0.00613093376159668,0.6797537207603455,0.16131186485290527,0.6411586999893188,-3.136441651054872,0.012261221241793872,1.5550714238473167,200.62443438914028,158.5,176.52242152466368,135.15022421524662,153.0629213483146,159.40224719101124,153.5,144.5,125.5,116.5,99.5,144.5
70,3.5,-0.009815454483032227,-0.003198385238647461,1.5682685375213623,0.010712623596191406,-1.583024263381958,0.0061664581298828125,0.6797855496406555,0.16121211647987366,0.6411248445510864,-3.136298364966224,0.012403557133152499,1.5549128308680424,200.57466063348417,158.49321266968326,176.4527027027027,135.11711711711712,152.98426966292135,159.37752808988765,153.5,144.5,125.5,116.5,99.5,144.5
71,3.5500000000000003,-0.009940385818481445,-0.003167867660522461,1.5682518482208252,0.010829448699951172,-1.5831677913665771,0.0062084197998046875,0.6798090934753418,0.16111280024051666,0.6411038637161255,-3.1361694718873614,0.012548001970568714,1.5547478220878002,200.5124716553288,158.47619047619048,176.41216216216216,135.08783783783784,152.9596412556054,159.3878923766816,153.5,144.5,125.5,116.5,99.5,144.5
72,3.6,-0.01009225845336914,-0.0031061172485351562,1.568244218826294,0.010933637619018555,-1.5833323001861572,0.006233692169189453,0.6798536777496338,0.16099263727664948,0.6410569548606873,-3.1360127920906935,0.012713308887301739,1.5545734360706136,200.42663656884875,158.4469525959368,176.36629213483147,135.0247191011236,152.79775280898878,159.39101123595506,153.5,144.5,125.5,116.5,99.5,144.5
73,3.6500000000000004,-0.010184764862060547,-0.0031359195709228516,1.568204641342163,0.011063575744628906,-1.5834534168243408,0.006295680999755859,0.6798427104949951,0.16091832518577576,0.6410908699035645,-3.1359542423138547,0.012835117163692832,1.554420725634759,200.4004524886878,158.45248868778282,176.30316742081448,135.0,152.7847533632287,159.3677130044843,153.5,144.5,125.5,116.5,99.5,144.5
74,3.7,-0.010308265686035156,-0.003141164779663086,1.5681731700897217,0.011185407638549805,-1.5836012363433838,0.006347179412841797,0.6798487305641174,0.16081982851028442,0.6411037445068359,-3.135870748768451,0.012984161363521516,1.554247790719956,200.37556561085972,158.40723981900453,176.15717539863326,134.9886104783599,152.74157303370785,159.31460674157304,153.5,144.5,125.5,116.5,99.5,144.5
75,3.75,-0.010457515716552734,-0.0031478404998779297,1.5681531429290771,0.011330366134643555,-1.5837781429290771,0.0064241886138916016,0.6798547506332397,0.1607009917497635,0.641106903553009,-3.135754223645498,0.013161984870587735,1.554023815495667,200.289592760181,158.3733031674208,176.02739726027397,135.0,152.68161434977577,159.2847533632287,153.5,144.5,125.5,116.5,99.5,144.5
76,3.8000000000000003,-0.010617733001708984,-0.003111124038696289,1.5681569576263428,0.011479854583740234,-1.583960771560669,0.006501436233520508,0.6798823475837708,0.16057392954826355,0.6410641670227051,-3.135566115100064,0.013346016301507287,1.5537894544511353,200.16289592760182,158.3054298642534,176.0,135.0,152.60850111856823,159.25503355704697,153.5,144.5,125.5,116.5,99.5,144.5
77,3.85,-0.010725736618041992,-0.003011941909790039,1.5681650638580322,0.011579751968383789,-1.584075689315796,0.006518363952636719,0.6799388527870178,0.16048868000507355,0.6409808397293091,-3.135359467717493,0.013462468191797349,1.5536682120951781,200.1118721461187,158.2420091324201,176.0,134.97260273972603,152.5896860986547,159.18385650224215,153.5,144.5,125.5,116.5,99.5,144.5
78,3.9000000000000004,-0.010816812515258789,-0.002838134765625,1.568166971206665,0.011598587036132812,-1.5841515064239502,0.0064389705657958984,0.6800402402877808,0.1604175865650177,0.640859067440033,-3.1351630397044903,0.013539902247138733,1.5536600435628578,200.1118721461187,158.2420091324201,176.0,134.97260273972603,152.56375838926175,159.19015659955258,153.5,144.5,125.5,116.5,99.5,144.5
79,3.95,-0.010892152786254883,-0.0027260780334472656,1.5681545734405518,0.011648416519165039,-1.5842244625091553,0.006399631500244141,0.6801053881645203,0.16035817563533783,0.6407866477966309,-3.1350137577720316,0.013613775420197706,1.5536269952358102,200.09153318077804,158.22425629290618,176.0,134.97260273972603,152.53811659192826,159.19730941704037,153.5,144.5,125.5,116.5,99.5,144.5
80,4.0,-0.010945320129394531,-0.0026481151580810547,1.5681326389312744,0.011710882186889648,-1.584282636642456,0.006377696990966797,0.6801489591598511,0.16031570732593536,0.6407424211502075,-3.134895670227226,0.013672034139094659,1.5535978477633858,200.07339449541286,158.204128440367,176.0,134.97260273972603,152.52125279642058,159.17673378076063,153.5,144.5,125.5,116.5,99.5,144.5
81,4.05,-0.010973215103149414,-0.002564668655395508,1.5681025981903076,0.011751890182495117,-1.5843117237091064,0.006331682205200195,0.6801945567131042,0.16029304265975952,0.640702486038208,-3.1348011055160323,0.01370181005174073,1.5536169939805606,200.07339449541286,158.204128440367,176.0,134.97260273972603,152.5,159.1928251121076,153.5,144.5,125.5,116.5,99.5,144.5
82,4.1000000000000005,-0.010991573333740234,-0.0025496482849121094,1.5680596828460693,0.011832714080810547,-1.584346055984497,0.006335735321044922,0.6802007555961609,0.16027724742889404,0.6407132148742676,-3.134749273693076,0.013736555504138371,1.5535954755446744,200.0137299771167,158.15560640732267,176.0,134.97260273972603,152.5,159.1928251121076,153.5,144.5,125.5,116.5,99.5,144.5
83,4.15,-0.010970830917358398,-0.002453327178955078,1.5680210590362549,0.011844873428344727,-1.5843207836151123,0.006256818771362305,0.680249810218811,0.16029293835163116,0.6406724452972412,-3.134677628429871,0.013711349633861253,1.5536960831536646,200.05491990846681,158.22425629290618,176.0,134.97260273972603,152.5,159.1928251121076,153.5,144.5,125.5,116.5,99.5,144.5
84,4.2,-0.011017560958862305,-0.0023915767669677734,1.5679800510406494,0.011885643005371094,-1.58437180519104,0.006212949752807617,0.6802887916564941,0.16025498509407043,0.6406542062759399,-3.1346156241382195,0.013762275574602077,1.553694565222209,199.98177676537586,158.24829157175398,176.0,134.97260273972603,152.4741573033708,159.18651685393257,153.5,144.5,125.5,116.5,99.5,144.5
85,4.25,-0.011052608489990234,-0.0021157264709472656,1.567962408065796,0.011770963668823242,-1.584359884262085,0.0059773921966552734,0.6804507374763489,0.16022874414920807,0.6404898762702942,-3.134466934983536,0.013749524293985769,1.5538967485726414,200.01818181818183,158.3090909090909,176.0,134.97260273972603,152.4798206278027,159.23991031390133,153.5,144.5,125.5,116.5,99.5,144.5
86,4.3,-0.011185169219970703,-0.00197601318359375,1.5679466724395752,0.011789321899414062,-1.5844824314117432,0.005900144577026367,0.6805427670478821,0.1601240485906601,0.6404038667678833,-3.134324085660001,0.013871976065218958,1.553843673916868,199.95691609977325,158.2925170068027,175.97266514806378,134.97266514806378,152.40715883668904,159.2102908277405,153.5,144.5,125.5,116.5,99.5,144.5
87,4.3500000000000005,-0.011231422424316406,-0.0018341541290283203,1.5679171085357666,0.011777400970458984,-1.5845139026641846,0.0057909488677978516,0.6806264519691467,0.16008763015270233,0.6403295397758484,-3.134222445215073,0.013903452515128747,1.5539089390063785,199.90888382687928,158.31662870159454,175.97266514806378,134.97266514806378,152.38392857142858,159.22321428571428,153.5,144.5,125.5,116.5,99.5,144.5
88,4.4,-0.011278390884399414,-0.0015864372253417969,1.567901849746704,0.01169443130493164,-1.584522008895874,0.005592823028564453,0.6807715892791748,0.16005206108093262,0.6401798129081726,-3.1340695279762683,0.01391105516714467,1.5540621159167798,199.91363636363636,158.34318181818182,175.97260273972603,135.0,152.36830357142858,159.26785714285714,153.5,144.5,125.5,116.5,99.5,144.5
89,4.45,-0.011293649673461914,-0.0014510154724121094,1.567887544631958,0.011718511581420898,-1.5845286846160889,0.005522727966308594,0.6808424592018127,0.1600397825241089,0.6400954723358154,-3.133924008655892,0.013917989657494476,1.554119087399355,199.93197278911563,158.36281179138322,175.97260273972603,135.0,152.36830357142858,159.26785714285714,153.5,144.5,125.5,116.5,99.5,144.5
90,4.5,-0.011337041854858398,-0.0013549327850341797,1.567864179611206,0.01176309585571289,-1.5845720767974854,0.0054781436920166016,0.6808956861495972,0.16000477969646454,0.6400421261787415,-3.133806926980001,0.013961609570216945,1.5541219873210361,199.91363636363636,158.34318181818182,175.94736842105263,134.9908466819222,152.36830357142858,159.26785714285714,153.5,144.5,125.5,116.5,99.5,144.5
91,4.55,-0.011438369750976562,-0.0011856555938720703,1.5678603649139404,0.011775970458984375,-1.5846588611602783,0.0053920745849609375,0.6809973120689392,0.15992507338523865,0.6399282813072205,-3.1336274363798022,0.014048111170798705,1.5541096589318357,199.88888888888889,158.35374149659864,175.85487528344672,134.95238095238096,152.36830357142858,159.26785714285714,153.5,144.5,125.5,116.5,99.5,144.5
92,4.6000000000000005,-0.011982917785644531,-0.0006749629974365234,1.5679900646209717,0.011729717254638672,-1.5851328372955322,0.005207538604736328,0.6813350319862366,0.15949924290180206,0.6394967436790466,-3.1330284535943718,0.014522673266291123,1.5537608805677627,199.71621621621622,158.3063063063063,175.57270693512305,134.83668903803132,152.0896860986547,159.27354260089686,153.5,144.5,125.5,116.5,99.5,144.5
93,4.65,-0.012200117111206055,-0.0007054805755615234,1.5679981708526611,0.011954784393310547,-1.5853893756866455,0.0053730010986328125,0.6813267469406128,0.15932676196098328,0.6394920349121094,-3.132832577828121,0.014781135246769314,1.5533835115479395,199.65842696629213,158.27191011235956,175.47874720357942,134.82326621923937,152.00226757369614,159.15192743764172,153.5,144.5,125.5,116.5,99.5,144.5
94,4.7,-0.012394905090332031,-0.0007143020629882812,1.568004846572876,0.012154817581176758,-1.5856196880340576,0.005509853363037109,0.6813273429870605,0.15917295217514038,0.6394752264022827,-3.132640205920412,0.015014101231686545,1.5530574429967647,199.51693002257338,158.20090293453725,175.41071428571428,134.76339285714286,151.9591836734694,159.09297052154196,153.5,144.5,125.5,116.5,99.5,144.5
95,4.75,-0.012613058090209961,-0.0006430149078369141,1.568023920059204,0.012302637100219727,-1.58585524559021,0.005582571029663086,0.6813790202140808,0.15900066494941711,0.6393988132476807,-3.1324034724558216,0.015251724901528227,1.5527723780294125,199.45927601809956,158.1108597285068,175.31838565022423,134.7152466367713,151.8716216216216,159.1036036036036,153.5,144.5,125.5,116.5,99.5,144.5
96,4.800000000000001,-0.012816905975341797,-0.0006303787231445312,1.5680310726165771,0.012482881546020508,-1.5860884189605713,0.00569605827331543,0.6813961863517761,0.158839151263237,0.639367401599884,-3.132206991073155,0.015487141138984868,1.5524603742974064,199.38009049773757,158.04751131221718,175.25336322869956,134.65919282511211,151.79458239277653,159.10158013544017,153.5,144.5,125.5,116.5,99.5,144.5
97,4.8500000000000005,-0.013018131256103516,-0.0006334781646728516,1.568030595779419,0.012662410736083984,-1.5863215923309326,0.005810260772705078,0.6814053058624268,0.15867942571640015,0.6393523812294006,-3.13203466125783,0.015722040799670222,1.5521497035642287,199.22374429223746,157.9703196347032,175.13063063063063,134.5900900900901,151.6121076233184,159.0403587443946,153.5,144.5,125.5,116.5,99.5,144.5
98,4.9,-0.013175725936889648,-0.0006351470947265625,1.568019151687622,0.012818098068237305,-1.5865075588226318,0.005898237228393555,0.6814128160476685,0.1585540473461151,0.639346182346344,-3.1318953060704873,0.01590983742063537,1.5519079593373668,199.10114942528736,158.01379310344828,175.0629213483146,134.59775280898876,151.6121076233184,159.0403587443946,153.5,144.5,125.5,116.5,99.5,144.5
99,4.95,-0.013381481170654297,-0.0005137920379638672,1.5680453777313232,0.012932777404785156,-1.586719274520874,0.005929470062255859,0.6814912557601929,0.15839192271232605,0.639233410358429,-3.131632860449781,0.01612343247658154,1.5516775728999315,199.0,158.0,174.92808988764045,134.56629213483146,151.50448430493273,158.95291479820628,153.5,144.5,125.5,116.5,99.5,144.5
100,5.0,-0.013580322265625,-0.0003578662872314453,1.5680773258209229,0.013027667999267578,-1.5869157314300537,0.005934953689575195,0.681588351726532,0.15823538601398468,0.6390957236289978,-3.1313501592460917,0.016321914242320483,1.5514797847703512,199.0,157.97260273972603,174.87276785714286,134.52678571428572,151.40268456375838,158.93736017897092,153.5,144.5,125.5,116.5,99.5,144.5
101,5.050000000000001,-0.013750314712524414,-0.0002913475036621094,1.5680840015411377,0.013157367706298828,-1.5871002674102783,0.005987405776977539,0.6816330552101135,0.15810111165046692,0.6390335559844971,-3.1311503527907094,0.016508433288019125,1.5512626590068057,198.97706422018348,157.9243119266055,174.7865168539326,134.48314606741573,151.38478747203578,158.8903803131991,153.5,144.5,125.5,116.5,99.5,144.5
102,5.1000000000000005,-0.013940811157226562,-0.00022268295288085938,1.568091630935669,0.013286352157592773,-1.5873053073883057,0.0060389041900634766,0.6816815137863159,0.15795040130615234,0.6389694213867188,-3.1309474173810923,0.0167150386914446,1.5510260777164568,198.9264367816092,157.8735632183908,174.6943820224719,134.4808988764045,151.30337078651687,158.86966292134832,153.5,144.5,125.5,116.5,99.5,144.5
103,5.15,-0.014109373092651367,-0.0001804828643798828,1.5680978298187256,0.013437509536743164,-1.5874955654144287,0.0061168670654296875,0.6817115545272827,0.1578165590763092,0.6389214396476746,-3.130750064184358,0.016906964243143724,1.5507844904669337,198.85227272727272,157.7840909090909,174.63758389261744,134.4295302013423,151.22696629213482,158.83370786516855,153.5,144.5,125.5,116.5,99.5,144.5
104,5.2,-0.014264583587646484,-0.0001475811004638672,1.5680935382843018,0.013578176498413086,-1.5876719951629639,0.006184101104736328,0.6817367076873779,0.15769347548484802,0.6388880014419556,-3.130583357652465,0.017085389589211124,1.55056709336344,198.72108843537416,157.718820861678,174.57399103139014,134.4080717488789,151.12780269058297,158.84304932735427,153.5,144.5,125.5,116.5,99.5,144.5
105,5.25,-0.014397859573364258,-9.5367431640625e-05,1.5680935382843018,0.013708114624023438,-1.587822675704956,0.006238222122192383,0.6817697882652283,0.15758748352527618,0.6388393640518188,-3.130402909404441,0.017237989682650806,1.5503848248835919,198.6266968325792,157.6447963800905,174.51901565995524,134.3579418344519,151.07432432432432,158.84459459459458,153.5,144.5,125.5,116.5,99.5,144.5
106,5.300000000000001,-0.014538288116455078,-2.1696090698242188e-05,1.5680949687957764,0.013820409774780273,-1.5879747867584229,0.006270885467529297,0.6818162798881531,0.15747632086277008,0.6387771964073181,-3.130216947696647,0.017391778956801145,1.5502167397943054,198.60544217687075,157.57369614512473,174.47533632286996,134.33183856502242,151.03378378378378,158.77927927927928,153.5,144.5,125.5,116.5,99.5,144.5
107,5.3500000000000005,-0.014659881591796875,3.314018249511719e-05,1.5680816173553467,0.013922929763793945,-1.5881097316741943,0.006294727325439453,0.6818526983261108,0.15737953782081604,0.6387385129928589,-3.130073818647896,0.0175276203286778,1.550075382338322,198.55555555555554,157.59183673469389,174.4314606741573,134.3123595505618,150.99099099099098,158.6936936936937,153.5,144.5,125.5,116.5,99.5,144.5
108,5.4,-0.014792919158935547,0.00015211105346679688,1.5680739879608154,0.013975381851196289,-1.5882399082183838,0.006257534027099609,0.6819291114807129,0.15727439522743225,0.6386576294898987,-3.1299096902338364,0.017658827316969255,1.5499838706166331,198.50226244343892,157.5656108597285,174.34451901565996,134.27964205816554,150.9304932735426,158.71076233183857,153.5,144.5,125.5,116.5,99.5,144.5
109,5.45,-0.0149383544921875,0.0002491474151611328,1.5680692195892334,0.014053583145141602,-1.5883896350860596,0.006251096725463867,0.6819925904273987,0.1571592539548874,0.6385874152183533,-3.1297396733566334,0.017808944123107587,1.549849720171542,198.46380090497738,157.53619909502262,174.28794642857142,134.31919642857142,150.8165548098434,158.65324384787473,153.5,144.5,125.5,116.5,99.5,144.5
110,5.5,-0.01500248908996582,0.0002951622009277344,1.5680534839630127,0.014158248901367188,-1.5884678363800049,0.00627899169921875,0.6820159554481506,0.15710772573947906,0.638556718826294,-3.129606576297619,0.017889112573035187,1.5497612646647416,198.43764172335602,157.53061224489795,174.26681614349775,134.28923766816143,150.8251121076233,158.62780269058297,153.5,144.5,125.5,116.5,99.5,144.5
111,5.550000000000001,-0.015100955963134766,0.00038552284240722656,1.5680429935455322,0.014232635498046875,-1.588571310043335,0.006268024444580078,0.6820697784423828,0.15702953934669495,0.6384949088096619,-3.129452991943773,0.017992765720902814,1.5496774938509532,198.3877551020408,157.52380952380952,174.24099099099098,134.24774774774775,150.77678571428572,158.61607142857142,153.5,144.5,125.5,116.5,99.5,144.5
112,5.6000000000000005,-0.015215158462524414,0.0004858970642089844,1.5680277347564697,0.014287471771240234,-1.5886857509613037,0.0062351226806640625,0.682134211063385,0.15693888068199158,0.6384314894676208,-3.1293127391730713,0.01810785551292843,1.5496002375055218,198.35665914221218,157.51918735891647,174.17233560090702,134.22675736961452,150.72383073496658,158.65701559020044,153.5,144.5,125.5,116.5,99.5,144.5
113,5.65,-0.015340089797973633,0.0005443096160888672,1.56801438331604,0.014384031295776367,-1.588822603225708,0.00625300407409668,0.6821737885475159,0.15683938562870026,0.6383917927742004,-3.12917235079769,0.01824547226270849,1.5494616347257957,198.27828054298644,157.52714932126696,174.0995475113122,134.19230769230768,150.70601336302894,158.6369710467706,153.5,144.5,125.5,116.5,99.5,144.5
114,5.7,-0.015510797500610352,0.0006785392761230469,1.5680205821990967,0.014449596405029297,-1.5889904499053955,0.006227970123291016,0.6822601556777954,0.1567043513059616,0.6382894515991211,-3.1289662297526735,0.018414169959574747,1.5493212269062149,198.2262443438914,157.51809954751133,173.99321266968326,134.1266968325792,150.59955257270693,158.668903803132,153.5,144.5,125.5,116.5,99.5,144.5
115,5.75,-0.0156857967376709,0.0007433891296386719,1.5680162906646729,0.014560461044311523,-1.5891783237457275,0.006259441375732422,0.6823076605796814,0.15656571090221405,0.6382376551628113,-3.128796812215569,0.018602934881086962,1.549120595661337,198.13151927437642,157.47619047619048,173.98185941043084,134.10204081632654,150.53467561521254,158.60402684563758,153.5,144.5,125.5,116.5,99.5,144.5
116,5.800000000000001,-0.015847444534301758,0.0008544921875,1.5680100917816162,0.014622688293457031,-1.5893399715423584,0.0062334537506103516,0.6823820471763611,0.1564377248287201,0.6381602883338928,-3.128630011083309,0.01876545763215696,1.548989809039759,198.07013574660633,157.42760180995475,173.9232505643341,134.12866817155756,150.47309417040358,158.61659192825113,153.5,144.5,125.5,116.5,99.5,144.5
117,5.8500000000000005,-0.015979290008544922,0.0009596347808837891,1.5680091381072998,0.014702081680297852,-1.5894744396209717,0.006227016448974609,0.6824471354484558,0.1563335508108139,0.6380817890167236,-3.1284470056121307,0.01890126144181402,1.5488700912731446,198.04751131221718,157.38009049773757,173.84650112866817,134.11286681715575,150.4496644295302,158.60402684563758,153.5,144.5,125.5,116.5,99.5,144.5
118,5.9,-0.016118288040161133,0.0010514259338378906,1.5680110454559326,0.014799118041992188,-1.58962082862854,0.006241321563720703,0.6825039982795715,0.15622329711914062,0.6380083560943604,-3.1282567732549347,0.019049062857264064,1.548722052276043,197.9362186788155,157.35763097949885,173.7714932126697,134.1153846153846,150.38839285714286,158.57589285714286,153.5,144.5,125.5,116.5,99.5,144.5
119,5.95,-0.0162506103515625,0.0012314319610595703,1.5680382251739502,0.014861822128295898,-1.5897438526153564,0.006209373474121094,0.6826063990592957,0.15611889958381653,0.6378610134124756,-3.1279864526203705,0.019173065780591934,1.5486281918927236,197.8733031674208,157.37556561085972,173.70337078651684,134.10786516853932,150.30357142857142,158.55580357142858,153.5,144.5,125.5,116.5,99.5,144.5
120,6.0,-0.0163724422454834,0.0014040470123291016,1.5680668354034424,0.014935016632080078,-1.5898582935333252,0.006188869476318359,0.6827020645141602,0.156022846698761,0.6377164125442505,-3.1277120063840127,0.019289109036075232,1.5485341834067226,197.85681818181817,157.325,173.6121076233184,134.0403587443946,150.27740492170022,158.5615212527964,153.5,144.5,125.5,116.5,99.5,144.5
121,6.050000000000001,-0.016532421112060547,0.0015377998352050781,1.5680897235870361,0.01503300666809082,-1.590019941329956,0.006199836730957031,0.682780921459198,0.1558961719274521,0.6376008987426758,-3.127458664404402,0.019452089086893137,1.5483703177520156,197.85681818181817,157.325,173.60178970917227,134.01565995525726,150.25,158.53794642857142,153.5,144.5,125.5,116.5,99.5,144.5
122,6.1000000000000005,-0.016698837280273438,0.0016493797302246094,1.5681006908416748,0.015128374099731445,-1.5901906490325928,0.0062103271484375,0.6828509569168091,0.15576408803462982,0.6375083923339844,-3.1272419722431746,0.019624223673170536,1.5481997551857385,197.74266365688487,157.30925507900676,173.56599552572706,133.97762863534675,150.16071428571428,158.5,153.5,144.5,125.5,116.5,99.5,144.5
123,6.15,-0.016857147216796875,0.0018112659454345703,1.5681116580963135,0.01517796516418457,-1.5903398990631104,0.006165266036987305,0.6829503774642944,0.15563921630382538,0.637385904788971,-3.1270192150835157,0.01977392106305067,1.5480933498249003,197.69300225733633,157.29345372460497,173.48552338530067,133.97772828507794,150.12723214285714,158.47321428571428,153.5,144.5,125.5,116.5,99.5,144.5
124,6.2,-0.01702427864074707,0.0020034313201904297,1.5681369304656982,0.015225648880004883,-1.5904934406280518,0.0061151981353759766,0.6830654144287109,0.15550734102725983,0.6372337937355042,-3.126753619750994,0.019928683380504155,1.5479833442593742,197.6591422121896,157.21896162528216,173.40178571428572,133.91071428571428,150.02227171492206,158.48552338530067,153.5,144.5,125.5,116.5,99.5,144.5
125,6.25,-0.017169475555419922,0.0020949840545654297,1.5681345462799072,0.01531672477722168,-1.5906450748443604,0.006122112274169922,0.6831236481666565,0.15539225935935974,0.6371641159057617,-3.126574480769989,0.02008092230509866,1.5478372079132041,197.60722347629797,157.22121896162528,173.40178571428572,133.91071428571428,149.94654788418708,158.4498886414254,153.5,144.5,125.5,116.5,99.5,144.5
126,6.300000000000001,-0.017288923263549805,0.0021893978118896484,1.5681259632110596,0.015392303466796875,-1.5907680988311768,0.006112337112426758,0.6831817626953125,0.1552974283695221,0.6370988488197327,-3.1264142584542816,0.020205312063347004,1.5477331567170534,197.5382882882883,157.1846846846847,173.38616071428572,133.86383928571428,149.89755011135858,158.46547884187083,153.5,144.5,125.5,116.5,99.5,144.5
127,6.3500000000000005,-0.01741313934326172,0.002295255661010742,1.5681140422821045,0.015448570251464844,-1.5908920764923096,0.0060803890228271484,0.6832494735717773,0.15519873797893524,0.637029767036438,-3.126264257490783,0.020329639823687764,1.5476456383353676,197.49099099099098,157.2072072072072,173.27865168539327,133.83820224719102,149.83035714285714,158.453125,153.5,144.5,125.5,116.5,99.5,144.5
128,6.4,-0.017554044723510742,0.0023932456970214844,1.5681087970733643,0.015526294708251953,-1.5910370349884033,0.0060727596282958984,0.683311939239502,0.15508683025836945,0.6369593739509583,-3.1260943203207936,0.020475072325003462,1.5475178900553017,197.4762979683973,157.18510158013544,173.20403587443946,133.847533632287,149.75723830734967,158.43652561247217,153.5,144.5,125.5,116.5,99.5,144.5
129,6.45,-0.017673254013061523,0.002450227737426758,1.5680997371673584,0.015633821487426758,-1.5911695957183838,0.006101846694946289,0.6833478808403015,0.15499186515808105,0.6369165182113647,-3.1259404624171316,0.020609219673263235,1.5473745425221268,197.43764172335602,157.0952380952381,173.12780269058297,133.84304932735427,149.73883928571428,158.41741071428572,153.5,144.5,125.5,116.5,99.5,144.5
130,6.5,-0.01778268814086914,0.0025038719177246094,1.5680930614471436,0.015749216079711914,-1.591294527053833,0.006140232086181641,0.683379590511322,0.1549045890569687,0.6368728876113892,-3.125779525837598,0.020735328749618354,1.5472323933406311,197.3097949886105,157.06833712984056,173.07865168539325,133.8179775280899,149.73214285714286,158.36830357142858,153.5,144.5,125.5,116.5,99.5,144.5
131,6.550000000000001,-0.01792764663696289,0.002707958221435547,1.568115472793579,0.01578044891357422,-1.5914223194122314,0.006071329116821289,0.683499813079834,0.15478993952274323,0.6367151141166687,-3.1255199214746177,0.020863912129098872,1.547163461336708,197.26773455377574,157.0366132723112,173.06726457399103,133.79372197309416,149.6369710467706,158.3630289532294,153.5,144.5,125.5,116.5,99.5,144.5
132,6.6000000000000005,-0.018028974533081055,0.002849102020263672,1.5681135654449463,0.015824317932128906,-1.5915162563323975,0.00602269172668457,0.6835824847221375,0.1547095626592636,0.6366158723831177,-3.1253357075454087,0.020958387237712504,1.5471164174313161,197.1520737327189,157.05990783410138,173.04269662921348,133.80449438202248,149.6369710467706,158.3630289532294,153.5,144.5,125.5,116.5,99.5,144.5
133,6.65,-0.01816558837890625,0.003169536590576172,1.5681564807891846,0.015786409378051758,-1.5916101932525635,0.005866289138793945,0.6837658882141113,0.15460236370563507,0.6363716125488281,-3.1250062709898345,0.021051309623791616,1.5471443952329393,197.12471131639722,157.0623556581986,173.00447427293065,133.76733780760625,149.57589285714286,158.38839285714286,153.5,144.5,125.5,116.5,99.5,144.5
134,6.7,-0.018312692642211914,0.003415346145629883,1.5681841373443604,0.015790224075317383,-1.5917303562164307,0.005762577056884766,0.6839094161987305,0.15448641777038574,0.6361855268478394,-3.1247269087577223,0.02117077608029662,1.5471088664468675,197.1152073732719,157.036866359447,172.94407158836688,133.7337807606264,149.49553571428572,158.37053571428572,153.5,144.5,125.5,116.5,99.5,144.5
135,6.75,-0.018441200256347656,0.0035741329193115234,1.568190336227417,0.01583409309387207,-1.5918490886688232,0.005711078643798828,0.6840029358863831,0.1543845683336258,0.636070191860199,-3.1245186422313314,0.021290020894197487,1.5470382359506158,197.04827586206898,157.02298850574712,172.90604026845637,133.70022371364652,149.47661469933186,158.35189309576836,153.5,144.5,125.5,116.5,99.5,144.5
136,6.800000000000001,-0.018596410751342773,0.0037887096405029297,1.5682051181793213,0.01584172248840332,-1.591982126235962,0.0056149959564208984,0.6841323971748352,0.15426184237003326,0.6359137892723083,-3.1242800734975793,0.021422850125195368,1.5469863297913853,197.0,157.0,172.79017857142858,133.65625,149.42,158.38666666666666,153.5,144.5,125.5,116.5,99.5,144.5
137,6.8500000000000005,-0.018775463104248047,0.003971099853515625,1.5682251453399658,0.015889883041381836,-1.592149019241333,0.0055658817291259766,0.6842437982559204,0.15412038564682007,0.6357716917991638,-3.124029140484703,0.021589498283604767,1.546864408069352,197.0,157.0,172.72383073496658,133.65701559020044,149.33185840707964,158.35176991150442,153.5,144.5,125.5,116.5,99.5,144.5
138,6.9,-0.018921613693237305,0.0040836334228515625,1.5682313442230225,0.015976905822753906,-1.5922977924346924,0.005566120147705078,0.6843120455741882,0.15400417149066925,0.6356827616691589,-3.1238248144514245,0.02173955342271963,1.5467250221503517,197.0,157.0,172.67405764966742,133.67405764966742,149.30752212389382,158.34513274336283,153.5,144.5,125.5,116.5,99.5,144.5
139,6.95,-0.019063949584960938,0.004179954528808594,1.5682408809661865,0.016085386276245117,-1.5924484729766846,0.005591869354248047,0.6843686699867249,0.1538909673690796,0.6356006264686584,-3.1236124981450204,0.02189164298423482,1.546564748595767,197.0,157.0,172.64888888888888,133.6822222222222,149.2577777777778,158.36222222222221,153.5,144.5,125.5,116.5,99.5,144.5
140,7.0,-0.019191503524780273,0.0042340755462646484,1.5682451725006104,0.01622295379638672,-1.5925943851470947,0.005653858184814453,0.6843991279602051,0.15378928184509277,0.6355475783348083,-3.1234186793153422,0.022039379037051457,1.546381941657035,196.93778801843317,156.95391705069125,172.55456570155903,133.60579064587972,149.184855233853,158.33407572383072,153.5,144.5,125.5,116.5,99.5,144.5
141,7.050000000000001,-0.019332408905029297,0.004278898239135742,1.5682423114776611,0.01635456085205078,-1.5927536487579346,0.0057103633880615234,0.6844282150268555,0.153676837682724,0.6355060935020447,-3.1232473512758667,0.02220124783349215,1.5461912126484918,196.87557603686636,156.91013824884791,172.53555555555556,133.62444444444444,149.12053571428572,158.30133928571428,153.5,144.5,125.5,116.5,99.5,144.5
142,7.1000000000000005,-0.019440650939941406,0.0043332576751708984,1.568239450454712,0.016477108001708984,-1.5928781032562256,0.00575566291809082,0.6844590306282043,0.1535900980234146,0.6354587078094482,-3.123075432475758,0.02232733930518839,1.5460436452846809,196.7722095671982,156.84738041002277,172.47333333333333,133.54444444444445,149.03131991051455,158.2572706935123,153.5,144.5,125.5,116.5,99.5,144.5
143,7.15,-0.019552230834960938,0.004407644271850586,1.5682275295257568,0.016564607620239258,-1.5929982662200928,0.005760669708251953,0.6845044493675232,0.15350095927715302,0.6354073286056519,-3.122925846439127,0.0224486266877885,1.5459330577547505,196.72171945701356,156.8212669683258,172.42633928571428,133.54464285714286,148.99552572706935,158.23266219239375,153.5,144.5,125.5,116.5,99.5,144.5
144,7.2,-0.01965808868408203,0.004500389099121094,1.568220853805542,0.016643762588500977,-1.593109369277954,0.005754947662353516,0.6845595836639404,0.1534164845943451,0.6353408098220825,-3.122760906906878,0.022559864907183688,1.5458385997302897,196.625,156.8068181818182,172.4008908685969,133.5523385300668,148.93273542600897,158.20627802690584,153.5,144.5,125.5,116.5,99.5,144.5
145,7.25,-0.019746065139770508,0.004647016525268555,1.568223237991333,0.016690492630004883,-1.5931904315948486,0.005709171295166016,0.6846418976783752,0.15334630012512207,0.6352341175079346,-3.122563265644165,0.02264143836707793,1.5458026979604875,196.52927927927928,156.7454954954955,172.34966592427617,133.53897550111358,148.89461883408072,158.18161434977577,153.5,144.5,125.5,116.5,99.5,144.5
146,7.300000000000001,-0.019821643829345703,0.00487518310546875,1.568239450454712,0.016689062118530273,-1.5932409763336182,0.005601167678833008,0.6847677826881409,0.15328647196292877,0.6350671052932739,-3.122317369118658,0.022691534307334518,1.5458412870300668,196.52927927927928,156.7454954954955,172.32888888888888,133.55555555555554,148.86800894854585,158.1834451901566,153.5,144.5,125.5,116.5,99.5,144.5
147,7.3500000000000005,-0.01987767219543457,0.00507807731628418,1.568256139755249,0.016712188720703125,-1.5932786464691162,0.005522489547729492,0.6848751306533813,0.15324179828166962,0.6349150538444519,-3.1220726152609726,0.022729400410451767,1.5458703155745728,196.52927927927928,156.7454954954955,172.29777777777778,133.51333333333332,148.87219730941703,158.15695067264573,153.5,144.5,125.5,116.5,99.5,144.5
148,7.4,-0.019989490509033203,0.005283832550048828,1.568267583847046,0.016721487045288086,-1.5933701992034912,0.005429267883300781,0.68499356508255,0.1531529277563095,0.6347668766975403,-3.1218444414775073,0.02281974755786096,1.545858502335578,196.52927927927928,156.7454954954955,172.25555555555556,133.54,148.81959910913142,158.19599109131403,153.5,144.5,125.5,116.5,99.5,144.5
149,7.45,-0.020065784454345703,0.005410909652709961,1.5682785511016846,0.016803503036499023,-1.5934464931488037,0.005423307418823242,0.6850588321685791,0.15309153497219086,0.6346647143363953,-3.12162488697134,0.022897188091811828,1.5457948352910065,196.52927927927928,156.7454954954955,172.24833702882484,133.51441241685143,148.8084632516704,158.1915367483296,153.5,144.5,125.5,116.5,99.5,144.5
150,7.5,-0.020165443420410156,0.005521297454833984,1.5682809352874756,0.01688408851623535,-1.5935485363006592,0.005417346954345703,0.6851202249526978,0.1530119627714157,0.6345803141593933,-3.121432630620289,0.022999975925817907,1.545707684428953,196.50675675675674,156.70045045045046,172.21902654867256,133.4513274336283,148.77951002227172,158.16926503340758,153.5,144.5,125.5,116.5,99.5,144.5
151,7.550000000000001,-0.02028822898864746,0.005614519119262695,1.5682642459869385,0.01694345474243164,-1.5936734676361084,0.0053899288177490234,0.6851803064346313,0.1529136300086975,0.6345227956771851,-3.1212970064779926,0.023124886905034236,1.5456175117292574,196.44044943820225,156.70337078651684,172.15964523281596,133.47671840354766,148.68514412416852,158.14412416851442,153.5,144.5,125.5,116.5,99.5,144.5
152,7.6000000000000005,-0.020363807678222656,0.005707263946533203,1.5682542324066162,0.017017364501953125,-1.5937530994415283,0.005378007888793945,0.6852315068244934,0.15285296738147736,0.6344590783119202,-3.1211407874227266,0.023204836154807264,1.545559152487158,196.41123595505618,156.6943820224719,172.16666666666666,133.45111111111112,148.66,158.13555555555556,153.5,144.5,125.5,116.5,99.5,144.5
153,7.65,-0.020447492599487305,0.005812406539916992,1.568237066268921,0.017064809799194336,-1.5938355922698975,0.005335807800292969,0.6852936148643494,0.1527857929468155,0.6343943476676941,-3.121004875295222,0.023287392688541516,1.545522415600079,196.3589164785553,156.69525959367945,172.14031180400892,133.4498886414254,148.6369710467706,158.14922048997772,153.5,144.5,125.5,116.5,99.5,144.5
154,7.7,-0.020542383193969727,0.0059604644775390625,1.5682337284088135,0.017099618911743164,-1.5939218997955322,0.0052759647369384766,0.6853792667388916,0.15271027386188507,0.6342921257019043,-3.1208236693811986,0.02337296945064131,1.5454939152093659,196.33333333333334,156.7027027027027,172.0931263858093,133.42572062084258,148.57111111111112,158.12222222222223,153.5,144.5,125.5,116.5,99.5,144.5
155,7.75,-0.02063894271850586,0.00606989860534668,1.5682203769683838,0.0171506404876709,-1.5940167903900146,0.005238056182861328,0.6854447722434998,0.1526329219341278,0.6342219114303589,-3.120675711482322,0.02346800513016348,1.5454407893067157,196.33333333333334,156.7027027027027,172.0,133.4711111111111,148.57111111111112,158.12222222222223,153.5,144.5,125.5,116.5,99.5,144.5
156,7.800000000000001,-0.020732879638671875,0.006171464920043945,1.5682299137115479,0.01725482940673828,-1.5941178798675537,0.005257844924926758,0.6854972839355469,0.15255750715732574,0.634135365486145,-3.1204615536446356,0.023570181264237617,1.5453333708940604,196.2921348314607,156.64044943820224,171.98883928571428,133.38616071428572,148.5511111111111,158.08,153.5,144.5,125.5,116.5,99.5,144.5
157,7.8500000000000005,-0.020862102508544922,0.006299734115600586,1.5682175159454346,0.01728963851928711,-1.5942409038543701,0.005199909210205078,0.6855788230895996,0.15245458483695984,0.6340534090995789,-3.120309908019517,0.02369256993728776,1.5452685138788735,196.2392776523702,156.6410835214447,171.953125,133.42410714285714,148.52433628318585,158.0995575221239,153.5,144.5,125.5,116.5,99.5,144.5
158,7.9,-0.020975351333618164,0.006485700607299805,1.5682342052459717,0.01732802391052246,-1.5943405628204346,0.005140781402587891,0.68568354845047,0.15236429870128632,0.6339110136032104,-3.1200665027462455,0.023792336436810873,1.5452223941447274,196.21396396396398,156.63288288288288,171.88418708240533,133.40311804008908,148.51548672566372,158.0486725663717,153.5,144.5,125.5,116.5,99.5,144.5
159,7.95,-0.02114272117614746,0.0067293643951416016,1.5682637691497803,0.017338037490844727,-1.594482660293579,0.005044460296630859,0.6858274340629578,0.15223152935504913,0.633723258972168,-3.1197805889128065,0.023933110539292417,1.5451614046791797,196.1489841986456,156.6094808126411,171.82589285714286,133.37276785714286,148.42350332594236,158.03325942350332,153.5,144.5,125.5,116.5,99.5,144.5
160,8.0,-0.02127552032470703,0.006926536560058594,1.5682780742645264,0.01736164093017578,-1.594597578048706,0.004967212677001953,0.6859423518180847,0.1521260142326355,0.6335772275924683,-3.11954430820361,0.024047664248210678,1.5451135926761828,196.1489841986456,156.6094808126411,171.74444444444444,133.41333333333333,148.39643652561247,158.01336302895322,153.5,144.5,125.5,116.5,99.5,144.5
161,8.05,-0.02138352394104004,0.007094860076904297,1.568310022354126,0.017445802688598633,-1.594700574874878,0.0049593448638916016,0.686030387878418,0.15203991532325745,0.6334328055381775,-3.1192606703301937,0.024151694828035447,1.5450224076471186,196.13063063063063,156.5900900900901,171.72383073496658,133.34298440979956,148.35189309576836,157.98440979955456,153.5,144.5,125.5,116.5,99.5,144.5
162,8.1,-0.02152395248413086,0.007216930389404297,1.5683066844940186,0.017505407333374023,-1.5948388576507568,0.004929542541503906,0.6861057877540588,0.15192803740501404,0.6333469152450562,-3.1190826700207817,0.024290079036681556,1.5449196666344827,196.0135440180587,156.60496613995485,171.6977777777778,133.33777777777777,148.29111111111112,157.96,153.5,144.5,125.5,116.5,99.5,144.5
163,8.15,-0.02167224884033203,0.007460117340087891,1.5683276653289795,0.017499208450317383,-1.5949594974517822,0.004814863204956055,0.6862486600875854,0.15181037783622742,0.6331672072410583,-3.118821207678761,0.024408982914478364,1.5448943702066957,195.9683972911964,156.59819413092552,171.61111111111111,133.3,148.25892857142858,158.0,153.5,144.5,125.5,116.5,99.5,144.5
164,8.200000000000001,-0.021861553192138672,0.007684230804443359,1.5683605670928955,0.017533302307128906,-1.5951287746429443,0.004745960235595703,0.6863828301429749,0.1516600400209427,0.6329888701438904,-3.118528817867551,0.024577811541060222,1.5447849885901763,195.9527027027027,156.57657657657657,171.5862831858407,133.30752212389382,148.1644144144144,157.96846846846847,153.5,144.5,125.5,116.5,99.5,144.5
165,8.25,-0.021986722946166992,0.00783395767211914,1.5683701038360596,0.0175931453704834,-1.595247507095337,0.004712343215942383,0.6864683032035828,0.15156039595603943,0.632874608039856,-3.11830932662699,0.02469667058393381,1.5447012729352176,195.8846153846154,156.50226244343892,171.5688888888889,133.26888888888888,148.11764705882354,157.94796380090497,153.5,144.5,125.5,116.5,99.5,144.5
166,8.3,-0.0220947265625,0.008022785186767578,1.5683729648590088,0.017603158950805664,-1.595337152481079,0.004621028900146484,0.6865773797035217,0.15147452056407928,0.6327431797981262,-3.118105911618684,0.024785449458478954,1.5446925696675053,195.85778781038374,156.50338600451468,171.54646017699116,133.27433628318585,148.07045454545454,157.96818181818182,153.5,144.5,125.5,116.5,99.5,144.5
167,8.35,-0.022184371948242188,0.008183002471923828,1.5683772563934326,0.017642498016357422,-1.5954163074493408,0.004563808441162109,0.6866670250892639,0.15140286087989807,0.6326276063919067,-3.1179013765449466,0.024864173472106788,1.5446667157001235,195.82921348314608,156.4629213483146,171.51769911504425,133.26106194690266,148.02733485193622,157.97266514806378,153.5,144.5,125.5,116.5,99.5,144.5
168,8.4,-0.022240877151489258,0.008312702178955078,1.5683715343475342,0.017690658569335938,-1.5954678058624268,0.004519939422607422,0.6867355704307556,0.1513572782278061,0.632538378238678,-3.117728265755907,0.024915635794974012,1.5446594608540505,195.80269058295963,156.46188340807174,171.4459161147903,133.24503311258277,147.97266514806378,157.97266514806378,153.5,144.5,125.5,116.5,99.5,144.5
169,8.450000000000001,-0.022308349609375,0.008382320404052734,1.5683653354644775,0.01779341697692871,-1.5955464839935303,0.004541873931884766,0.686769425868988,0.1513025015592575,0.6324850916862488,-3.117564099637793,0.024995380889442455,1.5445764785927132,195.78426966292136,156.4426966292135,171.4513274336283,133.21902654867256,147.97266514806378,157.97266514806378,153.5,144.5,125.5,116.5,99.5,144.5
170,8.5,-0.0224001407623291,0.008472442626953125,1.5683529376983643,0.01786637306213379,-1.595642328262329,0.004529237747192383,0.6868216395378113,0.1512286365032196,0.6324247121810913,-3.117413114985714,0.02509133121282949,1.5445034190006617,195.68988764044943,156.4561797752809,171.42572062084258,133.2128603104213,147.87358916478556,157.96613995485328,153.5,144.5,125.5,116.5,99.5,144.5
171,8.55,-0.022458314895629883,0.008605718612670898,1.5683505535125732,0.01791691780090332,-1.5956957340240479,0.004487752914428711,0.686892569065094,0.15118154883384705,0.6323299407958984,-3.117230348811709,0.025144516590518817,1.5444923633384833,195.68988764044943,156.4561797752809,171.42572062084258,133.2128603104213,147.86261261261262,157.94144144144144,153.5,144.5,125.5,116.5,99.5,144.5
172,8.6,-0.022516489028930664,0.008743524551391602,1.568340539932251,0.017948389053344727,-1.5957462787628174,0.004424571990966797,0.6869682669639587,0.15113447606563568,0.632239818572998,-3.117069797237918,0.025193718703218515,1.54450232373348,195.68988764044943,156.4561797752809,171.42572062084258,133.2128603104213,147.78173719376392,157.92204899777283,153.5,144.5,125.5,116.5,99.5,144.5
173,8.65,-0.022507429122924805,0.008752107620239258,1.5682904720306396,0.018024206161499023,-1.5957534313201904,0.004422664642333984,0.6869679689407349,0.15114015340805054,0.6322605609893799,-3.1170362620970664,0.02520112510193529,1.544514645199243,195.69730941704037,156.4304932735426,171.42572062084258,133.2128603104213,147.78173719376392,157.92204899777283,153.5,144.5,125.5,116.5,99.5,144.5
174,8.700000000000001,-0.022448062896728516,0.008690357208251953,1.568211317062378,0.018106698989868164,-1.595721960067749,0.0044367313385009766,0.6869276165962219,0.15118534862995148,0.6323490142822266,-3.117096298498554,0.025169777168054776,1.54455850427063,195.69730941704037,156.4304932735426,171.42572062084258,133.2128603104213,147.84304932735427,157.89461883408072,153.5,144.5,125.5,116.5,99.5,144.5
175,8.75,-0.022484302520751953,0.008836746215820312,1.5681498050689697,0.01803135871887207,-1.5957353115081787,0.004255056381225586,0.68702232837677,0.1511554718017578,0.6322973370552063,-3.1170813741170806,0.02517895977052685,1.5447037159917982,195.6689189189189,156.47297297297297,171.39911308203992,133.2549889135255,147.83595505617978,158.00449438202247,153.5,144.5,125.5,116.5,99.5,144.5
176,8.8,-0.022536277770996094,0.008944034576416016,1.5682504177093506,0.018305063247680664,-1.5958173274993896,0.004461050033569336,0.6870443820953369,0.1511124223470688,0.6321260333061218,-3.116603205294164,0.025267756401758077,1.544459744149924,195.7017937219731,156.38565022421525,171.4083885209713,133.1147902869757,147.81333333333333,157.83333333333334,153.5,144.5,125.5,116.5,99.5,144.5
177,8.85,-0.022716045379638672,0.008969783782958984,1.5681049823760986,0.018180131912231445,-1.5959832668304443,0.004237174987792969,0.6871114373207092,0.15096861124038696,0.6322225332260132,-3.116844364578114,0.025426229380308307,1.5445014594669904,195.568848758465,156.47404063205417,171.3502202643172,133.215859030837,147.72949002217294,157.92239467849225,153.5,144.5,125.5,116.5,99.5,144.5
178,8.9,-0.022846698760986328,0.009192705154418945,1.5680782794952393,0.018100261688232422,-1.596078634262085,0.0040438175201416016,0.6872544884681702,0.15086451172828674,0.6320959329605103,-3.116721848711332,0.025516908516211006,1.5445694919646966,195.52595936794583,156.5056433408578,171.25494505494507,133.27032967032966,147.69911504424778,157.98893805309734,153.5,144.5,125.5,116.5,99.5,144.5
179,8.950000000000001,-0.022984743118286133,0.009361028671264648,1.5681383609771729,0.018240690231323242,-1.5962188243865967,0.0040972232818603516,0.6873384714126587,0.15075460076332092,0.6319248676300049,-3.1163527423414386,0.025660513900453426,1.5443910969342514,195.4876404494382,156.47640449438202,171.17880794701986,133.21633554083886,147.62389380530973,157.8783185840708,153.5,144.5,125.5,116.5,99.5,144.5
180,9.0,-0.02310347557067871,0.009520769119262695,1.5681636333465576,0.01832103729248047,-1.5963332653045654,0.004085540771484375,0.6874244809150696,0.15065962076187134,0.6317909955978394,-3.1160878660661187,0.025775238420527136,1.5442936693835234,195.4876404494382,156.47640449438202,171.16035634743875,133.16258351893094,147.58758314855876,157.83813747228382,153.5,144.5,125.5,116.5,99.5,144.5
181,9.05,-0.023258209228515625,0.009628057479858398,1.5681617259979248,0.018398284912109375,-1.5964906215667725,0.004075765609741211,0.6874919533729553,0.15053586661815643,0.6317120790481567,-3.115905994645024,0.025932765100509746,1.544157528638901,195.43820224719101,156.45842696629214,171.04708520179372,133.18834080717488,147.51655629139074,157.83885209713026,153.5,144.5,125.5,116.5,99.5,144.5
182,9.1,-0.023365259170532227,0.009684324264526367,1.5681722164154053,0.018546342849731445,-1.596616506576538,0.0041484832763671875,0.6875178813934326,0.15044982731342316,0.6316527724266052,-3.115694717632854,0.026061460484296545,1.5439866897056542,195.413870246085,156.36241610738256,170.98185941043084,133.10204081632654,147.52317880794703,157.78807947019868,153.5,144.5,125.5,116.5,99.5,144.5
183,9.15,-0.023531198501586914,0.009783744812011719,1.568162202835083,0.018615007400512695,-1.5967848300933838,0.004130125045776367,0.6875849962234497,0.15031728148460388,0.6315850615501404,-3.1155362906056667,0.026229684316632754,1.5438475225021993,195.3131991051454,156.38031319910513,170.8963963963964,133.1283783783784,147.42920353982302,157.82522123893804,153.5,144.5,125.5,116.5,99.5,144.5
184,9.200000000000001,-0.023654460906982422,0.009897708892822266,1.5681865215301514,0.018737077713012695,-1.5969159603118896,0.004168987274169922,0.6876440644264221,0.15021850168704987,0.6314781904220581,-3.1152767443568115,0.026362390352565414,1.5436956412459597,195.2281879194631,156.32438478747204,170.84529147982062,133.07399103139014,147.40618101545255,157.81236203090506,153.5,144.5,125.5,116.5,99.5,144.5
185,9.25,-0.023834943771362305,0.010177135467529297,1.5682313442230225,0.018742799758911133,-1.597064733505249,0.004063606262207031,0.6878059506416321,0.1500750631093979,0.6312555074691772,-3.1149426966520553,0.02651014289458031,1.5436326956924236,195.16816143497758,156.3251121076233,170.77333333333334,133.0,147.36423841059602,157.78366445916114,153.5,144.5,125.5,116.5,99.5,144.5
186,9.3,-0.024085283279418945,0.010450363159179688,1.568268060684204,0.018738746643066406,-1.597283124923706,0.00394892692565918,0.6879760026931763,0.14987599849700928,0.6310451030731201,-3.114633585065402,0.026725491123960714,1.5435112834300213,195.11286681715575,156.2866817155756,170.69823788546256,132.98898678414096,147.27152317880794,157.79470198675497,153.5,144.5,125.5,116.5,99.5,144.5
187,9.35,-0.024286508560180664,0.010654449462890625,1.5682904720306396,0.018772363662719727,-1.5974667072296143,0.0038814544677734375,0.6881005764007568,0.14971579611301422,0.6308881640434265,-3.1143726833304544,0.026908221966228257,1.5433890163659612,194.97968397291197,156.24379232505643,170.58940397350995,132.98233995584988,147.21017699115043,157.75442477876106,153.5,144.5,125.5,116.5,99.5,144.5
188,9.4,-0.02449202537536621,0.011037588119506836,1.5683586597442627,0.01872706413269043,-1.5976192951202393,0.0037102699279785156,0.6883201003074646,0.1495530605316162,0.6305841207504272,-3.1139607069953423,0.027057191922263496,1.5433699670157977,194.97968397291197,156.24379232505643,170.54945054945054,132.96703296703296,147.1840354767184,157.75831485587582,153.5,144.5,125.5,116.5,99.5,144.5
189,9.450000000000001,-0.02471160888671875,0.011342763900756836,1.5684144496917725,0.01873183250427246,-1.5978033542633057,0.003601551055908203,0.6884981989860535,0.14937841892242432,0.6303375959396362,-3.113591756131249,0.027239237898284047,1.5432741360720423,194.92792792792793,156.25225225225225,170.5032967032967,132.9208791208791,147.08810572687224,157.69383259911893,153.5,144.5,125.5,116.5,99.5,144.5
190,9.5,-0.024901866912841797,0.01158595085144043,1.5684473514556885,0.018749475479125977,-1.597968339920044,0.003512859344482422,0.6886411309242249,0.1492270976305008,0.6301489472389221,-3.1132972655242166,0.027402442974738248,1.543185372074074,194.89237668161434,156.2443946188341,170.48898678414096,132.8986784140969,146.9205298013245,157.72185430463577,153.5,144.5,125.5,116.5,99.5,144.5
191,9.55,-0.025017976760864258,0.011687755584716797,1.5684411525726318,0.018825054168701172,-1.5980865955352783,0.0035004615783691406,0.6887001395225525,0.14913414418697357,0.6300773620605469,-3.1131276376881023,0.027521208590493052,1.543089371783262,194.80580357142858,156.22991071428572,170.46035242290748,132.86563876651982,146.88079470198676,157.71081677704194,153.5,144.5,125.5,116.5,99.5,144.5
192,9.600000000000001,-0.02515411376953125,0.011862516403198242,1.5684454441070557,0.018851041793823242,-1.5982091426849365,0.003427743911743164,0.6888033747673035,0.14902549982070923,0.6299530267715454,-3.1129209770218798,0.02764177009769396,1.5430355714595045,194.73154362416108,156.23266219239375,170.41629955947135,132.83700440528634,146.8,157.6791208791209,153.5,144.5,125.5,116.5,99.5,144.5
193,9.65,-0.025285959243774414,0.012053251266479492,1.568451166152954,0.018864870071411133,-1.598323106765747,0.0033402442932128906,0.6889157891273499,0.14891962707042694,0.6298171281814575,-3.1127077230362716,0.02775408837284819,1.5430004038800538,194.70535714285714,156.23660714285714,170.38325991189427,132.8259911894273,146.76043956043955,157.66153846153847,153.5,144.5,125.5,116.5,99.5,144.5
194,9.700000000000001,-0.025422096252441406,0.012236833572387695,1.5684568881988525,0.01888585090637207,-1.5984432697296143,0.0032606124877929688,0.6890242099761963,0.14881077408790588,0.629686176776886,-3.1124957779832565,0.027872268558204457,1.5429529432991522,194.68232662192395,156.22371364653245,170.30769230769232,132.83296703296702,146.72087912087912,157.6967032967033,153.5,144.5,125.5,116.5,99.5,144.5
195,9.75,-0.025552988052368164,0.012375354766845703,1.5684635639190674,0.018950462341308594,-1.5985701084136963,0.0032339096069335938,0.6891041994094849,0.14870576560497284,0.6295806765556335,-3.112284844304157,0.027999075859035865,1.54285852939176,194.65324384787473,156.1923937360179,170.2907488986784,132.81277533039648,146.65638766519822,157.69383259911893,153.5,144.5,125.5,116.5,99.5,144.5
196,9.8,-0.025657176971435547,0.012477636337280273,1.5684535503387451,0.019016504287719727,-1.5986754894256592,0.00321197509765625,0.6891638040542603,0.1486220359802246,0.6295117735862732,-3.112127135079827,0.02810409645315596,1.54278382780782,194.60356347438753,156.18708240534522,170.22172949002217,132.77827050997783,146.609649122807,157.70394736842104,153.5,144.5,125.5,116.5,99.5,144.5
197,9.850000000000001,-0.025786399841308594,0.012573003768920898,1.568446397781372,0.01909494400024414,-1.598809003829956,0.003204345703125,0.6892217397689819,0.14851824939250946,0.6294440627098083,-3.111960626086772,0.028237506012813652,1.5426706498681881,194.58797327394208,156.1425389755011,170.17920353982302,132.73230088495575,146.58552631578948,157.69736842105263,153.5,144.5,125.5,116.5,99.5,144.5
198,9.9,-0.025928974151611328,0.012646913528442383,1.5684263706207275,0.019168376922607422,-1.5989582538604736,0.0031931400299072266,0.6892728805541992,0.14840377867221832,0.6294005513191223,-3.11183371856657,0.028386395731761226,1.542547026339623,194.50559284116332,156.14541387024607,170.1349557522124,132.71017699115043,146.53508771929825,157.71271929824562,153.5,144.5,125.5,116.5,99.5,144.5
199,9.950000000000001,-0.026092052459716797,0.012766599655151367,1.568418264389038,0.019222497940063477,-1.5991184711456299,0.003155946731567383,0.6893508434295654,0.14827311038970947,0.6293188333511353,-3.1116667643550855,0.028546198099483954,1.542430563583552,194.45945945945945,156.13288288288288,170.01330376940132,132.70953436807096,146.45374449339207,157.70044052863437,153.5,144.5,125.5,116.5,99.5,144.5
200,10.0,-0.026229381561279297,0.012841463088989258,1.5684144496917725,0.019325733184814453,-1.5992662906646729,0.003178119659423828,0.6893964409828186,0.14816302061080933,0.6292605400085449,-3.1114933959405855,0.028694665912186824,1.5422809417547747,194.3878923766816,156.09641255605382,169.94713656387665,132.6762114537445,146.41189427312776,157.6718061674009,153.5,144.5,125.5,116.5,99.5,144.5
201,10.05,-0.026374340057373047,0.012955188751220703,1.5684163570404053,0.019403934478759766,-1.5994131565093994,0.003168821334838867,0.6894650459289551,0.1480468064546585,0.6291738748550415,-3.1112996351429962,0.02884174537365662,1.5421552014122164,194.36117381489842,156.02483069977427,169.88079470198676,132.71081677704194,146.35761589403972,157.64238410596028,153.5,144.5,125.5,116.5,99.5,144.5
202,10.100000000000001,-0.026457786560058594,0.01304936408996582,1.5684149265289307,0.01949453353881836,-1.5995023250579834,0.0031745433807373047,0.6895142793655396,0.14797937870025635,0.6291011571884155,-3.111115977655165,0.028931835784305665,1.5420739318661743,194.25227272727273,156.00454545454545,169.80921052631578,132.70394736842104,146.35761589403972,157.64238410596028,153.5,144.5,125.5,116.5,99.5,144.5
203,10.15,-0.026595354080200195,0.013352394104003906,1.5684692859649658,0.01949787139892578,-1.5996053218841553,0.003064393997192383,0.6896798014640808,0.14786921441555023,0.6288550496101379,-3.110750140184064,0.029032335370871326,1.5420600475317001,194.21818181818182,155.96363636363637,169.7863436123348,132.65638766519822,146.33407079646017,157.63053097345133,153.5,144.5,125.5,116.5,99.5,144.5
204,10.200000000000001,-0.026768922805786133,0.013717889785766602,1.568516492843628,0.019430875778198242,-1.5997250080108643,0.002869844436645508,0.6898905038833618,0.1477305144071579,0.6285789608955383,-3.110397643170205,0.029146876269106385,1.5420946568662552,194.19274376417235,155.97278911564626,169.68791208791208,132.63076923076923,146.25438596491227,157.6578947368421,153.5,144.5,125.5,116.5,99.5,144.5
205,10.25,-0.026926279067993164,0.013873100280761719,1.5685369968414307,0.01950860023498535,-1.5998775959014893,0.0028553009033203125,0.6899784207344055,0.14760440587997437,0.628452479839325,-3.1101449538700083,0.029298890408722897,1.5419642894946384,194.0907029478458,155.95011337868482,169.65054945054945,132.66813186813187,146.1740088105727,157.61674008810573,153.5,144.5,125.5,116.5,99.5,144.5
206,10.3,-0.027032136917114258,0.014130592346191406,1.5685842037200928,0.019541263580322266,-1.5999586582183838,0.0027806758880615234,0.6901135444641113,0.14751946926116943,0.6282413005828857,-3.109806033569987,0.029378338973563647,1.5419452703056524,194.0907029478458,155.95011337868482,169.625,132.66228070175438,146.15824175824176,157.5956043956044,153.5,144.5,125.5,116.5,99.5,144.5
207,10.350000000000001,-0.027150869369506836,0.014373540878295898,1.5686304569244385,0.019585132598876953,-1.6000559329986572,0.0027201175689697266,0.6902419328689575,0.14742422103881836,0.6280393600463867,-3.1094709136344942,0.029474743431847777,1.5418999814969494,194.06363636363636,155.95,169.625,132.66228070175438,146.10722100656454,157.58643326039387,153.5,144.5,125.5,116.5,99.5,144.5
208,10.4,-0.027246952056884766,0.014611959457397461,1.5686719417572021,0.019625425338745117,-1.6001312732696533,0.002656221389770508,0.6903652548789978,0.14734679460525513,0.6278433203697205,-3.109148262864829,0.029547935865969734,1.5418797876552088,194.06349206349208,155.92290249433105,169.625,132.66228070175438,146.06140350877192,157.54166666666666,153.5,144.5,125.5,116.5,99.5,144.5
209,10.450000000000001,-0.027269601821899414,0.014824151992797852,1.5686933994293213,0.01965022087097168,-1.6001341342926025,0.0025777816772460938,0.6904697418212891,0.14732763171195984,0.6276810169219971,-3.1088877575962792,0.029549690844046246,1.5419431557897638,194.07466063348417,155.89819004524887,169.625,132.66228070175438,146.06140350877192,157.54166666666666,153.5,144.5,125.5,116.5,99.5,144.5
210,10.5,-0.02720355987548828,0.01505899429321289,1.568701982498169,0.01963067054748535,-1.6000397205352783,0.0024480819702148438,0.6905794143676758,0.14737917482852936,0.6275153160095215,-3.108660019337161,0.029451706893254232,1.54214293831047,194.10158013544017,155.89841986455983,169.66228070175438,132.625,146.1004366812227,157.56113537117903,153.5,144.5,125.5,116.5,99.5,144.5
211,10.55,-0.02742791175842285,0.015400171279907227,1.5686495304107666,0.019393444061279297,-1.600191354751587,0.0020694732666015625,0.6908132433891296,0.14719922840595245,0.6273415088653564,-3.108596355594809,0.02958994053864582,1.5423032531207448,194.0,156.02739726027397,169.57860262008734,132.68558951965065,146.01315789473685,157.6359649122807,153.5,144.5,125.5,116.5,99.5,144.5
212,10.600000000000001,-0.02762150764465332,0.015610456466674805,1.568721055984497,0.01951909065246582,-1.6003787517547607,0.002101421356201172,0.6909233331680298,0.14704348146915436,0.6271365284919739,-3.10818963055535,0.02977813514064072,1.542095445293654,194.0,156.0,169.52287581699346,132.63398692810458,145.87336244541484,157.54803493449782,153.5,144.5,125.5,116.5,99.5,144.5
213,10.65,-0.02772212028503418,0.01561737060546875,1.5687158107757568,0.019684791564941406,-1.6005070209503174,0.0021979808807373047,0.6909219026565552,0.146962508559227,0.6271210312843323,-3.1080270787712774,0.02991018316078335,1.5419076789785129,194.0,155.97260273972603,169.4561403508772,132.6140350877193,145.87336244541484,157.54803493449782,153.5,144.5,125.5,116.5,99.5,144.5
214,10.700000000000001,-0.02784895896911621,0.015614986419677734,1.568716287612915,0.019869327545166016,-1.6006667613983154,0.002316713333129883,0.690916895866394,0.1468602567911148,0.6271054148674011,-3.1078494454592316,0.030073651346525898,1.5416732385856369,193.99095022624434,155.89819004524887,169.375,132.58771929824562,145.81140350877192,157.52850877192984,153.5,144.5,125.5,116.5,99.5,144.5
215,10.75,-0.02793121337890625,0.01552128791809082,1.568697214126587,0.02010035514831543,-1.6008007526397705,0.002495288848876953,0.6908578276634216,0.14679326117038727,0.6271604299545288,-3.1077381484889077,0.030213671041922012,1.5414204254045598,193.85553047404062,155.74266365688487,169.3676148796499,132.5120350109409,145.7868131868132,157.51868131868133,153.5,144.5,125.5,116.5,99.5,144.5
216,10.8,-0.027955055236816406,0.01607489585876465,1.5687167644500732,0.01980447769165039,-1.6007139682769775,0.002031564712524414,0.6911702752113342,0.14677385985851288,0.6267923712730408,-3.1074416293708778,0.030112777771184648,1.5418661539713658,193.90950226244343,156.02262443438914,169.39387308533918,132.60612691466082,145.75492341356673,157.55579868708972,153.5,144.5,125.5,116.5,99.5,144.5
217,10.850000000000001,-0.02809739112854004,0.01606464385986328,1.5687191486358643,0.02000260353088379,-1.6008923053741455,0.0021648406982421875,0.691163182258606,0.146658793091774,0.6267798542976379,-3.1072566308450122,0.03029447290072567,1.5416020880433683,193.73707865168538,155.83595505617978,169.30786026200875,132.46288209606988,145.70459518599563,157.5601750547046,153.5,144.5,125.5,116.5,99.5,144.5
218,10.9,-0.0282895565032959,0.016218900680541992,1.5687415599822998,0.020082712173461914,-1.601081132888794,0.0021533966064453125,0.691254198551178,0.14650417864322662,0.6266526579856873,-3.1070007264955306,0.030482657593513176,1.541435143433415,193.6868008948546,155.82102908277406,169.30786026200875,132.46288209606988,145.6528384279476,157.50436681222706,153.5,144.5,125.5,116.5,99.5,144.5
219,10.950000000000001,-0.028467416763305664,0.016470909118652344,1.5687639713287354,0.02007293701171875,-1.6012284755706787,0.002033710479736328,0.6914036273956299,0.1463615745306015,0.6264649033546448,-3.1067307041233385,0.03062660287235665,1.5413904640410399,193.63534675615213,155.83445190156598,169.2117903930131,132.4934497816594,145.61353711790392,157.5065502183406,153.5,144.5,125.5,116.5,99.5,144.5
220,11.0,-0.02863144874572754,0.016770362854003906,1.5688397884368896,0.020122289657592773,-1.6013638973236084,0.001973867416381836,0.6915621757507324,0.14623017609119415,0.6262025833129883,-3.106303028770484,0.030760530921075974,1.5413039738186938,193.55333333333334,155.7711111111111,169.12663755458516,132.45196506550218,145.58078602620088,157.4890829694323,153.5,144.5,125.5,116.5,99.5,144.5
221,11.05,-0.028834104537963867,0.017225980758666992,1.5689527988433838,0.020098447799682617,-1.6015064716339111,0.001817941665649414,0.6918079257011414,0.14606784284114838,0.62581467628479,-3.10575171980162,0.03089764410180897,1.5412789582245903,193.52783964365256,155.76391982182628,169.12663755458516,132.45196506550218,145.4488017429194,157.4488017429194,153.5,144.5,125.5,116.5,99.5,144.5
222,11.100000000000001,-0.028844833374023438,0.017487764358520508,1.5689947605133057,0.02011871337890625,-1.6014893054962158,0.0017294883728027344,0.6919323205947876,0.146058589220047,0.6256044507026672,-3.1054252498426242,0.03087835320710428,1.5413661620620038,193.55875831485588,155.7450110864745,169.12663755458516,132.45196506550218,145.46521739130435,157.4282608695652,153.5,144.5,125.5,116.5,99.5,144.5
223,11.15,-0.028770923614501953,0.01789379119873047,1.5690481662750244,0.02002549171447754,-1.601353406906128,0.0015022754669189453,0.6921290159225464,0.14611665904521942,0.6252983212471008,-3.1050524337756253,0.03073521839695561,1.5416740176623065,193.64745011086475,155.75166297117516,169.17608695652174,132.43478260869566,145.529284164859,157.43817787418655,153.5,144.5,125.5,116.5,99.5,144.5
224,11.200000000000001,-0.03075575828552246,0.01776432991027832,1.5684292316436768,0.01913309097290039,-1.603240728378296,0.00044989585876464844,0.6924974918365479,0.14452968537807465,0.6259163618087769,-3.1066646995400853,0.03257318943780676,1.5407521745544066,192.728285077951,156.2227171492205,168.31659388646287,132.77729257641923,144.59565217391304,157.89565217391305,153.5,144.5,125.5,116.5,99.5,144.5
225,11.25,-0.030834674835205078,0.017817974090576172,1.5684831142425537,0.019367218017578125,-1.603341817855835,0.0006177425384521484,0.6925022006034851,0.1444680392742157,0.6258193850517273,-3.1063283788455833,0.03268380495949304,1.540522076725772,192.70627802690584,156.15695067264573,168.28758169934642,132.71241830065358,144.5938864628821,157.735807860262,153.5,144.5,125.5,116.5,99.5,144.5
226,11.3,-0.03096938133239746,0.018306255340576172,1.5685036182403564,0.0191342830657959,-1.603384256362915,0.00022935867309570312,0.6927890181541443,0.14436492323875427,0.6254891157150269,-3.1060345465481465,0.03271777361117287,1.540788366875249,192.70246085011186,156.1834451901566,168.27412280701753,132.76315789473685,144.54803493449782,157.87336244541484,153.5,144.5,125.5,116.5,99.5,144.5
227,11.350000000000001,-0.030736684799194336,0.017451047897338867,1.568701982498169,0.020499467849731445,-1.6034643650054932,0.0017256736755371094,0.6921564936637878,0.14455001056194305,0.6258089542388916,-3.105384033053344,0.032852097793156454,1.5395519627319054,192.74,155.66444444444446,168.26973684210526,132.43421052631578,144.66083150984682,157.47921225382933,153.5,144.5,125.5,116.5,99.5,144.5
228,11.4,-0.030883073806762695,0.01752448081970215,1.5687987804412842,0.0207974910736084,-1.6036512851715088,0.0019621849060058594,0.6921682953834534,0.14443135261535645,0.6256620287895203,-3.1049214363632953,0.03304748938780016,1.5391911286858682,192.62360801781736,155.54788418708242,168.175704989154,132.37310195227766,144.58771929824562,157.375,153.5,144.5,125.5,116.5,99.5,144.5
229,11.450000000000001,-0.030735015869140625,0.018731117248535156,1.5690720081329346,0.020381689071655273,-1.6032850742340088,0.0013031959533691406,0.6927714943885803,0.144547238945961,0.6246765851974487,-3.1038217801155548,0.03265976463592545,1.5400195036594517,192.90380313199105,155.62639821029083,168.3521739130435,132.38478260869564,144.70152505446623,157.49019607843138,153.5,144.5,125.5,116.5,99.5,144.5
230,11.5,-0.030429601669311523,0.020320415496826172,1.569382905960083,0.019687414169311523,-1.6026699542999268,0.0002987384796142578,0.6935667395591736,0.14478997886180878,0.6234310269355774,-3.102572970550942,0.03200836512968109,1.5413455043935362,193.22172949002217,155.77827050997783,168.58695652173913,132.46304347826086,144.92608695652174,157.54782608695652,153.5,144.5,125.5,116.5,99.5,144.5
231,11.55,-0.03038167953491211,0.020241260528564453,1.569347620010376,0.019880056381225586,-1.6026661396026611,0.00043082237243652344,0.6934990286827087,0.1448252648115158,0.623500645160675,-3.102511868392988,0.032006873710948465,1.5412626781862928,193.22172949002217,155.77827050997783,168.6290672451193,132.39696312364424,144.94782608695652,157.5,153.5,144.5,125.5,116.5,99.5,144.5
232,11.600000000000001,-0.030710458755493164,0.020459651947021484,1.569272756576538,0.019713163375854492,-1.6029493808746338,0.0001418590545654297,0.6936736106872559,0.14455914497375488,0.6234250664710999,-3.102530727101394,0.032275561284318105,1.5412315834018828,193.11633109619686,155.7807606263982,168.5,132.5,144.79826464208242,157.55965292841648,153.5,144.5,125.5,116.5,99.5,144.5
233,11.65,-0.03170275688171387,0.021017789840698242,1.5692064762115479,0.019246578216552734,-1.6038057804107666,-0.0005097389221191406,0.6941439509391785,0.143763467669487,0.6231359243392944,-3.102478283814043,0.03310197025856996,1.5409231001602675,192.62222222222223,156.04888888888888,168.0909090909091,132.57359307359306,144.42857142857142,157.72943722943722,153.5,144.5,125.5,116.5,99.5,144.5
234,11.700000000000001,-0.03187131881713867,0.021277427673339844,1.5692822933197021,0.019335508346557617,-1.603952169418335,-0.0005230903625488281,0.6942765712738037,0.14362938702106476,0.6228970289230347,-3.1020528544377433,0.033249133979344175,1.5407887098565847,192.59555555555556,155.9488888888889,168.05627705627705,132.54761904761904,144.34130434782608,157.69565217391303,153.5,144.5,125.5,116.5,99.5,144.5
235,11.75,-0.03193330764770508,0.021479368209838867,1.569336175918579,0.019433975219726562,-1.604006052017212,-0.0005199909210205078,0.6943668723106384,0.14358119666576385,0.6227132678031921,-3.101700748572933,0.03330477572189507,1.540739068072068,192.5888888888889,155.89777777777778,168.0647948164147,132.52267818574515,144.32321041214752,157.67678958785248,153.5,144.5,125.5,116.5,99.5,144.5
236,11.8,-0.031642913818359375,0.022176742553710938,1.56935715675354,0.01900768280029297,-1.6035668849945068,-0.0011417865753173828,0.6947197914123535,0.14381231367588043,0.6222558617591858,-3.1013858698061174,0.03284288807687086,1.5416442320049273,192.80580357142858,156.16517857142858,168.26133909287256,132.5961123110151,144.4880694143167,157.73101952277656,153.5,144.5,125.5,116.5,99.5,144.5
237,11.850000000000001,-0.03212451934814453,0.022392988204956055,1.5693590641021729,0.01899433135986328,-1.60402512550354,-0.0012636184692382812,0.6948917508125305,0.14342425763607025,0.6221110224723816,-3.1011766422461613,0.033292266858314365,1.5413079600391506,192.59423503325942,156.10864745011085,168.0647948164147,132.57235421166305,144.32244008714596,157.7516339869281,153.5,144.5,125.5,116.5,99.5,144.5
238,11.9,-0.03225064277648926,0.022692203521728516,1.5694406032562256,0.01905679702758789,-1.6041224002838135,-0.0013103485107421875,0.6950393915176392,0.14332109689712524,0.6218445897102356,-3.1007322982640875,0.03338658332474873,1.5412466496297037,192.58407079646017,156.08407079646017,168.03879310344828,132.57543103448276,144.28758169934642,157.71241830065358,153.5,144.5,125.5,116.5,99.5,144.5
239,11.950000000000001,-0.03420424461364746,0.0204620361328125,1.5686590671539307,0.01981043815612793,-1.6064956188201904,-0.0003504753112792969,0.6941884756088257,0.14175869524478912,0.6238700151443481,-3.1030424543505353,0.03578920686392293,1.5383455743900676,191.41555555555556,155.8311111111111,166.87336244541484,132.54803493449782,143.3056768558952,157.73144104803492,153.5,144.5,125.5,116.5,99.5,144.5
240,12.0,-0.034226179122924805,0.020527362823486328,1.5686891078948975,0.019979238510131836,-1.6065328121185303,-0.0002522468566894531,0.6942015290260315,0.14174328744411469,0.6237808465957642,-3.102774197648767,0.035835246001222724,1.5382386273116093,191.41241685144124,155.8048780487805,166.87336244541484,132.54803493449782,143.3056768558952,157.73144104803492,153.5,144.5,125.5,116.5,99.5,144.5
241,12.05,-0.03439760208129883,0.020682334899902344,1.5686628818511963,0.019966840744018555,-1.6066882610321045,-0.00036644935607910156,0.6943133473396301,0.14161056280136108,0.623683750629425,-3.1026424328054225,0.035992130003108094,1.5381943334651265,191.41241685144124,155.8048780487805,166.81127982646422,132.54229934924078,143.26739130434783,157.69565217391303,153.5,144.5,125.5,116.5,99.5,144.5
242,12.100000000000001,-0.03452134132385254,0.020620107650756836,1.5686161518096924,0.02011728286743164,-1.6068475246429443,-0.0002803802490234375,0.6942877769470215,0.14151059091091156,0.623744547367096,-3.1026045656282255,0.03615448641417837,1.5379923596789702,191.31767337807605,155.77628635346755,166.69213973799125,132.53711790393012,143.22489082969432,157.66593886462883,153.5,144.5,125.5,116.5,99.5,144.5
243,12.15,-0.03462934494018555,0.020954132080078125,1.568725347518921,0.02019786834716797,-1.6069271564483643,-0.00030922889709472656,0.6944475769996643,0.1414225548505783,0.6234300136566162,-3.1020757518617637,0.03623279431470163,1.5379350848328532,191.29464285714286,155.76339285714286,166.68409586056646,132.5119825708061,143.13100436681222,157.64628820960698,153.5,144.5,125.5,116.5,99.5,144.5
244,12.200000000000001,-0.034544944763183594,0.02087688446044922,1.568664789199829,0.020335912704467773,-1.6068785190582275,-0.00023603439331054688,0.6943899393081665,0.14148929715156555,0.6235116124153137,-3.1020810589439702,0.03618746247709826,1.537944806808754,191.34375,155.77008928571428,166.73101952277656,132.4880694143167,143.20915032679738,157.64488017429193,153.5,144.5,125.5,116.5,99.5,144.5
245,12.25,-0.035959720611572266,0.02091670036315918,1.568436861038208,0.020038604736328125,-1.6082556247711182,-0.0006499290466308594,0.6946510672569275,0.14035415649414062,0.6236799359321594,-3.102548294593748,0.03754128221975267,1.536976977528425,190.6391982182628,155.84187082405344,166.1391304347826,132.58695652173913,142.5065502183406,157.7882096069869,153.5,144.5,125.5,116.5,99.5,144.5
246,12.3,-0.03597879409790039,0.021060705184936523,1.5684845447540283,0.020178794860839844,-1.608274221420288,-0.0005950927734375,0.6947050094604492,0.1403389722108841,0.6235323548316956,-3.1022172250391393,0.0375640688750925,1.5369173692548679,190.67405764966742,155.74944567627495,166.0824295010846,132.54880694143168,142.51304347826087,157.7391304347826,153.5,144.5,125.5,116.5,99.5,144.5
247,12.350000000000001,-0.03568577766418457,0.020006179809570312,1.5682690143585205,0.020927906036376953,-1.6082379817962646,0.00024509429931640625,0.6940813660621643,0.14057913422584534,0.624336302280426,-3.102782320918297,0.037565235322511985,1.5363520330902565,190.6815144766147,155.61247216035636,166.12663755458516,132.45196506550218,142.56399132321042,157.63340563991324,153.5,144.5,125.5,116.5,99.5,144.5
248,12.4,-0.035863637924194336,0.020578861236572266,1.568526029586792,0.021068572998046875,-1.6083667278289795,0.0002605915069580078,0.6943463683128357,0.14043372869491577,0.6237456202507019,-3.1018014423568467,0.0376938765208772,1.5361998657157259,190.7260579064588,155.44097995545658,166.10434782608695,132.40434782608696,142.55097613882864,157.55097613882864,153.5,144.5,125.5,116.5,99.5,144.5
249,12.450000000000001,-0.03603696823120117,0.02070307731628418,1.5685393810272217,0.0211637020111084,-1.6085412502288818,0.0002665519714355469,0.6944227814674377,0.14029252529144287,0.6236393451690674,-3.101564889370211,0.03786737612851028,1.5360355232608585,190.6511111111111,155.45111111111112,166.02603036876357,132.40130151843817,142.5075593952484,157.52483801295895,153.5,144.5,125.5,116.5,99.5,144.5
250,12.5,-0.036200523376464844,0.021036386489868164,1.568629503250122,0.0212099552154541,-1.6086714267730713,0.0001995563507080078,0.6945933699607849,0.14015959203243256,0.6233450174331665,-3.1010923349175163,0.0379940152930368,1.5359620848489923,190.6511111111111,155.45111111111112,165.91921397379912,132.36026200873363,142.43260869565216,157.4695652173913,153.5,144.5,125.5,116.5,99.5,144.5
251,12.55,-0.036304473876953125,0.02106165885925293,1.5686299800872803,0.021371126174926758,-1.6088001728057861,0.00028777122497558594,0.6946011781692505,0.14007540047168732,0.6233131289482117,-3.10091021625905,0.03812595803855172,1.5357821453417917,190.57777777777778,155.38666666666666,165.86899563318778,132.35371179039302,142.37527114967463,157.44902386117136,153.5,144.5,125.5,116.5,99.5,144.5
