AI-SPARC/uncalibrated-visual-servoing/results/data/3_feat_mckf.csv
,t,q_1,q_2,q_3,q_4,q_5,q_6,camera_x,camera_y,camera_z,camera_roll,camera_pitch,camera_yaw,f_1,f_2,f_3,f_4,f_5,f_6,desired_f_1,desired_f_2,desired_f_3,desired_f_4,desired_f_5,desired_f_6
0,0.0,9.298324584960938e-06,-0.39263248443603516,1.963494062423706,7.224082946777344e-05,-1.5707952976226807,-2.384185791015625e-07,0.44632619619369507,0.1690625101327896,0.5921626687049866,-3.1413076666281032,0.00012220975734266807,1.5708383127210188,212.0,82.81939163498099,186.06118546845124,56.89866156787763,160.08365019011407,82.79657794676807,153.5,144.5,125.5,116.5,99.5,144.5
1,0.05,0.00041556358337402344,-0.38979482650756836,1.9646084308624268,-0.0003345012664794922,-1.5699450969696045,-0.0007717609405517578,0.44751304388046265,0.16932594776153564,0.5901685357093811,-3.1377478638080296,-0.0007276127724340306,1.5720129241388827,212.62781954887217,82.5,186.61380597014926,56.38619402985075,160.5,82.44029850746269,153.5,144.5,125.5,116.5,99.5,144.5
2,0.1,-0.0008962154388427734,-0.38982534408569336,1.9639050960540771,-0.0015711784362792969,-1.571091890335083,-0.0021779537200927734,0.44791269302368164,0.16860736906528473,0.5908015966415405,-3.1397241520803254,0.00041250402968650267,1.5721094661144313,212.06805293005672,83.18336483931947,186.1344696969697,57.04356060606061,159.9296577946768,83.07794676806084,153.5,144.5,125.5,116.5,99.5,144.5
3,0.15000000000000002,-0.0014979839324951172,-0.389862060546875,1.9636437892913818,-0.0019567012786865234,-1.5716488361358643,-0.0026445388793945312,0.44805440306663513,0.16827602684497833,0.5910437107086182,-3.140412803439236,0.0009690256874008735,1.571975208696996,211.7245283018868,83.32830188679246,185.7406015037594,57.2593984962406,159.70943396226414,83.29056603773584,153.5,144.5,125.5,116.5,99.5,144.5
4,0.2,-0.002062559127807617,-0.3897824287414551,1.9633934497833252,-0.0024285316467285156,-1.5721409320831299,-0.003217935562133789,0.4482569694519043,0.16796888411045074,0.5912308692932129,-3.141054015940741,0.0014640209271729076,1.5719841661438747,211.5,83.54681647940075,185.5,57.5,159.5,83.5,153.5,144.5,125.5,116.5,99.5,144.5
5,0.25,-0.002595186233520508,-0.3896756172180176,1.9631693363189697,-0.0028738975524902344,-1.572601556777954,-0.003765106201171875,0.44846194982528687,0.16767850518226624,0.5913844108581543,3.141572118992086,0.0019262722027314702,1.5719979042699588,211.29056603773586,83.70943396226416,185.3119092627599,57.69754253308128,159.3289224952741,83.65217391304348,153.5,144.5,125.5,116.5,99.5,144.5
6,0.30000000000000004,-0.003134489059448242,-0.38950371742248535,1.9629709720611572,-0.003331422805786133,-1.5730574131011963,-0.004332304000854492,0.44869673252105713,0.1673852950334549,0.5914930105209351,3.1410918548362345,0.002384809772904017,1.5720245373007995,211.02303262955854,83.9193857965451,185.10476190476192,57.89523809523809,159.1254752851711,83.79087452471482,153.5,144.5,125.5,116.5,99.5,144.5
7,0.35000000000000003,-0.0037147998809814453,-0.38927507400512695,1.9628026485443115,-0.003783702850341797,-1.573547601699829,-0.004899024963378906,0.44896066188812256,0.16706974804401398,0.5915555953979492,3.1407040292176913,0.002876821520383228,1.5720096257345302,210.7267552182163,84.20303605313093,184.81214421252372,58.18785578747628,158.78095238095239,84.10285714285715,153.5,144.5,125.5,116.5,99.5,144.5
8,0.4,-0.004207134246826172,-0.38902878761291504,1.9626686573028564,-0.004185199737548828,-1.5739548206329346,-0.005411624908447266,0.44920915365219116,0.16680240631103516,0.5915803909301758,3.1404197242233876,0.003285828396166233,1.5720284792959536,210.59013282732448,84.3111954459203,184.66223908918406,58.30360531309298,158.69128787878788,84.24621212121212,153.5,144.5,125.5,116.5,99.5,144.5
9,0.45,-0.004679203033447266,-0.3887968063354492,1.9625236988067627,-0.004595518112182617,-1.5743420124053955,-0.005932331085205078,0.44944998621940613,0.16654612123966217,0.5916210412979126,3.140099814665801,0.003676164375968077,1.572075958819882,210.38490566037737,84.5,184.5,58.5,158.5,84.38490566037736,153.5,144.5,125.5,116.5,99.5,144.5
10,0.5,-0.005170106887817383,-0.3885209560394287,1.9624054431915283,-0.0049932003021240234,-1.5747435092926025,-0.00644373893737793,0.4497096538543701,0.16627952456474304,0.5916218757629395,3.1398643914009203,0.004080254563599888,1.5720950454971765,210.21606118546845,84.5831739961759,184.30170777988616,58.614800759013285,158.38490566037737,84.5,153.5,144.5,125.5,116.5,99.5,144.5
11,0.55,-0.005650758743286133,-0.3882110118865967,1.962284803390503,-0.005426883697509766,-1.575124979019165,-0.006998538970947266,0.4499877095222473,0.1660187840461731,0.5916125178337097,3.1396257943860997,0.004464532613535423,1.5721674274697823,210.0,84.74904214559388,184.15267175572518,58.73854961832061,158.16603053435114,84.62786259541984,153.5,144.5,125.5,116.5,99.5,144.5
12,0.6000000000000001,-0.0061380863189697266,-0.38787221908569336,1.9621870517730713,-0.0058441162109375,-1.5755116939544678,-0.0075376033782958984,0.45027583837509155,0.16575461626052856,0.5915730595588684,3.139455715700891,0.004853302415684998,1.5722173137419557,209.8065134099617,84.89655172413794,183.96360153256705,58.89846743295019,158.0,84.72328244274809,153.5,144.5,125.5,116.5,99.5,144.5
13,0.65,-0.0066487789154052734,-0.387484073638916,1.9621102809906006,-0.006265163421630859,-1.5759141445159912,-0.008086681365966797,0.45058882236480713,0.16547748446464539,0.5914976000785828,3.139352188327673,0.005258010763802974,1.5722541883717795,209.60994263862332,85.01720841300191,183.76099426386233,59.06309751434034,157.78095238095239,84.89714285714285,153.5,144.5,125.5,116.5,99.5,144.5
14,0.7000000000000001,-0.007117033004760742,-0.3870382308959961,1.9620521068572998,-0.0067043304443359375,-1.5762641429901123,-0.008661270141601562,0.4509216248989105,0.16522449254989624,0.5913854837417603,3.139307592103629,0.005609366600818396,1.5723592802460589,209.525,85.18653846153846,183.61950286806882,59.18929254302103,157.60994263862332,85.01720841300191,153.5,144.5,125.5,116.5,99.5,144.5
15,0.75,-0.007550239562988281,-0.38664722442626953,1.9620044231414795,-0.007072925567626953,-1.5765964984893799,-0.009152889251708984,0.4512147903442383,0.16498976945877075,0.5912833213806152,3.1392878094800944,0.005943076936878585,1.5724168567631078,209.40494296577947,85.287072243346,183.52091254752852,59.29847908745247,157.52198852772466,85.10707456978967,153.5,144.5,125.5,116.5,99.5,144.5
16,0.8,-0.007996082305908203,-0.38624024391174316,1.9619605541229248,-0.00744938850402832,-1.5769379138946533,-0.009654045104980469,0.4515172243118286,0.16474781930446625,0.5911718606948853,3.1392812410279882,0.006286042592458319,1.5724714915446811,209.22179732313575,85.43594646271511,183.33648393194707,59.412098298676746,157.39733840304183,85.24144486692015,153.5,144.5,125.5,116.5,99.5,144.5
17,0.8500000000000001,-0.008439302444458008,-0.3858635425567627,1.9619052410125732,-0.007818222045898438,-1.577282190322876,-0.010144472122192383,0.4518057703971863,0.16450680792331696,0.591080904006958,3.1392402150431673,0.0066317255992908745,1.5725176798746183,209.0,85.5,183.21606118546845,59.476099426386234,157.24857685009488,85.37381404174573,153.5,144.5,125.5,116.5,99.5,144.5
18,0.9,-0.00888371467590332,-0.38542795181274414,1.9618504047393799,-0.00824284553527832,-1.5776121616363525,-0.010701417922973633,0.4521274268627167,0.16426575183868408,0.5909692645072937,3.1392041694606854,0.006963195727402474,1.5726290289064087,208.95576923076922,85.61346153846154,183.01151631477927,59.5700575815739,157.0609523809524,85.47809523809524,153.5,144.5,125.5,116.5,99.5,144.5
19,0.9500000000000001,-0.009254932403564453,-0.3850395679473877,1.961803674697876,-0.00860595703125,-1.577883005142212,-0.011186361312866211,0.45240822434425354,0.16406439244747162,0.590865969657898,3.139189170857517,0.007236110524360487,1.5727426987198485,208.83969465648855,85.66221374045801,182.955938697318,59.64942528735632,157.0,85.54389312977099,153.5,144.5,125.5,116.5,99.5,144.5
20,1.0,-0.00964808464050293,-0.3845994472503662,1.9617631435394287,-0.009006023406982422,-1.5781638622283936,-0.01171731948852539,0.4527197480201721,0.1638512760400772,0.5907394289970398,3.1391960625121893,0.007518312193451084,1.5728794403921178,208.63097514340345,85.88910133843213,182.85904761904763,59.8,156.8891013384321,85.63097514340345,153.5,144.5,125.5,116.5,99.5,144.5
21,1.05,-0.010118484497070312,-0.38418126106262207,1.9617302417755127,-0.009371757507324219,-1.5785295963287354,-0.012207984924316406,0.45302844047546387,0.16359449923038483,0.5906142592430115,3.1392238994729613,0.007885008097263356,1.572899057081344,208.52399232245682,85.99424184261036,182.632183908046,59.91379310344828,156.69565217391303,85.7296786389414,153.5,144.5,125.5,116.5,99.5,144.5
22,1.1,-0.010538101196289062,-0.3837578296661377,1.9617111682891846,-0.009714365005493164,-1.5788471698760986,-0.012674570083618164,0.4533276855945587,0.16336582601070404,0.5904740691184998,3.13929364628746,0.00820243463183349,1.572945394795844,208.45192307692307,86.0,182.52399232245682,59.994241842610364,156.5847619047619,85.82285714285715,153.5,144.5,125.5,116.5,99.5,144.5
23,1.1500000000000001,-0.010920286178588867,-0.3832685947418213,1.9617030620574951,-0.010097742080688477,-1.5791127681732178,-0.013191938400268555,0.4536546468734741,0.16315858066082,0.5903011560440063,3.139399206992358,0.008467974033009872,1.5730808737024495,208.36902485659655,86.11089866156787,182.47600767754318,60.005758157389636,156.47809523809525,85.93904761904761,153.5,144.5,125.5,116.5,99.5,144.5
24,1.2000000000000002,-0.011278152465820312,-0.38286280632019043,1.961676836013794,-0.010438203811645508,-1.5793712139129639,-0.013653755187988281,0.45393624901771545,0.16296358406543732,0.5901737213134766,3.1394459692798318,0.00872732241434642,1.5731846511278145,208.2175572519084,86.27099236641222,182.36902485659655,60.11089866156788,156.40804597701148,86.0,153.5,144.5,125.5,116.5,99.5,144.5
25,1.25,-0.011682271957397461,-0.3824789524078369,1.9616491794586182,-0.010759830474853516,-1.5796821117401123,-0.014093399047851562,0.45421266555786133,0.16274243593215942,0.5900552272796631,3.1394884586073215,0.009038186038993132,1.5732197755612896,208.06142034548944,86.36852207293666,182.2561669829222,60.24098671726755,156.2689393939394,86.12689393939394,153.5,144.5,125.5,116.5,99.5,144.5
26,1.3,-0.012083768844604492,-0.3820488452911377,1.9616329669952393,-0.011103630065917969,-1.5799801349639893,-0.014561653137207031,0.45451146364212036,0.16252288222312927,0.5899096131324768,3.1395677486755633,0.009336727406231801,1.573286448963127,207.98848368522073,86.42994241842611,182.11832061068702,60.345419847328245,156.12737642585552,86.22053231939164,153.5,144.5,125.5,116.5,99.5,144.5
27,1.35,-0.012449979782104492,-0.3815879821777344,1.9616296291351318,-0.011449098587036133,-1.5802385807037354,-0.015035152435302734,0.4548175632953644,0.16232344508171082,0.589741587638855,3.1396880909093325,0.00959430851261844,1.5733947230011076,207.85028790786947,86.47792706333973,182.0,60.4080459770115,155.98102466793168,86.30929791271348,153.5,144.5,125.5,116.5,99.5,144.5
28,1.4000000000000001,-0.012802600860595703,-0.3810763359069824,1.9616377353668213,-0.01182246208190918,-1.5804731845855713,-0.015543699264526367,0.45514699816703796,0.16213150322437286,0.5895457863807678,3.139843399327898,0.009827212111069428,1.5735515669117524,207.76717557251908,86.54198473282443,181.96374045801528,60.47709923664122,155.88403041825094,86.34220532319392,153.5,144.5,125.5,116.5,99.5,144.5
29,1.4500000000000002,-0.013177633285522461,-0.3805086612701416,1.9616692066192627,-0.012202262878417969,-1.580721139907837,-0.016065120697021484,0.4555038809776306,0.16192743182182312,0.5893086194992065,3.1400725788180717,0.01007266201917855,1.5737000865501154,207.69128787878788,86.63825757575758,181.84351145038167,60.4942748091603,155.73674242424244,86.35416666666667,153.5,144.5,125.5,116.5,99.5,144.5
30,1.5,-0.013549566268920898,-0.37996387481689453,1.9617149829864502,-0.01253199577331543,-1.5809757709503174,-0.01652979850769043,0.45584216713905334,0.16172446310520172,0.5890670418739319,3.1403427385477496,0.010323702484707879,1.5737947423431622,207.59013282732448,86.6888045540797,181.7319391634981,60.539923954372625,155.58052434456928,86.41947565543072,153.5,144.5,125.5,116.5,99.5,144.5
31,1.55,-0.013897895812988281,-0.3793783187866211,1.961777925491333,-0.012866497039794922,-1.5812008380889893,-0.017004013061523438,0.45619428157806396,0.1615348756313324,0.5887950658798218,3.140665840175377,0.010543949116553967,1.5739232453748113,207.5237191650854,86.70208728652752,181.62146892655366,60.52354048964219,155.58052434456928,86.41947565543072,153.5,144.5,125.5,116.5,99.5,144.5
32,1.6,-0.014261245727539062,-0.37880516052246094,1.9618217945098877,-0.013227224349975586,-1.5814392566680908,-0.01750469207763672,0.4565475881099701,0.16133654117584229,0.5885447263717651,3.1409326168317357,0.010778082160175072,1.5740635103930807,207.4236641221374,86.79961832061069,181.55722326454034,60.587242026266416,155.5,86.54681647940075,153.5,144.5,125.5,116.5,99.5,144.5
33,1.6500000000000001,-0.014609336853027344,-0.3782846927642822,1.9618456363677979,-0.013576507568359375,-1.5816709995269775,-0.01798844337463379,0.4568745195865631,0.16114597022533417,0.5883312821388245,3.1411362069223,0.011006907067078193,1.5742011841797157,207.40952380952382,86.89714285714285,181.5235404896422,60.621468926553675,155.41947565543072,86.58052434456928,153.5,144.5,125.5,116.5,99.5,144.5
34,1.7000000000000002,-0.01495504379272461,-0.37781739234924316,1.9618732929229736,-0.013869762420654297,-1.5819151401519775,-0.01840519905090332,0.45717018842697144,0.16095618903636932,0.5881327986717224,3.1413467832953517,0.01124764422538007,1.5742743812718787,207.35104364326375,86.90702087286527,181.43018867924528,60.64716981132076,155.3796992481203,86.60714285714286,153.5,144.5,125.5,116.5,99.5,144.5
35,1.75,-0.015298843383789062,-0.3773233890533447,1.9618990421295166,-0.014190435409545898,-1.5821502208709717,-0.01885509490966797,0.45748084783554077,0.16076742112636566,0.5879259705543518,3.141555564152764,0.011479097120960003,1.5743825804488023,207.26045627376425,86.95627376425855,181.33584905660376,60.69245283018868,155.27255639097746,86.69360902255639,153.5,144.5,125.5,116.5,99.5,144.5
36,1.8,-0.015620231628417969,-0.37682080268859863,1.961923360824585,-0.014521598815917969,-1.5823595523834229,-0.019317150115966797,0.4577934443950653,0.16059131920337677,0.5877172946929932,-3.141424158337612,0.011684892797519542,1.5745258432824052,207.180608365019,87.11026615969581,181.28248587570621,60.73258003766478,155.1296992481203,86.7218045112782,153.5,144.5,125.5,116.5,99.5,144.5
37,1.85,-0.015961885452270508,-0.3763701915740967,1.961963415145874,-0.014774084091186523,-1.5826079845428467,-0.019687891006469727,0.45807480812072754,0.16040289402008057,0.587513267993927,-3.1411768086148797,0.011927868272093238,1.5745578665583693,207.05714285714285,87.16380952380952,181.1939736346516,60.75706214689266,155.015065913371,86.72693032015066,153.5,144.5,125.5,116.5,99.5,144.5
38,1.9000000000000001,-0.016336679458618164,-0.3758535385131836,1.9620301723480225,-0.01503610610961914,-1.5828783512115479,-0.020075321197509766,0.4583895802497864,0.1601962000131607,0.5872618556022644,-3.140845135078957,0.012192089909477226,1.5745746450727705,206.93168880455408,87.18406072106262,181.10207939508507,60.73345935727788,154.8684210526316,86.75,153.5,144.5,125.5,116.5,99.5,144.5
39,1.9500000000000002,-0.01671004295349121,-0.37526392936706543,1.9621193408966064,-0.01532292366027832,-1.5831339359283447,-0.020497560501098633,0.45873790979385376,0.15999074280261993,0.5869641304016113,-3.14044228157146,0.012439136110386986,1.5746284535957864,206.85009487666034,87.21062618595825,181.0,60.74624060150376,154.7579737335835,86.75797373358348,153.5,144.5,125.5,116.5,99.5,144.5
40,2.0,-0.017085790634155273,-0.3745903968811035,1.9622414112091064,-0.015625476837158203,-1.583378553390503,-0.020945072174072266,0.45912274718284607,0.15978433191776276,0.5866075158119202,-3.139937794632601,0.012672441758816148,1.5747064134686477,206.8060263653484,87.24293785310735,180.88512241054613,60.7758945386064,154.72523364485983,86.77570093457943,153.5,144.5,125.5,116.5,99.5,144.5
41,2.0500000000000003,-0.01745915412902832,-0.3739194869995117,1.9623548984527588,-0.01593923568725586,-1.5836193561553955,-0.02140522003173828,0.4595075249671936,0.15957893431186676,0.5862581133842468,-3.1394555002744227,0.012902050067649756,1.5747998258824565,206.71751412429379,87.26741996233521,180.78195488721803,60.75375939849624,154.5903165735568,86.74674115456239,153.5,144.5,125.5,116.5,99.5,144.5
42,2.1,-0.01786184310913086,-0.3730638027191162,1.962555170059204,-0.01625967025756836,-1.5838630199432373,-0.02189040184020996,0.45997244119644165,0.15935781598091125,0.5857659578323364,-3.1387069254443314,0.013129056928844288,1.5748922136450272,206.68233082706766,87.203007518797,180.75280898876406,60.734082397003746,154.52141527001862,86.72811918063314,153.5,144.5,125.5,116.5,99.5,144.5
43,2.15,-0.018268823623657227,-0.3715975284576416,1.962921380996704,-0.01682758331298828,-1.5839917659759521,-0.022707223892211914,0.46072593331336975,0.15913842618465424,0.5849054455757141,-3.1374245162872847,0.013226852530671034,1.5753190426114438,206.73644859813083,87.1981308411215,180.7527881040892,60.657992565055764,154.44341372912803,86.67532467532467,153.5,144.5,125.5,116.5,99.5,144.5
44,2.2,-0.01854109764099121,-0.3696320056915283,1.9636456966400146,-0.01716756820678711,-1.5839478969573975,-0.023323535919189453,0.46162086725234985,0.1589970737695694,0.5835456252098083,-3.135062866972762,0.01312645175562693,1.5756935357185096,207.0,86.83612662942272,180.95353159851302,60.29182156133829,154.5,86.5,153.5,144.5,125.5,116.5,99.5,144.5
45,2.25,-0.01826953887939453,-0.36800122261047363,1.9640123844146729,-0.017884254455566406,-1.5833537578582764,-0.024321556091308594,0.46235817670822144,0.15916180610656738,0.5826213955879211,-3.133784147694954,0.012495567968235853,1.5769760517244888,207.3469387755102,86.860853432282,181.4014732965009,60.302025782688766,154.702752293578,86.44587155963303,153.5,144.5,125.5,116.5,99.5,144.5
46,2.3000000000000003,-0.01882624626159668,-0.36841249465942383,1.9646365642547607,-0.01620006561279297,-1.5842039585113525,-0.02248382568359375,0.46199601888656616,0.1588396281003952,0.5822163224220276,-3.1319002220512573,0.013315041614365117,1.5746130452579636,207.1003717472119,86.182156133829,181.01467889908258,59.55045871559633,154.5,85.70695970695971,153.5,144.5,125.5,116.5,99.5,144.5
47,2.35,-0.019135713577270508,-0.3686254024505615,1.9644582271575928,-0.016254425048828125,-1.5845396518707275,-0.02257251739501953,0.4619678854942322,0.15866221487522125,0.5824465155601501,-3.132342413192688,0.013658611526033614,1.5743894716326536,206.86059479553904,86.28066914498142,180.71217712177122,59.61808118081181,154.32234432234432,85.88278388278388,153.5,144.5,125.5,116.5,99.5,144.5
48,2.4000000000000004,-0.019407272338867188,-0.3687565326690674,1.964294672012329,-0.016359806060791016,-1.5848195552825928,-0.022724390029907227,0.461978018283844,0.15850746631622314,0.5826314091682434,-3.1327351725513437,0.013946286650043101,1.5742661666856532,206.65120593692023,86.37847866419295,180.6180811808118,59.71217712177122,154.2316176470588,86.02941176470588,153.5,144.5,125.5,116.5,99.5,144.5
49,2.45,-0.019696474075317383,-0.3687863349914551,1.9641520977020264,-0.016516685485839844,-1.5850961208343506,-0.02294301986694336,0.4620409905910492,0.15834370255470276,0.5827592015266418,-3.133054319272491,0.01422835179562298,1.5741939734466681,206.54646840148698,86.5,180.5598526703499,59.78453038674033,154.11743119266055,86.08440366972476,153.5,144.5,125.5,116.5,99.5,144.5
50,2.5,-0.019991397857666016,-0.3688390254974365,1.9640095233917236,-0.01665210723876953,-1.5853841304779053,-0.023136138916015625,0.46209225058555603,0.15817637741565704,0.5828960537910461,-3.1333751309298155,0.014522674517849842,1.5740896499297257,206.45353159851302,86.5,180.353591160221,59.93922651933702,153.94659300184162,86.24677716390424,153.5,144.5,125.5,116.5,99.5,144.5
51,2.5500000000000003,-0.02024531364440918,-0.368865966796875,1.9638745784759521,-0.01679849624633789,-1.5856258869171143,-0.023343324661254883,0.46214887499809265,0.1580323874950409,0.5830173492431641,-3.133674865517965,0.014769840447911483,1.574040590986584,206.37174721189592,86.61338289962825,180.24169741697418,60.07380073800738,153.75185185185185,86.35555555555555,153.5,144.5,125.5,116.5,99.5,144.5
52,2.6,-0.020479679107666016,-0.3689396381378174,1.963735818862915,-0.016907453536987305,-1.5858604907989502,-0.023505449295043945,0.4621775150299072,0.15789926052093506,0.5831583142280579,-3.1339888734475707,0.015010189036751925,1.5739654601116848,206.20224719101122,86.71722846441948,180.19038817005546,60.18484288354898,153.68081180811808,86.41881918819188,153.5,144.5,125.5,116.5,99.5,144.5
53,2.6500000000000004,-0.020737648010253906,-0.36896324157714844,1.9636127948760986,-0.01703333854675293,-1.586108922958374,-0.023691177368164062,0.46223288774490356,0.1577529013156891,0.5832673907279968,-3.1342524111730192,0.015264123741233858,1.5738908902859863,206.02448210922788,86.7457627118644,179.9776536312849,60.29422718808193,153.54444444444445,86.48148148148148,153.5,144.5,125.5,116.5,99.5,144.5
54,2.7,-0.020987987518310547,-0.3689429759979248,1.9635016918182373,-0.01717662811279297,-1.586341142654419,-0.023900508880615234,0.46230751276016235,0.15761105716228485,0.583349883556366,-3.1344771444985273,0.01550045185189527,1.5738477997281701,205.8544776119403,86.83022388059702,179.81564245810057,60.33705772811918,153.5,86.5,153.5,144.5,125.5,116.5,99.5,144.5
55,2.75,-0.021248817443847656,-0.3688828945159912,1.9633991718292236,-0.017339706420898438,-1.5865757465362549,-0.024135589599609375,0.46240293979644775,0.15746352076530457,0.5834100842475891,-3.134672816250314,0.015738234479087072,1.573820757728713,205.75232774674114,86.9292364990689,179.68703703703704,60.422222222222224,153.44916820702403,86.58410351201479,153.5,144.5,125.5,116.5,99.5,144.5
56,2.8000000000000003,-0.021507978439331055,-0.3688080310821533,1.9632999897003174,-0.017510175704956055,-1.5868046283721924,-0.024379730224609375,0.4625051021575928,0.1573169082403183,0.5834627151489258,-3.134857729199294,0.015970718126503084,1.573804416462958,205.69172932330827,87.04323308270676,179.57962962962964,60.53333333333333,153.36968576709796,86.66543438077635,153.5,144.5,125.5,116.5,99.5,144.5
57,2.85,-0.021759510040283203,-0.36875367164611816,1.9631989002227783,-0.017664432525634766,-1.587031602859497,-0.024604082107543945,0.46259480714797974,0.15717463195323944,0.5835238695144653,-3.1350491391646136,0.016200903457067005,1.5737758198510605,205.56015037593986,87.16917293233082,179.53518518518518,60.52777777777778,153.2486085343228,86.75139146567717,153.5,144.5,125.5,116.5,99.5,144.5
58,2.9000000000000004,-0.022014856338500977,-0.36870884895324707,1.9630954265594482,-0.017815589904785156,-1.5872642993927002,-0.02482438087463379,0.4626809060573578,0.1570301204919815,0.5835912823677063,-3.135250070595081,0.016437158539956986,1.5737387431431467,205.5,87.28358208955224,179.4574074074074,60.65555555555556,153.1608133086876,86.83918669131238,153.5,144.5,125.5,116.5,99.5,144.5
59,2.95,-0.022265911102294922,-0.3686811923980713,1.9629924297332764,-0.017949819564819336,-1.5874979496002197,-0.0250244140625,0.462756872177124,0.15688754618167877,0.5836642384529114,-3.135450708778516,0.016674149739056503,1.5736854716140152,205.32209737827716,87.31835205992509,179.3828996282528,60.698884758364315,153.0,86.95246800731262,153.5,144.5,125.5,116.5,99.5,144.5
60,3.0,-0.022519588470458984,-0.3686089515686035,1.9628984928131104,-0.018108129501342773,-1.587723970413208,-0.025255441665649414,0.46285465359687805,0.15674394369125366,0.5837130546569824,-3.1356208917864263,0.016903591302356767,1.5736609968782025,205.2312030075188,87.32330827067669,179.26305970149255,60.826492537313435,152.88419117647058,87.01286764705883,153.5,144.5,125.5,116.5,99.5,144.5
61,3.0500000000000003,-0.0227663516998291,-0.368516206741333,1.9628126621246338,-0.018270254135131836,-1.587939977645874,-0.025491952896118164,0.46296048164367676,0.15660418570041656,0.5837472081184387,-3.135766150358789,0.017122150007729587,1.5736498534710204,205.10377358490567,87.42075471698114,179.1977818853974,60.89833641404806,152.7699443413729,87.11502782931355,153.5,144.5,125.5,116.5,99.5,144.5
62,3.1,-0.023015975952148438,-0.3684096336364746,1.962731122970581,-0.018436431884765625,-1.5881564617156982,-0.025734663009643555,0.4630729556083679,0.15646298229694366,0.5837722420692444,-3.135897260501488,0.017340842863632668,1.5736417475934046,205.0,87.5,179.0239852398524,61.00184501845018,152.68460111317253,87.19666048237477,153.5,144.5,125.5,116.5,99.5,144.5
63,3.1500000000000004,-0.023254871368408203,-0.368297815322876,1.9626514911651611,-0.01860356330871582,-1.5883610248565674,-0.025978803634643555,0.46318596601486206,0.15632778406143188,0.5837939381599426,-3.1360222686840937,0.01754754442494842,1.5736459023012792,204.9054820415879,87.52173913043478,178.87037037037038,61.114814814814814,152.57777777777778,87.31296296296296,153.5,144.5,125.5,116.5,99.5,144.5
64,3.2,-0.023478984832763672,-0.3681623935699463,1.9625766277313232,-0.0187835693359375,-1.5885460376739502,-0.026239633560180664,0.46330854296684265,0.15620097517967224,0.5838030576705933,-3.1361324454772674,0.017734224015475208,1.5736814024842005,204.75046904315198,87.61163227016885,178.75232774674114,61.154562383612664,152.52310536044362,87.35859519408503,153.5,144.5,125.5,116.5,99.5,144.5
65,3.25,-0.023712873458862305,-0.3679945468902588,1.9625084400177002,-0.018980741500854492,-1.5887339115142822,-0.026522159576416016,0.46344834566116333,0.15606872737407684,0.5837942361831665,-3.1362188822837265,0.01792307760019631,1.5737293647434492,204.67790262172284,87.68164794007491,178.73134328358208,61.22201492537314,152.45841035120148,87.39741219963031,153.5,144.5,125.5,116.5,99.5,144.5
66,3.3000000000000003,-0.023955821990966797,-0.36782002449035645,1.962444543838501,-0.019175052642822266,-1.5889298915863037,-0.02680230140686035,0.46359145641326904,0.15593135356903076,0.5837790369987488,-3.1362926208146877,0.01811982578232867,1.5737664317199034,204.61869158878505,87.6411214953271,178.6096654275093,61.342007434944236,152.42037037037036,87.46666666666667,153.5,144.5,125.5,116.5,99.5,144.5
67,3.35,-0.02419257164001465,-0.36758852005004883,1.962393045425415,-0.019399642944335938,-1.5891082286834717,-0.027121543884277344,0.4637617766857147,0.15579771995544434,0.5837327241897583,-3.136326160453398,0.018297170424801782,1.5738488333577836,204.52621722846442,87.7565543071161,178.5754189944134,61.415270018621975,152.353591160221,87.47882136279927,153.5,144.5,125.5,116.5,99.5,144.5
68,3.4000000000000004,-0.024445295333862305,-0.36736345291137695,1.962345838546753,-0.019608497619628906,-1.5893046855926514,-0.02742314338684082,0.4639292359352112,0.15565481781959534,0.5836842060089111,-3.1363458182352266,0.018493340118940372,1.5738982045437997,204.46022727272728,87.87310606060606,178.52319109461968,61.493506493506494,152.30129390018485,87.55637707948244,153.5,144.5,125.5,116.5,99.5,144.5
69,3.45,-0.02470111846923828,-0.36714911460876465,1.9622986316680908,-0.019809484481811523,-1.5895073413848877,-0.027714252471923828,0.4640909433364868,0.1555100530385971,0.5836409330368042,-3.136368631278088,0.018695255993440286,1.5739341145808394,204.35471698113207,87.9566037735849,178.45353159851302,61.5,152.15270018621973,87.62756052141528,153.5,144.5,125.5,116.5,99.5,144.5
70,3.5,-0.024949073791503906,-0.3669619560241699,1.9622442722320557,-0.01999640464782715,-1.5897080898284912,-0.027987957000732422,0.46423837542533875,0.15536966919898987,0.5836126208305359,-3.1364119818480987,0.018895701523699078,1.5739599830310027,204.29268292682926,88.02439024390245,178.43389199255122,61.513966480446925,152.04646840148698,87.7081784386617,153.5,144.5,125.5,116.5,99.5,144.5
71,3.5500000000000003,-0.025193214416503906,-0.3667929172515869,1.9621851444244385,-0.020176410675048828,-1.5899083614349365,-0.028252124786376953,0.46437695622444153,0.15523110330104828,0.5835956335067749,-3.1364713533248456,0.019096563365978442,1.5739799336827294,204.21804511278197,88.13533834586467,178.31412639405204,61.59665427509294,151.90520446096653,87.70631970260223,153.5,144.5,125.5,116.5,99.5,144.5
72,3.6,-0.025427579879760742,-0.36669135093688965,1.9621188640594482,-0.020307302474975586,-1.5901148319244385,-0.02845597267150879,0.46447867155075073,0.1550980508327484,0.5836093425750732,-3.1365576135932662,0.019304640460096417,1.573948322085907,204.09056603773584,88.22264150943396,178.18435754189943,61.66294227188082,151.83085501858736,87.74721189591078,153.5,144.5,125.5,116.5,99.5,144.5
73,3.6500000000000004,-0.0256650447845459,-0.3665759563446045,1.96205735206604,-0.02044224739074707,-1.5903217792510986,-0.028664827346801758,0.46458712220191956,0.15496303141117096,0.5836137533187866,-3.1366285856601475,0.019513205238155647,1.5739196127705588,204.0,88.25471698113208,178.10506566604127,61.671669793621014,151.72304832713755,87.7918215613383,153.5,144.5,125.5,116.5,99.5,144.5
74,3.7,-0.02589726448059082,-0.36646199226379395,1.9619944095611572,-0.02057790756225586,-1.5905239582061768,-0.028875350952148438,0.46469447016716003,0.1548309326171875,0.5836198925971985,-3.1367035664384417,0.01971636367528251,1.573896876126982,203.85066162570888,88.25897920604915,177.97003745318352,61.72097378277154,151.6648148148148,87.83148148148148,153.5,144.5,125.5,116.5,99.5,144.5
75,3.75,-0.026137113571166992,-0.3662745952606201,1.9619472026824951,-0.020753145217895508,-1.5907180309295654,-0.02913641929626465,0.4648389220237732,0.1546948105096817,0.5835853219032288,-3.1367275800973125,0.019910231985456817,1.5739185656152148,203.77966101694915,88.30131826741996,177.807476635514,61.811214953271026,151.60148975791435,87.90502793296089,153.5,144.5,125.5,116.5,99.5,144.5
76,3.8000000000000003,-0.026361703872680664,-0.36608219146728516,1.9618995189666748,-0.020934104919433594,-1.590895414352417,-0.0294034481048584,0.4649842083454132,0.15456721186637878,0.5835490822792053,-3.1367522626839874,0.020087220816830655,1.573961327352854,203.6723163841808,88.34839924670433,177.771375464684,61.860594795539036,151.5,88.0,153.5,144.5,125.5,116.5,99.5,144.5
77,3.85,-0.02658987045288086,-0.3658576011657715,1.9618589878082275,-0.02113056182861328,-1.5910694599151611,-0.02969074249267578,0.4651452302932739,0.15443769097328186,0.5834952592849731,-3.13675376213504,0.02026056366315442,1.5740212331002597,203.58691588785047,88.4429906542056,177.728624535316,61.92379182156134,151.37291280148423,88.09833024118738,153.5,144.5,125.5,116.5,99.5,144.5
78,3.9000000000000004,-0.026813745498657227,-0.3656497001647949,1.9618165493011475,-0.021314382553100586,-1.5912435054779053,-0.029963254928588867,0.4652969241142273,0.15431050956249237,0.583448588848114,-3.1367609368308664,0.020433439446071854,1.5740701011469322,203.54646840148698,88.5,177.64672897196263,62.018691588785046,151.32162661737524,88.18853974121997,153.5,144.5,125.5,116.5,99.5,144.5
79,3.95,-0.027029752731323242,-0.36544132232666016,1.9617745876312256,-0.021498441696166992,-1.59140944480896,-0.030236244201660156,0.46544766426086426,0.1541876196861267,0.5834020376205444,-3.136768956200014,0.02059866916619128,1.5741278267666212,203.5,88.5,177.5872420262664,62.106941838649156,151.27695167286245,88.2081784386617,153.5,144.5,125.5,116.5,99.5,144.5
80,4.0,-0.027248144149780273,-0.3652036190032959,1.9617421627044678,-0.021689891815185547,-1.5915729999542236,-0.03052043914794922,0.46561145782470703,0.15406355261802673,0.5833353996276855,-3.1367436566875053,0.020759997136519694,1.5741943868865977,203.41947565543072,88.58052434456928,177.50559701492537,62.207089552238806,151.2226345083488,88.22263450834879,153.5,144.5,125.5,116.5,99.5,144.5
81,4.05,-0.027475595474243164,-0.3649582862854004,1.9617197513580322,-0.021871566772460938,-1.5917456150054932,-0.030793428421020508,0.4657781422138214,0.15393410623073578,0.5832580924034119,-3.1366907528111097,0.020930403377738792,1.5742416810645388,203.41947565543072,88.58052434456928,177.47858472998138,62.27188081936685,151.16326530612244,88.27643784786642,153.5,144.5,125.5,116.5,99.5,144.5
82,4.1000000000000005,-0.027692556381225586,-0.3647186756134033,1.9616968631744385,-0.022046804428100586,-1.5919091701507568,-0.03105950355529785,0.46593984961509705,0.1538107842206955,0.5831829309463501,-3.1366386346683597,0.021091207850654957,1.5742927501443125,203.2983114446529,88.68667917448406,177.39888682745826,62.319109461966605,151.0814814814815,88.31666666666666,153.5,144.5,125.5,116.5,99.5,144.5
83,4.15,-0.027921199798583984,-0.3644733428955078,1.9616796970367432,-0.022217988967895508,-1.5920841693878174,-0.03132152557373047,0.4661048948764801,0.15368059277534485,0.5831005573272705,-3.136570689530696,0.021263327998805915,1.574328156310714,203.26365348399247,88.70433145009416,177.33766233766235,62.33766233766234,150.94981412639405,88.33271375464685,153.5,144.5,125.5,116.5,99.5,144.5
84,4.2,-0.028126955032348633,-0.36429643630981445,1.9616506099700928,-0.022346019744873047,-1.592252492904663,-0.03153038024902344,0.46623173356056213,0.15356311202049255,0.5830534100532532,-3.136541369976261,0.0214291440927945,1.5743324258997433,203.1735849056604,88.7433962264151,177.2979515828678,62.31098696461825,150.8271375464684,88.35873605947955,153.5,144.5,125.5,116.5,99.5,144.5
85,4.25,-0.028328895568847656,-0.364147424697876,1.961615800857544,-0.0224606990814209,-1.5924227237701416,-0.03172111511230469,0.4663445055484772,0.15344782173633575,0.5830215811729431,-3.1365320674180137,0.021598110245045567,1.5743223025288409,203.125,88.74242424242425,177.16417910447763,62.350746268656714,150.728280961183,88.41035120147875,153.5,144.5,125.5,116.5,99.5,144.5
86,4.3,-0.02849125862121582,-0.3640255928039551,1.9615700244903564,-0.022572755813598633,-1.5925571918487549,-0.0319056510925293,0.4664405286312103,0.1533549576997757,0.5830098390579224,-3.1365601838366235,0.02173313458872578,1.5743443401882071,203.0,88.74528301886792,177.14205607476634,62.3607476635514,150.67771639042357,88.48618784530387,153.5,144.5,125.5,116.5,99.5,144.5
87,4.3500000000000005,-0.02867865562438965,-0.36374568939208984,1.9615542888641357,-0.022772550582885742,-1.5926826000213623,-0.03220224380493164,0.4666184186935425,0.1532481610774994,0.5829127430915833,-3.136484717428636,0.021855147073144923,1.574455937279324,202.9188679245283,88.83962264150944,177.060263653484,62.3954802259887,150.646408839779,88.52117863720073,153.5,144.5,125.5,116.5,99.5,144.5
88,4.4,-0.028880834579467773,-0.3634788990020752,1.961533784866333,-0.022969484329223633,-1.592825174331665,-0.032494544982910156,0.4667922854423523,0.15313269197940826,0.5828250646591187,-3.1364235751149625,0.02199436316945757,1.5745480059863035,202.86278195488723,88.95112781954887,176.98130841121494,62.401869158878505,150.57962962962964,88.53333333333333,153.5,144.5,125.5,116.5,99.5,144.5
89,4.45,-0.029079437255859375,-0.3632993698120117,1.9614932537078857,-0.023123979568481445,-1.5929815769195557,-0.032732248306274414,0.46692365407943726,0.15301913022994995,0.5827875137329102,-3.136429396362305,0.022150232104269554,1.5745873855383516,202.81308411214954,89.02429906542056,176.88345864661653,62.43984962406015,150.53321033210332,88.53321033210332,153.5,144.5,125.5,116.5,99.5,144.5
90,4.5,-0.029274702072143555,-0.3631598949432373,1.961444616317749,-0.023255586624145508,-1.593144178390503,-0.03294062614440918,0.467034250497818,0.1529073417186737,0.5827712416648865,-3.136460487146002,0.02231245850682774,1.5746006735612281,202.72232645403378,89.10506566604127,176.78358208955223,62.51119402985075,150.52029520295204,88.54428044280442,153.5,144.5,125.5,116.5,99.5,144.5
91,4.55,-0.02948594093322754,-0.3629932403564453,1.9614059925079346,-0.023395061492919922,-1.5933172702789307,-0.03315925598144531,0.4671596884727478,0.15278644859790802,0.5827365517616272,-3.13646081117056,0.02248507932614081,1.5746087960957453,202.6954887218045,89.16165413533835,176.68401486988847,62.572490706319705,150.47047970479704,88.61808118081181,153.5,144.5,125.5,116.5,99.5,144.5
92,4.6000000000000005,-0.029680252075195312,-0.3628513813018799,1.9613573551177979,-0.023529767990112305,-1.5934779644012451,-0.0333712100982666,0.4672720432281494,0.15267516672611237,0.5827193856239319,-3.1364924538563215,0.022645605240619447,1.5746262958537467,202.61581920903956,89.1864406779661,176.61410018552877,62.593692022263454,150.42222222222222,88.68703703703704,153.5,144.5,125.5,116.5,99.5,144.5
93,4.65,-0.029875516891479492,-0.3626720905303955,1.9613115787506104,-0.023691892623901367,-1.593630075454712,-0.033617258071899414,0.4674038589000702,0.15256330370903015,0.5826855897903442,-3.1365098200403856,0.022797925128027103,1.5746768280017025,202.54409005628517,89.22701688555347,176.58812615955472,62.60296846011132,150.3819188191882,88.71217712177122,153.5,144.5,125.5,116.5,99.5,144.5
94,4.7,-0.030081987380981445,-0.3624718189239502,1.9612700939178467,-0.02386641502380371,-1.5937893390655518,-0.033878326416015625,0.4675479233264923,0.1524450033903122,0.5826405882835388,-3.136513538444713,0.022955925990088055,1.5747322031014508,202.4681647940075,89.312734082397,176.5648148148148,62.60925925925926,150.292364990689,88.77281191806331,153.5,144.5,125.5,116.5,99.5,144.5
95,4.75,-0.030291080474853516,-0.3622922897338867,1.9612233638763428,-0.024031400680541992,-1.5939552783966064,-0.034128427505493164,0.4676828384399414,0.15232524275779724,0.5826083421707153,-3.136535555451169,0.02312144144220212,1.5747732493208244,202.4307116104869,89.39138576779027,176.46654275092936,62.682156133829,150.1851851851852,88.83888888888889,153.5,144.5,125.5,116.5,99.5,144.5
96,4.800000000000001,-0.03047919273376465,-0.362170934677124,1.9611656665802002,-0.02416539192199707,-1.5941121578216553,-0.03433728218078613,0.4677855372428894,0.1522173434495926,0.5826070308685303,-3.1365953514962426,0.02327999243847599,1.5747934014510232,202.40747663551403,89.3981308411215,176.40630797773656,62.70500927643785,150.12844036697248,88.91926605504587,153.5,144.5,125.5,116.5,99.5,144.5
97,4.8500000000000005,-0.030655384063720703,-0.3620455265045166,1.9611027240753174,-0.024312257766723633,-1.5942552089691162,-0.034560441970825195,0.46789035201072693,0.15211623907089233,0.5826080441474915,-3.136669085863949,0.02342452082863805,1.5748393462734065,202.3358348968105,89.42026266416511,176.3507462686567,62.80223880597015,150.0,88.95246800731262,153.5,144.5,125.5,116.5,99.5,144.5
98,4.9,-0.030822038650512695,-0.3619265556335449,1.9610469341278076,-0.02444005012512207,-1.5943920612335205,-0.03476214408874512,0.46798837184906006,0.15202032029628754,0.5826056599617004,-3.13672471691357,0.023562956055712403,1.5748734704636693,202.2405303030303,89.4715909090909,176.26443202979516,62.85102420856611,149.97619047619048,89.04945054945055,153.5,144.5,125.5,116.5,99.5,144.5
99,4.95,-0.030997514724731445,-0.36174607276916504,1.960998773574829,-0.024608850479125977,-1.5945236682891846,-0.03501534461975098,0.4681190550327301,0.15191973745822906,0.5825729966163635,-3.1367498580291926,0.02369433965561169,1.574951183100579,202.08918406072107,89.5180265654649,176.24767225325886,62.94227188081937,149.87155963302752,89.08073394495413,153.5,144.5,125.5,116.5,99.5,144.5
100,5.0,-0.03119516372680664,-0.3614828586578369,1.9609811305999756,-0.024796009063720703,-1.5946638584136963,-0.03529691696166992,0.46828919649124146,0.15180610120296478,0.5824840068817139,-3.1366792928729166,0.023830881791679293,1.5750369418257841,202.08506616257088,89.5633270321361,176.22222222222223,63.00370370370371,149.8148148148148,89.16111111111111,153.5,144.5,125.5,116.5,99.5,144.5
101,5.050000000000001,-0.03138017654418945,-0.3612520694732666,1.9609553813934326,-0.024970531463623047,-1.5947973728179932,-0.03556084632873535,0.4684421420097351,0.15169984102249146,0.5824140310287476,-3.136637336825484,0.023961765666734195,1.5751173294275034,202.0170777988615,89.60910815939279,176.20702402957485,63.072088724584106,149.7652495378928,89.17744916820702,153.5,144.5,125.5,116.5,99.5,144.5
102,5.1000000000000005,-0.031585693359375,-0.3609738349914551,1.9609510898590088,-0.025145530700683594,-1.5949442386627197,-0.03583097457885742,0.4686169922351837,0.1515817642211914,0.5823073387145996,-3.1365273309763393,0.024103989758410303,1.5751857141291123,202.0,89.62689393939394,176.12267657992564,63.12639405204461,149.68401486988847,89.22118959107807,153.5,144.5,125.5,116.5,99.5,144.5
103,5.15,-0.031754255294799805,-0.36075425148010254,1.960932970046997,-0.025292634963989258,-1.5950663089752197,-0.03606414794921875,0.46875837445259094,0.15148483216762543,0.5822345018386841,-3.136462381045368,0.024222747258490586,1.57525211045342,201.9566037735849,89.64339622641509,176.01113172541744,63.144712430426715,149.6180811808118,89.28782287822878,153.5,144.5,125.5,116.5,99.5,144.5
104,5.2,-0.031897783279418945,-0.3605513572692871,1.96089768409729,-0.025457143783569336,-1.5951635837554932,-0.036314964294433594,0.46889251470565796,0.1514020711183548,0.5821824669837952,-3.1364493423398816,0.02431853221753619,1.5753596638707543,201.86767485822307,89.70699432892249,175.99252336448598,63.222429906542054,149.6007393715342,89.30499075785582,153.5,144.5,125.5,116.5,99.5,144.5
105,5.25,-0.032071828842163086,-0.36026668548583984,1.9608914852142334,-0.02564215660095215,-1.5952770709991455,-0.03659629821777344,0.4690670371055603,0.15130198001861572,0.5820751190185547,-3.1363446107213218,0.024427098115207397,1.5754697935479076,201.8264150943396,89.7433962264151,175.89944134078212,63.20670391061452,149.55064456721917,89.37016574585635,153.5,144.5,125.5,116.5,99.5,144.5
106,5.300000000000001,-0.032232046127319336,-0.36002492904663086,1.960860013961792,-0.025836467742919922,-1.595381498336792,-0.03688359260559082,0.469224214553833,0.15120956301689148,0.58200603723526,-3.136317848761757,0.0245290440389424,1.575598122176722,201.8060263653484,89.75706214689265,175.85046728971963,63.31214953271028,149.49815498154982,89.41143911439114,153.5,144.5,125.5,116.5,99.5,144.5
107,5.3500000000000005,-0.03238105773925781,-0.35976481437683105,1.9608376026153564,-0.02602839469909668,-1.5954725742340088,-0.03717041015625,0.46938639879226685,0.15112346410751343,0.5819212198257446,-3.1362617844596463,0.02461720738673885,1.5757376858318732,201.71857410881802,89.84615384615384,175.82649253731344,63.315298507462686,149.48798521256933,89.47874306839186,153.5,144.5,125.5,116.5,99.5,144.5
108,5.4,-0.03255939483642578,-0.35947227478027344,1.9608170986175537,-0.026248693466186523,-1.5955846309661865,-0.0374913215637207,0.469570517539978,0.15102052688598633,0.5818237066268921,-3.136197407985185,0.024725101096764145,1.5758820872799386,201.7140186915888,89.92897196261683,175.77467411545624,63.35009310986965,149.48798521256933,89.47874306839186,153.5,144.5,125.5,116.5,99.5,144.5
109,5.45,-0.03274083137512207,-0.3592360019683838,1.9607841968536377,-0.026439905166625977,-1.5957114696502686,-0.03777432441711426,0.4697273373603821,0.15091577172279358,0.5817574858665466,-3.13617318356858,0.024850008325757445,1.5759847512647827,201.66854990583803,90.05084745762711,175.75046554934823,63.391061452513966,149.46678966789668,89.46678966789668,153.5,144.5,125.5,116.5,99.5,144.5
110,5.5,-0.03293776512145996,-0.35904812812805176,1.9607465267181396,-0.026595592498779297,-1.5958654880523682,-0.03801369667053223,0.46986132860183716,0.1508021354675293,0.5817137956619263,-3.136167251489795,0.025002648644727846,1.576028073864426,201.62452830188678,90.08490566037736,175.64126394052045,63.421933085501855,149.37638376383765,89.52952029520296,153.5,144.5,125.5,116.5,99.5,144.5
111,5.550000000000001,-0.033110618591308594,-0.35889315605163574,1.9606969356536865,-0.026743650436401367,-1.5960009098052979,-0.03824138641357422,0.46997764706611633,0.1507023721933365,0.5816924571990967,-3.1361990527637094,0.025138473431879273,1.5760827465234648,201.56037735849057,90.16981132075472,175.59925788497216,63.51948051948052,149.32596685082873,89.55801104972376,153.5,144.5,125.5,116.5,99.5,144.5
112,5.6000000000000005,-0.03329157829284668,-0.35874199867248535,1.9606554508209229,-0.026872873306274414,-1.5961472988128662,-0.038448333740234375,0.47009021043777466,0.15059788525104523,0.5816655158996582,-3.136208543828866,0.025284779365132803,1.5761090230940353,201.51594746716697,90.22138836772983,175.55844155844156,63.52133580705009,149.28782287822878,89.61808118081181,153.5,144.5,125.5,116.5,99.5,144.5
113,5.65,-0.033473968505859375,-0.3585946559906006,1.9606058597564697,-0.027013063430786133,-1.5962941646575928,-0.03866696357727051,0.47020331025123596,0.15049242973327637,0.581646203994751,-3.1362394123653914,0.02543195271166564,1.5761449664078606,201.47663551401868,90.28971962616822,175.51201478743067,63.521256931608136,149.20817843866172,89.66728624535315,153.5,144.5,125.5,116.5,99.5,144.5
114,5.7,-0.033646345138549805,-0.35849976539611816,1.9605419635772705,-0.027133941650390625,-1.5964415073394775,-0.038858890533447266,0.4702911376953125,0.15039287507534027,0.5816599130630493,-3.136318670725301,0.025581169739716126,1.5761629591167912,201.32209737827716,90.31835205992509,175.49074074074073,63.574074074074076,149.11460258780036,89.72273567467653,153.5,144.5,125.5,116.5,99.5,144.5
115,5.75,-0.03384113311767578,-0.3583049774169922,1.9605052471160889,-0.027294635772705078,-1.5965917110443115,-0.039104461669921875,0.47042831778526306,0.15028013288974762,0.5816120505332947,-3.1363087890236008,0.025730377209616188,1.5762147933741848,201.2983114446529,90.31332082551594,175.43703703703704,63.65185185185185,149.02952029520296,89.75645756457564,153.5,144.5,125.5,116.5,99.5,144.5
116,5.800000000000001,-0.03401660919189453,-0.3581118583679199,1.9604737758636475,-0.027443408966064453,-1.596724271774292,-0.0393373966217041,0.4705602824687958,0.15017884969711304,0.5815602540969849,-3.136284586044548,0.025860986151903645,1.5762731677905548,201.25423728813558,90.33145009416197,175.42222222222222,63.68703703703704,148.92633517495395,89.82136279926335,153.5,144.5,125.5,116.5,99.5,144.5
117,5.8500000000000005,-0.034174442291259766,-0.3579237461090088,1.9604418277740479,-0.027586936950683594,-1.5968410968780518,-0.03956460952758789,0.4706869125366211,0.1500873565673828,0.5815105438232422,-3.136261596415511,0.02597575472571868,1.576343460063966,201.21092278719397,90.3804143126177,175.34328358208955,63.725746268656714,148.86580882352942,89.84742647058823,153.5,144.5,125.5,116.5,99.5,144.5
118,5.9,-0.034316062927246094,-0.3577880859375,1.9603989124298096,-0.027704477310180664,-1.596952199935913,-0.03975701332092285,0.47078585624694824,0.15000498294830322,0.5814899802207947,-3.136276620819902,0.02608694440180239,1.5763945128272991,201.12476370510396,90.4461247637051,175.26865671641792,63.77798507462686,148.84714548802947,89.88581952117863,153.5,144.5,125.5,116.5,99.5,144.5
119,5.95,-0.0344843864440918,-0.35758352279663086,1.960371732711792,-0.027855873107910156,-1.5970757007598877,-0.0399932861328125,0.4709215462207794,0.14990755915641785,0.5814302563667297,-3.1362393094676575,0.026208207010791153,1.576463803299625,201.0776515151515,90.49621212121212,175.268156424581,63.80260707635009,148.77163904235726,89.94659300184162,153.5,144.5,125.5,116.5,99.5,144.5
120,6.0,-0.0346531867980957,-0.357391357421875,1.9603416919708252,-0.027999162673950195,-1.5972025394439697,-0.04022073745727539,0.47105124592781067,0.14980950951576233,0.5813770890235901,-3.136209487709225,0.02633287733556658,1.5765235742253736,201.0170777988615,90.5180265654649,175.228624535316,63.860594795539036,148.74816176470588,89.95220588235294,153.5,144.5,125.5,116.5,99.5,144.5
121,6.050000000000001,-0.034851789474487305,-0.35709214210510254,1.9603474140167236,-0.028173446655273438,-1.5973403453826904,-0.04049253463745117,0.47123274207115173,0.14969444274902344,0.5812527537345886,-3.1360650519395072,0.026463629590130898,1.5766008450907114,200.98857142857142,90.52190476190476,175.15341959334566,63.88170055452865,148.7058823529412,90.0091911764706,153.5,144.5,125.5,116.5,99.5,144.5
122,6.1000000000000005,-0.03502178192138672,-0.3567955493927002,1.9603335857391357,-0.02838444709777832,-1.5974442958831787,-0.04080390930175781,0.4714154899120331,0.14959567785263062,0.5811476111412048,-3.135980930587225,0.026563147301303873,1.5767449935957603,200.98865784499054,90.60491493383743,175.12754158964879,63.909426987060996,148.65992647058823,90.08088235294117,153.5,144.5,125.5,116.5,99.5,144.5
123,6.15,-0.03518033027648926,-0.3566114902496338,1.9602887630462646,-0.0285491943359375,-1.5975582599639893,-0.04105329513549805,0.4715437591075897,0.14950372278690338,0.5811107754707336,-3.1359952750442406,0.0266768963266263,1.5768362295167262,200.9322033898305,90.6421845574388,175.06801470588235,63.987132352941174,148.62246777163904,90.1878453038674,153.5,144.5,125.5,116.5,99.5,144.5
124,6.2,-0.035341501235961914,-0.3563699722290039,1.9602530002593994,-0.028749704360961914,-1.5976626873016357,-0.04134821891784668,0.4717012643814087,0.14940983057022095,0.5810448527336121,-3.135978177419374,0.026779316913984347,1.5769705863748504,200.84339622641508,90.70943396226416,174.95580110497238,64.05893186003684,148.5735294117647,90.23529411764706,153.5,144.5,125.5,116.5,99.5,144.5
125,6.25,-0.03550434112548828,-0.3561105728149414,1.9602229595184326,-0.02895641326904297,-1.5977652072906494,-0.041651010513305664,0.47186708450317383,0.1493152379989624,0.5809669494628906,-3.135942554566316,0.02687913824018496,1.5771118150035612,200.7767354596623,90.7298311444653,174.8946395563771,64.11460258780036,148.5,90.34191176470588,153.5,144.5,125.5,116.5,99.5,144.5
126,6.300000000000001,-0.03566098213195801,-0.35581374168395996,1.9601976871490479,-0.029189348220825195,-1.597853422164917,-0.04198646545410156,0.4720517098903656,0.14922378957271576,0.5808709859848022,-3.1358912515300332,0.026963293754475058,1.5772923040374236,200.74906367041197,90.78089887640449,174.8624535315985,64.16171003717471,148.47882136279927,90.353591160221,153.5,144.5,125.5,116.5,99.5,144.5
127,6.3500000000000005,-0.03582334518432617,-0.35552120208740234,1.9601733684539795,-0.029416799545288086,-1.5979483127593994,-0.042315006256103516,0.4722341001033783,0.149129256606102,0.580776035785675,-3.135836694960841,0.027054363279621765,1.5774602990635542,200.7233644859813,90.84672897196262,174.8388888888889,64.23703703703704,148.4558823529412,90.34558823529412,153.5,144.5,125.5,116.5,99.5,144.5
128,6.4,-0.03599429130554199,-0.3552358150482178,1.9601552486419678,-0.029624462127685547,-1.5980556011199951,-0.04262185096740723,0.47241154313087463,0.1490296870470047,0.5806781649589539,-3.135764437694763,0.027157245476769124,1.577598523877573,200.7140186915888,90.92897196261683,174.78107606679035,64.26716141001856,148.4246323529412,90.40808823529412,153.5,144.5,125.5,116.5,99.5,144.5
129,6.45,-0.03615760803222656,-0.3550255298614502,1.960115671157837,-0.029803991317749023,-1.5981695652008057,-0.042890071868896484,0.4725531041622162,0.148934468626976,0.5806270241737366,-3.1357611079622605,0.027270075543900617,1.5777036535541862,200.6478342749529,91.01883239171374,174.78293135435993,64.30983302411875,148.35110294117646,90.43014705882354,153.5,144.5,125.5,116.5,99.5,144.5
130,6.5,-0.036330461502075195,-0.35483598709106445,1.960078477859497,-0.02996063232421875,-1.5982987880706787,-0.04313039779663086,0.47268393635749817,0.14883370697498322,0.5805816650390625,-3.135753297208405,0.027398153026604852,1.5777724083848919,200.57706766917292,91.08458646616542,174.69387755102042,64.38033395176252,148.32844036697247,90.43853211009174,153.5,144.5,125.5,116.5,99.5,144.5
131,6.550000000000001,-0.03651547431945801,-0.3546290397644043,1.9600508213043213,-0.03011345863342285,-1.5984385013580322,-0.04336953163146973,0.4728226959705353,0.14872604608535767,0.5805211067199707,-3.135714938135181,0.027534938783945754,1.5778276213647005,200.56120527306967,91.14500941619586,174.62825278810408,64.38661710037175,148.3168498168498,90.45970695970696,153.5,144.5,125.5,116.5,99.5,144.5
132,6.6000000000000005,-0.036698102951049805,-0.3544802665710449,1.9600040912628174,-0.030251264572143555,-1.598585844039917,-0.043585777282714844,0.47293567657470703,0.14861978590488434,0.5804994106292725,-3.135738355267005,0.0276824583091583,1.577861351412524,200.5056179775281,91.2434456928839,174.54646840148698,64.5,148.27289377289378,90.47252747252747,153.5,144.5,125.5,116.5,99.5,144.5
133,6.65,-0.03688549995422363,-0.35437965393066406,1.959961175918579,-0.0303342342376709,-1.5987522602081299,-0.04373788833618164,0.47302088141441345,0.1485108882188797,0.5804914832115173,-3.1357524253985396,0.0278486584062832,1.5778268703261946,200.3890977443609,91.21052631578948,174.52319109461968,64.49350649350649,148.12132352941177,90.52941176470588,153.5,144.5,125.5,116.5,99.5,144.5
134,6.7,-0.03705906867980957,-0.35416531562805176,1.959942102432251,-0.030477046966552734,-1.5988810062408447,-0.04396653175354004,0.4731593430042267,0.14840960502624512,0.5804199576377869,-3.1356870450107848,0.027973699326842842,1.5778839053782907,200.33271028037385,91.25233644859813,174.5,64.5,148.03676470588235,90.60661764705883,153.5,144.5,125.5,116.5,99.5,144.5
135,6.75,-0.037222862243652344,-0.35396313667297363,1.9599087238311768,-0.030634164810180664,-1.598999261856079,-0.04421043395996094,0.4732944369316101,0.14831404387950897,0.5803654789924622,-3.1356628146303023,0.028090074726236303,1.5779651520264364,200.32209737827716,91.31835205992509,174.47680890538032,64.50649350649351,147.89541284403668,90.6348623853211,153.5,144.5,125.5,116.5,99.5,144.5
136,6.800000000000001,-0.037294864654541016,-0.3541090488433838,1.9598052501678467,-0.030604839324951172,-1.59909987449646,-0.044214725494384766,0.47324711084365845,0.1482718288898468,0.5805031061172485,-3.1358805112407575,0.028200316868146842,1.5778920995244443,200.2983114446529,91.31332082551594,174.47680890538032,64.50649350649351,147.8165137614679,90.66238532110091,153.5,144.5,125.5,116.5,99.5,144.5
137,6.8500000000000005,-0.03720808029174805,-0.3546414375305176,1.9596035480499268,-0.030405521392822266,-1.5991194248199463,-0.04399466514587402,0.4729952812194824,0.14832183718681335,0.5808698534965515,-3.1364238675320637,0.0282450819616999,1.5777437789539879,200.18490566037735,91.33018867924528,174.37988826815644,64.59031657355679,147.81031307550646,90.67955801104972,153.5,144.5,125.5,116.5,99.5,144.5
138,6.9,-0.03729367256164551,-0.354198694229126,1.9596569538116455,-0.030621767044067383,-1.5991199016571045,-0.04432559013366699,0.4732259213924408,0.1482706367969513,0.580646812915802,-3.1361299684473742,0.02823159764492278,1.5779970393082712,200.24812030075188,91.35526315789474,174.44526901669758,64.62894248608535,147.81031307550646,90.67955801104972,153.5,144.5,125.5,116.5,99.5,144.5
139,6.95,-0.03748941421508789,-0.35391807556152344,1.9595201015472412,-0.031052112579345703,-1.5992214679718018,-0.04487800598144531,0.4734441339969635,0.14815571904182434,0.5806545615196228,-3.1363953714571724,0.028342562201872562,1.578346096125135,200.11742424242425,91.46969696969697,174.35634328358208,64.75373134328358,147.81985294117646,90.83272058823529,153.5,144.5,125.5,116.5,99.5,144.5
140,7.0,-0.037740230560302734,-0.3534872531890869,1.9595110416412354,-0.031377315521240234,-1.599372148513794,-0.04532814025878906,0.47370976209640503,0.14800919592380524,0.5804948210716248,-3.136277799844207,0.028485930919979943,1.5785488651670894,200.10377358490567,91.57924528301886,174.268156424581,64.8026070763501,147.76654411764707,90.92279411764706,153.5,144.5,125.5,116.5,99.5,144.5
141,7.050000000000001,-0.037953853607177734,-0.35319089889526367,1.9594738483428955,-0.0316312313079834,-1.599513292312622,-0.04568743705749512,0.47390490770339966,0.1478845328092575,0.5804098844528198,-3.1362562765455397,0.028625070038356428,1.578695984422902,200.0433962264151,91.64339622641509,174.2277777777778,64.90925925925926,147.72760511882998,90.98903107861061,153.5,144.5,125.5,116.5,99.5,144.5
142,7.1000000000000005,-0.038177490234375,-0.3528633117675781,1.9594471454620361,-0.03189373016357422,-1.5996596813201904,-0.04605865478515625,0.47411465644836426,0.14775395393371582,0.5803039073944092,-3.1362003000030376,0.02876746548020363,1.5788454641337386,200.015065913371,91.67796610169492,174.22140221402213,64.95571955719558,147.6886446886447,91.04395604395604,153.5,144.5,125.5,116.5,99.5,144.5
143,7.15,-0.038408756256103516,-0.35251712799072266,1.9594237804412842,-0.032167673110961914,-1.599808931350708,-0.04644441604614258,0.47433531284332275,0.14761872589588165,0.5801880359649658,-3.136133184754324,0.02891227624558832,1.5790024892055845,199.93194706994328,91.76748582230624,174.15867158671585,65.04243542435424,147.5934065934066,91.2032967032967,153.5,144.5,125.5,116.5,99.5,144.5
144,7.2,-0.03862333297729492,-0.3521850109100342,1.9593985080718994,-0.03243207931518555,-1.599945306777954,-0.04681825637817383,0.4745461344718933,0.1474931240081787,0.5800787210464478,-3.13607302453184,0.029044276815825467,1.5791636072937365,199.8314606741573,91.81460674157303,174.03492647058823,65.06801470588235,147.496336996337,91.25641025641026,153.5,144.5,125.5,116.5,99.5,144.5
145,7.25,-0.03882479667663574,-0.35185861587524414,1.9593703746795654,-0.03269624710083008,-1.6000697612762451,-0.04719138145446777,0.47475308179855347,0.1473749876022339,0.5799738168716431,-3.1360219876598023,0.029164490790374864,1.5793370924440027,199.80149812734084,91.90449438202248,173.94074074074075,65.18888888888888,147.45970695970695,91.31684981684981,153.5,144.5,125.5,116.5,99.5,144.5
146,7.300000000000001,-0.03901958465576172,-0.35155773162841797,1.959341287612915,-0.03293871879577637,-1.6001932621002197,-0.04753828048706055,0.47494491934776306,0.14726081490516663,0.5798794627189636,-3.135977131690828,0.029285269695558037,1.5794910348920095,199.7486033519553,92.0148975791434,173.88703703703703,65.23333333333333,147.43223443223442,91.35164835164835,153.5,144.5,125.5,116.5,99.5,144.5
147,7.3500000000000005,-0.03921914100646973,-0.3512837886810303,1.9593079090118408,-0.03316378593444824,-1.6003282070159912,-0.04786324501037598,0.4751240313053131,0.14714370667934418,0.579799234867096,-3.1359460492307925,0.029417301461437177,1.579618033398346,199.7177570093458,92.10467289719627,173.81750465549348,65.29236499068901,147.41575091575092,91.36813186813187,153.5,144.5,125.5,116.5,99.5,144.5
148,7.4,-0.039420366287231445,-0.35103940963745117,1.9592697620391846,-0.03336954116821289,-1.6004712581634521,-0.04816460609436035,0.47528842091560364,0.14702577888965607,0.5797330737113953,-3.135929148577131,0.029558240234301158,1.5797188804573359,199.6829268292683,92.17823639774859,173.79182156133828,65.33271375464685,147.32844036697247,91.43853211009174,153.5,144.5,125.5,116.5,99.5,144.5
149,7.45,-0.039617061614990234,-0.3508145809173584,1.9592278003692627,-0.03356671333312988,-1.600614309310913,-0.04845428466796875,0.47544288635253906,0.14691035449504852,0.5796787142753601,-3.1359284813428556,0.029699958561709882,1.5798123588299355,199.60902255639098,92.23684210526316,173.728280961183,65.41035120147875,147.3168498168498,91.45970695970696,153.5,144.5,125.5,116.5,99.5,144.5
150,7.5,-0.03982734680175781,-0.35056591033935547,1.9591944217681885,-0.03376913070678711,-1.6007664203643799,-0.0487523078918457,0.4756097197532654,0.14678704738616943,0.5796072483062744,-3.135899235038263,0.029849804245813443,1.5799014244432836,199.5,92.28358208955224,173.6321626617375,65.48613678373383,147.27289377289378,91.47252747252747,153.5,144.5,125.5,116.5,99.5,144.5
151,7.550000000000001,-0.04005265235900879,-0.3502664566040039,1.9591763019561768,-0.033987998962402344,-1.6009247303009033,-0.04907345771789551,0.47580134868621826,0.14665468037128448,0.5795033574104309,-3.135818792641955,0.030002783472962046,1.5799999531023752,199.44194756554307,92.35393258426966,173.57962962962964,65.53333333333333,147.18829981718466,91.54296160877514,153.5,144.5,125.5,116.5,99.5,144.5
152,7.6000000000000005,-0.04027104377746582,-0.34998178482055664,1.9591553211212158,-0.034200191497802734,-1.601078748703003,-0.04938530921936035,0.47598469257354736,0.1465265154838562,0.5794077515602112,-3.13575000400231,0.030152417157279482,1.5800962097970148,199.3992537313433,92.375,173.53518518518518,65.51481481481481,146.9963436928702,91.58683729433272,153.5,144.5,125.5,116.5,99.5,144.5
153,7.65,-0.04045867919921875,-0.34972310066223145,1.959120512008667,-0.03441286087036133,-1.6012051105499268,-0.04969620704650879,0.47615382075309753,0.14641615748405457,0.5793333053588867,-3.135723551676467,0.030276537121697117,1.5802207377801198,199.40111940298507,92.42164179104478,173.52029520295204,65.54428044280442,146.91758241758242,91.64468864468864,153.5,144.5,125.5,116.5,99.5,144.5
154,7.7,-0.040627241134643555,-0.34952259063720703,1.9590680599212646,-0.03460574150085449,-1.6013238430023193,-0.04997897148132324,0.47629404067993164,0.14631687104701996,0.5792965888977051,-3.135753863973131,0.030395410399817784,1.5803339971528654,199.41417910447763,92.5,173.48523985239854,65.5719557195572,146.81718464351005,91.6617915904936,153.5,144.5,125.5,116.5,99.5,144.5
155,7.75,-0.040740013122558594,-0.3495628833770752,1.9589588642120361,-0.03468632698059082,-1.601435899734497,-0.05011463165283203,0.476312518119812,0.14625072479248047,0.5794004797935486,-3.135975854381188,0.03051781692173499,1.580351010441754,199.28142589118198,92.55347091932458,173.43703703703704,65.65185185185184,146.76190476190476,91.67582417582418,153.5,144.5,125.5,116.5,99.5,144.5
156,7.800000000000001,-0.04064130783081055,-0.3498198986053467,1.9587247371673584,-0.03480672836303711,-1.6013610363006592,-0.050272464752197266,0.4762237071990967,0.1463075429201126,0.5796942114830017,-3.1365879992910526,0.030473571610163844,1.580589133295307,199.24812030075188,92.64473684210526,173.4280442804428,65.76568265682657,146.8558394160584,91.91058394160584,153.5,144.5,125.5,116.5,99.5,144.5
157,7.8500000000000005,-0.0408172607421875,-0.34961438179016113,1.9586741924285889,-0.03500223159790039,-1.601487398147583,-0.05055856704711914,0.4763680696487427,0.14620353281497955,0.5796523094177246,-3.1366116970938096,0.030600070393924577,1.5806984017945853,199.19622641509434,92.70188679245283,173.3395176252319,65.8200371057514,146.8113553113553,91.92307692307692,153.5,144.5,125.5,116.5,99.5,144.5
158,7.9,-0.04099273681640625,-0.34941530227661133,1.9586236476898193,-0.03519296646118164,-1.6016128063201904,-0.050838470458984375,0.4765095114707947,0.14609986543655396,0.5796139240264893,-3.136637266190769,0.030726751998279865,1.5808023980644674,199.15471698113208,92.71698113207547,173.2970479704797,65.91881918819188,146.74908424908426,92.0,153.5,144.5,125.5,116.5,99.5,144.5
159,7.95,-0.04116630554199219,-0.3491947650909424,1.9585773944854736,-0.035393476486206055,-1.6017324924468994,-0.05113101005554199,0.4766598045825958,0.14599739015102386,0.5795634984970093,-3.1366471608818833,0.030845872317243297,1.580921123122896,199.09981167608285,92.80037664783427,173.25925925925927,66.02962962962962,146.71009174311928,92.03302752293578,153.5,144.5,125.5,116.5,99.5,144.5
160,8.0,-0.04134678840637207,-0.3489670753479004,1.9585368633270264,-0.03559112548828125,-1.6018588542938232,-0.051421165466308594,0.47681331634521484,0.145891010761261,0.5795060396194458,-3.1366420056829836,0.030970529780304366,1.5810312521067553,199.0,92.81613508442777,173.24169741697418,66.07380073800738,146.63736263736263,92.12087912087912,153.5,144.5,125.5,116.5,99.5,144.5
161,8.05,-0.0415339469909668,-0.3486902713775635,1.958505392074585,-0.035814762115478516,-1.6019809246063232,-0.05174565315246582,0.4769914448261261,0.14578036963939667,0.5794217586517334,-3.1366039217826254,0.031090043057966636,1.5811701987822542,198.90671641791045,92.96268656716418,173.22550831792975,66.11645101663586,146.59633027522935,92.22752293577982,153.5,144.5,125.5,116.5,99.5,144.5
162,8.1,-0.0417323112487793,-0.34842848777770996,1.958472490310669,-0.036026716232299805,-1.6021182537078857,-0.05205535888671875,0.4771628975868225,0.14566336572170258,0.5793447494506836,-3.1365697548606657,0.031224504356232464,1.5812827593596857,198.85261194029852,93.01865671641791,173.17777777777778,66.20555555555555,146.5,92.29304029304029,153.5,144.5,125.5,116.5,99.5,144.5
163,8.15,-0.04192757606506348,-0.3481571674346924,1.9584438800811768,-0.036240339279174805,-1.6022508144378662,-0.0523679256439209,0.47733819484710693,0.14554797112941742,0.5792601704597473,-3.1365238830593536,0.031353958263863974,1.5814017338384265,198.8,93.15514018691589,173.10575139146567,66.31539888682745,146.45970695970695,92.31684981684981,153.5,144.5,125.5,116.5,99.5,144.5
164,8.200000000000001,-0.0421292781829834,-0.34792017936706543,1.9584152698516846,-0.036422014236450195,-1.6023991107940674,-0.05264163017272949,0.4774948060512543,0.145428866147995,0.579188346862793,-3.136480337744728,0.0314992249370293,1.581475044537091,198.73694029850745,93.17350746268657,172.98884758364312,66.31598513011153,146.43223443223442,92.35164835164835,153.5,144.5,125.5,116.5,99.5,144.5
165,8.25,-0.04231762886047363,-0.3476898670196533,1.958380937576294,-0.03661036491394043,-1.6025340557098389,-0.05292153358459473,0.4776485860347748,0.14531759917736053,0.5791247487068176,-3.136457100559419,0.031632053671245684,1.5815679421853526,198.69101123595505,93.24719101123596,172.90671641791045,66.34888059701493,146.41575091575092,92.36813186813187,153.5,144.5,125.5,116.5,99.5,144.5
166,8.3,-0.042505502700805664,-0.3474850654602051,1.9583408832550049,-0.03678417205810547,-1.6026742458343506,-0.053183555603027344,0.4777895212173462,0.14520668983459473,0.5790753364562988,-3.1364507096669136,0.031771103387076255,1.5816430316679397,198.6803738317757,93.26915887850467,172.8271375464684,66.35873605947955,146.32844036697247,92.43853211009174,153.5,144.5,125.5,116.5,99.5,144.5
167,8.35,-0.04267120361328125,-0.3473086357116699,1.9582903385162354,-0.036952972412109375,-1.6027967929840088,-0.053437232971191406,0.47791558504104614,0.14510856568813324,0.5790457725524902,-3.136479738627379,0.031894827847945666,1.5817302444849628,198.5799256505576,93.33085501858736,172.75185185185185,66.40555555555555,146.3168498168498,92.45970695970696,153.5,144.5,125.5,116.5,99.5,144.5
168,8.4,-0.0428466796875,-0.34711432456970215,1.9582445621490479,-0.03712725639343262,-1.6029255390167236,-0.053699493408203125,0.478051096200943,0.14500468969345093,0.57900470495224,-3.1364899713713177,0.032023675013681585,1.5818168934032975,198.55722326454034,93.41275797373358,172.67771639042357,66.48618784530387,146.27289377289378,92.47252747252747,153.5,144.5,125.5,116.5,99.5,144.5
169,8.450000000000001,-0.04301738739013672,-0.3469550609588623,1.9581935405731201,-0.037277936935424805,-1.603057622909546,-0.05393242835998535,0.4781681001186371,0.14490382373332977,0.5789812207221985,-3.1365172721384402,0.032156508672509514,1.5818785574949659,198.4832089552239,93.47014925373135,172.65129151291512,66.53874538745387,146.224043715847,92.51366120218579,153.5,144.5,125.5,116.5,99.5,144.5
170,8.5,-0.04320025444030762,-0.3467752933502197,1.9581491947174072,-0.03743481636047363,-1.603198766708374,-0.05417442321777344,0.47829583287239075,0.14479559659957886,0.5789441466331482,-3.1365233458160513,0.03229704025578074,1.5819380567849193,198.45353159851302,93.5,172.58780036968577,66.55637707948244,146.01098901098902,92.56776556776556,153.5,144.5,125.5,116.5,99.5,144.5
171,8.55,-0.0433354377746582,-0.34665393829345703,1.9580862522125244,-0.037575721740722656,-1.603301763534546,-0.054392099380493164,0.4783913791179657,0.14471548795700073,0.5789464116096497,-3.136593498031457,0.03240377708646346,1.582018450429316,198.43389199255122,93.51396648044692,172.58780036968577,66.55637707948244,145.96520146520146,92.63736263736264,153.5,144.5,125.5,116.5,99.5,144.5
172,8.6,-0.043476104736328125,-0.3465111255645752,1.9580204486846924,-0.03774118423461914,-1.6034042835235596,-0.05463910102844238,0.4785004258155823,0.144632026553154,0.5789420008659363,-3.136667572827524,0.03250967025660237,1.5821226633202254,198.41308411214953,93.5570093457944,172.54428044280442,66.65313653136532,145.89762340036563,92.6581352833638,153.5,144.5,125.5,116.5,99.5,144.5
173,8.65,-0.04360556602478027,-0.3463783264160156,1.9579546451568604,-0.037896156311035156,-1.6034986972808838,-0.05487418174743652,0.47860223054885864,0.1445550173521042,0.5789412260055542,-3.1367431263298395,0.03260730791231582,1.5822260227288736,198.3377110694184,93.60975609756098,172.49815498154982,66.65313653136532,145.80839416058393,92.68430656934306,153.5,144.5,125.5,116.5,99.5,144.5
174,8.700000000000001,-0.04371500015258789,-0.34628725051879883,1.9578697681427002,-0.038049936294555664,-1.603578805923462,-0.05510377883911133,0.47868481278419495,0.14448976516723633,0.5789735913276672,-3.136879486304541,0.03269450622436531,1.5823419571915656,198.27443609022558,93.68233082706767,172.46395563770795,66.71164510166359,145.79963570127504,92.76867030965391,153.5,144.5,125.5,116.5,99.5,144.5
175,8.75,-0.043868064880371094,-0.34613609313964844,1.9578068256378174,-0.03821706771850586,-1.6036922931671143,-0.05535411834716797,0.4787992537021637,0.1443987786769867,0.5789632201194763,-3.136943027894296,0.03281083498318382,1.5824370876953424,198.19924812030075,93.73308270676692,172.4280442804428,66.76568265682657,145.78545454545454,92.85090909090908,153.5,144.5,125.5,116.5,99.5,144.5
176,8.8,-0.04404115676879883,-0.34592628479003906,1.9577596187591553,-0.038408517837524414,-1.6038143634796143,-0.05563664436340332,0.47894346714019775,0.1442958563566208,0.5789176225662231,-3.136955490534436,0.03293305632921806,1.5825463572800411,198.15849056603773,93.76415094339623,172.35674676524954,66.90388170055454,145.6775956284153,92.8615664845173,153.5,144.5,125.5,116.5,99.5,144.5
177,8.85,-0.0442051887512207,-0.3456549644470215,1.957733392715454,-0.03861546516418457,-1.603916883468628,-0.05594277381896973,0.47911337018013,0.14419792592525482,0.5788297653198242,-3.13690094053447,0.03303172909357602,1.5826903759757214,198.09962406015038,93.82518796992481,172.2970479704797,66.91881918819188,145.6890909090909,92.9309090909091,153.5,144.5,125.5,116.5,99.5,144.5
178,8.9,-0.044378042221069336,-0.34542369842529297,1.9576952457427979,-0.03881025314331055,-1.6040356159210205,-0.05623054504394531,0.4792661666870117,0.14409494400024414,0.5787683129310608,-3.1368860350940873,0.0331489075489114,1.5828058645523333,198.07879924953096,93.8686679174484,172.25414364640883,67.00552486187846,145.6593806921676,92.98542805100182,153.5,144.5,125.5,116.5,99.5,144.5
179,8.950000000000001,-0.04455161094665527,-0.3451871871948242,1.957660436630249,-0.03900289535522461,-1.604154348373413,-0.05651664733886719,0.47942081093788147,0.1439916491508484,0.5787017345428467,-3.136860250103873,0.03326554181871646,1.582919696137917,197.95684803001876,93.97748592870543,172.24677716390423,67.097605893186,145.5981818181818,93.08181818181818,153.5,144.5,125.5,116.5,99.5,144.5
180,9.0,-0.044759511947631836,-0.3448781967163086,1.957650899887085,-0.039214372634887695,-1.6042940616607666,-0.056830406188964844,0.4796116054058075,0.14386789500713348,0.5785858631134033,-3.1367539607587305,0.03339920334313422,1.5830293083215992,197.8766355140187,94.02056074766355,172.24677716390423,67.097605893186,145.54,93.1509090909091,153.5,144.5,125.5,116.5,99.5,144.5
181,9.05,-0.04499363899230957,-0.34450292587280273,1.9576513767242432,-0.03946805000305176,-1.604445219039917,-0.05719757080078125,0.479839026927948,0.14372846484184265,0.5784361362457275,-3.136610153409173,0.033540974091706366,1.5831671504318598,197.81902985074626,94.13992537313433,172.17560073937153,67.14972273567467,145.44181818181818,93.22545454545454,153.5,144.5,125.5,116.5,99.5,144.5
182,9.1,-0.04520273208618164,-0.3442423343658447,1.957629919052124,-0.0396571159362793,-1.6045963764190674,-0.057482004165649414,0.4800069332122803,0.14360415935516357,0.5783488154411316,-3.1365417731827354,0.03368723699852373,1.5832454712027437,197.7607476635514,94.17757009345794,172.06284658040664,67.2365988909427,145.42335766423358,93.26094890510949,153.5,144.5,125.5,116.5,99.5,144.5
183,9.15,-0.04539752006530762,-0.3439657688140869,1.9576151371002197,-0.03984713554382324,-1.6047308444976807,-0.0577700138092041,0.4801793694496155,0.14348791539669037,0.5782495141029358,-3.136453181965047,0.03381609378635961,1.5833416869131018,197.73134328358208,94.22201492537313,172.0037037037037,67.29074074074074,145.37522768670308,93.26229508196721,153.5,144.5,125.5,116.5,99.5,144.5
184,9.200000000000001,-0.045595645904541016,-0.3436925411224365,1.9576036930084229,-0.04002857208251953,-1.6048705577850342,-0.05804777145385742,0.480349063873291,0.1433701366186142,0.5781485438346863,-3.1363547638950373,0.03394913500592036,1.5834244603468528,197.69101123595505,94.24719101123596,171.93530499075786,67.27726432532347,145.33151183970855,93.33151183970855,153.5,144.5,125.5,116.5,99.5,144.5
185,9.25,-0.045764923095703125,-0.34346580505371094,1.9575679302215576,-0.04021310806274414,-1.604987382888794,-0.058324575424194336,0.4804976284503937,0.14326876401901245,0.5780860781669617,-3.1363325603275656,0.03406409309753565,1.5835332298933413,197.6355140186916,94.28598130841121,171.8271375464684,67.35873605947955,145.28415300546447,93.33697632058288,153.5,144.5,125.5,116.5,99.5,144.5
186,9.3,-0.045926570892333984,-0.3432321548461914,1.957535982131958,-0.04039573669433594,-1.6050961017608643,-0.05859971046447754,0.48064759373664856,0.14317212998867035,0.57801753282547,-3.1362977266492336,0.03416994455274291,1.5836483627450277,197.58845437616387,94.3538175046555,171.80333951762523,67.3543599257885,145.27007299270073,93.40328467153284,153.5,144.5,125.5,116.5,99.5,144.5
187,9.35,-0.04609417915344238,-0.34302473068237305,1.9574949741363525,-0.040572404861450195,-1.605215311050415,-0.05886507034301758,0.48078662157058716,0.1430719941854477,0.5779668688774109,-3.1362912804555623,0.03428804917735815,1.5837467335590103,197.54953271028037,94.45607476635514,171.75185185185185,67.40555555555555,145.21493624772313,93.41165755919855,153.5,144.5,125.5,116.5,99.5,144.5
188,9.4,-0.04626011848449707,-0.34288763999938965,1.9574425220489502,-0.04070568084716797,-1.6053478717803955,-0.05907726287841797,0.4808911085128784,0.1429731249809265,0.5779536962509155,-3.136326330973399,0.034422705798959306,1.5837920118093258,197.47672253258847,94.49348230912477,171.67771639042357,67.48618784530387,145.1086956521739,93.43297101449275,153.5,144.5,125.5,116.5,99.5,144.5
189,9.450000000000001,-0.04641366004943848,-0.3427133560180664,1.9574048519134521,-0.04084515571594238,-1.6054627895355225,-0.05929899215698242,0.4810091555118561,0.14288145303726196,0.5779120922088623,-3.1363140056700374,0.03453611971998679,1.5838607260415656,197.47672253258847,94.49348230912477,171.66298342541435,67.51749539594843,145.01451905626135,93.48094373865699,153.5,144.5,125.5,116.5,99.5,144.5
190,9.5,-0.04653334617614746,-0.34251999855041504,1.957355260848999,-0.04102492332458496,-1.6055357456207275,-0.05956768989562988,0.4811376631259918,0.1428091824054718,0.5778738856315613,-3.136336608170153,0.03460939284752718,1.5840090720384834,197.43389199255122,94.51396648044692,171.61070110701107,67.56457564575646,144.8987341772152,93.54430379746836,153.5,144.5,125.5,116.5,99.5,144.5
191,9.55,-0.04660320281982422,-0.3422832489013672,1.957305669784546,-0.04124617576599121,-1.605546236038208,-0.05988621711730957,0.48128369450569153,0.142765611410141,0.577819287776947,-3.136358955987878,0.034621247990821315,1.5842565180279102,197.42723880597015,94.53731343283582,171.61070110701107,67.56457564575646,144.8913043478261,93.56702898550725,153.5,144.5,125.5,116.5,99.5,144.5
192,9.600000000000001,-0.04669809341430664,-0.34206581115722656,1.9572346210479736,-0.04149031639099121,-1.6055819988250732,-0.060227394104003906,0.4814290404319763,0.14270766079425812,0.5777908563613892,-3.136441682718661,0.034660656334905886,1.5845001191998527,197.40747663551403,94.6018691588785,171.63468634686348,67.60516605166052,144.87636363636364,93.64,153.5,144.5,125.5,116.5,99.5,144.5
193,9.65,-0.04684782028198242,-0.34185194969177246,1.9571654796600342,-0.04172658920288086,-1.6056735515594482,-0.060559988021850586,0.4815790057182312,0.14261728525161743,0.5777623653411865,-3.136516136546672,0.034756132009046675,1.5846803558012474,197.3196261682243,94.73084112149533,171.58455882352942,67.6783088235294,144.83242258652095,93.68670309653916,153.5,144.5,125.5,116.5,99.5,144.5
194,9.700000000000001,-0.047034502029418945,-0.34177660942077637,1.9570705890655518,-0.04188346862792969,-1.6058323383331299,-0.060791969299316406,0.481665700674057,0.142506405711174,0.5778096914291382,-3.1366752211521205,0.03492373285881781,1.5847206308379675,197.26865671641792,94.77798507462687,171.52854511970534,67.75322283609576,144.7803992740472,93.77676950998185,153.5,144.5,125.5,116.5,99.5,144.5
195,9.75,-0.047200679779052734,-0.3415720462799072,1.9570233821868896,-0.04207015037536621,-1.6059491634368896,-0.06106901168823242,0.4818055331707001,0.14240674674510956,0.5777652859687805,-3.136687202398839,0.03504023295659317,1.5848309050129261,197.2392523364486,94.82242990654206,171.47794117647058,67.80882352941177,144.72050816696915,93.84029038112523,153.5,144.5,125.5,116.5,99.5,144.5
196,9.8,-0.047354698181152344,-0.3413834571838379,1.9569718837738037,-0.042249441146850586,-1.6060564517974854,-0.06133627891540527,0.4819362163543701,0.14231431484222412,0.5777307748794556,-3.136713240199445,0.03514909212438519,1.5849434708813608,197.1728624535316,94.90706319702602,171.44301470588235,67.93198529411765,144.67454545454547,93.88545454545455,153.5,144.5,125.5,116.5,99.5,144.5
197,9.850000000000001,-0.047545671463012695,-0.3411221504211426,1.9569547176361084,-0.04242992401123047,-1.6061904430389404,-0.06161189079284668,0.48210012912750244,0.14219987392425537,0.5776385068893433,-3.1366314265973636,0.03527763773424388,1.585031447411483,197.14338919925513,94.95716945996276,171.36580882352942,67.98529411764706,144.6576086956522,93.92028985507247,153.5,144.5,125.5,116.5,99.5,144.5
198,9.9,-0.047708749771118164,-0.3409395217895508,1.9569175243377686,-0.04257464408874512,-1.6063125133514404,-0.061841726303100586,0.4822240471839905,0.1421022117137909,0.5775935053825378,-3.1366153448604437,0.03539810958050273,1.585098762933846,197.09328358208955,95.03731343283582,171.3564899451554,68.05484460694699,144.6268115942029,93.95652173913044,153.5,144.5,125.5,116.5,99.5,144.5
199,9.950000000000001,-0.047943830490112305,-0.3407409191131592,1.9569103717803955,-0.042677879333496094,-1.6065099239349365,-0.0620267391204834,0.48235562443733215,0.14196233451366425,0.5775170922279358,-3.136508272238016,0.03558899351826,1.5850527192538926,196.89738805970148,95.08208955223881,171.24080882352942,67.98529411764706,144.5,94.0,153.5,144.5,125.5,116.5,99.5,144.5
200,10.0,-0.04812884330749512,-0.34016919136047363,1.956937551498413,-0.04306292533874512,-1.606567144393921,-0.06255650520324707,0.4826754629611969,0.14184913039207458,0.5772669315338135,-3.136269219420566,0.03562958779832566,1.5854060996637758,196.93084112149532,95.17570093457944,171.2948717948718,68.14835164835165,144.48021582733813,94.07913669064749,153.5,144.5,125.5,116.5,99.5,144.5
201,10.05,-0.047719478607177734,-0.34085559844970703,1.9565150737762451,-0.04314279556274414,-1.6062452793121338,-0.06262898445129395,0.48237335681915283,0.14209161698818207,0.5778905749320984,-3.1374806862643796,0.035383791517923084,1.585844846383497,197.0,95.37310606060606,171.38929889298893,68.43542435424354,144.57038391224862,94.308957952468,153.5,144.5,125.5,116.5,99.5,144.5
202,10.100000000000001,-0.04787087440490723,-0.3408639430999756,1.9564473628997803,-0.04317283630371094,-1.606400728225708,-0.06271171569824219,0.4824003577232361,0.14200153946876526,0.5779450535774231,-3.137573824522977,0.035544289010198606,1.5857729971609054,196.9245283018868,95.35471698113207,171.3720073664825,68.41804788213628,144.50642201834862,94.3651376146789,153.5,144.5,125.5,116.5,99.5,144.5
203,10.15,-0.04803752899169922,-0.3407742977142334,1.9563915729522705,-0.04326796531677246,-1.6065466403961182,-0.06287717819213867,0.4824812114238739,0.14190155267715454,0.5779498219490051,-3.1376173767347764,0.03569282042000141,1.5857696788475968,196.85849056603774,95.39245283018867,171.30882352941177,68.45220588235294,144.5,94.3882783882784,153.5,144.5,125.5,116.5,99.5,144.5
204,10.200000000000001,-0.048219919204711914,-0.34064459800720215,1.9563462734222412,-0.0433812141418457,-1.6066997051239014,-0.06306624412536621,0.4825817942619324,0.1417926549911499,0.5779321789741516,-3.137629234391633,0.03584685265112621,1.585776114097527,196.7485928705441,95.40900562851782,171.20887245841035,68.46950092421442,144.43875685557586,94.37477148080438,153.5,144.5,125.5,116.5,99.5,144.5
205,10.25,-0.048415422439575195,-0.3404107093811035,1.9563243389129639,-0.04354500770568848,-1.606844186782837,-0.06332087516784668,0.48273295164108276,0.1416756510734558,0.5778541564941406,-3.137561771736187,0.0359872168782084,1.585837893306957,196.67608286252354,95.44632768361582,171.15185185185186,68.5037037037037,144.37477148080438,94.43875685557587,153.5,144.5,125.5,116.5,99.5,144.5
206,10.3,-0.04860353469848633,-0.340073823928833,1.9563181400299072,-0.04377412796020508,-1.6069586277008057,-0.06365752220153809,0.48293471336364746,0.14156197011470795,0.57772296667099,-3.137440037793547,0.03609306141845688,1.5859908151482152,196.58582089552237,95.5,171.07235621521335,68.57142857142857,144.3168498168498,94.45970695970696,153.5,144.5,125.5,116.5,99.5,144.5
207,10.350000000000001,-0.04887557029724121,-0.3390157222747803,1.9565155506134033,-0.04428553581237793,-1.6070177555084229,-0.06437373161315918,0.48347732424736023,0.14139410853385925,0.5771384835243225,-3.1366628277953805,0.03610160234436273,1.5864620384546262,196.65671641791045,95.55783582089552,171.1441774491682,68.5268022181146,144.3168498168498,94.45970695970696,153.5,144.5,125.5,116.5,99.5,144.5
208,10.4,-0.04872488975524902,-0.3381969928741455,1.9566614627838135,-0.044667720794677734,-1.6067039966583252,-0.0649268627166748,0.48384907841682434,0.14147613942623138,0.5766867399215698,-3.136080530779687,0.03574885574460072,1.587185844585881,196.92293233082708,95.58646616541354,171.31433823529412,68.4908088235294,144.4267399267399,94.42673992673993,153.5,144.5,125.5,116.5,99.5,144.5
209,10.450000000000001,-0.04876065254211426,-0.33884215354919434,1.9564015865325928,-0.04447197914123535,-1.6068603992462158,-0.06470155715942383,0.48357248306274414,0.1414584219455719,0.5771567225456238,-3.1367956325040476,0.03595123666150982,1.5869003130519508,196.75842696629215,95.63483146067416,171.21296296296296,68.5925925925926,144.3802559414991,94.47714808043875,153.5,144.5,125.5,116.5,99.5,144.5
210,10.5,-0.04881095886230469,-0.338639497756958,1.9563305377960205,-0.04470324516296387,-1.606856107711792,-0.06502699851989746,0.48370295763015747,0.14142554998397827,0.5771329402923584,-3.13688360330883,0.035952201521791946,1.587171889051718,196.7861163227017,95.69418386491557,171.2181146025878,68.6894639556377,144.37773722627736,94.57299270072993,153.5,144.5,125.5,116.5,99.5,144.5
211,10.55,-0.048972368240356445,-0.33847951889038086,1.9562828540802002,-0.04484868049621582,-1.6069800853729248,-0.06525397300720215,0.4838186502456665,0.1413283795118332,0.5771044492721558,-3.13689770635368,0.036076283980064947,1.587236898491693,196.75280898876406,95.73408239700375,171.16051660516604,68.71955719557195,144.36065573770492,94.59016393442623,153.5,144.5,125.5,116.5,99.5,144.5
212,10.600000000000001,-0.04913496971130371,-0.3383791446685791,1.9562175273895264,-0.04497218132019043,-1.6071159839630127,-0.06545186042785645,0.48390641808509827,0.14123091101646423,0.5771157145500183,-3.136970467829546,0.036216912502882885,1.587269602995812,196.66728971962615,95.74766355140187,171.08856088560884,68.78966789667896,144.3345521023766,94.62705667276052,153.5,144.5,125.5,116.5,99.5,144.5
213,10.65,-0.04939770698547363,-0.33777546882629395,1.9562628269195557,-0.04535079002380371,-1.6072471141815186,-0.0659785270690918,0.4842471778392792,0.14107094705104828,0.5768370628356934,-3.136670028557665,0.03632765208106963,1.5875441802136152,196.63295880149812,95.88014981273409,171.03302752293578,68.82385321100918,144.21454545454546,94.69818181818182,153.5,144.5,125.5,116.5,99.5,144.5
214,10.700000000000001,-0.04914522171020508,-0.33874082565307617,1.9560272693634033,-0.04480719566345215,-1.6072070598602295,-0.06534051895141602,0.48375049233436584,0.14122575521469116,0.5774027109146118,-3.1373593962203,0.03633421623758971,1.5871348879590819,196.6109022556391,95.78947368421052,170.9649446494465,68.80996309963099,144.21493624772313,94.67395264116576,153.5,144.5,125.5,116.5,99.5,144.5
215,10.75,-0.049147605895996094,-0.33872103691101074,1.955913782119751,-0.044951677322387695,-1.6071932315826416,-0.0655524730682373,0.4837889075279236,0.1412227898836136,0.5774856805801392,-3.137590122432812,0.036335201234821014,1.587335950247922,196.58490566037736,95.92830188679245,170.95229357798166,68.95229357798165,144.18829981718466,94.74771480804388,153.5,144.5,125.5,116.5,99.5,144.5
216,10.8,-0.04947042465209961,-0.33762478828430176,1.9559471607208252,-0.04581403732299805,-1.6072499752044678,-0.06665730476379395,0.4844152331352234,0.14102265238761902,0.577028751373291,-3.13727053735285,0.036368916964557775,1.588128274573864,196.60747663551402,96.19439252336448,170.9725776965265,69.0255941499086,144.07971014492753,94.95833333333333,153.5,144.5,125.5,116.5,99.5,144.5
217,10.850000000000001,-0.049600839614868164,-0.3376915454864502,1.9558522701263428,-0.045835256576538086,-1.6073896884918213,-0.06672787666320801,0.48441624641418457,0.1409452259540558,0.577129602432251,-3.1374439928335986,0.03652026620411261,1.5880622118647072,196.5,96.28358208955224,170.82169117647058,69.06617647058823,144.04718693284937,95.0,153.5,144.5,125.5,116.5,99.5,144.5
218,10.9,-0.049706220626831055,-0.3377354145050049,1.955773115158081,-0.04585075378417969,-1.6075036525726318,-0.06679296493530273,0.4844198226928711,0.14088286459445953,0.5772088170051575,-3.137574894783706,0.03664305931174335,1.5880175181933704,196.47663551401868,96.28971962616822,170.80811808118082,69.16051660516605,144.0,95.0,153.5,144.5,125.5,116.5,99.5,144.5
219,10.950000000000001,-0.04954195022583008,-0.33896636962890625,1.955542802810669,-0.04504990577697754,-1.6076257228851318,-0.06584644317626953,0.4837859869003296,0.14098826050758362,0.5778706669807434,-3.1382676528892093,0.0368120855775684,1.5872111561372513,196.34716981132075,96.13962264150943,170.72962962962964,69.1,143.98003629764065,94.97277676950998,153.5,144.5,125.5,116.5,99.5,144.5
220,11.0,-0.04967308044433594,-0.33831334114074707,1.9555423259735107,-0.04556584358215332,-1.6076018810272217,-0.0665276050567627,0.4841539263725281,0.1409045159816742,0.5776114463806152,-3.138101332178232,0.03677714213277842,1.5877669160555605,196.40262172284645,96.32584269662921,170.731843575419,69.1973929236499,143.9764492753623,94.9963768115942,153.5,144.5,125.5,116.5,99.5,144.5
221,11.05,-0.04986882209777832,-0.3376798629760742,1.9555752277374268,-0.04599452018737793,-1.607654333114624,-0.06711339950561523,0.48450925946235657,0.14078281819820404,0.5773304104804993,-3.1378338235505963,0.03681163218311394,1.588165237491518,196.3992537313433,96.375,170.74768089053802,69.28014842300557,143.9437386569873,95.04718693284937,153.5,144.5,125.5,116.5,99.5,144.5
222,11.100000000000001,-0.049413442611694336,-0.33955931663513184,1.9551260471343994,-0.04501080513000488,-1.6075985431671143,-0.0659027099609375,0.48355114459991455,0.14106394350528717,0.5784329175949097,-3.1392380119999923,0.03684971764353633,1.5873609596319103,196.2983114446529,96.31332082551594,170.6629422718808,69.29795158286778,143.9490909090909,95.02363636363637,153.5,144.5,125.5,116.5,99.5,144.5
223,11.15,-0.05092597007751465,-0.3364076614379883,1.955841302871704,-0.0464780330657959,-1.6084802150726318,-0.0678708553314209,0.4852350354194641,0.14014919102191925,0.5765965580940247,-3.136688810885008,0.03755961679486758,1.5879081970496298,196.06754221388368,96.31894934333958,170.40036563071297,69.25411334552102,143.606884057971,95.08876811594203,153.5,144.5,125.5,116.5,99.5,144.5
224,11.200000000000001,-0.051259517669677734,-0.3336796760559082,1.9563086032867432,-0.04801511764526367,-1.608222246170044,-0.06988072395324707,0.4866132438182831,0.1399296224117279,0.5751301646232605,-3.134964404990313,0.03717674594498167,1.5896461966030306,196.44155844155844,96.4786641929499,170.64468864468864,69.27472527472527,143.6889692585895,95.16817359855335,153.5,144.5,125.5,116.5,99.5,144.5
225,11.25,-0.051445722579956055,-0.33367180824279785,1.9562160968780518,-0.048097848892211914,-1.6083972454071045,-0.07002758979797363,0.4866544306278229,0.1398201882839203,0.5752076506614685,-3.1351276022260604,0.03736223044289974,1.5896026524727345,196.34814814814814,96.5,170.5496323529412,69.31985294117646,143.56498194945848,95.2202166064982,153.5,144.5,125.5,116.5,99.5,144.5
226,11.3,-0.05112433433532715,-0.33339571952819824,1.9560863971710205,-0.048509836196899414,-1.607985258102417,-0.07055950164794922,0.4867934286594391,0.1400061398744583,0.5752091407775879,-3.1354095003011992,0.03696767189232831,1.590444322150187,196.45101663585953,96.63216266173752,170.67276051188298,69.44241316270566,143.72202166064983,95.35198555956678,153.5,144.5,125.5,116.5,99.5,144.5
227,11.350000000000001,-0.051329851150512695,-0.3332672119140625,1.9560425281524658,-0.04861617088317871,-1.6081640720367432,-0.07074141502380371,0.4868939220905304,0.139882430434227,0.5751904249191284,-3.135411545970775,0.03714546424278667,1.590420939011123,196.3925925925926,96.6574074074074,170.63023679417122,69.44990892531877,143.61636363636364,95.41636363636364,153.5,144.5,125.5,116.5,99.5,144.5
228,11.4,-0.05142664909362793,-0.3331310749053955,1.955958604812622,-0.04880833625793457,-1.6082203388214111,-0.07101869583129883,0.4869987368583679,0.13982217013835907,0.5752037167549133,-3.135537301785032,0.037209442760803145,1.5905962141079002,196.3196261682243,96.73084112149533,170.64285714285714,69.51648351648352,143.60727272727271,95.45636363636363,153.5,144.5,125.5,116.5,99.5,144.5
229,11.450000000000001,-0.051447153091430664,-0.33316612243652344,1.9558665752410889,-0.048856258392333984,-1.6082432270050049,-0.0711212158203125,0.48700273036956787,0.13980916142463684,0.5752888917922974,-3.1357078173099664,0.03724514498482855,1.5906726656923371,196.268156424581,96.8026070763501,170.58747697974218,69.55801104972376,143.60727272727271,95.45636363636363,153.5,144.5,125.5,116.5,99.5,144.5
230,11.5,-0.0523073673248291,-0.3309745788574219,1.9561913013458252,-0.05017590522766113,-1.6086227893829346,-0.07283663749694824,0.48819488286972046,0.13928066194057465,0.5741543173789978,-3.134409477679125,0.03752483641736087,1.5915747536689218,196.22140221402213,96.95571955719558,170.56124314442414,69.62522851919562,143.45916515426498,95.57168784029038,153.5,144.5,125.5,116.5,99.5,144.5
231,11.55,-0.0478823184967041,-0.3432333469390869,1.9536120891571045,-0.043622493743896484,-1.6068017482757568,-0.06450009346008301,0.4817151129245758,0.14198143780231476,0.5810859203338623,3.139998087417629,0.036308755468911776,1.5873532903276064,196.29545454545453,96.61174242424242,170.85875706214688,69.72881355932203,144.3683241252302,95.4475138121547,153.5,144.5,125.5,116.5,99.5,144.5
232,11.600000000000001,-0.047965049743652344,-0.34380125999450684,1.9534447193145752,-0.04334902763366699,-1.6070282459259033,-0.06418299674987793,0.4814565181732178,0.14193107187747955,0.5814284086227417,3.1395594435008873,0.03656061587912994,1.5869344538577987,196.19274809160305,96.58015267175573,170.7392120075047,69.75422138836772,144.26802218114602,95.39556377079482,153.5,144.5,125.5,116.5,99.5,144.5
233,11.65,-0.04818606376647949,-0.34358906745910645,1.953425645828247,-0.04349040985107422,-1.6072056293487549,-0.06441020965576172,0.4816230535507202,0.14179396629333496,0.5813357830047607,3.139666154218375,0.03673109558570189,1.5869399879381763,196.10344827586206,96.57662835249042,170.593984962406,69.71616541353383,144.14842300556586,95.4452690166976,153.5,144.5,125.5,116.5,99.5,144.5
234,11.700000000000001,-0.048256874084472656,-0.34344482421875,1.9533560276031494,-0.04366326332092285,-1.607236623764038,-0.0646660327911377,0.48172861337661743,0.1417500078678131,0.5813309550285339,3.139583486936021,0.03676924174635189,1.5871216427092794,196.0977011494253,96.62260536398468,170.60302457466918,69.89603024574669,144.13780260707634,95.53072625698324,153.5,144.5,125.5,116.5,99.5,144.5
235,11.75,-0.04844260215759277,-0.34303760528564453,1.9533841609954834,-0.04389333724975586,-1.6073386669158936,-0.06501030921936035,0.4819590151309967,0.14163735508918762,0.5811429023742676,3.1398096170089476,0.036858434404586804,1.5872875011291243,196.0801526717557,96.69465648854961,170.5811320754717,69.88490566037736,144.09683426443203,95.54934823091247,153.5,144.5,125.5,116.5,99.5,144.5
236,11.8,-0.04856586456298828,-0.343264102935791,1.9532511234283447,-0.04384350776672363,-1.60750412940979,-0.06498575210571289,0.48188263177871704,0.1415656954050064,0.5813388824462891,3.13950703689949,0.03704352532027855,1.5871280665187288,195.97323135755258,96.67877629063098,170.47924528301886,69.95849056603774,143.93506493506493,95.59554730983302,153.5,144.5,125.5,116.5,99.5,144.5
237,11.850000000000001,-0.04900932312011719,-0.3432435989379883,1.953228235244751,-0.04381203651428223,-1.6079542636871338,-0.06500482559204102,0.48194777965545654,0.14130517840385437,0.581344723701477,3.1395665809418465,0.03749005803018611,1.5867031126253637,195.83269961977186,96.70532319391636,170.31826741996232,69.87005649717514,143.68081180811808,95.55350553505535,153.5,144.5,125.5,116.5,99.5,144.5
238,11.9,-0.04927563667297363,-0.3428916931152344,1.9532482624053955,-0.04400491714477539,-1.608149766921997,-0.06530284881591797,0.4821607768535614,0.14114592969417572,0.5811847448348999,3.1397718128039056,0.037673974048981596,1.5867417203541145,195.68380952380951,96.7447619047619,170.27767354596622,69.89493433395873,143.61070110701107,95.56457564575646,153.5,144.5,125.5,116.5,99.5,144.5
239,11.950000000000001,-0.04925203323364258,-0.34319257736206055,1.9530856609344482,-0.04394340515136719,-1.608180284500122,-0.06525754928588867,0.48203375935554504,0.14116132259368896,0.5814340710639954,3.139367575234062,0.037731440932413936,1.5867054706722536,195.61904761904762,96.80571428571429,170.23540489642184,70.05838041431262,143.61737523105361,95.58780036968577,153.5,144.5,125.5,116.5,99.5,144.5
240,12.0,-0.049475669860839844,-0.34271812438964844,1.9530541896820068,-0.044350624084472656,-1.6082870960235596,-0.06580352783203125,0.4823254942893982,0.1410253793001175,0.58127361536026,3.139432733339345,0.03783705722449118,1.5870286378982392,195.56046065259116,96.92898272552783,170.15660377358492,70.17735849056604,143.5811808118081,95.68081180811808,153.5,144.5,125.5,116.5,99.5,144.5
241,12.05,-0.04964804649353027,-0.3424849510192871,1.9530432224273682,-0.04449272155761719,-1.6084115505218506,-0.06603479385375977,0.4824708104133606,0.14092139899730682,0.5811858177185059,3.1395315572625058,0.03795621948074747,1.5870903754973698,195.54789272030652,96.95019157088123,170.09245283018868,70.23396226415095,143.54428044280442,95.65313653136532,153.5,144.5,125.5,116.5,99.5,144.5
242,12.100000000000001,-0.04990077018737793,-0.3422999382019043,1.952979326248169,-0.0446927547454834,-1.6086151599884033,-0.06632423400878906,0.48261579871177673,0.1407707780599594,0.5811653733253479,3.1394766856523493,0.03816511982928885,1.5871241547520143,195.5,97.0,169.9659090909091,70.28977272727273,143.44362292051756,95.69870609981515,153.5,144.5,125.5,116.5,99.5,144.5
243,12.15,-0.04991602897644043,-0.3423328399658203,1.9528791904449463,-0.044760704040527344,-1.6086294651031494,-0.06644749641418457,0.4826217591762543,0.14076122641563416,0.5812579989433289,3.1392797729762854,0.03819349327855686,1.5872248493179997,195.47609942638624,97.05544933078394,169.9659090909091,70.28977272727273,143.430426716141,95.78293135435993,153.5,144.5,125.5,116.5,99.5,144.5
244,12.200000000000001,-0.05005002021789551,-0.34226179122924805,1.9528067111968994,-0.04487276077270508,-1.60874342918396,-0.06662893295288086,0.4826917350292206,0.14068076014518738,0.5812860727310181,3.1391810503632698,0.03831459942398248,1.587267799074659,195.43103448275863,97.14367816091954,169.9245283018868,70.35471698113207,143.36851851851853,95.87222222222222,153.5,144.5,125.5,116.5,99.5,144.5
245,12.25,-0.050173044204711914,-0.34223222732543945,1.95273756980896,-0.0449373722076416,-1.608858346939087,-0.06675529479980469,0.48273634910583496,0.14060735702514648,0.5813271999359131,3.139089465247554,0.038436458689899124,1.5872666802610516,195.3912213740458,97.17175572519083,169.87005649717514,70.36911487758945,143.30983302411875,95.89053803339517,153.5,144.5,125.5,116.5,99.5,144.5
246,12.3,-0.05025339126586914,-0.3422818183898926,1.952636480331421,-0.04499173164367676,-1.6089427471160889,-0.06686162948608398,0.48274222016334534,0.14055927097797394,0.581426203250885,3.138894092083312,0.038534855602945735,1.5872848696823156,195.27480916030535,97.21564885496183,169.81132075471697,70.39622641509433,143.28280961182995,96.02402957486137,153.5,144.5,125.5,116.5,99.5,144.5
247,12.350000000000001,-0.050408363342285156,-0.3420746326446533,1.9526026248931885,-0.04515552520751953,-1.609050989151001,-0.06711339950561523,0.4828781485557556,0.14046575129032135,0.5813688635826111,3.138921914308408,0.0386430427780083,1.5873818885010758,195.22370936902485,97.25239005736138,169.73207547169812,70.4245283018868,143.25925925925927,96.02962962962962,153.5,144.5,125.5,116.5,99.5,144.5
248,12.4,-0.05055999755859375,-0.34186315536499023,1.9525673389434814,-0.04532480239868164,-1.6091549396514893,-0.06737160682678223,0.48301634192466736,0.14037390053272247,0.5813109278678894,3.1389467668670403,0.038746355157451055,1.5874888070222526,195.13358778625954,97.33015267175573,169.7156308851224,70.44256120527307,143.2537037037037,96.12037037037037,153.5,144.5,125.5,116.5,99.5,144.5
249,12.450000000000001,-0.05074334144592285,-0.3416123390197754,1.952544927597046,-0.04550623893737793,-1.6092827320098877,-0.06764698028564453,0.48317575454711914,0.14026324450969696,0.5812276005744934,3.1390132806870983,0.03887173427252403,1.587582618083716,195.0977011494253,97.37739463601532,169.6417910447761,70.46641791044776,143.19330855018586,96.16914498141264,153.5,144.5,125.5,116.5,99.5,144.5
250,12.5,-0.05090069770812988,-0.34140992164611816,1.9525091648101807,-0.04566764831542969,-1.6093943119049072,-0.06789565086364746,0.4833090007305145,0.1401681751012802,0.5811737775802612,3.139035952432691,0.03898329528045264,1.5876738662463297,195.0730769230769,97.41923076923077,169.57835820895522,70.55410447761194,143.14471243042672,96.25231910946196,153.5,144.5,125.5,116.5,99.5,144.5
251,12.55,-0.05105185508728027,-0.34121203422546387,1.9524753093719482,-0.045821189880371094,-1.6095020771026611,-0.06813549995422363,0.4834384620189667,0.14007669687271118,0.5811201930046082,3.1390628574577044,0.03909027763113865,1.587762739323661,195.044061302682,97.43486590038314,169.55514018691588,70.5607476635514,143.07806691449815,96.26022304832713,153.5,144.5,125.5,116.5,99.5,144.5
252,12.600000000000001,-0.05119919776916504,-0.34101414680480957,1.9524357318878174,-0.04598522186279297,-1.6096036434173584,-0.06838726997375488,0.48356935381889343,0.13998748362064362,0.581071674823761,3.139073325804661,0.039193032091492296,1.587867236026217,194.9885277246654,97.47801147227534,169.50187265917603,70.60861423220973,142.97773654916512,96.28942486085343,153.5,144.5,125.5,116.5,99.5,144.5
