AI-SPARC/uncalibrated-visual-servoing/results/data/3_feat_ibvs.csv
,t,q_1,q_2,q_3,q_4,q_5,q_6,camera_x,camera_y,camera_z,camera_roll,camera_pitch,camera_yaw,f_1,f_2,f_3,f_4,f_5,f_6,desired_f_1,desired_f_2,desired_f_3,desired_f_4,desired_f_5,desired_f_6
0,0.0,8.821487426757812e-06,0.00015425682067871094,1.5707957744598389,0.0001304149627685547,-1.5707952976226807,7.152557373046875e-07,0.680819034576416,0.16908136010169983,0.6382145881652832,-3.1409235490667897,0.00014262589818666297,1.5708377616351568,205.71618625277162,161.3569844789357,181.67405764966742,137.32594235033258,157.62334801762114,161.33920704845815,149.5,167.5,126.5,143.5,100.5,167.5
1,0.05,6.699562072753906e-05,0.0011992454528808594,1.570993185043335,-8.58306884765625e-06,-1.5719807147979736,-0.0011746883392333984,0.6813456416130066,0.16899146139621735,0.6373796463012695,-3.139809471133782,0.0013273122306797266,1.5720738086399233,205.5253863134658,161.40397350993376,181.5,137.27631578947367,157.37665198237886,161.33920704845815,149.5,167.5,126.5,143.5,100.5,167.5
2,0.1,0.00010704994201660156,0.00225830078125,1.5710933208465576,-6.532669067382812e-05,-1.5731408596038818,-0.0023398399353027344,0.6818826198577881,0.16889148950576782,0.6365951299667358,-3.1386968381347224,0.00248357025022413,1.5732831394341689,205.24503311258277,161.4459161147903,181.30752212389382,137.34513274336283,157.12334801762114,161.38325991189427,149.5,167.5,126.5,143.5,100.5,167.5
3,0.15000000000000002,0.00013494491577148438,0.003260374069213867,1.5712368488311768,-0.00016498565673828125,-1.5742909908294678,-0.0034627914428710938,0.6823870539665222,0.16878408193588257,0.6358290314674377,-3.1376438606656225,0.0036272376056080634,1.5744409533324661,205.0,161.5,181.06153846153848,137.378021978022,156.77802197802197,161.37582417582416,149.5,167.5,126.5,143.5,100.5,167.5
4,0.2,0.00019812583923339844,0.004235029220581055,1.5713965892791748,-0.00029969215393066406,-1.575474500656128,-0.0044841766357421875,0.6828723549842834,0.16869817674160004,0.6350741982460022,-3.1366346285327427,0.004801628506684314,1.5755348738923793,204.75496688741723,161.5540838852097,180.77802197802197,137.37582417582416,156.56263736263736,161.36703296703297,149.5,167.5,126.5,143.5,100.5,167.5
5,0.25,0.00026702880859375,0.00527644157409668,1.5715186595916748,-0.00040602684020996094,-1.5766589641571045,-0.005532741546630859,0.6833911538124084,0.16861633956432343,0.6342957019805908,-3.135565478218677,0.005975499672723035,1.576664439450105,204.4581497797357,161.61674008810573,180.58771929824562,137.375,156.3186813186813,161.39340659340658,149.5,167.5,126.5,143.5,100.5,167.5
6,0.30000000000000004,0.00028705596923828125,0.006304025650024414,1.5715858936309814,-0.0004591941833496094,-1.5777919292449951,-0.0065937042236328125,0.6839104890823364,0.1685056835412979,0.6335574388504028,-3.134509861069613,0.007094726761435051,1.5777591265690225,204.24229074889868,161.6409691629956,180.35824175824175,137.35824175824175,156.0,161.45414847161572,149.5,167.5,126.5,143.5,100.5,167.5
7,0.35000000000000003,0.00030231475830078125,0.007310390472412109,1.5715749263763428,-0.00044608116149902344,-1.5789062976837158,-0.007639646530151367,0.6844201683998108,0.16839398443698883,0.6328800320625305,-3.133485084136253,0.008193972637155227,1.5788362335318553,203.97350993377484,161.67770419426049,180.11816192560175,137.47702407002188,155.6688596491228,161.41666666666666,149.5,167.5,126.5,143.5,100.5,167.5
8,0.4,0.00038623809814453125,0.008243083953857422,1.5717289447784424,-0.0006089210510253906,-1.5801002979278564,-0.008511781692504883,0.684880793094635,0.1683230996131897,0.6321593523025513,-3.132543495270409,0.009372504147724444,1.579810814597343,203.66153846153847,161.76043956043955,179.859649122807,137.46271929824562,155.39387308533918,161.39387308533918,149.5,167.5,126.5,143.5,100.5,167.5
9,0.45,0.0004475116729736328,0.00921010971069336,1.5718247890472412,-0.0007238388061523438,-1.581268072128296,-0.009383916854858398,0.6853631734848022,0.16823919117450714,0.6314492225646973,-3.131575454462869,0.010523860166237756,1.5807650809241482,203.47577092511014,161.84801762114537,179.6528384279476,137.45414847161572,155.14410480349346,161.47161572052403,149.5,167.5,126.5,143.5,100.5,167.5
10,0.5,0.0004906654357910156,0.010204553604125977,1.5717980861663818,-0.0007264614105224609,-1.5824048519134521,-0.010281562805175781,0.685863733291626,0.16814564168453217,0.6307903528213501,-3.130589199941804,0.011640727735815266,1.5817283239921531,203.2869757174393,161.83885209713026,179.36601307189542,137.47712418300654,154.86899563318778,161.5,149.5,167.5,126.5,143.5,100.5,167.5
11,0.55,0.0005795955657958984,0.01120448112487793,1.5717852115631104,-0.0007531642913818359,-1.58357834815979,-0.011150836944580078,0.6863596439361572,0.16808032989501953,0.6301213502883911,-3.1296048300670187,0.012793717209466569,1.582711308873674,202.98434004474274,161.92170022371366,179.2292576419214,137.5240174672489,154.65,161.54347826086956,149.5,167.5,126.5,143.5,100.5,167.5
12,0.6000000000000001,0.0006113052368164062,0.012157201766967773,1.5717604160308838,-0.0007624626159667969,-1.5846965312957764,-0.012011528015136719,0.6868396997451782,0.16798125207424164,0.6294905543327332,-3.1286619218718843,0.01389023485297475,1.5836297484833353,202.63736263736263,162.03956043956043,178.96069868995633,137.52620087336246,154.35791757049893,161.48156182212583,149.5,167.5,126.5,143.5,100.5,167.5
13,0.65,0.0006284713745117188,0.013150930404663086,1.571704626083374,-0.0007541179656982422,-1.585803747177124,-0.012837409973144531,0.6873440146446228,0.1678735613822937,0.6288501620292664,-3.127688977159005,0.0149737459441926,1.5845013901272869,202.47368421052633,162.0921052631579,178.69213973799125,137.53711790393012,154.13100436681222,161.5,149.5,167.5,126.5,143.5,100.5,167.5
14,0.7000000000000001,0.0006821155548095703,0.014201164245605469,1.5716121196746826,-0.0007236003875732422,-1.5869390964508057,-0.013659000396728516,0.6878718733787537,0.16778862476348877,0.6281922459602356,-3.1266715482729404,0.01608383766478452,1.5854080749175399,202.29166666666666,162.14473684210526,178.53246753246754,137.6060606060606,153.8217391304348,161.54782608695652,149.5,167.5,126.5,143.5,100.5,167.5
15,0.75,0.0007617473602294922,0.015177249908447266,1.571547269821167,-0.0007295608520507812,-1.5880963802337646,-0.014368295669555664,0.688357949256897,0.167720228433609,0.6275714635848999,-3.1257377002797777,0.017217139589760778,1.5862299634748522,201.8650442477876,162.28982300884957,178.28416485900217,137.54880694143168,153.58747300215984,161.58747300215984,149.5,167.5,126.5,143.5,100.5,167.5
16,0.8,0.0007181167602539062,0.01622176170349121,1.5712954998016357,-0.0005443096160888672,-1.589123010635376,-0.015217304229736328,0.6888993382453918,0.16757836937904358,0.6270085573196411,-3.124728711254943,0.01821437192987816,1.5870689096048245,201.7017543859649,162.26315789473685,178.05194805194805,137.5952380952381,153.3,161.5695652173913,149.5,167.5,126.5,143.5,100.5,167.5
17,0.8500000000000001,0.0007429122924804688,0.017223358154296875,1.5711305141448975,-0.00045680999755859375,-1.5902159214019775,-0.015952348709106445,0.6894077658653259,0.16747841238975525,0.6264265775680542,-3.123773199984035,0.01927992518638625,1.5878649520053019,201.46491228070175,162.28728070175438,177.82721382289418,137.63066954643628,153.05194805194805,161.5952380952381,149.5,167.5,126.5,143.5,100.5,167.5
18,0.9,0.0007741451263427734,0.018207788467407227,1.5709812641143799,-0.0003879070281982422,-1.5913116931915283,-0.0166623592376709,0.6899057030677795,0.1673830896615982,0.625847578048706,-3.1228364302756475,0.02034721657400921,1.5886439848957212,201.2901098901099,162.36483516483517,177.56399132321042,137.63340563991324,152.792656587473,161.60043196544277,149.5,167.5,126.5,143.5,100.5,167.5
19,0.9500000000000001,0.0008397102355957031,0.019245624542236328,1.5707790851593018,-0.0002837181091308594,-1.592433214187622,-0.017347097396850586,0.6904271841049194,0.16730915009975433,0.6252633929252625,-3.1218619112813384,0.021439348872417333,1.5894351629153107,200.92747252747253,162.38901098901098,177.3644251626898,137.68763557483732,152.54347826086956,161.65,149.5,167.5,126.5,143.5,100.5,167.5
20,1.0,0.0008504390716552734,0.020220041275024414,1.5706064701080322,-0.00019621849060058594,-1.593501329421997,-0.018039703369140625,0.6909235119819641,0.16720236837863922,0.6247036457061768,-3.1209372094079337,0.022476399740371363,1.5901797131910682,200.6718061674009,162.41189427312776,177.20697167755992,137.66230936819173,152.3030303030303,161.66017316017317,149.5,167.5,126.5,143.5,100.5,167.5
21,1.05,0.0008192062377929688,0.021164655685424805,1.5703856945037842,-5.8650970458984375e-05,-1.5945227146148682,-0.018733739852905273,0.6914113759994507,0.16707123816013336,0.6241925358772278,-3.1200413700432073,0.023465923307144757,1.590883871369956,200.46491228070175,162.44298245614036,176.9030172413793,137.61853448275863,152.02591792656588,161.59827213822894,149.5,167.5,126.5,143.5,100.5,167.5
22,1.1,0.0008296966552734375,0.022174835205078125,1.570124864578247,9.846687316894531e-05,-1.595578908920288,-0.019398927688598633,0.6919273734092712,0.16696587204933167,0.6236597299575806,-3.1190966729264127,0.02448942012319384,1.5916044813105201,200.19078947368422,162.49561403508773,176.70043103448276,137.73491379310346,151.76293103448276,161.6594827586207,149.5,167.5,126.5,143.5,100.5,167.5
23,1.1500000000000001,0.0008444786071777344,0.023120880126953125,1.5699427127838135,0.00018215179443359375,-1.59663987159729,-0.019999980926513672,0.6924092173576355,0.1668636053800583,0.6231257915496826,-3.118212328979925,0.02551952250651659,1.592265485734844,199.93406593406593,162.52307692307693,176.52483801295895,137.7624190064795,151.54310344827587,161.74353448275863,149.5,167.5,126.5,143.5,100.5,167.5
24,1.2000000000000002,0.0008156299591064453,0.024030208587646484,1.5697290897369385,0.00030541419982910156,-1.597651720046997,-0.02063441276550293,0.6928786635398865,0.1667357087135315,0.6226339340209961,-3.1173552759243472,0.02649735346381483,1.5929162926927936,199.71115973741794,162.58424507658643,176.32467532467533,137.77489177489178,151.32754880694142,161.72017353579176,149.5,167.5,126.5,143.5,100.5,167.5
25,1.25,0.0007908344268798828,0.024956703186035156,1.5695078372955322,0.0004291534423828125,-1.5986664295196533,-0.021237611770629883,0.6933563947677612,0.1666106879711151,0.6221349835395813,-3.1164879959268212,0.027479095418921344,1.5935422764095442,199.4561403508772,162.6140350877193,176.03455723542118,137.68250539956804,151.01295896328293,161.6414686825054,149.5,167.5,126.5,143.5,100.5,167.5
26,1.3,0.0007755756378173828,0.02593827247619629,1.5691993236541748,0.0006225109100341797,-1.599682092666626,-0.021825075149536133,0.6938625574111938,0.16649219393730164,0.6216487288475037,-3.115581643394935,0.02845943621290562,1.5941644058211848,199.24122807017545,162.640350877193,175.71612903225807,137.84086021505377,150.7247311827957,161.7247311827957,149.5,167.5,126.5,143.5,100.5,167.5
27,1.35,0.000835418701171875,0.026888132095336914,1.5690181255340576,0.0006847381591796875,-1.6007697582244873,-0.022330045700073242,0.6943392753601074,0.16641950607299805,0.6211122870445251,-3.114710045014787,0.02951505591579363,1.5947821822468653,199.09492273730683,162.66887417218544,175.58189655172413,137.86422413793105,150.51403887688986,161.79913606911447,149.5,167.5,126.5,143.5,100.5,167.5
28,1.4000000000000001,0.0008857250213623047,0.027801990509033203,1.5688025951385498,0.0007829666137695312,-1.6018397808074951,-0.02282428741455078,0.6947996616363525,0.166342094540596,0.6206203699111938,-3.1138739964461335,0.03055197789242225,1.5953799512183828,198.70240700218818,162.6805251641138,175.42489270386267,137.90987124463518,150.38279569892472,161.79354838709676,149.5,167.5,126.5,143.5,100.5,167.5
29,1.4500000000000002,0.0008563995361328125,0.028678178787231445,1.5686495304107666,0.0008378028869628906,-1.6028387546539307,-0.02336573600769043,0.6952502727508545,0.16621559858322144,0.6201158165931702,-3.1130545678258734,0.031515974528090795,1.5959441630635824,198.53070175438597,162.76315789473685,175.29677419354837,137.88172043010752,150.03418803418805,161.82264957264957,149.5,167.5,126.5,143.5,100.5,167.5
30,1.5,0.0008139610290527344,0.02950763702392578,1.5683891773223877,0.0009911060333251953,-1.603811502456665,-0.023831844329833984,0.6956824064254761,0.16608326137065887,0.6197065711021423,-3.1122937172398246,0.032456945293156875,1.5964186179681816,198.3230769230769,162.74505494505493,174.8531914893617,137.89787234042552,149.741452991453,161.82478632478632,149.5,167.5,126.5,143.5,100.5,167.5
31,1.55,0.0008597373962402344,0.030417203903198242,1.5681531429290771,0.0011022090911865234,-1.6048634052276611,-0.02429366111755371,0.6961413025856018,0.16600510478019714,0.619227945804596,-3.111466556194998,0.033474443434802735,1.5969834725048915,198.16444444444446,162.75333333333333,174.64957264957266,137.9145299145299,149.54193548387096,161.89032258064515,149.5,167.5,126.5,143.5,100.5,167.5
32,1.6,0.0009107589721679688,0.0313265323638916,1.5678927898406982,0.0012369155883789062,-1.6059114933013916,-0.024773359298706055,0.6965997815132141,0.16593049466609955,0.6187639236450195,-3.1106389412032005,0.03448762903459637,1.5975729836288877,197.79868708971554,162.81181619256017,174.5301724137931,137.9655172413793,149.42489270386267,161.90987124463518,149.5,167.5,126.5,143.5,100.5,167.5
33,1.6500000000000001,0.0008726119995117188,0.03220677375793457,1.5676567554473877,0.0013649463653564453,-1.6068775653839111,-0.02530694007873535,0.6970552802085876,0.16580143570899963,0.6183033585548401,-3.1098214492888925,0.035416079064945864,1.5981254258241988,197.57205240174673,162.9061135371179,174.38841201716738,138.04935622317598,149.08704883227176,161.91295116772824,149.5,167.5,126.5,143.5,100.5,167.5
34,1.7000000000000002,0.0008504390716552734,0.03300642967224121,1.5674593448638916,0.0014505386352539062,-1.607858419418335,-0.02568840980529785,0.697467029094696,0.16568312048912048,0.6178779006004333,-3.1090940356120833,0.036364549587935974,1.5985412033348456,197.42637362637362,162.88131868131867,174.16101694915255,138.02966101694915,148.79148936170213,161.8808510638298,149.5,167.5,126.5,143.5,100.5,167.5
35,1.75,0.0008761882781982422,0.03378772735595703,1.567267656326294,0.0015194416046142578,-1.608877420425415,-0.02599024772644043,0.6978635191917419,0.1655954122543335,0.6174629330635071,-3.10839683900418,0.03735569435174534,1.5989262697953968,197.21729490022173,162.83148558758316,173.77398720682302,138.0042643923241,148.58886509635974,161.96359743040685,149.5,167.5,126.5,143.5,100.5,167.5
36,1.8,0.0009222030639648438,0.03464865684509277,1.5670263767242432,0.0016336441040039062,-1.6099050045013428,-0.026414871215820312,0.6982972621917725,0.16552028059959412,0.6170204877853394,-3.1076173901849833,0.03834734695269894,1.5994594075506356,196.90486725663717,163.00884955752213,173.58333333333334,138.0405982905983,148.41630901287553,162.0107296137339,149.5,167.5,126.5,143.5,100.5,167.5
37,1.85,0.0009086132049560547,0.035567283630371094,1.5666983127593994,0.0018351078033447266,-1.6108720302581787,-0.026898622512817383,0.6987705230712891,0.1654086709022522,0.6165863275527954,-3.106778364414876,0.03927464673871973,1.5999934113676744,196.64537444933922,163.11894273127754,173.44111349036402,138.07066381156318,148.19027484143763,162.0909090909091,149.5,167.5,126.5,143.5,100.5,167.5
38,1.9000000000000001,0.0008394718170166016,0.03646993637084961,1.5662953853607178,0.0021173954010009766,-1.6117775440216064,-0.027406930923461914,0.6992443203926086,0.16526389122009277,0.616205096244812,-3.1059497498858817,0.040138717225708276,1.600495157743108,196.49234135667396,163.11378555798686,173.33475479744138,138.10660980810235,147.9327731092437,161.99579831932772,149.5,167.5,126.5,143.5,100.5,167.5
39,1.9500000000000002,0.0008141994476318359,0.03729534149169922,1.5659902095794678,0.0022954940795898438,-1.6127288341522217,-0.0277407169342041,0.6996719241142273,0.1651471108198166,0.6158233880996704,-3.1052100518682604,0.04105681202945279,1.6008665037191223,196.33552631578948,163.13377192982455,173.0614406779661,138.17796610169492,147.58333333333334,162.0405982905983,149.5,167.5,126.5,143.5,100.5,167.5
40,2.0,0.0008571147918701172,0.03808188438415527,1.5657246112823486,0.0024251937866210938,-1.6137378215789795,-0.027966022491455078,0.7000691294670105,0.16507354378700256,0.6154468655586243,-3.1045201002803653,0.0420376474199133,1.6011991013621676,195.96,163.16666666666666,172.71794871794873,138.1239316239316,147.45842217484008,162.0405117270789,149.5,167.5,126.5,143.5,100.5,167.5
41,2.0500000000000003,0.0008456707000732422,0.03899097442626953,1.565385103225708,0.002628803253173828,-1.6146910190582275,-0.0283658504486084,0.7005370259284973,0.16496548056602478,0.615025520324707,-3.103699879358916,0.04295196211692417,1.601655988100714,195.77827050997783,163.22172949002217,172.57478632478632,138.13675213675214,147.2808510638298,162.14255319148936,149.5,167.5,126.5,143.5,100.5,167.5
42,2.1,0.0007939338684082031,0.03989386558532715,1.5649707317352295,0.002913236618041992,-1.6155965328216553,-0.028821706771850586,0.7010088562965393,0.16483353078365326,0.6146499514579773,-3.102878628667011,0.04381523681971365,1.6021278246927995,195.56483516483516,163.2,172.36402569593147,138.19271948608136,147.0398322851153,162.1341719077568,149.5,167.5,126.5,143.5,100.5,167.5
43,2.15,0.0007703304290771484,0.04075169563293457,1.5646393299102783,0.0031147003173828125,-1.6165287494659424,-0.029205799102783203,0.7014520764350891,0.16471928358078003,0.6142592430114746,-3.102104370644253,0.04470866705120997,1.6025571561455787,195.375,163.265350877193,172.23566878980893,138.23991507430998,146.71398305084745,162.11016949152543,149.5,167.5,126.5,143.5,100.5,167.5
44,2.2,0.0007665157318115234,0.041535139083862305,1.5643317699432373,0.0032901763916015625,-1.6174752712249756,-0.029441356658935547,0.7018547654151917,0.16461887955665588,0.6139072179794312,-3.1014131588907268,0.04562479258883326,1.602856163360252,195.19603524229075,163.26211453744494,172.04690831556502,138.27505330490405,146.5353319057816,162.14775160599572,149.5,167.5,126.5,143.5,100.5,167.5
45,2.25,0.0007681846618652344,0.04230499267578125,1.5640466213226318,0.0034449100494384766,-1.6184237003326416,-0.029676198959350586,0.7022493481636047,0.16452202200889587,0.6135514974594116,-3.100732552074608,0.04654212810632109,1.6031603917455952,194.84070796460176,163.29646017699116,171.66021505376344,138.2774193548387,146.36247334754796,162.17057569296375,149.5,167.5,126.5,143.5,100.5,167.5
46,2.3000000000000003,0.0007555484771728516,0.04317951202392578,1.5637381076812744,0.003618478775024414,-1.6193568706512451,-0.030033349990844727,0.7026984691619873,0.16441579163074493,0.61313396692276,-3.0999443811142666,0.04743585993978673,1.6035779246434725,194.68791208791208,163.2901098901099,171.52238805970148,138.2409381663113,146.15822784810126,162.24261603375527,149.5,167.5,126.5,143.5,100.5,167.5
47,2.35,0.0007100105285644531,0.04403090476989746,1.563349962234497,0.0038776397705078125,-1.620246171951294,-0.03043508529663086,0.703142523765564,0.1642901599407196,0.6127786636352539,-3.099173567421816,0.04828398448275994,1.6040064182747118,194.4835164835165,163.35824175824175,171.39232409381663,138.27931769722815,145.9322033898305,162.20974576271186,149.5,167.5,126.5,143.5,100.5,167.5
48,2.4000000000000004,0.0006678104400634766,0.04485368728637695,1.5629832744598389,0.004113197326660156,-1.621138334274292,-0.03075122833251953,0.7035712003707886,0.1641674041748047,0.6124313473701477,-3.098437183105636,0.049138172537103536,1.6043521853961749,194.29978118161927,163.36980306345734,171.22174840085287,138.28784648187633,145.58029978586723,162.23768736616702,149.5,167.5,126.5,143.5,100.5,167.5
49,2.45,0.00063323974609375,0.04560112953186035,1.562596082687378,0.004371166229248047,-1.622025728225708,-0.030982255935668945,0.7039615511894226,0.16405124962329865,0.612148106098175,-3.0977776457263615,0.0499941318076741,1.604618019564884,193.97550111358575,163.39420935412028,170.9978540772532,138.3862660944206,145.48619957537156,162.27813163481954,149.5,167.5,126.5,143.5,100.5,167.5
50,2.5,0.0005698204040527344,0.046358346939086914,1.56229567527771,0.004552364349365234,-1.6228907108306885,-0.03126931190490723,0.7043582797050476,0.16391633450984955,0.6118066906929016,-3.0970955611187425,0.050823818571346664,1.6049116374325085,193.77582417582417,163.3208791208791,170.6952789699571,138.39055793991417,145.2595744680851,162.2851063829787,149.5,167.5,126.5,143.5,100.5,167.5
51,2.5500000000000003,0.0005431175231933594,0.047121524810791016,1.5620396137237549,0.004685878753662109,-1.6237871646881104,-0.03155994415283203,0.7047523260116577,0.16380442678928375,0.6114356517791748,-3.0964087624315226,0.05168455436128366,1.6052490526257743,193.57395143487858,163.39293598233996,170.5244161358811,138.36942675159236,145.07021276595745,162.32127659574468,149.5,167.5,126.5,143.5,100.5,167.5
52,2.6,0.00048732757568359375,0.047913312911987305,1.561697244644165,0.0049037933349609375,-1.624647855758667,-0.03189206123352051,0.7051660418510437,0.1636749804019928,0.6110934019088745,-3.095693140184608,0.05250578444583278,1.6055993892041285,193.43201754385964,163.44736842105263,170.39102564102564,138.33333333333334,144.82553191489362,162.35531914893616,149.5,167.5,126.5,143.5,100.5,167.5
53,2.6500000000000004,0.0004150867462158203,0.048696279525756836,1.5612590312957764,0.005216121673583984,-1.6254818439483643,-0.032216787338256836,0.7055804133415222,0.16353662312030792,0.6108123660087585,-3.0949895823056064,0.05330042640245988,1.6059248303983598,193.18241758241757,163.47472527472527,170.1932059447983,138.36093418259023,144.5266524520256,162.36886993603412,149.5,167.5,126.5,143.5,100.5,167.5
54,2.7,0.00033783912658691406,0.04943370819091797,1.5608255863189697,0.0055277347564697266,-1.6263039112091064,-0.03249025344848633,0.7059724926948547,0.16339629888534546,0.6105605363845825,-3.0943306584427743,0.054086728087274064,1.6061924285016975,192.9689578713969,163.44345898004434,169.97210300429185,138.431330472103,144.36786469344608,162.3150105708245,149.5,167.5,126.5,143.5,100.5,167.5
55,2.75,0.000301361083984375,0.05015826225280762,1.5605218410491943,0.0057070255279541016,-1.6271708011627197,-0.03269505500793457,0.7063490748405457,0.16328106820583344,0.6102426052093506,-3.093687798874101,0.05492176408026236,1.6064355468811002,192.76548672566372,163.44247787610618,169.6931330472103,138.42918454935622,144.1932059447983,162.31210191082803,149.5,167.5,126.5,143.5,100.5,167.5
56,2.8000000000000003,0.00028777122497558594,0.0509343147277832,1.5602214336395264,0.005875349044799805,-1.6280577182769775,-0.03292703628540039,0.706747829914093,0.1631799340248108,0.6098873615264893,-3.092998093641871,0.055772833653244876,1.6067320731169483,192.56923076923076,163.4879120879121,169.55414012738854,138.40976645435245,144.0212314225053,162.3736730360934,149.5,167.5,126.5,143.5,100.5,167.5
57,2.85,0.00022935867309570312,0.05171489715576172,1.5598399639129639,0.006129264831542969,-1.6288931369781494,-0.033219337463378906,0.7071569561958313,0.1630512923002243,0.6095743775367737,-3.092297325738329,0.056569037076886236,1.6070438048288764,192.37610619469027,163.50442477876106,169.37446808510637,138.36808510638298,143.74468085106383,162.4468085106383,149.5,167.5,126.5,143.5,100.5,167.5
58,2.9000000000000004,0.00013828277587890625,0.05247354507446289,1.559358835220337,0.006487846374511719,-1.629683256149292,-0.03354811668395996,0.7075623273849487,0.16290365159511566,0.6093335747718811,-3.091613429130976,0.057318263293754425,1.607356666189795,192.16114790286974,163.55849889624724,169.1872340425532,138.44893617021276,143.55414012738854,162.40976645435245,149.5,167.5,126.5,143.5,100.5,167.5
59,2.95,7.557868957519531e-05,0.05322408676147461,1.5589582920074463,0.006762027740478516,-1.6305034160614014,-0.033791303634643555,0.70795738697052,0.162773996591568,0.6090524196624756,-3.0909440978970455,0.0581021043069708,1.607614541885285,191.94039735099338,163.51655629139074,169.01918976545844,138.4818763326226,143.35306553911204,162.35306553911204,149.5,167.5,126.5,143.5,100.5,167.5
60,3.0,2.6464462280273438e-05,0.05392718315124512,1.5586488246917725,0.006948947906494141,-1.6313374042510986,-0.033962249755859375,0.7083247303962708,0.16265332698822021,0.6087515950202942,-3.090321621223792,0.05890423031612524,1.6078133358356308,191.67472527472526,163.54725274725274,168.71948608137046,138.47751605995717,143.13135593220338,162.385593220339,149.5,167.5,126.5,143.5,100.5,167.5
61,3.0500000000000003,-2.6226043701171875e-05,0.054679155349731445,1.5583031177520752,0.007167339324951172,-1.63216233253479,-0.03418850898742676,0.7087178230285645,0.16253052651882172,0.6084376573562622,-3.0896516701457135,0.05969318830089745,1.6080665050583745,191.56043956043956,163.52747252747253,168.59023354564755,138.44585987261146,142.95348837209303,162.44820295983087,149.5,167.5,126.5,143.5,100.5,167.5
62,3.1,-9.703636169433594e-05,0.05541181564331055,1.5578968524932861,0.007451057434082031,-1.632960557937622,-0.03445243835449219,0.7091047167778015,0.16239677369594574,0.6081708669662476,-3.08899531494428,0.06045294724103524,1.6083377397802259,191.33849557522123,163.5862831858407,168.40339702760085,138.5095541401274,142.70464135021098,162.48945147679325,149.5,167.5,126.5,143.5,100.5,167.5
63,3.1500000000000004,-0.00016808509826660156,0.056114912033081055,1.5575039386749268,0.0077250003814697266,-1.6337535381317139,-0.03467512130737305,0.709476888179779,0.16226403415203094,0.6079172492027283,-3.088366918091161,0.06121024707956508,1.6085668500577723,191.158940397351,163.60927152317882,168.23617021276596,138.46170212765958,142.52320675105486,162.45358649789029,149.5,167.5,126.5,143.5,100.5,167.5
64,3.2,-0.0002465248107910156,0.05684328079223633,1.5570638179779053,0.008041143417358398,-1.6345350742340088,-0.03490114212036133,0.7098639011383057,0.1621270477771759,0.6076722145080566,-3.0877175141106434,0.06195503896936934,1.6087936748956466,190.97327394209353,163.59688195991092,168.0,138.5,142.3787234042553,162.5,149.5,167.5,126.5,143.5,100.5,167.5
65,3.25,-0.0003123283386230469,0.05758976936340332,1.556652307510376,0.008327007293701172,-1.6353275775909424,-0.03516077995300293,0.7102571725845337,0.16199761629104614,0.6073980927467346,-3.0870485740380498,0.06270780418769907,1.609069231709386,190.6578947368421,163.56798245614036,167.8127659574468,138.55106382978724,142.1536842105263,162.4463157894737,149.5,167.5,126.5,143.5,100.5,167.5
66,3.3000000000000003,-0.00038886070251464844,0.058278560638427734,1.556344747543335,0.008518695831298828,-1.6361100673675537,-0.03536081314086914,0.7106205821037292,0.1618620604276657,0.6071046590805054,-3.0864318636884516,0.06345560427476611,1.609272076694047,190.5219298245614,163.5767543859649,167.63113006396588,138.4733475479744,141.97473684210527,162.49473684210525,149.5,167.5,126.5,143.5,100.5,167.5
67,3.35,-0.0004870891571044922,0.05900406837463379,1.5559203624725342,0.008823871612548828,-1.6368615627288818,-0.03564023971557617,0.7110078930854797,0.1617133915424347,0.60685133934021,-3.085777336223957,0.06416651711150263,1.6095340701367826,190.35761589403972,163.6953642384106,167.4300847457627,138.5699152542373,141.7478813559322,162.51483050847457,149.5,167.5,126.5,143.5,100.5,167.5
68,3.4000000000000004,-0.0005447864532470703,0.0597386360168457,1.55552077293396,0.009096860885620117,-1.637650728225708,-0.035831451416015625,0.7113935947418213,0.16159050166606903,0.6065782308578491,-3.0851249071946754,0.0649187853819472,1.6097511454770086,190.1769911504425,163.6283185840708,167.3254817987152,138.51605995717344,141.5,162.5,149.5,167.5,126.5,143.5,100.5,167.5
69,3.45,-0.0006315708160400391,0.06039929389953613,1.555103063583374,0.009399652481079102,-1.6384012699127197,-0.036002159118652344,0.7117468118667603,0.16145087778568268,0.6063670516014099,-3.084537497039865,0.06563686863833719,1.6099133522922795,190.0,163.63169642857142,167.07430997876858,138.48619957537156,141.36942675159236,162.5244161358811,149.5,167.5,126.5,143.5,100.5,167.5
70,3.5,-0.0007143020629882812,0.0611269474029541,1.554642915725708,0.009736061096191406,-1.639153242111206,-0.03624868392944336,0.7121341228485107,0.16131356358528137,0.6061325669288635,-3.0838858554712876,0.06634879724797933,1.6101599095944172,189.72566371681415,163.63274336283186,166.864406779661,138.54661016949152,141.17970401691332,162.50105708245243,149.5,167.5,126.5,143.5,100.5,167.5
71,3.5500000000000003,-0.0007946491241455078,0.061835527420043945,1.5542633533477783,0.009994745254516602,-1.6399085521697998,-0.036460161209106445,0.712509036064148,0.16117754578590393,0.6058642864227295,-3.083251747183017,0.0670663929072314,1.6103741769892546,189.5287610619469,163.65486725663717,166.6624203821656,138.56263269639066,140.96428571428572,162.53781512605042,149.5,167.5,126.5,143.5,100.5,167.5
72,3.6,-0.0008771419525146484,0.06254053115844727,1.5538690090179443,0.010269403457641602,-1.6406562328338623,-0.03667569160461426,0.7128831744194031,0.16104085743427277,0.6056077480316162,-3.082620454978411,0.067775947251688,1.610590929895343,189.36283185840708,163.7212389380531,166.4904051172708,138.59701492537314,140.7957894736842,162.55789473684212,149.5,167.5,126.5,143.5,100.5,167.5
73,3.6500000000000004,-0.0009522438049316406,0.0632634162902832,1.5534651279449463,0.010550498962402344,-1.6414082050323486,-0.03687691688537598,0.7132649421691895,0.16090914607048035,0.6053438186645508,-3.0819749578128515,0.06848965085054169,1.6108027662509923,189.19690265486724,163.72345132743362,166.38510638297873,138.5468085106383,140.51271186440678,162.58262711864407,149.5,167.5,126.5,143.5,100.5,167.5
74,3.7,-0.0010607242584228516,0.06392788887023926,1.5529839992523193,0.010918855667114258,-1.6421153545379639,-0.0370631217956543,0.7136242985725403,0.16075792908668518,0.6051642298698425,-3.0813805024101426,0.06916071212116512,1.61096120890944,189.0178970917226,163.6510067114094,166.1897654584222,138.52878464818764,140.4300847457627,162.5699152542373,149.5,167.5,126.5,143.5,100.5,167.5
75,3.75,-0.0011696815490722656,0.06461381912231445,1.5525381565093994,0.01125025749206543,-1.642822504043579,-0.03730297088623047,0.7139936685562134,0.16060592234134674,0.6049491167068481,-3.080762050083929,0.06982830771091811,1.6111741534842212,188.75496688741723,163.6953642384106,165.91313559322035,138.60381355932202,140.20675105485233,162.50632911392404,149.5,167.5,126.5,143.5,100.5,167.5
76,3.8000000000000003,-0.0012331008911132812,0.06531834602355957,1.5521838665008545,0.011481523513793945,-1.64357590675354,-0.037455081939697266,0.7143633961677551,0.16048289835453033,0.6046687364578247,-3.0801365058478227,0.07054655837612216,1.6113498635240944,188.52980132450332,163.6953642384106,165.7674418604651,138.61310782241014,139.98523206751054,162.584388185654,149.5,167.5,126.5,143.5,100.5,167.5
77,3.85,-0.0013408660888671875,0.06597638130187988,1.55179762840271,0.01175832748413086,-1.6442782878875732,-0.03764700889587402,0.714716374874115,0.1603326052427292,0.6044383645057678,-3.0795438259344277,0.07121163120646354,1.611517038160769,188.38852097130243,163.72626931567328,165.62420382165604,138.65817409766456,139.81052631578947,162.63368421052633,149.5,167.5,126.5,143.5,100.5,167.5
78,3.9000000000000004,-0.0014460086822509766,0.06661510467529297,1.5514147281646729,0.012034416198730469,-1.6449787616729736,-0.03782367706298828,0.7150593996047974,0.16018423438072205,0.6042195558547974,-3.078968703152667,0.07187671668588412,1.611669725220647,188.27555555555554,163.77333333333334,165.47457627118644,138.65677966101694,139.6,162.66947368421052,149.5,167.5,126.5,143.5,100.5,167.5
79,3.95,-0.0015442371368408203,0.06725263595581055,1.550980806350708,0.012359380722045898,-1.6456778049468994,-0.03798270225524902,0.7154021263122559,0.1600411832332611,0.6040307879447937,-3.078397650987464,0.07254160303714428,1.6118129221519848,188.1006711409396,163.74049217002238,165.33901918976545,138.59701492537314,139.44585987261146,162.59023354564755,149.5,167.5,126.5,143.5,100.5,167.5
80,4.0,-0.0016491413116455078,0.06789278984069824,1.5505425930023193,0.012687921524047852,-1.6463677883148193,-0.03812861442565918,0.715747594833374,0.1598944365978241,0.6038421392440796,-3.077825888046146,0.0731977760521825,1.6119363754868123,187.8791946308725,163.7628635346756,165.07383966244726,138.64978902953587,139.32773109243698,162.56302521008402,149.5,167.5,126.5,143.5,100.5,167.5
81,4.05,-0.001720428466796875,0.0685877799987793,1.550170660018921,0.012938976287841797,-1.6470940113067627,-0.03826737403869629,0.7161134481430054,0.15976805984973907,0.6035771369934082,-3.0772086543596724,0.07388876981778433,1.6120929550683096,187.64615384615385,163.71868131868132,164.87605042016807,138.69327731092437,139.05263157894737,162.58315789473684,149.5,167.5,126.5,143.5,100.5,167.5
82,4.1000000000000005,-0.0017917156219482422,0.06921029090881348,1.5498545169830322,0.013145685195922852,-1.6478140354156494,-0.0383608341217041,0.7164419293403625,0.1596430391073227,0.603331446647644,-3.076656182746129,0.0745784987155748,1.612199921823584,187.46017699115043,163.73008849557522,164.70675105485233,138.69620253164558,138.85684210526315,162.68421052631578,149.5,167.5,126.5,143.5,100.5,167.5
83,4.15,-0.001895904541015625,0.06981825828552246,1.549483060836792,0.01341557502746582,-1.648494005203247,-0.03852105140686035,0.7167683839797974,0.1594971865415573,0.6031264662742615,-3.076108011986556,0.0752240414115494,1.6123381210412682,187.27555555555554,163.77333333333334,164.53177966101694,138.73093220338984,138.73473684210526,162.68842105263158,149.5,167.5,126.5,143.5,100.5,167.5
84,4.2,-0.0019965171813964844,0.07045245170593262,1.5491268634796143,0.013666391372680664,-1.6491773128509521,-0.03868460655212402,0.7171074748039246,0.15935371816158295,0.6028940081596375,-3.0755355527474686,0.0758718094114998,1.6124863757095653,187.19419642857142,163.78794642857142,164.47457627118644,138.65677966101694,138.584388185654,162.70675105485233,149.5,167.5,126.5,143.5,100.5,167.5
85,4.25,-0.002128124237060547,0.07108163833618164,1.5486700534820557,0.014020442962646484,-1.6498229503631592,-0.0388796329498291,0.7174509763717651,0.15919150412082672,0.6027216911315918,-3.074964282981243,0.07647889516162205,1.6126326781926807,187.03131991051455,163.79642058165547,164.27118644067798,138.70550847457628,138.4449152542373,162.6165254237288,149.5,167.5,126.5,143.5,100.5,167.5
86,4.3,-0.0022051334381103516,0.0717310905456543,1.5483081340789795,0.014269113540649414,-1.6505234241485596,-0.038980722427368164,0.7177940607070923,0.15906383097171783,0.6024820804595947,-3.0743875404257,0.07714752318735048,1.6127453742436009,186.78270509977827,163.85587583148558,163.97463002114165,138.67653276955602,138.17255717255716,162.68814968814968,149.5,167.5,126.5,143.5,100.5,167.5
87,4.3500000000000005,-0.0022945404052734375,0.07242774963378906,1.547847032546997,0.014612197875976562,-1.6512038707733154,-0.03915143013000488,0.7181652188301086,0.1589284986257553,0.6022651195526123,-3.0737639444770926,0.07778858454571416,1.6129174787217078,186.56541019955654,163.76940133037695,163.82911392405063,138.73206751054852,137.95198329853864,162.73277661795407,149.5,167.5,126.5,143.5,100.5,167.5
88,4.4,-0.0024018287658691406,0.07302498817443848,1.547466516494751,0.014893293380737305,-1.6518614292144775,-0.03930306434631348,0.718487024307251,0.15878279507160187,0.60207200050354,-3.0732238904063522,0.0784112965282841,1.613045402176193,186.3968957871397,163.7738359201774,163.70127118644066,138.74364406779662,137.82983193277312,162.74159663865547,149.5,167.5,126.5,143.5,100.5,167.5
89,4.45,-0.0025224685668945312,0.07361841201782227,1.5470941066741943,0.015169382095336914,-1.6525037288665771,-0.03946805000305176,0.7188082337379456,0.15862877666950226,0.601876437664032,-3.072684543877027,0.07901839045263769,1.6131729627722484,186.2694877505568,163.79955456570156,163.5042194092827,138.74894514767934,137.63312368972746,162.74633123689728,149.5,167.5,126.5,143.5,100.5,167.5
90,4.5,-0.002616405487060547,0.07422685623168945,1.546708345413208,0.01545262336730957,-1.653167963027954,-0.039604902267456055,0.7191339135169983,0.15849217772483826,0.6016780138015747,-3.0721364101794038,0.07964804852267443,1.6133022093238856,186.10267857142858,163.828125,163.47257383966246,138.70886075949366,137.4968287526427,162.7293868921776,149.5,167.5,126.5,143.5,100.5,167.5
91,4.55,-0.0027608871459960938,0.07481265068054199,1.546271562576294,0.015796184539794922,-1.653777837753296,-0.039754390716552734,0.7194564342498779,0.15832416713237762,0.6015229225158691,-3.0716028460816776,0.08022281336582218,1.6133896232995675,185.93497757847533,163.83632286995515,163.24683544303798,138.73206751054852,137.30977130977132,162.76923076923077,149.5,167.5,126.5,143.5,100.5,167.5
92,4.6000000000000005,-0.002889871597290039,0.07541060447692871,1.5458357334136963,0.016135692596435547,-1.6543991565704346,-0.03991293907165527,0.7197824716567993,0.15816615521907806,0.6013591289520264,-3.0710589165293447,0.08080822985243148,1.613503246000094,185.76169265033408,163.9042316258352,162.9140461215933,138.75262054507337,137.03958333333333,162.81458333333333,149.5,167.5,126.5,143.5,100.5,167.5
93,4.65,-0.002969503402709961,0.0760660171508789,1.5453593730926514,0.016500234603881836,-1.655061960220337,-0.04006028175354004,0.7201319336891174,0.15803971886634827,0.6011788845062256,-3.0704708970140757,0.08143425159068048,1.613662023593035,185.49330357142858,163.81919642857142,162.82773109243698,138.78361344537817,136.90396659707724,162.75156576200416,149.5,167.5,126.5,143.5,100.5,167.5
94,4.7,-0.003084421157836914,0.07664203643798828,1.5449965000152588,0.0167694091796875,-1.6556904315948486,-0.0401763916015625,0.7204431295394897,0.15789148211479187,0.600989043712616,-3.069949406963229,0.0820299882337122,1.6137481383404872,185.33482142857142,163.80580357142858,162.6778947368421,138.8084210526316,136.7941176470588,162.77731092436974,149.5,167.5,126.5,143.5,100.5,167.5
95,4.75,-0.0032036304473876953,0.07721614837646484,1.5446569919586182,0.017016172409057617,-1.656313180923462,-0.040314674377441406,0.7207532525062561,0.15774035453796387,0.6007859706878662,-3.0694260148806145,0.08261877314187442,1.6138515623057699,185.24330357142858,163.796875,162.53911205073996,138.8076109936575,136.64150943396226,162.79454926624737,149.5,167.5,126.5,143.5,100.5,167.5
96,4.800000000000001,-0.0033092498779296875,0.07778382301330566,1.5443103313446045,0.017269372940063477,-1.656944990158081,-0.04044198989868164,0.7210584878921509,0.15759821236133575,0.600592315196991,-3.068910748004681,0.08321724407157124,1.6139581588862177,185.0913140311804,163.85300668151447,162.47798742138366,138.77987421383648,136.51162790697674,162.7737843551797,149.5,167.5,126.5,143.5,100.5,167.5
97,4.8500000000000005,-0.0034461021423339844,0.0783545970916748,1.5439140796661377,0.017575502395629883,-1.6575424671173096,-0.040570735931396484,0.721371054649353,0.15743690729141235,0.6004241108894348,-3.068390101215414,0.08378049898396618,1.6140340417439238,184.90358744394618,163.86322869955157,162.29621848739495,138.8172268907563,136.25625,162.8625,149.5,167.5,126.5,143.5,100.5,167.5
98,4.9,-0.0035965442657470703,0.07888054847717285,1.543501615524292,0.017908096313476562,-1.6581189632415771,-0.04070639610290527,0.7216634154319763,0.1572677195072174,0.600296139717102,-3.0679049972322763,0.08432374238385659,1.6140994932455193,184.74107142857142,163.921875,161.9937369519833,138.82463465553235,136.06639004149378,162.84647302904565,149.5,167.5,126.5,143.5,100.5,167.5
99,4.95,-0.003692626953125,0.07948613166809082,1.5430762767791748,0.018233299255371094,-1.6587464809417725,-0.04082226753234863,0.7219878435134888,0.15713298320770264,0.6001200079917908,-3.067358089458982,0.08491715296742901,1.6142087097315267,184.50335570469798,163.84340044742729,161.8781512605042,138.7920168067227,135.90833333333333,162.82708333333332,149.5,167.5,126.5,143.5,100.5,167.5
100,5.0,-0.003834247589111328,0.08004498481750488,1.5426709651947021,0.018551349639892578,-1.6593258380889893,-0.04097294807434082,0.7222951054573059,0.15696975588798523,0.5999640226364136,-3.066844078820239,0.0854609902742807,1.6143011587527556,184.337807606264,163.83221476510067,161.68987341772151,138.831223628692,135.7928870292887,162.8284518828452,149.5,167.5,126.5,143.5,100.5,167.5
101,5.050000000000001,-0.003958463668823242,0.08061480522155762,1.5423157215118408,0.01881551742553711,-1.6599228382110596,-0.04111909866333008,0.7226040959358215,0.15681709349155426,0.5997722148895264,-3.066322838480202,0.08602185500601517,1.614409107081268,184.24608501118567,163.82326621923937,161.53911205073996,138.8076109936575,135.64435146443515,162.82008368200837,149.5,167.5,126.5,143.5,100.5,167.5
102,5.1000000000000005,-0.004064798355102539,0.08119559288024902,1.5419437885284424,0.01909184455871582,-1.6605331897735596,-0.041254281997680664,0.722916305065155,0.15667636692523956,0.5995829105377197,-3.06579533129534,0.0865968658218522,1.6145262452775446,184.08988764044943,163.9056179775281,161.50315789473683,138.82315789473685,135.51572327044025,162.92872117400418,149.5,167.5,126.5,143.5,100.5,167.5
103,5.15,-0.004237174987792969,0.08175516128540039,1.541489839553833,0.019463777542114258,-1.6610734462738037,-0.04146003723144531,0.723229169845581,0.15649384260177612,0.5994534492492676,-3.0652730269969197,0.08709637679369216,1.6146426071993356,183.91685393258427,163.9123595505618,161.30188679245282,138.86373165618448,135.26195426195426,162.93970893970894,149.5,167.5,126.5,143.5,100.5,167.5
104,5.2,-0.004388570785522461,0.08228278160095215,1.5410616397857666,0.019812822341918945,-1.661628007888794,-0.04160737991333008,0.7235223650932312,0.15632577240467072,0.5993315577507019,-3.064783597376623,0.08761579491619284,1.6147201569426268,183.74107142857142,163.921875,161.04781704781703,138.9043659043659,135.11180124223603,162.9544513457557,149.5,167.5,126.5,143.5,100.5,167.5
105,5.25,-0.004506587982177734,0.08284521102905273,1.5406677722930908,0.020118236541748047,-1.6622140407562256,-0.04175257682800293,0.7238276600837708,0.1561785489320755,0.5991663336753845,-3.0642668836216562,0.08816587074167391,1.6148345045506283,183.53932584269663,163.8808988764045,160.8781512605042,138.7920168067227,134.93139293139293,162.88565488565487,149.5,167.5,126.5,143.5,100.5,167.5
106,5.300000000000001,-0.004647016525268555,0.08343076705932617,1.5402157306671143,0.02047896385192871,-1.6627743244171143,-0.04193472862243652,0.7241489291191101,0.1560175120830536,0.5990172624588013,-3.063727226172221,0.08868549001824795,1.614963961402481,183.37303370786518,163.86292134831461,160.73839662447259,138.81856540084388,134.7987421383648,162.85324947589098,149.5,167.5,126.5,143.5,100.5,167.5
107,5.3500000000000005,-0.0047795772552490234,0.08400154113769531,1.5398170948028564,0.020787954330444336,-1.6633408069610596,-0.042083024978637695,0.7244599461555481,0.15586170554161072,0.5988479256629944,-3.063203345564415,0.08921467217165886,1.6150670910027836,183.2561797752809,163.87191011235956,160.5970464135021,138.8523206751055,134.69456066945608,162.82635983263597,149.5,167.5,126.5,143.5,100.5,167.5
108,5.4,-0.004885673522949219,0.08458185195922852,1.5394632816314697,0.02104806900024414,-1.6639320850372314,-0.0421900749206543,0.7247709631919861,0.1557227522134781,0.59864741563797,-3.0626766897231272,0.08977162811470539,1.6151580747496643,183.1121076233184,163.91928251121075,160.49789915966386,138.84873949579833,134.51046025104603,162.9539748953975,149.5,167.5,126.5,143.5,100.5,167.5
109,5.45,-0.005042314529418945,0.08513998985290527,1.5390150547027588,0.02141284942626953,-1.6644670963287354,-0.042376041412353516,0.7250803709030151,0.15555210411548615,0.5985144376754761,-3.06215677166481,0.09026608666173916,1.615272626678311,182.91685393258427,163.9123595505618,160.39121338912133,138.9246861924686,134.26141078838174,162.97510373443984,149.5,167.5,126.5,143.5,100.5,167.5
110,5.5,-0.005210399627685547,0.0856025218963623,1.538628339767456,0.021735668182373047,-1.664982557296753,-0.04248809814453125,0.7253415584564209,0.15537552535533905,0.5984140038490295,-3.06172179585201,0.09075072472817959,1.6152937429933247,182.7897091722595,163.93288590604027,160.13361169102296,138.91858037578288,134.13636363636363,162.94628099173553,149.5,167.5,126.5,143.5,100.5,167.5
111,5.550000000000001,-0.005328178405761719,0.08613944053649902,1.5382435321807861,0.022036314010620117,-1.6655476093292236,-0.04259085655212402,0.7256330251693726,0.1552308350801468,0.5982602834701538,-3.061229422757872,0.09128284342049968,1.615365709585598,182.61678004535148,163.91609977324262,159.92275574112736,138.84759916492692,134.01446280991735,162.94214876033058,149.5,167.5,126.5,143.5,100.5,167.5
112,5.6000000000000005,-0.005452632904052734,0.08673501014709473,1.5378048419952393,0.022380590438842773,-1.6661055088043213,-0.0427699089050293,0.7259566783905029,0.15508118271827698,0.5980957746505737,-3.060681612662259,0.09179895360299185,1.6155115191255058,182.44494382022472,163.89662921348315,159.78991596638656,138.81302521008402,133.86458333333334,162.8875,149.5,167.5,126.5,143.5,100.5,167.5
113,5.65,-0.005583524703979492,0.08732962608337402,1.5373680591583252,0.022722959518432617,-1.666654348373413,-0.04293680191040039,0.7262802720069885,0.15492740273475647,0.5979302525520325,-3.060136013277074,0.09230649964747616,1.615638505860716,182.28314606741574,163.90112359550562,159.68421052631578,138.85684210526315,133.74947807933194,162.93528183716074,149.5,167.5,126.5,143.5,100.5,167.5
114,5.7,-0.005734920501708984,0.08789968490600586,1.536952257156372,0.023052215576171875,-1.6671812534332275,-0.04312396049499512,0.7265933752059937,0.15476098656654358,0.5977696776390076,-3.05960700401359,0.09279130118145545,1.6157620410865412,182.1123595505618,163.94606741573034,159.5337552742616,138.87974683544303,133.5397489539749,162.96861924686192,149.5,167.5,126.5,143.5,100.5,167.5
115,5.75,-0.005893707275390625,0.0884542465209961,1.5365164279937744,0.023406267166137695,-1.667694330215454,-0.04329729080200195,0.7269001603126526,0.15459051728248596,0.5976316332817078,-3.0590906857574813,0.09326442451941791,1.6158630426401857,182.01809954751133,163.92307692307693,159.4602510460251,138.88493723849373,133.40501043841337,162.99791231732777,149.5,167.5,126.5,143.5,100.5,167.5
116,5.800000000000001,-0.006064891815185547,0.08896923065185547,1.5360805988311768,0.023769378662109375,-1.6681911945343018,-0.043470144271850586,0.727189838886261,0.15441282093524933,0.5975209474563599,-3.0586058796784017,0.09372177416042328,1.6159473421682153,181.8426966292135,163.92584269662922,159.3172268907563,138.98739495798318,133.19461697722568,162.98757763975155,149.5,167.5,126.5,143.5,100.5,167.5
117,5.8500000000000005,-0.0062139034271240234,0.08941841125488281,1.5357449054718018,0.024042844772338867,-1.6687042713165283,-0.04353833198547363,0.727439820766449,0.15425056219100952,0.5974001884460449,-3.0581852855407043,0.09420686356561526,1.6159454812288174,181.66139954853273,163.9255079006772,159.09166666666667,138.9375,133.07453416149067,162.98343685300208,149.5,167.5,126.5,143.5,100.5,167.5
118,5.9,-0.006361246109008789,0.08993172645568848,1.5353686809539795,0.02434396743774414,-1.6692187786102295,-0.043669700622558594,0.7277228832244873,0.1540888398885727,0.5972560048103333,-3.0577060775316323,0.0946858964954752,1.616014543327063,181.52488687782807,163.95927601809956,158.89352818371609,138.86221294363256,132.91752577319588,162.97113402061856,149.5,167.5,126.5,143.5,100.5,167.5
119,5.95,-0.006503582000732422,0.09051012992858887,1.5349061489105225,0.024718046188354492,-1.6697351932525635,-0.04383969306945801,0.7280399799346924,0.1539296954870224,0.597114622592926,-3.057170236378395,0.09516056697175239,1.61613268521299,181.36507936507937,163.9387755102041,158.7405857740586,138.8807531380753,132.77754677754677,162.97089397089397,149.5,167.5,126.5,143.5,100.5,167.5
120,6.0,-0.006642818450927734,0.09107756614685059,1.534475564956665,0.025062084197998047,-1.6702525615692139,-0.04400324821472168,0.7283509373664856,0.1537727415561676,0.5969640016555786,-3.056645059577495,0.09563637609955743,1.6162470313343136,181.25675675675674,163.89864864864865,158.62605042016807,138.9033613445378,132.65762004175366,162.94363256784968,149.5,167.5,126.5,143.5,100.5,167.5
121,6.050000000000001,-0.0067653656005859375,0.09161853790283203,1.534099817276001,0.025353670120239258,-1.670783281326294,-0.04412364959716797,0.7286438941955566,0.1536271721124649,0.5968005061149597,-3.0561471585751385,0.09613106953439905,1.6163341966702112,181.0900900900901,163.93243243243242,158.5157894736842,138.89894736842106,132.4759916492693,163.01043841336116,149.5,167.5,126.5,143.5,100.5,167.5
122,6.1000000000000005,-0.006925344467163086,0.09214091300964355,1.533667802810669,0.025710105895996094,-1.6712720394134521,-0.04428744316101074,0.7289342880249023,0.15345780551433563,0.5966814756393433,-3.0556572439030023,0.09657990820400592,1.6164232305794737,180.91666666666666,163.9391891891892,158.4246861924686,138.9225941422594,132.26875,163.04583333333332,149.5,167.5,126.5,143.5,100.5,167.5
123,6.15,-0.00711512565612793,0.0926048755645752,1.533233404159546,0.02608513832092285,-1.6717250347137451,-0.04444074630737305,0.7292003631591797,0.1532706320285797,0.5966049432754517,-3.055213789645346,0.09699601696459027,1.6164647454180885,180.7897091722595,163.93288590604027,158.24528301886792,138.99580712788259,132.1801242236025,163.0062111801242,149.5,167.5,126.5,143.5,100.5,167.5
124,6.2,-0.007256507873535156,0.0930793285369873,1.532897710800171,0.026353836059570312,-1.6722257137298584,-0.04452633857727051,0.729461669921875,0.15311458706855774,0.5964647531509399,-3.054769933920548,0.09746576790612278,1.6164920660969397,180.63945578231292,163.93424036281178,158.0625,138.975,132.04742268041238,162.9938144329897,149.5,167.5,126.5,143.5,100.5,167.5
125,6.25,-0.007388114929199219,0.09358525276184082,1.5325491428375244,0.026627540588378906,-1.672734022140503,-0.04462552070617676,0.729737401008606,0.15296460688114166,0.5963089466094971,-3.0542994799931655,0.097940064956769,1.616546567303151,180.47737556561086,163.96153846153845,157.89144050104383,138.90814196242172,131.91752577319588,162.97113402061856,149.5,167.5,126.5,143.5,100.5,167.5
126,6.300000000000001,-0.007527589797973633,0.0941476821899414,1.532135248184204,0.026957035064697266,-1.6732332706451416,-0.044768333435058594,0.7300444841384888,0.1528090536594391,0.596150815486908,-3.0537788827043606,0.0983988179265749,1.6166407003505838,180.36507936507937,163.9387755102041,157.7405857740586,138.8807531380753,131.75416666666666,162.96041666666667,149.5,167.5,126.5,143.5,100.5,167.5
127,6.3500000000000005,-0.007657289505004883,0.09470820426940918,1.531708002090454,0.027298927307128906,-1.6737382411956787,-0.04490232467651367,0.7303493618965149,0.15266014635562897,0.5960013270378113,-3.053261210413015,0.09886406867352354,1.616736875779566,180.21846846846847,163.92792792792793,157.62605042016807,138.9033613445378,131.57083333333333,162.99375,149.5,167.5,126.5,143.5,100.5,167.5
128,6.4,-0.007799863815307617,0.09522461891174316,1.5312888622283936,0.027642488479614258,-1.6742241382598877,-0.045027732849121094,0.7306337952613831,0.1525035947561264,0.5958787798881531,-3.0527800934225198,0.09931331364541568,1.6168069255843456,180.06546275395033,163.9232505643341,157.5157894736842,138.89894736842106,131.4125,163.04583333333332,149.5,167.5,126.5,143.5,100.5,167.5
129,6.45,-0.007972240447998047,0.09571647644042969,1.5308425426483154,0.028021812438964844,-1.6746776103973389,-0.04519319534301758,0.7309108376502991,0.1523284614086151,0.5957882404327393,-3.0523130619464593,0.09972655629742075,1.6168827648726887,179.89140271493213,163.93665158371041,157.4246861924686,138.9225941422594,131.25052192066806,163.06471816283926,149.5,167.5,126.5,143.5,100.5,167.5
130,6.5,-0.008170604705810547,0.09617233276367188,1.5304014682769775,0.028405427932739258,-1.6751010417938232,-0.04535531997680664,0.7311736345291138,0.15213719010353088,0.5957194566726685,-3.0518734821663314,0.10011126722295996,1.6169243976141454,179.76905829596413,163.9170403587444,157.26987447698744,139.0020920502092,131.1614906832298,163.05383022774328,149.5,167.5,126.5,143.5,100.5,167.5
131,6.550000000000001,-0.00833439826965332,0.0966176986694336,1.5300571918487549,0.02869129180908203,-1.6755578517913818,-0.045465707778930664,0.7314234972000122,0.1519685536623001,0.5956034660339355,-3.051449630335114,0.10053516839367882,1.61695106163083,179.61363636363637,163.9431818181818,157.0625,138.975,131.01855670103092,163.03092783505156,149.5,167.5,126.5,143.5,100.5,167.5
132,6.6000000000000005,-0.008480072021484375,0.09711503982543945,1.5296857357025146,0.0289919376373291,-1.6760308742523193,-0.04558229446411133,0.7316974997520447,0.15181151032447815,0.5954654216766357,-3.050983123868705,0.10097203269169883,1.6170083923869805,179.47737556561086,163.96153846153845,156.9206680584551,138.94363256784968,130.86363636363637,163.05371900826447,149.5,167.5,126.5,143.5,100.5,167.5
133,6.65,-0.008637189865112305,0.0976266860961914,1.5292637348175049,0.0293426513671875,-1.6764891147613525,-0.0457308292388916,0.7319813370704651,0.15164682269096375,0.5953466296195984,-3.0505012083439467,0.1013904623641283,1.6170858565511463,179.36507936507937,163.9387755102041,156.7405857740586,138.8807531380753,130.77639751552795,163.00828157349898,149.5,167.5,126.5,143.5,100.5,167.5
134,6.7,-0.00877523422241211,0.09819579124450684,1.528817892074585,0.029702425003051758,-1.6769664287567139,-0.04590296745300293,0.7322919964790344,0.15149357914924622,0.5952001214027405,-3.049971956694342,0.10182302180357318,1.61721331485489,179.2398190045249,163.92760180995475,156.65271966527197,138.9142259414226,130.58091286307055,163.0124481327801,149.5,167.5,126.5,143.5,100.5,167.5
135,6.75,-0.008916854858398438,0.09870219230651855,1.5284011363983154,0.03004622459411621,-1.6774332523345947,-0.046021461486816406,0.7325708866119385,0.1513395756483078,0.59508216381073,-3.0494981055969395,0.10225245393958891,1.6172776140388274,179.05203619909503,163.9004524886878,156.53781512605042,138.91176470588235,130.4125,163.04583333333332,149.5,167.5,126.5,143.5,100.5,167.5
136,6.800000000000001,-0.009093046188354492,0.09917140007019043,1.5279791355133057,0.03040599822998047,-1.6778619289398193,-0.04617476463317871,0.7328363060951233,0.15116353332996368,0.5949922800064087,-3.0490500549223944,0.10264193744500455,1.6173362829841307,178.92986425339367,163.92760180995475,156.4560669456067,138.92887029288704,130.27291666666667,163.07708333333332,149.5,167.5,126.5,143.5,100.5,167.5
137,6.8500000000000005,-0.009286165237426758,0.09961986541748047,1.5275428295135498,0.030787229537963867,-1.6782705783843994,-0.04632925987243652,0.7330937385559082,0.15097717940807343,0.594925045967102,-3.0486169438668598,0.1030119279851102,1.6173756379368318,178.77878103837472,163.91873589164786,156.31302521008402,139.02100840336135,130.17708333333334,163.12291666666667,149.5,167.5,126.5,143.5,100.5,167.5
138,6.9,-0.00947117805480957,0.10004544258117676,1.5271837711334229,0.031094789505004883,-1.6786859035491943,-0.04647541046142578,0.7333368062973022,0.15079635381698608,0.594830334186554,-3.048203388651739,0.10339084469436814,1.617414596734962,178.63945578231292,163.93424036281178,156.12889812889813,138.987525987526,130.06404958677686,163.0888429752066,149.5,167.5,126.5,143.5,100.5,167.5
139,6.95,-0.00963902473449707,0.10052347183227539,1.5268042087554932,0.03140997886657715,-1.6791179180145264,-0.046628713607788086,0.7336041331291199,0.15062616765499115,0.5947092175483704,-3.04774701569662,0.10378269908862145,1.6174840211407662,178.50113378684807,163.94784580498867,155.9874739039666,138.97286012526095,129.91322314049586,163.03925619834712,149.5,167.5,126.5,143.5,100.5,167.5
140,7.0,-0.009794473648071289,0.1010124683380127,1.5264251232147217,0.0317232608795166,-1.6795580387115479,-0.04674530029296875,0.7338749170303345,0.15046456456184387,0.5945806503295898,-3.047285545624796,0.10418561924520765,1.6175307625410351,178.38181818181818,163.95909090909092,155.87265135699374,138.93945720250522,129.80618556701032,163.04742268041238,149.5,167.5,126.5,143.5,100.5,167.5
141,7.050000000000001,-0.009961366653442383,0.10152220726013184,1.526005506515503,0.03207278251647949,-1.6799852848052979,-0.04689645767211914,0.7341583371162415,0.15029510855674744,0.5944597721099854,-3.046802914503904,0.10457141856088402,1.6176016035839906,178.26636568848758,163.9232505643341,155.67714884696016,138.9056603773585,129.67427385892117,163.0207468879668,149.5,167.5,126.5,143.5,100.5,167.5
142,7.1000000000000005,-0.010102272033691406,0.10205960273742676,1.5255863666534424,0.03241300582885742,-1.680436372756958,-0.04704761505126953,0.7344525456428528,0.15014216303825378,0.594319760799408,-3.04630096695867,0.10497971081964884,1.6177031827925932,178.06575963718822,163.92290249433105,155.58909853249475,138.958071278826,129.44375,163.07083333333333,149.5,167.5,126.5,143.5,100.5,167.5
143,7.15,-0.01028132438659668,0.10251283645629883,1.5251867771148682,0.032755374908447266,-1.6808421611785889,-0.04718446731567383,0.7347087860107422,0.14996621012687683,0.5942272543907166,-3.045865288603712,0.10534751733020505,1.6177415549052465,177.99544419134395,163.90205011389523,155.4560669456067,138.92887029288704,129.31732776617955,163.11273486430062,149.5,167.5,126.5,143.5,100.5,167.5
144,7.2,-0.010457992553710938,0.10297131538391113,1.524749994277954,0.03313255310058594,-1.681248426437378,-0.04735589027404785,0.7349686622619629,0.1497914344072342,0.5941530466079712,-3.045423379230318,0.1057117561743153,1.6178176503805926,177.84841628959276,163.93665158371041,155.37735849056602,138.97903563941298,129.22594142259413,163.13807531380752,149.5,167.5,126.5,143.5,100.5,167.5
145,7.25,-0.010650873184204102,0.10341715812683105,1.524334192276001,0.033493995666503906,-1.6816365718841553,-0.047528982162475586,0.7352238893508911,0.14960642158985138,0.5940744280815125,-3.0449896839202224,0.10605896881595263,1.6178767938532994,177.64172335600907,163.93424036281178,155.2375,139.02916666666667,129.09128630705393,163.10165975103735,149.5,167.5,126.5,143.5,100.5,167.5
146,7.300000000000001,-0.010843276977539062,0.10384464263916016,1.523986577987671,0.033791303634643555,-1.6820228099822998,-0.04766225814819336,0.7354681491851807,0.14942264556884766,0.5939698219299316,-3.044574042118458,0.10640781533176058,1.6178956851981037,177.5899772209567,163.93166287015944,155.0625,138.975,128.96273291925465,163.0848861283644,149.5,167.5,126.5,143.5,100.5,167.5
147,7.3500000000000005,-0.011001825332641602,0.10431623458862305,1.5235941410064697,0.034121036529541016,-1.6824400424957275,-0.04779243469238281,0.7357308864593506,0.14926043152809143,0.5938599705696106,-3.0441253554429326,0.10678633152518087,1.6179516377448802,177.4512471655329,163.95691609977325,154.89583333333334,138.95,128.84536082474227,163.0721649484536,149.5,167.5,126.5,143.5,100.5,167.5
148,7.4,-0.011152029037475586,0.10483026504516602,1.523174524307251,0.03446841239929199,-1.682863473892212,-0.047936439514160156,0.7360137104988098,0.14910317957401276,0.5937351584434509,-3.0436407421851954,0.10716806350606269,1.6180346728200379,177.31292517006804,163.94557823129253,154.75991649269312,138.9248434237996,128.74380165289256,163.03719008264463,149.5,167.5,126.5,143.5,100.5,167.5
149,7.45,-0.01129913330078125,0.10536503791809082,1.5227558612823486,0.034809112548828125,-1.6832892894744873,-0.04808473587036133,0.73630690574646,0.14894774556159973,0.5935952663421631,-3.043140160015649,0.10754976438726493,1.6181273637079672,177.1640091116173,163.91571753986332,154.65271966527197,138.9142259414226,128.52598752598752,163.04989604989606,149.5,167.5,126.5,143.5,100.5,167.5
150,7.5,-0.01146697998046875,0.10584473609924316,1.5223286151885986,0.03517341613769531,-1.6836879253387451,-0.04822397232055664,0.7365753054618835,0.14877991378307343,0.593499481678009,-3.042684079360415,0.10790748712861659,1.6181831600240593,177.0568181818182,163.89772727272728,154.58909853249475,138.958071278826,128.3866943866944,163.0977130977131,149.5,167.5,126.5,143.5,100.5,167.5
151,7.550000000000001,-0.011652231216430664,0.10626554489135742,1.5219261646270752,0.03552699089050293,-1.6840646266937256,-0.048357248306274414,0.7368159890174866,0.14860177040100098,0.593430757522583,-3.042274051050861,0.10824713091409613,1.6182090114428223,176.97045454545454,163.91363636363636,154.4560669456067,138.92887029288704,128.24843423799584,163.15031315240083,149.5,167.5,126.5,143.5,100.5,167.5
152,7.6000000000000005,-0.011842489242553711,0.10670185089111328,1.5214617252349854,0.035939693450927734,-1.684434175491333,-0.04853224754333496,0.7370672821998596,0.14841996133327484,0.5933859348297119,-3.0418471176184343,0.10857413889621902,1.6182723897165392,176.73469387755102,163.89342403628117,154.35564853556485,138.99372384937237,128.15176715176716,163.12889812889813,149.5,167.5,126.5,143.5,100.5,167.5
153,7.65,-0.012056827545166016,0.10710310935974121,1.5210859775543213,0.03627276420593262,-1.684779405593872,-0.048697710037231445,0.7373017072677612,0.14822347462177277,0.5933151245117188,-3.0414481226748826,0.10887909692723656,1.6182975495368932,176.64253393665157,163.90723981900453,154.16216216216216,139.02494802494803,128.06832298136646,163.11387163561076,149.5,167.5,126.5,143.5,100.5,167.5
154,7.7,-0.012223243713378906,0.10754680633544922,1.5207440853118896,0.036557674407958984,-1.6851704120635986,-0.048830509185791016,0.7375494241714478,0.14805755019187927,0.5931951999664307,-3.041021276750544,0.10923184370665526,1.6183454155954995,176.525,163.95909090909092,154.0625,138.975,127.92355371900827,163.1095041322314,149.5,167.5,126.5,143.5,100.5,167.5
155,7.75,-0.012404680252075195,0.10801434516906738,1.5203278064727783,0.03691554069519043,-1.6855432987213135,-0.048979759216308594,0.7378134727478027,0.14788204431533813,0.5930998921394348,-3.040570975080178,0.10956252833455127,1.6183956375677977,176.40091116173122,163.9772209567198,153.89583333333334,138.95,127.84536082474227,163.0721649484536,149.5,167.5,126.5,143.5,100.5,167.5
156,7.800000000000001,-0.012565851211547852,0.10853862762451172,1.5199015140533447,0.03726911544799805,-1.6859362125396729,-0.049132347106933594,0.738102912902832,0.14771898090839386,0.5929700136184692,-3.040076354963251,0.10991049301977185,1.6184771820197075,176.31292517006804,163.94557823129253,153.75991649269312,138.9248434237996,127.72314049586777,163.08264462809916,149.5,167.5,126.5,143.5,100.5,167.5
157,7.8500000000000005,-0.012720108032226562,0.10906577110290527,1.5194623470306396,0.037633419036865234,-1.6863338947296143,-0.049300432205200195,0.7383930087089539,0.1475602686405182,0.592846155166626,-3.039579467900057,0.11026151367447934,1.6185815973735402,176.11697247706422,163.8577981651376,153.65271966527197,138.9142259414226,127.48856548856548,163.0852390852391,149.5,167.5,126.5,143.5,100.5,167.5
158,7.9,-0.012910604476928711,0.10950517654418945,1.5190484523773193,0.037993669509887695,-1.6866891384124756,-0.0494694709777832,0.7386438250541687,0.14737942814826965,0.5927696824073792,-3.039151943103858,0.11057367831768841,1.6186395391815267,176.06833712984056,163.872437357631,153.56903765690376,138.97489539748955,127.37966804979253,163.12240663900414,149.5,167.5,126.5,143.5,100.5,167.5
159,7.95,-0.013083934783935547,0.10991692543029785,1.5186636447906494,0.0383298397064209,-1.6870577335357666,-0.049599409103393555,0.7388775944709778,0.1472105085849762,0.592697262763977,-3.0387507381840724,0.1109040964070092,1.6186740816539995,175.9337899543379,163.87671232876713,153.4560669456067,138.92887029288704,127.24843423799582,163.15031315240083,149.5,167.5,126.5,143.5,100.5,167.5
160,8.0,-0.013283014297485352,0.11033940315246582,1.5182216167449951,0.03872370719909668,-1.68739914894104,-0.049785614013671875,0.7391223311424255,0.14702457189559937,0.5926485061645508,-3.038333527565945,0.11120142174065456,1.618738462813493,175.73529411764707,163.86651583710406,153.34864300626305,139.01878914405012,127.15176715176715,163.12889812889813,149.5,167.5,126.5,143.5,100.5,167.5
161,8.05,-0.013484716415405273,0.11072611808776855,1.517883539199829,0.03902149200439453,-1.6877357959747314,-0.049929141998291016,0.7393461465835571,0.14683759212493896,0.5925654172897339,-3.0379487413375785,0.11149947585075667,1.6187540100821025,175.64253393665157,163.90723981900453,153.18672199170123,139.0311203319502,127.05578512396694,163.13636363636363,149.5,167.5,126.5,143.5,100.5,167.5
162,8.1,-0.013659477233886719,0.11115407943725586,1.517535924911499,0.03931784629821777,-1.6880972385406494,-0.0500638484954834,0.7395868301391602,0.14666806161403656,0.5924588441848755,-3.0375327422116536,0.11182191588865514,1.6187935548552712,175.56363636363636,163.93863636363636,153.0852390852391,138.96257796257797,126.92355371900827,163.1095041322314,149.5,167.5,126.5,143.5,100.5,167.5
163,8.15,-0.013834476470947266,0.11161208152770996,1.517115831375122,0.039681434631347656,-1.6884548664093018,-0.050201416015625,0.739844799041748,0.14649827778339386,0.5923715829849243,-3.0370909712254033,0.11213822721900403,1.6188388313086017,175.40091116173122,163.9772209567198,152.9147609147609,138.96673596673597,126.84472049689441,163.12215320910974,149.5,167.5,126.5,143.5,100.5,167.5
164,8.200000000000001,-0.014006376266479492,0.1121222972869873,1.51668381690979,0.04004478454589844,-1.688816785812378,-0.05037426948547363,0.740128219127655,0.1463295817375183,0.5922534465789795,-3.03660487318105,0.11245245952675041,1.6189276209168695,175.29157175398635,163.89749430523918,152.7962577962578,138.95010395010394,126.72314049586777,163.08264462809916,149.5,167.5,126.5,143.5,100.5,167.5
165,8.25,-0.014170408248901367,0.11260557174682617,1.5162928104400635,0.04037117958068848,-1.6891834735870361,-0.050528764724731445,0.7403963208198547,0.1461666077375412,0.5921322107315063,-3.0361441858345,0.11277442127169549,1.6190042237023856,175.11697247706422,163.8577981651376,152.65271966527197,138.9142259414226,126.48856548856548,163.0852390852391,149.5,167.5,126.5,143.5,100.5,167.5
166,8.3,-0.014356136322021484,0.11304831504821777,1.5158798694610596,0.040729522705078125,-1.6895229816436768,-0.05069112777709961,0.740647554397583,0.14599046111106873,0.5920520424842834,-3.0357139758223974,0.11306954676564551,1.6190609163293703,175.06833712984056,163.872437357631,152.58909853249475,138.958071278826,126.37966804979253,163.12240663900414,149.5,167.5,126.5,143.5,100.5,167.5
167,8.35,-0.014536142349243164,0.11346101760864258,1.515479326248169,0.041083335876464844,-1.6898643970489502,-0.0508270263671875,0.7408826351165771,0.14581845700740814,0.5919861197471619,-3.0353103374876933,0.11337139485074293,1.6190945693346317,174.97018348623854,163.8394495412844,152.4560669456067,138.92887029288704,126.24843423799582,163.15031315240083,149.5,167.5,126.5,143.5,100.5,167.5
168,8.4,-0.014719724655151367,0.11387157440185547,1.51505446434021,0.041460514068603516,-1.6902005672454834,-0.05099630355834961,0.7411183714866638,0.14564397931098938,0.5919355154037476,-3.0349054720382678,0.11366455336770712,1.6191578637968191,174.82045454545454,163.8181818181818,152.4246861924686,138.96443514644352,126.15176715176715,163.12889812889813,149.5,167.5,126.5,143.5,100.5,167.5
169,8.450000000000001,-0.014929771423339844,0.11423182487487793,1.5146820545196533,0.04179954528808594,-1.690507173538208,-0.05114626884460449,0.7413308620452881,0.14545336365699768,0.5918902158737183,-3.034540855374468,0.1139320530216951,1.6191676616691273,174.68778280542986,163.8891402714932,152.25469728601252,139.04801670146136,126.09128630705395,163.1721991701245,149.5,167.5,126.5,143.5,100.5,167.5
170,8.5,-0.015114784240722656,0.11463356018066406,1.5143415927886963,0.04209542274475098,-1.6908390522003174,-0.051290273666381836,0.7415593862533569,0.1452786922454834,0.5917969942092896,-3.034144281890135,0.11422359375653324,1.6192031875145287,174.59318181818182,163.90454545454546,152.1058091286307,138.97717842323652,125.94845360824742,163.11546391752577,149.5,167.5,126.5,143.5,100.5,167.5
171,8.55,-0.015281438827514648,0.11507582664489746,1.5139496326446533,0.04243326187133789,-1.6911852359771729,-0.051416873931884766,0.7418071627616882,0.1451158970594406,0.5917038321495056,-3.033716946104354,0.11452904240755282,1.6192455833965975,174.47045454545454,163.8909090909091,152.03742203742203,138.97089397089397,125.84472049689441,163.12215320910974,149.5,167.5,126.5,143.5,100.5,167.5
172,8.6,-0.015470027923583984,0.11549973487854004,1.5135562419891357,0.04277825355529785,-1.6915075778961182,-0.05156230926513672,0.7420485615730286,0.14493893086910248,0.5916250348091125,-3.0333017010930594,0.11480959136466638,1.6192807474510347,174.3173515981735,163.8881278538813,151.83783783783784,138.97505197505197,125.75,163.11776859504133,149.5,167.5,126.5,143.5,100.5,167.5
173,8.65,-0.01563882827758789,0.11596441268920898,1.5131776332855225,0.04309654235839844,-1.691849946975708,-0.05172228813171387,0.742307186126709,0.1447744071483612,0.5915084481239319,-3.0328550146616027,0.1151064289407995,1.6193553270556058,174.19589977220957,163.86560364464694,151.75991649269312,138.9248434237996,125.60662525879917,163.09730848861284,149.5,167.5,126.5,143.5,100.5,167.5
174,8.700000000000001,-0.01582956314086914,0.11641311645507812,1.5127689838409424,0.04345083236694336,-1.692167043685913,-0.0518951416015625,0.742561399936676,0.144595667719841,0.59142005443573,-3.0324182116724447,0.11537707637155187,1.6194180950982486,174.10755148741418,163.83295194508008,151.6346555323591,138.93319415448852,125.40833333333333,163.14583333333334,149.5,167.5,126.5,143.5,100.5,167.5
175,8.75,-0.016021728515625,0.11681413650512695,1.5123541355133057,0.04382133483886719,-1.6924774646759033,-0.0520632266998291,0.7427926063537598,0.14441700279712677,0.5913697481155396,-3.032020599761416,0.11564390425574003,1.619469422107966,174.01822323462414,163.78587699316628,151.53125,138.98333333333332,125.29045643153528,163.1597510373444,149.5,167.5,126.5,143.5,100.5,167.5
176,8.8,-0.016202926635742188,0.11716914176940918,1.5119998455047607,0.04413938522338867,-1.6927950382232666,-0.0522003173828125,0.7429978251457214,0.14424645900726318,0.591317892074585,-3.0316641028386595,0.11592316313140118,1.6194972841989872,173.87927107061503,163.78359908883826,151.4560669456067,138.92887029288704,125.22594142259415,163.13807531380752,149.5,167.5,126.5,143.5,100.5,167.5
177,8.85,-0.016411304473876953,0.11754918098449707,1.5116117000579834,0.044487714767456055,-1.6930863857269287,-0.05238771438598633,0.7432203888893127,0.14405745267868042,0.5912668108940125,-3.0312812482383182,0.1161696913505967,1.6195479329216274,173.77777777777777,163.79591836734693,151.34864300626305,139.01878914405012,125.12863070539419,163.14107883817428,149.5,167.5,126.5,143.5,100.5,167.5
178,8.9,-0.016596555709838867,0.1179037094116211,1.5112979412078857,0.04476642608642578,-1.6933963298797607,-0.05251288414001465,0.7434242963790894,0.14388462901115417,0.591191291809082,-3.0309254388522255,0.11644273902345605,1.6195593294143582,173.63038548752834,163.85034013605443,151.21205821205822,139.03326403326403,125.05578512396694,163.13636363636363,149.5,167.5,126.5,143.5,100.5,167.5
179,8.950000000000001,-0.016776561737060547,0.1183023452758789,1.5109798908233643,0.04503965377807617,-1.6937110424041748,-0.05264425277709961,0.7436500191688538,0.14371487498283386,0.5910866856575012,-3.0305334051371053,0.11671748226000118,1.6195876094161266,173.5593607305936,163.8744292237443,151.0852390852391,138.96257796257797,124.90082644628099,163.15289256198346,149.5,167.5,126.5,143.5,100.5,167.5
180,9.0,-0.016958236694335938,0.1187281608581543,1.5105726718902588,0.04539752006530762,-1.694021463394165,-0.05280423164367676,0.7438915371894836,0.14354343712329865,0.5910133123397827,-3.030115501108244,0.11698337948003688,1.6196447181024023,173.4467120181406,163.85714285714286,150.987525987526,138.98336798336797,124.82438016528926,163.13842975206612,149.5,167.5,126.5,143.5,100.5,167.5
181,9.05,-0.0171358585357666,0.11914777755737305,1.510202169418335,0.04571938514709473,-1.6943347454071045,-0.05295252799987793,0.7441281676292419,0.1433749943971634,0.5909237265586853,-3.029704922874689,0.11725288899629895,1.6196938510591439,173.29908675799086,163.84703196347033,150.83783783783784,138.97505197505197,124.75,163.11776859504133,149.5,167.5,126.5,143.5,100.5,167.5
182,9.1,-0.017307043075561523,0.1195979118347168,1.5098450183868408,0.04601907730102539,-1.6946542263031006,-0.053116559982299805,0.7443786859512329,0.14321015775203705,0.5908036231994629,-3.0292694387484813,0.11752586484625088,1.619769198094503,173.12100456621005,163.80365296803652,150.75991649269312,138.9248434237996,124.51767151767152,163.1081081081081,149.5,167.5,126.5,143.5,100.5,167.5
183,9.15,-0.017525196075439453,0.11998653411865234,1.5094587802886963,0.04636716842651367,-1.6949217319488525,-0.05329632759094238,0.7446058988571167,0.14301593601703644,0.59074467420578,-3.0288788297301266,0.11774741005348699,1.619802512381723,173.09153318077804,163.78489702517163,150.6346555323591,138.93319415448852,124.38253638253639,163.14760914760916,149.5,167.5,126.5,143.5,100.5,167.5
184,9.200000000000001,-0.01772141456604004,0.12035965919494629,1.509065866470337,0.0467221736907959,-1.695206880569458,-0.05346322059631348,0.7448223829269409,0.14283619821071625,0.5907010436058044,-3.0285033871215634,0.11798960356794702,1.6198444512113284,173.0365296803653,163.7648401826484,150.52609603340292,138.9582463465553,124.27291666666666,163.15833333333333,149.5,167.5,126.5,143.5,100.5,167.5
185,9.25,-0.017897605895996094,0.12071442604064941,1.508697271347046,0.04705476760864258,-1.6955082416534424,-0.05360054969787598,0.7450272440910339,0.14267033338546753,0.5906566977500916,-3.0281464288157136,0.11825193578786392,1.6198784808984699,172.87927107061503,163.78359908883826,150.4560669456067,138.92887029288704,124.175,163.13958333333332,149.5,167.5,126.5,143.5,100.5,167.5
186,9.3,-0.018103361129760742,0.1210777759552002,1.5083038806915283,0.04741406440734863,-1.69577956199646,-0.05376577377319336,0.7452405691146851,0.1424851268529892,0.5906193256378174,-3.0277777865710207,0.11847990811380804,1.619907593133972,172.79726651480638,163.76765375854214,150.39166666666668,138.95625,124.12863070539419,163.14107883817428,149.5,167.5,126.5,143.5,100.5,167.5
187,9.35,-0.01830911636352539,0.12143111228942871,1.5079448223114014,0.04774069786071777,-1.6960499286651611,-0.05392789840698242,0.7454476356506348,0.1423000991344452,0.590569019317627,-3.0274177850508033,0.1187082777388894,1.6199331410260942,172.67727272727274,163.7840909090909,150.28008298755188,139.00207468879668,124.05578512396694,163.13636363636363,149.5,167.5,126.5,143.5,100.5,167.5
188,9.4,-0.018503665924072266,0.12178945541381836,1.5076258182525635,0.04802536964416504,-1.6963293552398682,-0.05406832695007324,0.7456546425819397,0.14212238788604736,0.5904927253723145,-3.027056049690478,0.11894761003970689,1.6199498359850577,172.55606407322654,163.79862700228833,150.1058091286307,138.97717842323652,123.90082644628099,163.15289256198346,149.5,167.5,126.5,143.5,100.5,167.5
189,9.450000000000001,-0.018689393997192383,0.12217211723327637,1.5072691440582275,0.04834151268005371,-1.69661545753479,-0.05422329902648926,0.7458736896514893,0.14195026457309723,0.5904209017753601,-3.0266743257480884,0.11919047805281292,1.6199928623584297,172.46938775510205,163.81632653061226,150.03742203742203,138.97089397089397,123.82438016528926,163.13842975206612,149.5,167.5,126.5,143.5,100.5,167.5
190,9.5,-0.018877506256103516,0.12256217002868652,1.5069043636322021,0.04866456985473633,-1.696897268295288,-0.054372549057006836,0.7460966110229492,0.14177674055099487,0.5903475880622864,-3.026286353341453,0.11942906049856784,1.620028203665973,172.2984054669704,163.82004555808655,149.86278586278587,138.92931392931393,123.75,163.11776859504133,149.5,167.5,126.5,143.5,100.5,167.5
191,9.55,-0.019064664840698242,0.12301206588745117,1.5065186023712158,0.048993587493896484,-1.6971819400787354,-0.05456709861755371,0.7463493347167969,0.14160235226154327,0.5902426242828369,-3.0258482593192184,0.11966242985045844,1.6201158263885176,172.16553287981858,163.77777777777777,149.78541666666666,138.92708333333334,123.58471074380165,163.08471074380165,149.5,167.5,126.5,143.5,100.5,167.5
192,9.600000000000001,-0.019265413284301758,0.12341046333312988,1.506160020828247,0.04930996894836426,-1.6974470615386963,-0.05473160743713379,0.7465779781341553,0.14142079651355743,0.590160071849823,-3.0254526857933643,0.11988189253118677,1.6201531291706384,172.07551487414187,163.74141876430207,149.65271966527197,138.9142259414226,123.38958333333333,163.12291666666667,149.5,167.5,126.5,143.5,100.5,167.5
193,9.65,-0.01946854591369629,0.12377238273620605,1.5057823657989502,0.0496518611907959,-1.6977055072784424,-0.054901838302612305,0.746789276599884,0.14123806357383728,0.5901144742965698,-3.025086170900434,0.1200959703656825,1.6201895716340284,172.04347826086956,163.70022883295195,149.60960334029227,138.9248434237996,123.3076923076923,163.14345114345113,149.5,167.5,126.5,143.5,100.5,167.5
194,9.700000000000001,-0.019674062728881836,0.12409663200378418,1.5054214000701904,0.049985647201538086,-1.6979591846466064,-0.055068016052246094,0.7469817996025085,0.14105437695980072,0.5900867581367493,-3.0247506623830342,0.12030789028869306,1.620216290080603,171.97254004576658,163.7254004576659,149.4560669456067,138.92887029288704,123.24843423799582,163.15031315240083,149.5,167.5,126.5,143.5,100.5,167.5
195,9.75,-0.019849300384521484,0.12446856498718262,1.5050537586212158,0.05031180381774902,-1.6982433795928955,-0.05523347854614258,0.7471944093704224,0.14089009165763855,0.590028703212738,-3.0243791078089663,0.12054721566541751,1.6202795694856318,171.8447488584475,163.72374429223746,149.4321503131524,138.93945720250522,123.15176715176715,163.12889812889813,149.5,167.5,126.5,143.5,100.5,167.5
196,9.8,-0.02005171775817871,0.12480711936950684,1.504704236984253,0.05063223838806152,-1.6984970569610596,-0.055389404296875,0.7473931908607483,0.14070862531661987,0.5899832248687744,-3.024031750341908,0.12075885253945824,1.6203005860582902,171.7068181818182,163.71363636363637,149.32985386221296,138.9937369519833,123.0850622406639,163.13278008298755,149.5,167.5,126.5,143.5,100.5,167.5
197,9.850000000000001,-0.020253896713256836,0.12513422966003418,1.5044124126434326,0.05089569091796875,-1.698749303817749,-0.05553841590881348,0.7475845217704773,0.14052753150463104,0.5899130702018738,-3.0236953983691994,0.12097085938713412,1.620313545515136,171.6164383561644,163.76027397260273,149.14791666666667,139.00416666666666,122.94421487603306,163.1404958677686,149.5,167.5,126.5,143.5,100.5,167.5
198,9.9,-0.02042222023010254,0.12549400329589844,1.5041019916534424,0.05116915702819824,-1.6990315914154053,-0.055657386779785156,0.7477880716323853,0.14036889374256134,0.5898301601409912,-3.023336486664191,0.12121427590252874,1.6203365557767755,171.50569476082003,163.78359908883826,149.0852390852391,138.96257796257797,122.87991718426501,163.13871635610766,149.5,167.5,126.5,143.5,100.5,167.5
199,9.950000000000001,-0.02061295509338379,0.12588024139404297,1.5037472248077393,0.0514833927154541,-1.6992919445037842,-0.05581927299499512,0.7480087876319885,0.1401945948600769,0.589753270149231,-3.022951082068062,0.12142936350328587,1.6203807877778567,171.39545454545456,163.73636363636365,148.95859213250517,138.92546583850933,122.82438016528926,163.13842975206612,149.5,167.5,126.5,143.5,100.5,167.5
200,10.0,-0.020806550979614258,0.12629008293151855,1.5033886432647705,0.05179166793823242,-1.699552297592163,-0.0560307502746582,0.7482417225837708,0.1400175839662552,0.5896610617637634,-3.022544652962091,0.12163689335491219,1.620473892102122,171.2659090909091,163.77045454545456,148.7983367983368,138.9043659043659,122.65010351966873,163.06832298136646,149.5,167.5,126.5,143.5,100.5,167.5
201,10.05,-0.020973682403564453,0.12671995162963867,1.5030200481414795,0.052107810974121094,-1.699831247329712,-0.056175947189331055,0.7484814524650574,0.1398586928844452,0.5895610451698303,-3.0221280941277544,0.12186965945544483,1.6205310942491613,171.0958904109589,163.7579908675799,148.75416666666666,138.9,122.49170124481327,163.1078838174274,149.5,167.5,126.5,143.5,100.5,167.5
202,10.100000000000001,-0.02119731903076172,0.12709927558898926,1.5026342868804932,0.05245804786682129,-1.7000524997711182,-0.056369781494140625,0.7487035989761353,0.1396634578704834,0.5895062685012817,-3.0217436324590308,0.12204120692699386,1.620570048219377,171.05491990846681,163.6933638443936,148.62970711297072,138.907949790795,122.35833333333333,163.10208333333333,149.5,167.5,126.5,143.5,100.5,167.5
203,10.15,-0.021394014358520508,0.12744450569152832,1.5022823810577393,0.05277729034423828,-1.7002956867218018,-0.05652451515197754,0.7489042282104492,0.13948653638362885,0.5894572734832764,-3.0213924477417704,0.12224161310492766,1.6205959947400692,171.03432494279176,163.64759725400458,148.5875,138.9125,122.27291666666666,163.15833333333333,149.5,167.5,126.5,143.5,100.5,167.5
204,10.200000000000001,-0.021601438522338867,0.12774968147277832,1.5019276142120361,0.05310821533203125,-1.7005279064178467,-0.05670595169067383,0.7490873336791992,0.139303058385849,0.5894383788108826,-3.0210715164223196,0.12242988691727116,1.6206322201061287,170.91552511415526,163.64840182648402,148.4560669456067,138.92887029288704,122.175,163.13958333333332,149.5,167.5,126.5,143.5,100.5,167.5
205,10.25,-0.021794557571411133,0.12806296348571777,1.5015976428985596,0.05341172218322754,-1.7007715702056885,-0.05686593055725098,0.7492715120315552,0.13912932574748993,0.5893999338150024,-3.020746657394913,0.12263134567654932,1.6206637934248078,170.8146453089245,163.66132723112128,148.42083333333332,138.91666666666666,122.12863070539419,163.14107883817428,149.5,167.5,126.5,143.5,100.5,167.5
206,10.3,-0.02201104164123535,0.12838292121887207,1.5012528896331787,0.05373048782348633,-1.7009918689727783,-0.05705690383911133,0.749462902545929,0.13893961906433105,0.5893641710281372,-3.0204117631632643,0.1228059347807486,1.6207006661668448,170.71201814058958,163.68707482993196,148.31055900621118,138.93167701863354,122.05578512396694,163.13636363636363,149.5,167.5,126.5,143.5,100.5,167.5
207,10.350000000000001,-0.022217750549316406,0.1287236213684082,1.5009148120880127,0.05403733253479004,-1.7012207508087158,-0.05723905563354492,0.7496621012687683,0.13875636458396912,0.5893096327781677,-3.0200614425858396,0.122988346497946,1.6207423103217946,170.6340909090909,163.68863636363636,148.14730290456433,138.9688796680498,121.9192546583851,163.1345755693582,149.5,167.5,126.5,143.5,100.5,167.5
208,10.4,-0.022387027740478516,0.12906098365783691,1.500605821609497,0.054312705993652344,-1.7014811038970947,-0.05736708641052246,0.7498547434806824,0.1385987251996994,0.5892414450645447,-3.0197207018707406,0.12320914903330496,1.6207707613074618,170.54545454545453,163.71363636363637,148.06016597510373,138.95850622406638,121.8698347107438,163.11570247933884,149.5,167.5,126.5,143.5,100.5,167.5
209,10.450000000000001,-0.022550344467163086,0.12942910194396973,1.5002882480621338,0.05459022521972656,-1.7017462253570557,-0.0574955940246582,0.7500615119934082,0.13844457268714905,0.5891562104225159,-3.0193556114333373,0.12343271745770958,1.6208090098348529,170.39545454545456,163.73636363636365,147.95859213250517,138.92546583850933,121.78053830227744,163.07867494824018,149.5,167.5,126.5,143.5,100.5,167.5
210,10.5,-0.022724390029907227,0.12982702255249023,1.4999496936798096,0.05488395690917969,-1.7019999027252197,-0.057636260986328125,0.7502847909927368,0.1382829248905182,0.5890605449676514,-3.018964548102157,0.1236411634306218,1.6208505327787692,170.24145785876993,163.64692482915717,147.8045738045738,138.85654885654887,121.65010351966873,163.06832298136646,149.5,167.5,126.5,143.5,100.5,167.5
211,10.55,-0.02291393280029297,0.13022422790527344,1.4996006488800049,0.055185556411743164,-1.7022392749786377,-0.05783653259277344,0.750510573387146,0.13811028003692627,0.588971734046936,-3.0185709811380934,0.12382825827066189,1.6209341293945143,170.0756880733945,163.66284403669724,147.75416666666666,138.9,121.49170124481327,163.1078838174274,149.5,167.5,126.5,143.5,100.5,167.5
212,10.600000000000001,-0.02314472198486328,0.1305675506591797,1.4992620944976807,0.055494070053100586,-1.7024338245391846,-0.05804848670959473,0.7507140040397644,0.13791149854660034,0.5889148712158203,-3.0182158096611538,0.12397164121773445,1.6209775938279658,170.03432494279176,163.64759725400458,147.67364016736403,138.88912133891213,121.35833333333333,163.10208333333333,149.5,167.5,126.5,143.5,100.5,167.5
213,10.65,-0.023366689682006836,0.13088774681091309,1.4989149570465088,0.055816650390625,-1.7026331424713135,-0.05823087692260742,0.7509048581123352,0.1377195119857788,0.5888799428939819,-3.0178812690495653,0.12412470934736465,1.6210000801093911,170.03432494279176,163.64759725400458,147.62970711297072,138.907949790795,121.3118503118503,163.0935550935551,149.5,167.5,126.5,143.5,100.5,167.5
214,10.700000000000001,-0.023567914962768555,0.13119959831237793,1.498584508895874,0.056123971939086914,-1.7028496265411377,-0.05837416648864746,0.7510887980461121,0.13754194974899292,0.5888416767120361,-3.0175576848760324,0.12430020105464236,1.6210047755192172,169.954233409611,163.62242562929063,147.4560669456067,138.92887029288704,121.175,163.13958333333332,149.5,167.5,126.5,143.5,100.5,167.5
215,10.75,-0.023746728897094727,0.13150548934936523,1.4982635974884033,0.05641889572143555,-1.7030866146087646,-0.05851936340332031,0.7512669563293457,0.13737916946411133,0.5888026356697083,-3.017240681435893,0.12449646388374244,1.6210356155913659,169.8574712643678,163.62758620689655,147.4446764091858,138.90605427974947,121.12863070539419,163.14107883817428,149.5,167.5,126.5,143.5,100.5,167.5
216,10.8,-0.023958683013916016,0.13180994987487793,1.497922658920288,0.05673694610595703,-1.7032911777496338,-0.05870366096496582,0.7514494061470032,0.13719409704208374,0.5887757539749146,-3.0169194148045846,0.124655398219455,1.6210687801329426,169.7608200455581,163.66514806378132,147.3734439834025,138.93153526970954,121.09297520661157,163.10537190082644,149.5,167.5,126.5,143.5,100.5,167.5
217,10.850000000000001,-0.024159908294677734,0.13213586807250977,1.4976050853729248,0.05702781677246094,-1.7035033702850342,-0.05885648727416992,0.7516394257545471,0.1370161920785904,0.5887186527252197,-3.0165835775608474,0.12482480459935305,1.6210841487558174,169.68552036199094,163.68552036199094,147.22981366459626,138.93374741200827,120.97119341563786,163.10288065843622,149.5,167.5,126.5,143.5,100.5,167.5
218,10.9,-0.024335861206054688,0.1324784755706787,1.4972784519195557,0.05732250213623047,-1.703737497329712,-0.05898118019104004,0.7518351078033447,0.13685543835163116,0.5886558890342712,-3.016237727397357,0.12501751626349325,1.6211016735017019,169.60997732426304,163.67800453514738,147.0852390852391,138.96257796257797,120.87422680412371,163.09072164948455,149.5,167.5,126.5,143.5,100.5,167.5
219,10.950000000000001,-0.024478435516357422,0.13282513618469238,1.4969861507415771,0.05757951736450195,-1.70400071144104,-0.05906391143798828,0.7520269751548767,0.13671720027923584,0.5885708928108215,-3.015894565966509,0.12524519174429408,1.621113802958289,169.4568181818182,163.61363636363637,147.0455486542443,138.93788819875778,120.8136645962733,163.1159420289855,149.5,167.5,126.5,143.5,100.5,167.5
220,11.0,-0.024672985076904297,0.1331467628479004,1.4966986179351807,0.05783820152282715,-1.7042152881622314,-0.059233903884887695,0.752213716506958,0.13654379546642303,0.5885009169578552,-3.0155632651883466,0.12541455887707803,1.6211533921417856,169.35535307517085,163.59453302961276,146.9002079002079,138.85446985446984,120.72199170124482,163.0767634854772,149.5,167.5,126.5,143.5,100.5,167.5
221,11.05,-0.02485942840576172,0.1335163116455078,1.4963648319244385,0.05812811851501465,-1.704439401626587,-0.059430599212646484,0.7524246573448181,0.1363748461008072,0.5884222388267517,-3.0151929585518995,0.1255865069385624,1.6212327232416943,169.2022727272727,163.59772727272727,146.8045738045738,138.85654885654887,120.60123966942149,163.04545454545453,149.5,167.5,126.5,143.5,100.5,167.5
222,11.100000000000001,-0.025055646896362305,0.13387799263000488,1.4960458278656006,0.058408498764038086,-1.7046492099761963,-0.059613704681396484,0.7526320815086365,0.136199951171875,0.5883409380912781,-3.014829427376888,0.1257471641488483,1.62128703677209,169.07780320366132,163.59267734553777,146.725,138.88333333333333,120.43153526970954,163.0622406639004,149.5,167.5,126.5,143.5,100.5,167.5
223,11.15,-0.025269031524658203,0.13419127464294434,1.4957382678985596,0.05869102478027344,-1.7048370838165283,-0.05978274345397949,0.7528167963027954,0.13601496815681458,0.5882875919342041,-3.0145040995287924,0.1258898029441112,1.621302564042615,169.05034324942793,163.5949656750572,146.64779874213838,138.88888888888889,120.3298755186722,163.0746887966805,149.5,167.5,126.5,143.5,100.5,167.5
224,11.200000000000001,-0.025469541549682617,0.1344926357269287,1.4954240322113037,0.058983802795410156,-1.7050344944000244,-0.059929609298706055,0.7529946565628052,0.13583910465240479,0.5882472395896912,-3.014189917417513,0.12604511204286759,1.6213092311638537,169.03899082568807,163.57110091743118,146.5875,138.9125,120.29166666666667,163.11041666666668,149.5,167.5,126.5,143.5,100.5,167.5
225,11.25,-0.02565932273864746,0.134782075881958,1.4951269626617432,0.05925941467285156,-1.705242395401001,-0.060080766677856445,0.7531647682189941,0.1356704831123352,0.5882059931755066,-3.0138859897131356,0.12621185882359218,1.6213315547457003,168.95871559633028,163.56880733944953,146.4560669456067,138.92887029288704,120.15176715176715,163.12889812889813,149.5,167.5,126.5,143.5,100.5,167.5
226,11.3,-0.02583479881286621,0.13505959510803223,1.4948322772979736,0.059534311294555664,-1.705460786819458,-0.06021285057067871,0.7533271908760071,0.13551190495491028,0.5881717205047607,-3.0135932578734463,0.12639163701617206,1.621348534873021,168.88073394495413,163.61238532110093,146.4446764091858,138.90605427974947,120.12863070539419,163.14107883817428,149.5,167.5,126.5,143.5,100.5,167.5
227,11.350000000000001,-0.026036739349365234,0.1353614330291748,1.4944965839385986,0.05984759330749512,-1.7056543827056885,-0.060387372970581055,0.7535062432289124,0.13533470034599304,0.5881426334381104,-3.0132754656784577,0.12653987660316202,1.6213813792175455,168.7608200455581,163.66514806378132,146.35610766045548,138.91304347826087,120.07867494824016,163.0848861283644,149.5,167.5,126.5,143.5,100.5,167.5
228,11.4,-0.02622699737548828,0.13570046424865723,1.4941699504852295,0.06014513969421387,-1.7058565616607666,-0.06052589416503906,0.753701388835907,0.1351655274629593,0.5880807638168335,-3.0129305076111086,0.1266979831429826,1.6213949535353145,168.7022727272727,163.64318181818183,146.2659793814433,138.89690721649484,119.97119341563786,163.10288065843622,149.5,167.5,126.5,143.5,100.5,167.5
229,11.450000000000001,-0.026417255401611328,0.13602948188781738,1.493828535079956,0.06045866012573242,-1.7060573101043701,-0.060675621032714844,0.7538919448852539,0.1349964439868927,0.5880348682403564,-3.0125930574954447,0.12685464244333483,1.6214187328161407,168.60090702947846,163.62585034013605,146.11825726141078,138.8941908713693,119.87422680412371,163.09072164948455,149.5,167.5,126.5,143.5,100.5,167.5
230,11.5,-0.02658843994140625,0.13637232780456543,1.4935004711151123,0.06075310707092285,-1.706275224685669,-0.06081581115722656,0.7540864944458008,0.13483984768390656,0.5879718661308289,-3.012247478473074,0.12702823491416146,1.6214554358239257,168.47058823529412,163.54298642533936,146.02898550724638,138.8902691511387,119.78512396694215,163.05371900826447,149.5,167.5,126.5,143.5,100.5,167.5
231,11.55,-0.026767969131469727,0.13668322563171387,1.4932258129119873,0.06100034713745117,-1.7064826488494873,-0.06095767021179199,0.7542651295661926,0.13467831909656525,0.5879017114639282,-3.0119287313366123,0.12719348919812634,1.6214805664774203,168.40136054421768,163.56916099773244,145.94824016563146,138.84679089026915,119.68115942028986,163.00828157349898,149.5,167.5,126.5,143.5,100.5,167.5
232,11.600000000000001,-0.026940107345581055,0.13701438903808594,1.492915391921997,0.06128048896789551,-1.706693410873413,-0.061074256896972656,0.7544533610343933,0.13452208042144775,0.5878368616104126,-3.0115943850771845,0.12736376790416298,1.621490712696788,168.2409090909091,163.56136363636364,145.8,138.83125,119.57201646090535,163.02057613168725,149.5,167.5,126.5,143.5,100.5,167.5
233,11.65,-0.027120590209960938,0.13736486434936523,1.4925949573516846,0.06156468391418457,-1.7068965435028076,-0.06122994422912598,0.7546525597572327,0.1343594342470169,0.5877633690834045,-3.0112425976368145,0.12752013107344132,1.6215325889118826,168.0665137614679,163.52293577981652,145.8,138.83125,119.47314049586777,163.03925619834712,149.5,167.5,126.5,143.5,100.5,167.5
234,11.700000000000001,-0.027367830276489258,0.13766241073608398,1.4922873973846436,0.061852216720581055,-1.7070338726043701,-0.06144881248474121,0.7548338174819946,0.13415281474590302,0.5877202153205872,-3.0109247849624645,0.12760543967693114,1.6215576172812443,168.05263157894737,163.54691075514873,145.7125,138.86458333333334,119.3298755186722,163.0746887966805,149.5,167.5,126.5,143.5,100.5,167.5
235,11.75,-0.027595996856689453,0.13793277740478516,1.491971731185913,0.06215620040893555,-1.7071850299835205,-0.061623334884643555,0.7549988031387329,0.13395997881889343,0.5877016186714172,-3.01063166549962,0.12771195141762945,1.621556479871354,168.05263157894737,163.54691075514873,145.60751565762004,138.8956158663883,119.3298755186722,163.0746887966805,149.5,167.5,126.5,143.5,100.5,167.5
236,11.8,-0.027779340744018555,0.1382308006286621,1.4916870594024658,0.06241726875305176,-1.7073795795440674,-0.061765432357788086,0.7551716566085815,0.13379709422588348,0.5876458287239075,-3.0103220111147806,0.12786465569543137,1.6215760239044366,167.96781609195403,163.53793103448277,145.50625,138.86041666666668,119.15833333333333,163.10416666666666,149.5,167.5,126.5,143.5,100.5,167.5
237,11.850000000000001,-0.027976274490356445,0.13851094245910645,1.4913551807403564,0.06273078918457031,-1.7075588703155518,-0.06192970275878906,0.7553387880325317,0.133625328540802,0.5876297354698181,-3.010023422037648,0.1279995547957884,1.6216006630133957,167.93793103448274,163.50344827586207,145.4446764091858,138.90605427974947,119.13513513513513,163.11642411642413,149.5,167.5,126.5,143.5,100.5,167.5
238,11.9,-0.02815723419189453,0.13877248764038086,1.4910767078399658,0.06299257278442383,-1.7077524662017822,-0.06207728385925293,0.7554932832717896,0.13346414268016815,0.5875977873802185,-3.0097436367236137,0.12815283070143377,1.6216244786978153,167.8919540229885,163.53333333333333,145.42083333333332,138.91666666666666,119.0850622406639,163.06016597510373,149.5,167.5,126.5,143.5,100.5,167.5
239,11.950000000000001,-0.028327465057373047,0.13903355598449707,1.4908134937286377,0.06324219703674316,-1.7079508304595947,-0.06216621398925781,0.7556450366973877,0.133311465382576,0.5875562429428101,-3.009467524165922,0.12831819445981968,1.621601239886794,167.75854214123007,163.5375854214123,145.29132231404958,138.89256198347107,118.98350515463918,163.08041237113403,149.5,167.5,126.5,143.5,100.5,167.5
240,12.0,-0.028506994247436523,0.13931751251220703,1.4905235767364502,0.06351304054260254,-1.708141565322876,-0.062297821044921875,0.7558103203773499,0.13315151631832123,0.5875136256217957,-3.009169703372084,0.12846819745590912,1.6216123403094855,167.6742596810934,163.5375854214123,145.1930184804928,138.83983572895278,118.91718426501035,163.0144927536232,149.5,167.5,126.5,143.5,100.5,167.5
241,12.05,-0.028673171997070312,0.13963699340820312,1.4902160167694092,0.06379222869873047,-1.7083427906036377,-0.062412261962890625,0.7559918165206909,0.13300012052059174,0.5874548554420471,-3.0088451311396662,0.12862921517012108,1.6216253031274088,167.52714932126696,163.49095022624434,145.06198347107437,138.82231404958677,118.85537190082644,163.01859504132233,149.5,167.5,126.5,143.5,100.5,167.5
242,12.100000000000001,-0.028847694396972656,0.13997220993041992,1.4899232387542725,0.06404924392700195,-1.708538293838501,-0.06257796287536621,0.7561823725700378,0.13284237682819366,0.5873763561248779,-3.008507160531937,0.12877681242001068,1.6216804321805112,167.4660633484163,163.52262443438914,144.98336798336797,138.76507276507277,118.75983436853002,162.9855072463768,149.5,167.5,126.5,143.5,100.5,167.5
243,12.15,-0.029018163681030273,0.14033818244934082,1.4895756244659424,0.06435632705688477,-1.7087352275848389,-0.06273555755615234,0.7563884854316711,0.13268709182739258,0.5873064994812012,-3.0081436625387488,0.12892487618119886,1.621736228848446,167.33636363636364,163.48636363636365,144.91041666666666,138.75625,118.64049586776859,162.96074380165288,149.5,167.5,126.5,143.5,100.5,167.5
244,12.200000000000001,-0.029206037521362305,0.14067554473876953,1.4892466068267822,0.06465339660644531,-1.7089121341705322,-0.06289362907409668,0.7565817832946777,0.13252097368240356,0.5872468948364258,-3.0078021401272013,0.12905409285512828,1.6217695334825246,167.21818181818182,163.47727272727272,144.80584551148226,138.80584551148226,118.57700205338809,162.9958932238193,149.5,167.5,126.5,143.5,100.5,167.5
245,12.25,-0.029395580291748047,0.1410055160522461,1.4889557361602783,0.0649113655090332,-1.7090871334075928,-0.06306767463684082,0.7567708492279053,0.13235366344451904,0.5871706604957581,-3.0074668664777278,0.12918016080552708,1.6218153671420583,167.0665137614679,163.52293577981652,144.80584551148226,138.80584551148226,118.44742268041237,163.04329896907217,149.5,167.5,126.5,143.5,100.5,167.5
246,12.3,-0.029648542404174805,0.14130640029907227,1.4886219501495361,0.06522655487060547,-1.709198236465454,-0.06329798698425293,0.7569543123245239,0.13214439153671265,0.5871388912200928,-3.0071443289064765,0.12923693345792925,1.6218440111044354,167.06206896551726,163.49655172413793,144.71816283924844,138.839248434238,118.35403726708074,163.064182194617,149.5,167.5,126.5,143.5,100.5,167.5
247,12.350000000000001,-0.0298769474029541,0.14157819747924805,1.4883143901824951,0.06551980972290039,-1.7093307971954346,-0.0634918212890625,0.7571197152137756,0.1319524347782135,0.5871140360832214,-3.0068499243623075,0.12932090160826543,1.621860666246281,167.06206896551726,163.49655172413793,144.61377870563675,138.85386221294362,118.30434782608695,163.0703933747412,149.5,167.5,126.5,143.5,100.5,167.5
248,12.4,-0.030068159103393555,0.14186334609985352,1.4880154132843018,0.06579756736755371,-1.709498643875122,-0.06365346908569336,0.7572872042655945,0.13178551197052002,0.587074875831604,-3.0065496256149387,0.12944327618637974,1.6218880527238178,166.9518348623853,163.47935779816513,144.50625,138.86041666666668,118.17047817047818,163.0810810810811,149.5,167.5,126.5,143.5,100.5,167.5
249,12.450000000000001,-0.03026413917541504,0.14212846755981445,1.487722635269165,0.06607389450073242,-1.7096588611602783,-0.06381630897521973,0.757445216178894,0.13161596655845642,0.5870468020439148,-3.006265459570502,0.1295595258019708,1.6219092270474227,166.93793103448274,163.50344827586207,144.482254697286,138.87056367432152,118.09937888198758,163.08074534161491,149.5,167.5,126.5,143.5,100.5,167.5
250,12.5,-0.030455827713012695,0.1423807144165039,1.4874212741851807,0.06636452674865723,-1.7098190784454346,-0.0639503002166748,0.7575962543487549,0.13144950568675995,0.5870330929756165,-3.0059922385746844,0.12968082296099015,1.6219040762830916,166.9334862385321,163.47706422018348,144.38958333333332,138.87708333333333,118.0600414078675,163.05383022774328,149.5,167.5,126.5,143.5,100.5,167.5
