AI-SPARC/uncalibrated-visual-servoing/results/data/3_feat_ibvs.csv
,t,q_1,q_2,q_3,q_4,q_5,q_6,camera_x,camera_y,camera_z,camera_roll,camera_pitch,camera_yaw,f_1,f_2,f_3,f_4,f_5,f_6,desired_f_1,desired_f_2,desired_f_3,desired_f_4,desired_f_5,desired_f_6
0,0.0,9.298324584960938e-06,-0.39263248443603516,1.963494062423706,7.224082946777344e-05,-1.5707952976226807,-2.384185791015625e-07,0.44632619619369507,0.1690625101327896,0.5921626687049866,-3.1413076666281032,0.00012220975734266807,1.5708383127210188,212.0,82.81939163498099,186.06118546845124,56.89866156787763,160.08365019011407,82.79657794676807,153.5,144.5,125.5,116.5,99.5,144.5
1,0.05,0.0007441043853759766,-0.39315271377563477,1.966808557510376,-0.00439453125,-1.572840929031372,0.00087738037109375,0.44608110189437866,0.16919083893299103,0.5906280875205994,3.1402043025474438,0.0021699745430893446,1.5706944523627115,211.69128787878788,83.04356060606061,185.69128787878788,57.04356060606061,159.69128787878788,83.04356060606061,153.5,144.5,125.5,116.5,99.5,144.5
2,0.1,0.0014472007751464844,-0.39366912841796875,1.9700148105621338,-0.008754730224609375,-1.57485032081604,0.001722097396850586,0.44583839178085327,0.1693073809146881,0.5891556143760681,3.138528869389691,0.004176698770721523,1.5705437354432419,211.5,83.32830188679246,185.44571428571427,57.21142857142857,159.44507575757575,83.20075757575758,153.5,144.5,125.5,116.5,99.5,144.5
3,0.15000000000000002,0.002096414566040039,-0.39412569999694824,1.9730656147003174,-0.012971878051757812,-1.576812982559204,0.0025281906127929688,0.4456290006637573,0.16940250992774963,0.5877477526664734,3.136897167731208,0.006132389249704733,1.5703708274895403,211.24667931688805,83.44781783681215,185.19128787878788,57.354166666666664,159.14716981132077,83.3754716981132,153.5,144.5,125.5,116.5,99.5,144.5
4,0.2,0.0027747154235839844,-0.39458537101745605,1.9761335849761963,-0.017214536666870117,-1.5787947177886963,0.0033562183380126953,0.4454103112220764,0.16950859129428864,0.5863326787948608,3.13525072166722,0.008104511865450775,1.570199163347738,210.99239543726236,83.56273764258555,184.86200378071834,57.482041587901705,158.73831775700936,83.51028037383178,153.5,144.5,125.5,116.5,99.5,144.5
5,0.25,0.0035190582275390625,-0.3949859142303467,1.979151964187622,-0.021434783935546875,-1.5808122158050537,0.004210710525512695,0.44520682096481323,0.1696406751871109,0.5849235653877258,3.133632139399452,0.010109224337610027,1.5700594769055949,210.72693032015067,83.7608286252354,184.54323308270676,57.607142857142854,158.49250936329588,83.63483146067416,153.5,144.5,125.5,116.5,99.5,144.5
6,0.30000000000000004,0.0041866302490234375,-0.3953404426574707,1.9820425510406494,-0.025526046752929688,-1.5827677249908447,0.004981040954589844,0.4450339376926422,0.16974399983882904,0.5835675001144409,3.1320586742730234,0.012050368834649371,1.5699225413041171,210.46110056925997,83.94686907020873,184.28248587570621,57.73258003766478,158.26355140186917,83.8018691588785,153.5,144.5,125.5,116.5,99.5,144.5
7,0.35000000000000003,0.004792213439941406,-0.3957071304321289,1.9848787784576416,-0.0295560359954834,-1.58467698097229,0.005711555480957031,0.44486141204833984,0.16982367634773254,0.5822470784187317,3.130478161873364,0.013942792932881825,1.5697579591097832,210.21804511278197,84.24624060150376,184.0093984962406,57.97744360902256,157.83858998144711,84.11317254174396,153.5,144.5,125.5,116.5,99.5,144.5
8,0.4,0.005457162857055664,-0.3960721492767334,1.9876744747161865,-0.033563852310180664,-1.5866167545318604,0.006519317626953125,0.4446783661842346,0.1699274480342865,0.5809520483016968,3.1288762333656774,0.015862827990205632,1.569568499827606,209.8924528301887,84.37924528301886,183.69172932330827,58.19924812030075,157.57777777777778,84.31296296296296,153.5,144.5,125.5,116.5,99.5,144.5
9,0.45,0.00612640380859375,-0.3964219093322754,1.9905188083648682,-0.03761863708496094,-1.5885646343231201,0.007293224334716797,0.44449731707572937,0.1700320541858673,0.579623281955719,3.1272876915115457,0.017788550779383728,1.569411647530082,209.63992537313433,84.53731343283582,183.41154562383613,58.357541899441344,157.39074074074074,84.43518518518519,153.5,144.5,125.5,116.5,99.5,144.5
10,0.5,0.006743431091308594,-0.3967280387878418,1.9933054447174072,-0.041614532470703125,-1.5904743671417236,0.007989883422851562,0.444341778755188,0.1701163500547409,0.5783078074455261,3.125744160099034,0.019675156289272515,1.5692747448503748,209.40747663551403,84.70841121495327,183.16165413533835,58.494360902255636,157.02025782688767,84.62430939226519,153.5,144.5,125.5,116.5,99.5,144.5
11,0.55,0.0074083805084228516,-0.39703369140625,1.9960696697235107,-0.04560446739196777,-1.5924098491668701,0.008749008178710938,0.44417646527290344,0.17021982371807098,0.5770072340965271,3.1241795933464016,0.021584539624313403,1.569117346093617,209.26404494382024,84.87453183520599,182.81378026070763,58.58100558659218,156.63351749539595,84.73112338858195,153.5,144.5,125.5,116.5,99.5,144.5
12,0.6000000000000001,0.008094549179077148,-0.3972177505493164,1.9986116886138916,-0.049398183822631836,-1.5943324565887451,0.009459495544433594,0.4440654218196869,0.1703340709209442,0.5757836103439331,3.122708807226918,0.023480233797224616,1.5690252185451599,208.82803738317756,85.22056074766355,182.52238805970148,58.66977611940298,156.3908256880734,84.90091743119267,153.5,144.5,125.5,116.5,99.5,144.5
13,0.65,0.008586645126342773,-0.39751505851745605,2.0010669231414795,-0.053069114685058594,-1.5961158275604248,0.010141849517822266,0.44392937421798706,0.170375257730484,0.5746558904647827,3.1211597266925404,0.025232934313431765,1.5687633224957023,208.64285714285714,85.3984962406015,182.28917910447763,58.90485074626866,156.07650273224044,85.12386156648452,153.5,144.5,125.5,116.5,99.5,144.5
14,0.7000000000000001,0.00915980339050293,-0.3977668285369873,2.0035297870635986,-0.05676865577697754,-1.5979530811309814,0.010863780975341797,0.4437994956970215,0.17044751346111298,0.5735063552856445,3.1196309536711944,0.027037605415294184,1.5685360003904942,208.41308411214953,85.5570093457944,181.9109461966605,59.1873840445269,155.72710622710622,85.35897435897436,153.5,144.5,125.5,116.5,99.5,144.5
15,0.75,0.00980520248413086,-0.3979024887084961,2.0059454441070557,-0.06044173240661621,-1.59983229637146,0.01153254508972168,0.44371041655540466,0.17054793238639832,0.5723349452018738,3.1181968845596173,0.028884184931193817,1.5684312087679273,208.21455223880596,85.67164179104478,181.71828358208955,59.343283582089555,155.5,85.5,153.5,144.5,125.5,116.5,99.5,144.5
16,0.8,0.010483980178833008,-0.3980221748352051,2.0083887577056885,-0.06415343284606934,-1.6017372608184814,0.012223482131958008,0.44361990690231323,0.17066064476966858,0.5711427330970764,3.1167637279198415,0.03075469576185555,1.5683321229135923,207.90316573556797,85.9608938547486,181.44362292051756,59.473197781885396,155.32051282051282,85.64652014652015,153.5,144.5,125.5,116.5,99.5,144.5
17,0.8500000000000001,0.011020898818969727,-0.39816713333129883,2.0107204914093018,-0.06773138046264648,-1.6035349369049072,0.012842655181884766,0.44353848695755005,0.17072033882141113,0.5700234770774841,3.1153282834060185,0.03251680741320446,1.5681598422793044,207.67228464419475,86.21722846441948,181.22242990654206,59.64859813084112,154.96028880866427,85.90252707581227,153.5,144.5,125.5,116.5,99.5,144.5
18,0.9,0.011587142944335938,-0.3983428478240967,2.013028860092163,-0.07129287719726562,-1.6053450107574463,0.013537883758544922,0.44343674182891846,0.17079195380210876,0.5689331889152527,3.1138490167633,0.03428667163436161,1.567933925561726,207.43228200371058,86.40074211502782,180.9313543599258,59.788497217068645,154.67572463768116,86.07065217391305,153.5,144.5,125.5,116.5,99.5,144.5
19,0.9500000000000001,0.012134075164794922,-0.3984968662261963,2.015260934829712,-0.07477855682373047,-1.6071312427520752,0.014202594757080078,0.44334691762924194,0.17085766792297363,0.5678765177726746,3.1123903366218957,0.03603164926853386,1.5677152761784232,207.21601489757916,86.56610800744879,180.58812615955472,60.05380333951763,154.40363636363637,86.31636363636363,153.5,144.5,125.5,116.5,99.5,144.5
20,1.0,0.012708663940429688,-0.39856672286987305,2.0174458026885986,-0.07822346687316895,-1.608928918838501,0.014788627624511719,0.4432893991470337,0.17093434929847717,0.566811203956604,3.1110096952883146,0.037789922909220466,1.5676019117427638,206.84082397003746,86.68164794007491,180.36968576709796,60.30314232902033,154.1043165467626,86.41546762589928,153.5,144.5,125.5,116.5,99.5,144.5
21,1.05,0.013364076614379883,-0.39862966537475586,2.0198185443878174,-0.08188223838806152,-1.610809087753296,0.01548457145690918,0.443215936422348,0.171039417386055,0.5656383037567139,3.1096028599169068,0.039625345635838145,1.5674503938569058,206.61623616236162,86.96125461254613,180.1090573012939,60.399260628465804,153.8086642599278,86.59386281588448,153.5,144.5,125.5,116.5,99.5,144.5
22,1.1,0.013953924179077148,-0.39870715141296387,2.022043466567993,-0.08538413047790527,-1.6126234531402588,0.01616954803466797,0.4431469142436981,0.17112170159816742,0.5645566582679749,3.1081877511478107,0.04139222063245933,1.5672402109292198,206.48059149722735,87.19778188539742,179.75185185185185,60.47962962962963,153.557761732852,86.79602888086643,153.5,144.5,125.5,116.5,99.5,144.5
23,1.1500000000000001,0.014447927474975586,-0.3987300395965576,2.0239908695220947,-0.08859062194824219,-1.6143314838409424,0.016702890396118164,0.4431214928627014,0.17117127776145935,0.5636072754859924,3.1068517300790575,0.04305804062578031,1.567088940209946,206.23191094619665,87.39332096474953,179.54898336414047,60.66173752310536,153.25311942959001,87.06417112299465,153.5,144.5,125.5,116.5,99.5,144.5
24,1.2000000000000002,0.014972686767578125,-0.3988068103790283,2.0259878635406494,-0.09184670448303223,-1.6160609722137451,0.017301559448242188,0.44306355714797974,0.17123255133628845,0.5626540780067444,3.105455897820291,0.04474019848307095,1.5668947424451891,205.89385474860336,87.50837988826815,179.26617375231055,60.84658040665435,153.0392156862745,87.14081996434938,153.5,144.5,125.5,116.5,99.5,144.5
25,1.25,0.015482902526855469,-0.39885425567626953,2.0280344486236572,-0.09515762329101562,-1.617790937423706,0.01787734031677246,0.44301751255989075,0.17128773033618927,0.5616603493690491,3.104083874803881,0.04642152400821794,1.5667052221110789,205.64944649446494,87.68265682656826,178.93382352941177,61.1360294117647,152.68705035971223,87.46043165467626,153.5,144.5,125.5,116.5,99.5,144.5
26,1.3,0.01606440544128418,-0.39885830879211426,2.0300962924957275,-0.09849286079406738,-1.6195671558380127,0.018438339233398438,0.44297683238983154,0.1713697761297226,0.5606403350830078,3.1027425742607484,0.04814898810852514,1.5665970834940823,205.4391143911439,87.93357933579335,178.71666666666667,61.28333333333333,152.43682310469313,87.56317689530685,153.5,144.5,125.5,116.5,99.5,144.5
27,1.35,0.016620874404907227,-0.3988316059112549,2.032069444656372,-0.1017453670501709,-1.6213161945343018,0.019013166427612305,0.442954421043396,0.17144379019737244,0.5596587657928467,3.101424047006714,0.049848273937125584,1.5664483968875227,205.28176795580112,88.20626151012891,178.47522935779816,61.44587155963303,152.0705467372134,87.77954144620811,153.5,144.5,125.5,116.5,99.5,144.5
28,1.4000000000000001,0.017207622528076172,-0.39877820014953613,2.033926248550415,-0.10489153861999512,-1.6230671405792236,0.01963067054748535,0.44294124841690063,0.17153170704841614,0.5587330460548401,3.10011813031266,0.05154583891468693,1.5662836540824838,204.87940630797775,88.38589981447124,178.26247689463955,61.654343807763404,151.88318584070797,87.88318584070797,153.5,144.5,125.5,116.5,99.5,144.5
29,1.4500000000000002,0.017759323120117188,-0.39876341819763184,2.035909414291382,-0.10816407203674316,-1.624814748764038,0.020288944244384766,0.44290992617607117,0.1716044694185257,0.557753324508667,3.098768470656753,0.053234692279887585,1.566036013364681,204.66173752310536,88.54898336414048,177.92307692307693,61.72893772893773,151.59435626102294,88.08641975308642,153.5,144.5,125.5,116.5,99.5,144.5
30,1.5,0.01825857162475586,-0.39874911308288574,2.037752389907837,-0.11127805709838867,-1.6264994144439697,0.020864248275756836,0.442888081073761,0.17165960371494293,0.5568518042564392,3.097439996993812,0.05486347746871746,1.565817850286497,204.44362292051756,88.73937153419594,177.6441605839416,61.99087591240876,151.28798586572438,88.273851590106,153.5,144.5,125.5,116.5,99.5,144.5
31,1.55,0.018815040588378906,-0.39865779876708984,2.0395824909210205,-0.11439847946166992,-1.6282236576080322,0.021442651748657227,0.44289061427116394,0.1717369556427002,0.5559262037277222,3.096166887902123,0.0565314945720301,1.5656519266319426,204.3162705667276,88.9762340036563,177.43933823529412,62.19485294117647,151.04240282685512,88.49293286219081,153.5,144.5,125.5,116.5,99.5,144.5
32,1.6,0.019390106201171875,-0.3985280990600586,2.0413362979888916,-0.1174473762512207,-1.6299502849578857,0.0220184326171875,0.4429077208042145,0.17182280123233795,0.5550282597541809,3.0949245487900092,0.05820036806560095,1.5655045987458867,203.9537037037037,89.22222222222223,177.21389396709324,62.40036563071298,150.83893805309734,88.78053097345133,153.5,144.5,125.5,116.5,99.5,144.5
33,1.6500000000000001,0.019901752471923828,-0.3985023498535156,2.043166399002075,-0.12055063247680664,-1.6316368579864502,0.02260875701904297,0.4428832232952118,0.17188353836536407,0.5541305541992188,3.0935982022865245,0.05982517702134886,1.565272386283747,203.73840445269016,89.41187384044527,176.94128440366973,62.51926605504587,150.55887521968364,88.9261862917399,153.5,144.5,125.5,116.5,99.5,144.5
34,1.7000000000000002,0.020395278930664062,-0.39845848083496094,2.044907331466675,-0.12356114387512207,-1.6332952976226807,0.02317953109741211,0.44287076592445374,0.17193922400474548,0.553276002407074,3.092292498604701,0.06142199004023076,1.5650393172216837,203.51386321626617,89.58595194085028,176.62935779816513,62.675229357798166,150.23508771929824,89.09473684210526,153.5,144.5,125.5,116.5,99.5,144.5
35,1.75,0.020900726318359375,-0.39837217330932617,2.0465710163116455,-0.1264972686767578,-1.6349494457244873,0.023728370666503906,0.4428759515285492,0.17200109362602234,0.5524473190307617,3.0910257669024546,0.06301393094378101,1.5648391482751154,203.271719038817,89.74121996303143,176.43327239488116,62.94149908592322,150.03146853146853,89.27272727272727,153.5,144.5,125.5,116.5,99.5,144.5
36,1.8,0.021447181701660156,-0.3982546329498291,2.048319101333618,-0.129533052444458,-1.6366465091705322,0.02429819107055664,0.44288378953933716,0.17207708954811096,0.5515584945678711,3.0897715256686697,0.06464786753748072,1.5646541663945208,203.0239852398524,90.00184501845018,176.19890510948906,63.166058394160586,149.81786339754817,89.57092819614711,153.5,144.5,125.5,116.5,99.5,144.5
37,1.85,0.021958112716674805,-0.3981754779815674,2.0500571727752686,-0.13254332542419434,-1.6383130550384521,0.02484917640686035,0.44287779927253723,0.17214003205299377,0.5506917238235474,3.0884930780247424,0.06624844908840662,1.5644473024475183,202.77449168207025,90.25693160813309,175.83639705882354,63.33455882352941,149.52447552447552,89.7604895104895,153.5,144.5,125.5,116.5,99.5,144.5
38,1.9000000000000001,0.022417545318603516,-0.3980569839477539,2.0516440868377686,-0.1353895664215088,-1.6399176120758057,0.02532219886779785,0.44290077686309814,0.17218612134456635,0.5498918294906616,3.0872724980009902,0.06779214601934312,1.5642706272327203,202.53860294117646,90.44301470588235,175.62201834862384,63.47889908256881,149.18134715025906,89.86701208981002,153.5,144.5,125.5,116.5,99.5,144.5
39,1.9500000000000002,0.022922515869140625,-0.3979196548461914,2.0532238483428955,-0.1382455825805664,-1.6415531635284424,0.025876760482788086,0.44292446970939636,0.17225031554698944,0.5490902066230774,3.0860455048483924,0.06936097194382636,1.5640528552557298,202.32037037037037,90.56851851851852,175.38929889298893,63.61070110701107,148.99826689774696,90.06065857885615,153.5,144.5,125.5,116.5,99.5,144.5
40,2.0,0.023400306701660156,-0.39780211448669434,2.054797410964966,-0.1410832405090332,-1.643164873123169,0.026388883590698242,0.4429413676261902,0.1723044514656067,0.5483004450798035,3.0848115148678996,0.07090576650223464,1.563846008298907,202.1626617375231,90.76894639556377,175.20109689213893,63.79890310786106,148.83132530120483,90.16867469879519,153.5,144.5,125.5,116.5,99.5,144.5
41,2.0500000000000003,0.023870229721069336,-0.3976309299468994,2.0563175678253174,-0.14387297630310059,-1.6447670459747314,0.026882410049438477,0.4429836571216583,0.17235662043094635,0.5475179553031921,3.0836261159029026,0.07244264564392869,1.56365194656144,201.7967032967033,91.00549450549451,174.7536496350365,64.0948905109489,148.44887348353552,90.37954939341421,153.5,144.5,125.5,116.5,99.5,144.5
42,2.1,0.024347305297851562,-0.39737844467163086,2.057786226272583,-0.14661669731140137,-1.6463654041290283,0.027317523956298828,0.44306060671806335,0.17241257429122925,0.5467289686203003,3.0825199414896596,0.07398080312181184,1.563525198816697,201.62867647058823,91.2279411764706,174.58639705882354,64.25367647058823,148.17586206896553,90.76724137931035,153.5,144.5,125.5,116.5,99.5,144.5
43,2.15,0.024837732315063477,-0.39722394943237305,2.0592682361602783,-0.14935660362243652,-1.6479628086090088,0.027798175811767578,0.4430898129940033,0.17247436940670013,0.5459754467010498,3.0813265650179154,0.07550996151891459,1.5633561793703918,201.40366972477065,91.45688073394496,174.3941605839416,64.42335766423358,148.03454231433506,90.90673575129534,153.5,144.5,125.5,116.5,99.5,144.5
44,2.2,0.025274038314819336,-0.39707422256469727,2.0607168674468994,-0.1520533561706543,-1.6495163440704346,0.028256893157958984,0.4431251883506775,0.17251604795455933,0.5452419519424438,3.080139221591789,0.07699641196315236,1.5631544233494699,201.20887245841035,91.59704251386322,174.08211678832117,64.57299270072993,147.7753001715266,91.06689536878216,153.5,144.5,125.5,116.5,99.5,144.5
45,2.25,0.025706052780151367,-0.39687514305114746,2.0620787143707275,-0.15465927124023438,-1.6510522365570068,0.028649091720581055,0.4431845545768738,0.17255789041519165,0.5445349216461182,3.079010393055713,0.07846922859244841,1.563017702713151,200.93014705882354,91.8125,173.86980108499097,64.76130198915008,147.51379310344828,91.18448275862069,153.5,144.5,125.5,116.5,99.5,144.5
46,2.3000000000000003,0.026142120361328125,-0.3966679573059082,2.0634572505950928,-0.15729093551635742,-1.6525943279266357,0.029089927673339844,0.4432451128959656,0.1726016104221344,0.5438166856765747,3.077874826854754,0.07994430024720868,1.562831981304522,200.63619744058502,92.05118829981718,173.58727272727273,65.00363636363636,147.17525773195877,91.45017182130584,153.5,144.5,125.5,116.5,99.5,144.5
47,2.35,0.026601552963256836,-0.3964676856994629,2.0648529529571533,-0.1599419116973877,-1.6541516780853271,0.029561519622802734,0.44329649209976196,0.17265449464321136,0.5430926084518433,3.0767251250894962,0.08143063432562085,1.562632955586328,200.50735294117646,92.24632352941177,173.45338208409507,65.21023765996344,147.03938356164383,91.6986301369863,153.5,144.5,125.5,116.5,99.5,144.5
48,2.4000000000000004,0.027062177658081055,-0.39627933502197266,2.0662567615509033,-0.1625957489013672,-1.6557085514068604,0.030028104782104492,0.4433404803276062,0.1727074682712555,0.5423696041107178,3.0755670865017866,0.08291581499893749,1.5624375754197835,200.28545119705342,92.48618784530387,173.18511796733213,65.39745916515426,146.79245283018867,91.88679245283019,153.5,144.5,125.5,116.5,99.5,144.5
49,2.45,0.027499675750732422,-0.3960723876953125,2.0675861835479736,-0.16516780853271484,-1.6572344303131104,0.030467987060546875,0.44339731335639954,0.17275354266166687,0.5416784882545471,3.0744370746141487,0.08437189623366402,1.5622464329144492,200.11970534069982,92.60957642725599,172.9744990892532,65.5464480874317,146.5,92.0,153.5,144.5,125.5,116.5,99.5,144.5
50,2.5,0.027994155883789062,-0.39581727981567383,2.068901300430298,-0.1677417755126953,-1.6588003635406494,0.030941247940063477,0.44346630573272705,0.17282187938690186,0.5409777760505676,3.0733328773857393,0.08586430340080448,1.562075212694182,199.75182481751824,92.83211678832117,172.68670309653916,65.7431693989071,146.20034246575344,92.13527397260275,153.5,144.5,125.5,116.5,99.5,144.5
51,2.5500000000000003,0.02847146987915039,-0.3955669403076172,2.070239305496216,-0.17034149169921875,-1.6603562831878662,0.031444549560546875,0.4435332119464874,0.17288395762443542,0.5402666330337524,3.072217074087322,0.08734383898355626,1.561853643077905,199.5732600732601,93.03846153846153,172.47992700729927,65.96715328467154,145.99149659863946,92.328231292517,153.5,144.5,125.5,116.5,99.5,144.5
52,2.6,0.028960227966308594,-0.39528489112854004,2.071559190750122,-0.1729264259338379,-1.6619184017181396,0.03193974494934082,0.44361093640327454,0.17295081913471222,0.5395524501800537,3.0711281854173214,0.08882944924387147,1.5616500918831797,199.4160583941606,93.23357664233576,172.30434782608697,66.125,145.82051282051282,92.591452991453,153.5,144.5,125.5,116.5,99.5,144.5
53,2.6500000000000004,0.029428958892822266,-0.39504170417785645,2.072857618331909,-0.17547345161437988,-1.663456678390503,0.032419443130493164,0.4436742961406708,0.17301079630851746,0.5388661026954651,3.07001670938746,0.09028962114664407,1.561438726813502,199.22283609576428,93.46408839779005,171.99636363636364,66.41272727272727,145.5,92.8078231292517,153.5,144.5,125.5,116.5,99.5,144.5
54,2.7,0.02994561195373535,-0.39470744132995605,2.074096918106079,-0.17797327041625977,-1.6650216579437256,0.03287529945373535,0.44377079606056213,0.17309026420116425,0.5381747484207153,3.0689844209615673,0.09178146012468061,1.5613015294081816,198.91544117647058,93.65625,171.78244972577696,66.47166361974406,145.24701873935265,92.91822827938671,153.5,144.5,125.5,116.5,99.5,144.5
55,2.75,0.030413389205932617,-0.3944413661956787,2.075327157974243,-0.1804506778717041,-1.6665441989898682,0.03337597846984863,0.4438445270061493,0.17315226793289185,0.5375175476074219,3.0678922788185004,0.09322238315993585,1.5610648245894536,198.6818181818182,93.87636363636364,171.52727272727273,66.65636363636364,145.02047781569965,93.160409556314,153.5,144.5,125.5,116.5,99.5,144.5
56,2.8000000000000003,0.030854463577270508,-0.3941941261291504,2.0765230655670166,-0.18287944793701172,-1.6680362224578857,0.03384971618652344,0.44391459226608276,0.1732049286365509,0.5368865132331848,3.0667983836029684,0.0946338749650761,1.5608271724433942,198.50182481751824,94.04744525547446,171.37568058076226,66.88566243194192,144.9,93.31186440677966,153.5,144.5,125.5,116.5,99.5,144.5
57,2.85,0.031296730041503906,-0.3939180374145508,2.077751398086548,-0.1853477954864502,-1.669536828994751,0.03431510925292969,0.44399380683898926,0.17325752973556519,0.5362256765365601,3.065724484425613,0.09605532586132459,1.560598425814544,198.3651376146789,94.26238532110092,171.09838998211092,67.05008944543829,144.62121212121212,93.45622895622895,153.5,144.5,125.5,116.5,99.5,144.5
58,2.9000000000000004,0.031746864318847656,-0.39357542991638184,2.0788462162017822,-0.18767881393432617,-1.671022653579712,0.03474283218383789,0.444105863571167,0.17331622540950775,0.5356101989746094,3.0647237349012095,0.09746542135152263,1.5604195320281364,198.15625,94.44301470588235,170.86799276672696,67.33273056057867,144.35016835016836,93.77609427609427,153.5,144.5,125.5,116.5,99.5,144.5
59,2.95,0.03224992752075195,-0.39322352409362793,2.0799973011016846,-0.19007396697998047,-1.6725523471832275,0.03518033027648926,0.444208562374115,0.17339415848255157,0.5349605083465576,3.063720364583251,0.09891818134767293,1.5602782923374128,197.83882783882783,94.64652014652015,170.59489051094891,67.4051094890511,144.16638370118847,93.89643463497454,153.5,144.5,125.5,116.5,99.5,144.5
60,3.0,0.03265523910522461,-0.3929286003112793,2.081090211868286,-0.1923818588256836,-1.6739933490753174,0.03557944297790527,0.44430413842201233,0.17343677580356598,0.5343654155731201,3.0626942898366964,0.10028254806024138,1.5600782095386792,197.60837887067396,94.96539162112933,170.40510948905109,67.5948905109489,143.89509306260575,94.1472081218274,153.5,144.5,125.5,116.5,99.5,144.5
61,3.0500000000000003,0.033045053482055664,-0.39268040657043457,2.08215069770813,-0.19464445114135742,-1.675410509109497,0.036034584045410156,0.44438278675079346,0.1734744906425476,0.5338090658187866,3.0616272673744125,0.10161633039557129,1.5598022771453293,197.47897623400365,95.05301645338209,170.16756756756757,67.7981981981982,143.6979865771812,94.28020134228188,153.5,144.5,125.5,116.5,99.5,144.5
62,3.1,0.03347420692443848,-0.3923459053039551,2.0831868648529053,-0.19689559936523438,-1.6768572330474854,0.03643536567687988,0.4444918632507324,0.1735280305147171,0.5332286953926086,3.060638260800669,0.10298586288502327,1.559622902274718,197.23443223443223,95.3021978021978,169.9232142857143,68.04285714285714,143.4244966442953,94.54530201342281,153.5,144.5,125.5,116.5,99.5,144.5
63,3.1500000000000004,0.03391265869140625,-0.3920156955718994,2.0842249393463135,-0.19914555549621582,-1.6783068180084229,0.0368499755859375,0.444596529006958,0.17358560860157013,0.5326501727104187,3.059644606656689,0.10435604837522361,1.5594361064985673,197.10845588235293,95.4375,169.68231046931407,68.15162454873646,143.23361344537815,94.72436974789916,153.5,144.5,125.5,116.5,99.5,144.5
64,3.2,0.034334659576416016,-0.3916738033294678,2.0851738452911377,-0.20128941535949707,-1.6797239780426025,0.0372014045715332,0.44471171498298645,0.17363877594470978,0.5321142077445984,3.0586860574186425,0.10570029346558721,1.5592989801446842,196.81535648994515,95.6489945155393,169.53804347826087,68.39492753623189,143.04033613445378,94.89747899159664,153.5,144.5,125.5,116.5,99.5,144.5
65,3.25,0.03476452827453613,-0.39135122299194336,2.0862295627593994,-0.2035539150238037,-1.6811659336090088,0.03762078285217285,0.4448103904724121,0.17369341850280762,0.5315290093421936,3.057684325396872,0.10705981231314143,1.5590933453247537,196.5419708029197,95.95985401459853,169.3406193078324,68.58105646630237,142.81895093062604,95.12521150592217,153.5,144.5,125.5,116.5,99.5,144.5
66,3.3000000000000003,0.03514862060546875,-0.3910861015319824,2.0872671604156494,-0.20578312873840332,-1.6825640201568604,0.03807544708251953,0.44489213824272156,0.17373153567314148,0.5309774875640869,3.0566383788374125,0.10836987129617229,1.558803462522914,196.45173041894353,96.01639344262296,169.08468468468467,68.66486486486487,142.60267111853088,95.23539232053422,153.5,144.5,125.5,116.5,99.5,144.5
67,3.35,0.03554987907409668,-0.3907637596130371,2.0882089138031006,-0.20791077613830566,-1.6839573383331299,0.03845858573913574,0.44499942660331726,0.17377832531929016,0.5304543972015381,3.055662531373667,0.10968350268572355,1.5586062455211411,196.21389396709324,96.26873857404021,168.85996409335726,68.95691202872531,142.31570247933885,95.50578512396694,153.5,144.5,125.5,116.5,99.5,144.5
68,3.4000000000000004,0.03598904609680176,-0.3904249668121338,2.0891830921173096,-0.21008086204528809,-1.6853830814361572,0.03887748718261719,0.4451044499874115,0.1738392859697342,0.5299071669578552,3.054686762021526,0.11102574043624756,1.5584073517150812,196.04066543438077,96.44731977818854,168.6159420289855,69.11413043478261,142.13333333333333,95.625,153.5,144.5,125.5,116.5,99.5,144.5
69,3.45,0.03640556335449219,-0.3900473117828369,2.090080499649048,-0.21216440200805664,-1.6867797374725342,0.03924441337585449,0.44523322582244873,0.1738937497138977,0.529385507106781,3.053764253546208,0.11234407587374115,1.5582427348287102,195.8065693430657,96.62591240875912,168.45207956600362,69.30198915009042,141.95966386554622,95.8672268907563,153.5,144.5,125.5,116.5,99.5,144.5
70,3.5,0.03681302070617676,-0.38971614837646484,2.0910370349884033,-0.21430277824401855,-1.688173532485962,0.03963160514831543,0.4453386664390564,0.17394375801086426,0.5288499593734741,3.0527968023888827,0.11365525739097006,1.5580424607849295,195.53005464480876,96.93806921675774,168.2109090909091,69.49090909090908,141.65551839464882,96.02508361204013,153.5,144.5,125.5,116.5,99.5,144.5
71,3.5500000000000003,0.03720498085021973,-0.3893918991088867,2.091942071914673,-0.2163832187652588,-1.6895439624786377,0.04006814956665039,0.4454456865787506,0.1739894151687622,0.5283464789390564,3.0518221374771515,0.11493752135564442,1.5577759307225114,195.45173041894353,97.01639344262296,168.05415162454872,69.60108303249098,141.5066225165563,96.18046357615894,153.5,144.5,125.5,116.5,99.5,144.5
72,3.6,0.0376131534576416,-0.3890509605407715,2.0928194522857666,-0.21843338012695312,-1.6909196376800537,0.04047393798828125,0.4455576539039612,0.17404240369796753,0.5278507471084595,3.05086995085731,0.11622813822649042,1.5575566115064443,195.21978021978023,97.24542124542124,167.7409420289855,69.81884057971014,141.2565789473684,96.44901315789474,153.5,144.5,125.5,116.5,99.5,144.5
73,3.6500000000000004,0.03800034523010254,-0.3887045383453369,2.0936357975006104,-0.22040414810180664,-1.692262887954712,0.04082083702087402,0.4456777274608612,0.1740889698266983,0.5273853540420532,3.049947798539915,0.11749158991756074,1.5573781312071364,194.97037037037038,97.45185185185186,167.55797101449275,70.07246376811594,141.0549084858569,96.54076539101497,153.5,144.5,125.5,116.5,99.5,144.5
74,3.7,0.03840351104736328,-0.3883059024810791,2.094492197036743,-0.22243499755859375,-1.693631887435913,0.0411992073059082,0.445813924074173,0.17414100468158722,0.5268768668174744,3.04905154981801,0.11877851123442237,1.5571829751812216,194.8065693430657,97.62591240875912,167.45108695652175,70.2336956521739,140.8391376451078,96.7910447761194,153.5,144.5,125.5,116.5,99.5,144.5
75,3.75,0.03883647918701172,-0.3879570960998535,2.095405340194702,-0.22452402114868164,-1.6950266361236572,0.04164695739746094,0.4459197521209717,0.17420382797718048,0.5263584852218628,3.048093309873741,0.12008109958780797,1.556938010842639,194.52102376599635,97.90493601462524,167.1480144404332,70.47292418772564,140.56291390728478,96.96026490066225,153.5,144.5,125.5,116.5,99.5,144.5
76,3.8000000000000003,0.03924989700317383,-0.3875763416290283,2.0962636470794678,-0.22655272483825684,-1.696397066116333,0.04207968711853027,0.44604459404945374,0.1742609441280365,0.5258569121360779,3.0471736449643427,0.12136154302467543,1.5566923147745806,194.41712204007285,97.9872495446266,166.96557971014494,70.51449275362319,140.4662273476112,97.12685337726523,153.5,144.5,125.5,116.5,99.5,144.5
77,3.85,0.039620161056518555,-0.38722896575927734,2.097057580947876,-0.22848916053771973,-1.6977150440216064,0.042439937591552734,0.4461649954319,0.1743030697107315,0.5254033207893372,3.0462585791313317,0.12259541968281104,1.5564782698753346,194.21389396709324,98.22120658135283,166.70471014492753,70.7373188405797,140.20491803278688,97.3672131147541,153.5,144.5,125.5,116.5,99.5,144.5
78,3.9000000000000004,0.039995670318603516,-0.38686633110046387,2.0978081226348877,-0.23037481307983398,-1.6990253925323486,0.04278397560119629,0.4462924003601074,0.17434844374656677,0.5249660015106201,3.0453678505565405,0.1238236982340839,1.5562870778724653,193.96857670979668,98.42698706099816,166.4882459312839,70.97830018083182,139.9983498349835,97.51980198019803,153.5,144.5,125.5,116.5,99.5,144.5
79,3.95,0.040374040603637695,-0.3864724636077881,2.098576784133911,-0.23228693008422852,-1.700343370437622,0.04313158988952637,0.44643038511276245,0.17439523339271545,0.5245057940483093,3.0444983983896408,0.12506019975665447,1.5560953094377235,193.82234432234432,98.58424908424908,166.43297101449275,71.13586956521739,139.7549019607843,97.64869281045752,153.5,144.5,125.5,116.5,99.5,144.5
80,4.0,0.040819406509399414,-0.38608217239379883,2.0994207859039307,-0.2342972755432129,-1.7017266750335693,0.04360389709472656,0.4465509057044983,0.1744663119316101,0.524008572101593,3.043580413092472,0.1263462038687003,1.5558334488592809,193.52372262773721,98.81021897810218,166.14909090909092,71.40181818181819,139.5559210526316,97.87993421052632,153.5,144.5,125.5,116.5,99.5,144.5
81,4.05,0.041236162185668945,-0.3856828212738037,2.100276231765747,-0.2363138198852539,-1.7030885219573975,0.04403281211853027,0.4466773569583893,0.17452667653560638,0.5235000848770142,3.042682262723045,0.12761527098824538,1.5555878454506407,193.44444444444446,98.97085610200364,165.91304347826087,71.46739130434783,139.4316309719934,98.1004942339374,153.5,144.5,125.5,116.5,99.5,144.5
82,4.1000000000000005,0.041596412658691406,-0.38530993461608887,2.1009886264801025,-0.2381439208984375,-1.7043707370758057,0.0443577766418457,0.44680964946746826,0.17456863820552826,0.5230786204338074,3.0418177919634637,0.12881525259478854,1.5553980827029754,193.27422303473492,99.11517367458866,165.70833333333334,71.6159420289855,139.21803278688526,98.33114754098361,153.5,144.5,125.5,116.5,99.5,144.5
83,4.15,0.04196333885192871,-0.38495564460754395,2.1016952991485596,-0.2399592399597168,-1.7056500911712646,0.04467368125915527,0.4469326138496399,0.1746138334274292,0.5226679444313049,3.040944085068511,0.13001222444910648,1.555221279747567,193.03308823529412,99.36948529411765,165.50452079566003,71.85895117540687,138.97545008183306,98.45499181669395,153.5,144.5,125.5,116.5,99.5,144.5
84,4.2,0.042340755462646484,-0.38456177711486816,2.1023991107940674,-0.24178314208984375,-1.7069408893585205,0.04502463340759277,0.44706976413726807,0.1746637225151062,0.5222424268722534,3.04009229645886,0.13121763692024355,1.5550196909060605,192.84375,99.55698529411765,165.37477477477478,71.97297297297297,138.7479674796748,98.60325203252033,153.5,144.5,125.5,116.5,99.5,144.5
85,4.25,0.042726755142211914,-0.3842031955718994,2.1031157970428467,-0.24361705780029297,-1.708235502243042,0.04544520378112793,0.447189599275589,0.17471711337566376,0.5218262672424316,3.039196141936757,0.1324167250951289,1.5547508054866022,192.5565693430657,99.77372262773723,165.07014388489208,72.22841726618705,138.59150326797385,98.81045751633987,153.5,144.5,125.5,116.5,99.5,144.5
86,4.3,0.04306316375732422,-0.38382458686828613,2.103811502456665,-0.24541831016540527,-1.7094871997833252,0.045781850814819336,0.4473254978656769,0.1747523844242096,0.5214099287986755,3.0383452316555943,0.13358266517240913,1.5545229280676185,192.45454545454547,99.92363636363636,164.92057761732852,72.44584837545126,138.41584158415841,98.9983498349835,153.5,144.5,125.5,116.5,99.5,144.5
87,4.3500000000000005,0.04343771934509277,-0.3834035396575928,2.1045124530792236,-0.24723386764526367,-1.7107717990875244,0.04611515998840332,0.44747182726860046,0.17480210959911346,0.5209739208221436,3.0375249601725143,0.13478305857946962,1.554335453935792,192.3186813186813,100.02380952380952,164.72382671480145,72.48916967509025,138.2390243902439,99.20975609756097,153.5,144.5,125.5,116.5,99.5,144.5
88,4.4,0.04379153251647949,-0.3830375671386719,2.105168581008911,-0.2489778995513916,-1.7120192050933838,0.0464177131652832,0.44760021567344666,0.17484544217586517,0.520584762096405,3.036681565839397,0.13594738007424093,1.5541561977946952,192.06398537477148,100.29067641681901,164.46654611211574,72.73056057866185,137.97545008183306,99.45499181669395,153.5,144.5,125.5,116.5,99.5,144.5
89,4.45,0.04414010047912598,-0.3826735019683838,2.105806589126587,-0.25069618225097656,-1.7132551670074463,0.04672360420227051,0.4477292001247406,0.17488770186901093,0.5202054977416992,3.035842796268295,0.13709937618150503,1.5539684271461776,191.86162361623616,100.5129151291513,164.42314647377938,72.9113924050633,137.75244299674267,99.5456026058632,153.5,144.5,125.5,116.5,99.5,144.5
90,4.5,0.04452872276306152,-0.38231754302978516,2.106524705886841,-0.2525193691253662,-1.714538812637329,0.04717206954956055,0.44784215092658997,0.1749439388513565,0.5197885632514954,3.0349470429672025,0.13828114331944227,1.5536667949315985,191.65018315018315,100.63553113553114,164.16157989228006,73.04129263913823,137.58116883116884,99.74188311688312,153.5,144.5,125.5,116.5,99.5,144.5
91,4.55,0.044885873794555664,-0.3819758892059326,2.1072142124176025,-0.25429511070251465,-1.715785264968872,0.04755520820617676,0.44795548915863037,0.1749892383813858,0.519392192363739,3.0340652217513338,0.13943240885420807,1.5534009758820932,191.4464609800363,100.90018148820327,163.90322580645162,73.27240143369175,137.4189852700491,99.85597381342062,153.5,144.5,125.5,116.5,99.5,144.5
92,4.6000000000000005,0.045205116271972656,-0.3815786838531494,2.107814073562622,-0.25597119331359863,-1.7169907093048096,0.047879695892333984,0.4481033384799957,0.17502249777317047,0.5190190076828003,3.03326012094485,0.14055148330810527,1.553167640472343,191.3351548269581,100.97632058287796,163.7409420289855,73.44565217391305,137.24837662337663,100.15746753246754,153.5,144.5,125.5,116.5,99.5,144.5
93,4.65,0.04555797576904297,-0.38120007514953613,2.108459234237671,-0.2576901912689209,-1.7182228565216064,0.048182010650634766,0.44823357462882996,0.17506763339042664,0.5186290740966797,3.0324385301895465,0.14169832804291058,1.5529834532131812,191.14625228519196,101.19926873857403,163.56805807622504,73.60072595281306,137.06980519480518,100.37175324675324,153.5,144.5,125.5,116.5,99.5,144.5
94,4.7,0.04588913917541504,-0.3808588981628418,2.1090853214263916,-0.25937438011169434,-1.7194273471832275,0.04849362373352051,0.44835203886032104,0.17510545253753662,0.5182650089263916,3.031594550438757,0.14281409377515955,1.552766234542101,190.96500920810314,101.37753222836096,163.41906474820144,73.80035971223022,136.77035830618894,100.46579804560261,153.5,144.5,125.5,116.5,99.5,144.5
95,4.75,0.04628634452819824,-0.38046789169311523,2.1097419261932373,-0.26111531257629395,-1.720693826675415,0.04889345169067383,0.44847819209098816,0.17516838014125824,0.5178657174110413,3.0307562796866305,0.14398319908665658,1.5525216381057463,190.76427255985266,101.57458563535911,163.17594254937163,73.9048473967684,136.64573268921094,100.61835748792271,153.5,144.5,125.5,116.5,99.5,144.5
96,4.800000000000001,0.046613454818725586,-0.38010382652282715,2.1103107929229736,-0.26273560523986816,-1.7218821048736572,0.049224853515625,0.44860967993736267,0.17520682513713837,0.5175225138664246,3.0299380111404064,0.14508106091451464,1.5522831969228268,190.53564899451553,101.76051188299817,162.89964157706092,74.15232974910394,136.44878048780487,100.75447154471544,153.5,144.5,125.5,116.5,99.5,144.5
97,4.8500000000000005,0.04693412780761719,-0.37967514991760254,2.110852003097534,-0.2643313407897949,-1.7230651378631592,0.04950141906738281,0.44877001643180847,0.17524391412734985,0.5171661972999573,3.0291885201723607,0.14618300420436045,1.5521007925769978,190.42363636363638,101.89272727272727,162.8,74.37117117117117,136.30856219709207,100.96768982229402,153.5,144.5,125.5,116.5,99.5,144.5
98,4.9,0.04729175567626953,-0.37923121452331543,2.11145281791687,-0.26600027084350586,-1.7242882251739502,0.04979538917541504,0.44892561435699463,0.17529407143592834,0.5167721509933472,3.0284352939069312,0.14732330191445234,1.551932592262204,190.2961608775137,102.0420475319927,162.6551724137931,74.46098003629764,136.1359223300971,101.21197411003236,153.5,144.5,125.5,116.5,99.5,144.5
99,4.95,0.04764270782470703,-0.3788485527038574,2.1120388507843018,-0.26763272285461426,-1.7254917621612549,0.05009722709655762,0.4490567743778229,0.17534224689006805,0.5164112448692322,3.0276400219305466,0.14843849481450594,1.5517438692536225,190.02018348623852,102.26422018348624,162.3996383363472,74.69258589511755,135.81847649918961,101.3517017828201,153.5,144.5,125.5,116.5,99.5,144.5
100,5.0,0.048020362854003906,-0.37842702865600586,2.112630605697632,-0.2692852020263672,-1.7267191410064697,0.05043816566467285,0.4491984248161316,0.1754010021686554,0.5160316824913025,3.0268625756259193,0.14957468685449615,1.5515418444042013,189.86740331491714,102.43093922651934,162.29084380610414,74.83123877917414,135.60610932475885,101.5032154340836,153.5,144.5,125.5,116.5,99.5,144.5
101,5.050000000000001,0.048424720764160156,-0.3780190944671631,2.1132471561431885,-0.2709674835205078,-1.7279689311981201,0.050844669342041016,0.4493280053138733,0.17546987533569336,0.5156449675559998,3.0260527333041716,0.15072399175783252,1.5512931145824267,189.66605504587156,102.61834862385321,162.08944543828264,74.97137745974955,135.5216,101.6064,153.5,144.5,125.5,116.5,99.5,144.5
102,5.1000000000000005,0.048767805099487305,-0.377612829208374,2.11381459236145,-0.2725815773010254,-1.7291595935821533,0.051195621490478516,0.4494696855545044,0.1755170226097107,0.5152845978736877,3.025271103561698,0.15182091939262896,1.551047436984773,189.47723132969034,102.86703096539162,161.86428571428573,75.16428571428571,135.35864297253636,101.79644588045234,153.5,144.5,125.5,116.5,99.5,144.5
103,5.15,0.04907584190368652,-0.37720537185668945,2.1143171787261963,-0.2741115093231201,-1.7303073406219482,0.05150914192199707,0.449621319770813,0.175552636384964,0.5149566531181335,3.024518258269176,0.15287970926841177,1.550810607367357,189.33151183970855,102.92896174863388,161.68297101449275,75.3768115942029,135.21543408360128,102.05144694533762,153.5,144.5,125.5,116.5,99.5,144.5
104,5.2,0.04941105842590332,-0.3767828941345215,2.114882707595825,-0.2757132053375244,-1.7314865589141846,0.05177903175354004,0.44976887106895447,0.1755971610546112,0.514588475227356,3.0237754151775538,0.15397472827484526,1.55064027240792,189.21978021978023,103.11721611721612,161.53956834532374,75.47841726618705,134.96331738437001,102.2535885167464,153.5,144.5,125.5,116.5,99.5,144.5
105,5.25,0.049770355224609375,-0.3763918876647949,2.1154110431671143,-0.2772643566131592,-1.7326691150665283,0.05209922790527344,0.4499017894268036,0.17565229535102844,0.5142542719841003,3.023005076627468,0.15506562771786647,1.5504388586538969,188.96146788990825,103.29724770642201,161.3768115942029,75.68297101449275,134.69243156199678,102.3671497584541,153.5,144.5,125.5,116.5,99.5,144.5
106,5.300000000000001,0.05016589164733887,-0.37598156929016113,2.11600661277771,-0.27890706062316895,-1.7338955402374268,0.05250096321105957,0.4500313103199005,0.17572027444839478,0.5138771533966064,3.0222127006325397,0.15618925108688447,1.550184161107066,188.82783882783883,103.48351648351648,161.17857142857142,75.82142857142857,134.56389776357827,102.54153354632588,153.5,144.5,125.5,116.5,99.5,144.5
107,5.3500000000000005,0.05052924156188965,-0.3755762577056885,2.1165316104888916,-0.2804555892944336,-1.7350780963897705,0.05285143852233887,0.4501681923866272,0.1757778823375702,0.5135380029678345,3.0214487408371746,0.15727602459343173,1.549954673225546,188.60146252285193,103.6928702010969,161.0036036036036,76.04684684684685,134.4544,102.6176,153.5,144.5,125.5,116.5,99.5,144.5
108,5.4,0.05086398124694824,-0.37513089179992676,2.1170594692230225,-0.2820141315460205,-1.7362453937530518,0.05318570137023926,0.4503253400325775,0.1758250594139099,0.5131805539131165,3.020720483438445,0.15835090735802312,1.5497187979207308,188.47723132969034,103.86703096539162,160.82142857142858,76.17857142857143,134.25521669341893,102.80417335473516,153.5,144.5,125.5,116.5,99.5,144.5
109,5.45,0.05120229721069336,-0.3746917247772217,2.117539644241333,-0.2835099697113037,-1.7374002933502197,0.053514719009399414,0.4504821002483368,0.17587511241436005,0.5128507018089294,3.020001979853357,0.15941447395129008,1.5494932083489477,188.31386861313868,104.02737226277372,160.6365280289331,76.3381555153707,134.152,103.1056,153.5,144.5,125.5,116.5,99.5,144.5
110,5.5,0.05150628089904785,-0.37430882453918457,2.1180202960968018,-0.28498125076293945,-1.7385156154632568,0.05379080772399902,0.4506204128265381,0.17591188848018646,0.5125430226325989,3.019262054085829,0.16044201080884096,1.5492842479545477,188.18014705882354,104.12867647058823,160.44504504504505,76.53873873873874,133.86666666666667,103.24603174603175,153.5,144.5,125.5,116.5,99.5,144.5
111,5.550000000000001,0.05188393592834473,-0.3738574981689453,2.1185190677642822,-0.28649353981018066,-1.7396986484527588,0.0540921688079834,0.45077258348464966,0.17597734928131104,0.5121973752975464,3.0185581307962703,0.16153606064692086,1.5491215111976524,187.96146788990825,104.29724770642201,160.32972972972973,76.63783783783784,133.60063897763578,103.39776357827476,153.5,144.5,125.5,116.5,99.5,144.5
112,5.6000000000000005,0.052285194396972656,-0.3734569549560547,2.1190683841705322,-0.28806114196777344,-1.7409021854400635,0.05450081825256348,0.45089587569236755,0.17605087161064148,0.5118476748466492,3.0177782425228235,0.16263302021818435,1.5488612307228447,187.7783882783883,104.50549450549451,160.15921288014312,76.83363148479428,133.5015873015873,103.54285714285714,153.5,144.5,125.5,116.5,99.5,144.5
113,5.65,0.052652597427368164,-0.3730475902557373,2.1195976734161377,-0.28960108757019043,-1.7420752048492432,0.054878950119018555,0.45102864503860474,0.17611226439476013,0.5115035772323608,3.017020870835853,0.1637034056778801,1.5486027997947271,187.60146252285193,104.6928702010969,159.94623655913978,76.97311827956989,133.44089456869008,103.59904153354633,153.5,144.5,125.5,116.5,99.5,144.5
114,5.7,0.05295372009277344,-0.37261414527893066,2.120043992996216,-0.29103755950927734,-1.7431809902191162,0.055176496505737305,0.4511881172657013,0.1761506199836731,0.5111919641494751,3.016325886705217,0.16471993761162412,1.5483731928196167,187.47723132969034,104.86703096539162,159.82142857142858,77.17857142857143,133.1952380952381,103.82857142857142,153.5,144.5,125.5,116.5,99.5,144.5
115,5.75,0.05330991744995117,-0.37217259407043457,2.1205246448516846,-0.29251980781555176,-1.7443358898162842,0.05553150177001953,0.4513387382030487,0.17620988190174103,0.5108597278594971,3.015613406063714,0.16577682013044207,1.5481328276623247,187.30601092896174,105.00364298724955,159.5974729241877,77.28339350180505,133.01261829652998,104.04731861198738,153.5,144.5,125.5,116.5,99.5,144.5
116,5.800000000000001,0.05364680290222168,-0.3717668056488037,2.1209700107574463,-0.2939424514770508,-1.7454569339752197,0.05584979057312012,0.45147934556007385,0.17626257240772247,0.5105603933334351,3.0148963205647332,0.16680374964994563,1.5479106924890023,187.18899082568808,105.15229357798165,159.45126353790613,77.51624548736461,132.86666666666667,104.24603174603175,153.5,144.5,125.5,116.5,99.5,144.5
117,5.8500000000000005,0.05400896072387695,-0.371323823928833,2.1214354038238525,-0.2953951358795166,-1.7466061115264893,0.05615353584289551,0.451629102230072,0.1763250231742859,0.510234534740448,3.0142061493305703,0.16786130895312343,1.5477288035141175,186.96146788990825,105.29724770642201,159.2846846846847,77.62162162162163,132.59170653907495,104.41786283891547,153.5,144.5,125.5,116.5,99.5,144.5
118,5.9,0.05439186096191406,-0.3709218502044678,2.1219398975372314,-0.2968876361846924,-1.7477705478668213,0.056528568267822266,0.4517548084259033,0.17639480531215668,0.5099061727523804,3.0134594323391575,0.168921206581506,1.5474845614355792,186.8,105.49724770642202,159.14642857142857,77.8125,132.5,104.5,153.5,144.5,125.5,116.5,99.5,144.5
119,5.95,0.05475163459777832,-0.37048912048339844,2.1224262714385986,-0.29836273193359375,-1.7489173412322998,0.056890249252319336,0.45189762115478516,0.17645664513111115,0.5095736384391785,3.0127455059917128,0.16996727812445123,1.5472367423021616,186.61721611721612,105.67582417582418,158.9372759856631,77.92831541218638,132.41971383147853,104.60890302066773,153.5,144.5,125.5,116.5,99.5,144.5
120,6.0,0.055048465728759766,-0.37006664276123047,2.1228435039520264,-0.2997429370880127,-1.7499959468841553,0.05718564987182617,0.45205119252204895,0.17649634182453156,0.5092803239822388,3.0120633698010435,0.1709546837313906,1.5470030198619364,186.4618181818182,105.84727272727272,158.81461675579322,78.12299465240642,132.13112164297,104.81516587677726,153.5,144.5,125.5,116.5,99.5,144.5
121,6.050000000000001,0.05541038513183594,-0.36963868141174316,2.1233131885528564,-0.3011934757232666,-1.7511351108551025,0.057570457458496094,0.45219168066978455,0.17655999958515167,0.50895756483078,3.0113472189865216,0.1719891733700668,1.54673285932585,186.34489051094891,105.9543795620438,158.5935251798561,78.23561151079137,131.98439937597504,104.996879875195,153.5,144.5,125.5,116.5,99.5,144.5
122,6.1000000000000005,0.05575895309448242,-0.36920976638793945,2.1237261295318604,-0.3025662899017334,-1.7522470951080322,0.057886362075805664,0.45233869552612305,0.17662066221237183,0.5086649060249329,3.0106662446041015,0.17300576741943566,1.546524319818814,186.24264705882354,106.125,158.5388788426763,78.44484629294756,131.8564668769716,105.16561514195584,153.5,144.5,125.5,116.5,99.5,144.5
123,6.15,0.0561375617980957,-0.36876559257507324,2.1241886615753174,-0.304004430770874,-1.7533962726593018,0.058249711990356445,0.45248207449913025,0.17669165134429932,0.5083394646644592,3.0099719866151133,0.17405303279742662,1.5462924852644975,185.99448529411765,106.23897058823529,158.28339350180505,78.59747292418773,131.58028616852147,105.39109697933227,153.5,144.5,125.5,116.5,99.5,144.5
124,6.2,0.05653214454650879,-0.36833834648132324,2.124680757522583,-0.30547118186950684,-1.7545559406280518,0.058614492416381836,0.4526127278804779,0.17676840722560883,0.5080052018165588,3.009259815867693,0.17510855761215122,1.546068658169251,185.9040590405904,106.41143911439114,158.16785714285714,78.6875,131.5,105.5,153.5,144.5,125.5,116.5,99.5,144.5
125,6.25,0.05689597129821777,-0.36792659759521484,2.1251113414764404,-0.3068544864654541,-1.7556746006011963,0.05896162986755371,0.4527463912963867,0.1768350452184677,0.5077095031738281,3.008559048886804,0.1761251584556608,1.5458376022083615,185.6648250460405,106.65561694290976,157.97853309481218,78.85688729874776,131.44303797468353,105.55696202531645,153.5,144.5,125.5,116.5,99.5,144.5
126,6.300000000000001,0.05718350410461426,-0.3675110340118408,2.1254937648773193,-0.30817317962646484,-1.7567226886749268,0.059266090393066406,0.4528982937335968,0.17687422037124634,0.5074362754821777,3.007891425466816,0.1770787780980385,1.5455846801781215,185.55210237659963,106.80987202925046,157.81494661921707,79.06583629893238,131.1808176100629,105.81446540880503,153.5,144.5,125.5,116.5,99.5,144.5
127,6.3500000000000005,0.05752897262573242,-0.3670787811279297,2.1258938312530518,-0.30951738357543945,-1.757819414138794,0.05959939956665039,0.453044593334198,0.17693570256233215,0.5071464776992798,3.0072230488785157,0.17807657165847912,1.5453545170815481,185.37818181818182,106.91090909090909,157.60611510791367,79.19064748201438,131.03110419906687,105.93468118195956,153.5,144.5,125.5,116.5,99.5,144.5
128,6.4,0.057862043380737305,-0.3666348457336426,2.126277208328247,-0.310837984085083,-1.7589004039764404,0.0598909854888916,0.4531986117362976,0.17699311673641205,0.5068603754043579,3.0065800468981463,0.17906579087463526,1.5451576530124547,185.26739926739927,107.08608058608058,157.56521739130434,79.31521739130434,130.87598116169545,106.12401883830455,153.5,144.5,125.5,116.5,99.5,144.5
129,6.45,0.05821394920349121,-0.36623454093933105,2.1266987323760986,-0.3121962547302246,-1.7599976062774658,0.06026053428649902,0.4533279836177826,0.1770569533109665,0.5065733194351196,3.0058769453411123,0.18005609886897134,1.5448899409320078,185.03321033210332,107.21586715867159,157.3496376811594,79.54710144927536,130.65934065934067,106.31240188383046,153.5,144.5,125.5,116.5,99.5,144.5
130,6.5,0.058586835861206055,-0.36580443382263184,2.1271755695343018,-0.3136286735534668,-1.761124849319458,0.06062650680541992,0.4534604251384735,0.1771279275417328,0.5062440633773804,3.00518336548051,0.18107699349372702,1.5446437939935103,184.95580110497238,107.34254143646409,157.19210053859965,79.63016157989227,130.5,106.5,153.5,144.5,125.5,116.5,99.5,144.5
131,6.550000000000001,0.0589604377746582,-0.36539673805236816,2.1275994777679443,-0.3149850368499756,-1.7622334957122803,0.06097292900085449,0.4535875916481018,0.17720073461532593,0.505951464176178,3.004494404323609,0.18208166296068584,1.5444195038322623,184.78860294117646,107.56617647058823,157.01247771836006,79.79322638146168,130.43375394321765,106.51104100946372,153.5,144.5,125.5,116.5,99.5,144.5
132,6.6000000000000005,0.0592806339263916,-0.3649466037750244,2.1279423236846924,-0.31624698638916016,-1.7632882595062256,0.06126999855041504,0.4537472724914551,0.17725558578968048,0.5056833028793335,3.003873451417528,0.18304351473655317,1.5442074753751318,184.61721611721612,107.72344322344323,156.87612208258528,79.93357271095152,130.28012519561815,106.68544600938966,153.5,144.5,125.5,116.5,99.5,144.5
133,6.65,0.05959606170654297,-0.3645210266113281,2.128302812576294,-0.3175222873687744,-1.7643373012542725,0.0615849494934082,0.45389556884765625,0.17730861902236938,0.5054152011871338,3.0032290950941745,0.18399497846515572,1.5439685371836942,184.47540983606558,107.87249544626594,156.63101604278074,80.08021390374331,130.05772230889235,106.90327613104525,153.5,144.5,125.5,116.5,99.5,144.5
134,6.7,0.059917449951171875,-0.3640933036804199,2.1286098957061768,-0.3187253475189209,-1.7653734683990479,0.0618593692779541,0.4540475606918335,0.17736555635929108,0.5051736831665039,3.0026132284173657,0.18494115135627684,1.5437809255882853,184.3510054844607,108.0073126142596,156.5935251798561,80.23561151079137,129.94556765163298,107.05443234836703,153.5,144.5,125.5,116.5,99.5,144.5
135,6.75,0.0602567195892334,-0.3636786937713623,2.128985643386841,-0.32001209259033203,-1.7664377689361572,0.06219172477722168,0.4541848599910736,0.1774280071258545,0.5049023628234863,3.001955117642948,0.1859032605204616,1.5435432084043577,184.23302752293577,108.14678899082568,156.45009074410163,80.42649727767694,129.7429906542056,107.21806853582555,153.5,144.5,125.5,116.5,99.5,144.5
136,6.800000000000001,0.060634613037109375,-0.36322999000549316,2.129375696182251,-0.3213236331939697,-1.76753830909729,0.06254196166992188,0.45432785153388977,0.17750531435012817,0.5046098232269287,3.001312095806927,0.18690125377204436,1.5433229764819614,184.01657458563537,108.23204419889503,156.25945945945946,80.59279279279279,129.55572998430142,107.42857142857143,153.5,144.5,125.5,116.5,99.5,144.5
137,6.8500000000000005,0.06102299690246582,-0.3627915382385254,2.129828691482544,-0.3227076530456543,-1.7686564922332764,0.06288695335388184,0.4544583857059479,0.1775851845741272,0.504287600517273,3.0006486827992216,0.18791385378200842,1.5431114660586194,183.92633517495395,108.41436464088397,156.08928571428572,80.61785714285715,129.44724409448818,107.45984251968504,153.5,144.5,125.5,116.5,99.5,144.5
138,6.9,0.06136488914489746,-0.3623645305633545,2.1301448345184326,-0.3239140510559082,-1.769702672958374,0.06319522857666016,0.45460382103919983,0.17765119671821594,0.5040412545204163,3.000026977051232,0.18886316780901302,1.5429049188465163,183.70902394106815,108.67771639042357,155.95357142857142,80.79285714285714,129.34165366614664,107.63494539781591,153.5,144.5,125.5,116.5,99.5,144.5
139,6.95,0.0616610050201416,-0.36197972297668457,2.1304562091827393,-0.3251001834869385,-1.7707035541534424,0.06351923942565918,0.4547397196292877,0.17770014703273773,0.5038148164749146,2.9993784783087416,0.18976205764897025,1.542637438665208,183.57769652650822,108.81352833638026,155.80249110320284,80.98042704626334,129.13664596273293,107.8167701863354,153.5,144.5,125.5,116.5,99.5,144.5
140,7.0,0.06199193000793457,-0.3615715503692627,2.1307871341705322,-0.32631564140319824,-1.771737813949585,0.06385970115661621,0.45487675070762634,0.1777622401714325,0.5035678148269653,2.9987365397655417,0.19069228251828318,1.5423845985437006,183.42,108.90545454545455,155.57321428571427,81.10357142857143,129.0,108.0,153.5,144.5,125.5,116.5,99.5,144.5
141,7.050000000000001,0.06230473518371582,-0.36116814613342285,2.1310908794403076,-0.3274867534637451,-1.7727453708648682,0.06413030624389648,0.45501720905303955,0.17781828343868256,0.5033362507820129,2.998121898297995,0.19160686250994496,1.5421889376086415,183.2961608775137,109.03839122486289,155.55755395683454,81.23021582733813,128.88699690402476,108.06811145510837,153.5,144.5,125.5,116.5,99.5,144.5
142,7.1000000000000005,0.06263518333435059,-0.3607652187347412,2.1314547061920166,-0.3287367820739746,-1.7737820148468018,0.06447911262512207,0.45514822006225586,0.17787989974021912,0.5030741691589355,2.997468507748121,0.19253653706700538,1.5419231268588867,183.1608133086876,109.17375231053605,155.3847549909256,81.46642468239564,128.69206842923793,108.30171073094868,153.5,144.5,125.5,116.5,99.5,144.5
143,7.15,0.06300163269042969,-0.36032915115356445,2.131850481033325,-0.3300325870513916,-1.7748568058013916,0.0648186206817627,0.45528316497802734,0.17795495688915253,0.5027810335159302,2.9968334123185145,0.19350691265111652,1.5416999817056092,183.01476014760146,109.25645756457564,155.17235188509875,81.56912028725314,128.5305164319249,108.43818466353677,153.5,144.5,125.5,116.5,99.5,144.5
144,7.2,0.06336259841918945,-0.35988688468933105,2.132216691970825,-0.33128786087036133,-1.7759172916412354,0.06511139869689941,0.4554232358932495,0.17802897095680237,0.5025003552436829,2.996224618234982,0.19447043349387133,1.541522231203606,182.90555555555557,109.48333333333333,155.04634581105168,81.63636363636364,128.4294670846395,108.50940438871473,153.5,144.5,125.5,116.5,99.5,144.5
145,7.25,0.06368136405944824,-0.35947203636169434,2.132486581802368,-0.3324122428894043,-1.776916742324829,0.06540417671203613,0.45556774735450745,0.17808960378170013,0.5022807717323303,2.995627395712726,0.19537348024413473,1.5413119419592218,182.72527472527472,109.74908424908425,154.9144385026738,81.83778966131908,128.28062015503875,108.66821705426356,153.5,144.5,125.5,116.5,99.5,144.5
146,7.300000000000001,0.06398463249206543,-0.35906410217285156,2.132744073867798,-0.33351707458496094,-1.7778985500335693,0.06572628021240234,0.45571279525756836,0.17814520001411438,0.5020705461502075,2.995025570916367,0.1962550228347559,1.5410582321909303,182.57769652650822,109.81352833638026,154.77580071174378,81.99466192170819,128.11455108359132,108.8467492260062,153.5,144.5,125.5,116.5,99.5,144.5
147,7.3500000000000005,0.0643155574798584,-0.35864710807800293,2.1330606937408447,-0.33469581604003906,-1.7789146900177002,0.06605315208435059,0.45585083961486816,0.17821004986763,0.5018253326416016,2.994412330089863,0.19716823250364157,1.540819403998071,182.43533697632057,109.92531876138433,154.57321428571427,82.10357142857143,127.97839506172839,108.99382716049382,153.5,144.5,125.5,116.5,99.5,144.5
148,7.4,0.06462955474853516,-0.3582336902618408,2.133338212966919,-0.3358190059661865,-1.7799041271209717,0.0663306713104248,0.4559934437274933,0.1782696396112442,0.5016010999679565,2.993824641519501,0.19806283318121942,1.5406196310953006,182.3045871559633,110.06605504587156,154.5268817204301,82.19175627240143,127.88888888888889,109.11111111111111,153.5,144.5,125.5,116.5,99.5,144.5
149,7.45,0.06493306159973145,-0.3578605651855469,2.1336452960968018,-0.33696937561035156,-1.7808845043182373,0.06665587425231934,0.4561184346675873,0.1783246397972107,0.5013787746429443,2.993188349267079,0.19893798555354608,1.5403536648322587,182.14074074074074,110.18518518518519,154.33873873873873,82.3981981981982,127.66046511627907,109.30852713178295,153.5,144.5,125.5,116.5,99.5,144.5
150,7.5,0.06527352333068848,-0.3574564456939697,2.133986711502075,-0.3381674289703369,-1.7819044589996338,0.0669853687286377,0.45624589920043945,0.17839358747005463,0.5011255145072937,2.9925640122249986,0.19985221408105594,1.540117050043639,182.03327171903882,110.2735674676525,154.1323792486583,82.5438282647585,127.509375,109.4296875,153.5,144.5,125.5,116.5,99.5,144.5
151,7.550000000000001,0.06562185287475586,-0.3570082187652588,2.134289026260376,-0.3393230438232422,-1.7829248905181885,0.06725525856018066,0.4563923180103302,0.1784665584564209,0.5008729696273804,2.9919991323385133,0.20078032752616426,1.539955920443555,181.92081031307552,110.55616942909761,154.03024911032028,82.61743772241992,127.40746500777605,109.56920684292379,153.5,144.5,125.5,116.5,99.5,144.5
152,7.6000000000000005,0.06592226028442383,-0.356626033782959,2.1344997882843018,-0.34034228324890137,-1.7838733196258545,0.06754922866821289,0.45652908086776733,0.17852425575256348,0.5006958246231079,2.991414411373961,0.20163048232559322,1.5397299070628563,181.79005524861878,110.7292817679558,153.9391771019678,82.81037567084078,127.24807395993837,109.72573189522342,153.5,144.5,125.5,116.5,99.5,144.5
153,7.65,0.06624579429626465,-0.3562304973602295,2.13474440574646,-0.34140801429748535,-1.7848494052886963,0.0678856372833252,0.4566630721092224,0.17859017848968506,0.5004955530166626,2.9908183737108427,0.20250191107387713,1.539477918655862,181.65561694290977,110.82136279926335,153.7935943060498,82.95373665480427,127.07076923076923,109.90307692307692,153.5,144.5,125.5,116.5,99.5,144.5
154,7.7,0.06659221649169922,-0.3558313846588135,2.1350176334381104,-0.34250807762145996,-1.78584885597229,0.06822800636291504,0.45679205656051636,0.1786644607782364,0.5002787709236145,2.9902151536807917,0.20339380390949008,1.5392379826732387,181.52007299270073,110.92883211678833,153.55436720142603,83.0873440285205,126.97839506172839,109.99382716049382,153.5,144.5,125.5,116.5,99.5,144.5
155,7.75,0.06690716743469238,-0.3553955554962158,2.135218858718872,-0.3435192108154297,-1.7868082523345947,0.06846952438354492,0.4569466710090637,0.178728848695755,0.5000821352005005,2.989690615102578,0.20426708900692175,1.5390846945251384,181.3186813186813,111.04761904761905,153.52057245080502,83.16815742397138,126.83870967741936,110.15053763440861,153.5,144.5,125.5,116.5,99.5,144.5
156,7.800000000000001,0.06722331047058105,-0.35503220558166504,2.1355202198028564,-0.34463953971862793,-1.7877781391143799,0.06880903244018555,0.4570627808570862,0.17879116535186768,0.49986523389816284,2.9890603743989392,0.2051270539000951,1.5388145534425641,181.21139705882354,111.15441176470588,153.38628158844764,83.35198555956678,126.68923076923078,110.26461538461538,153.5,144.5,125.5,116.5,99.5,144.5
157,7.8500000000000005,0.06756591796875,-0.3546183109283447,2.1358349323272705,-0.34578895568847656,-1.7887804508209229,0.06914162635803223,0.4571925401687622,0.17886382341384888,0.49961933493614197,2.98846335601017,0.20602267539051183,1.5385782328980664,181.05175600739372,111.23290203327171,153.19244604316546,83.53057553956835,126.54205607476635,110.4423676012461,153.5,144.5,125.5,116.5,99.5,144.5
158,7.9,0.0679168701171875,-0.35417938232421875,2.136174440383911,-0.3469712734222412,-1.7897956371307373,0.06943106651306152,0.45732811093330383,0.17893916368484497,0.4993496239185333,2.987890180535325,0.20693917322256927,1.5383946981637662,180.9426987060998,111.50092421441775,153.09285714285716,83.5875,126.42015503875969,110.55658914728683,153.5,144.5,125.5,116.5,99.5,144.5
159,7.95,0.06822919845581055,-0.353801965713501,2.1364219188690186,-0.3480184078216553,-1.7907464504241943,0.06975531578063965,0.4574538469314575,0.17900243401527405,0.4991530478000641,2.9872972259312975,0.20778399030138697,1.538142437069588,180.8373382624769,111.73752310536044,152.93761140819964,83.77361853832443,126.27760736196319,110.71165644171779,153.5,144.5,125.5,116.5,99.5,144.5
160,8.0,0.06853485107421875,-0.3534085750579834,2.136608362197876,-0.34898805618286133,-1.7916786670684814,0.07006716728210449,0.4575921595096588,0.1790652871131897,0.4989809989929199,2.9867404504936776,0.20861508803647003,1.5379052475766628,180.6771217712177,111.8339483394834,152.80748663101605,83.86809269162211,126.12098009188361,110.86370597243491,153.5,144.5,125.5,116.5,99.5,144.5
161,8.05,0.06884336471557617,-0.3530426025390625,2.136821985244751,-0.34998202323913574,-1.7926113605499268,0.07039809226989746,0.45771628618240356,0.1791287660598755,0.49880653619766235,2.986153042950821,0.20944107976146936,1.5376449158113685,180.5602189781022,111.91058394160584,152.6,84.04285714285714,126.00615384615385,111.02153846153846,153.5,144.5,125.5,116.5,99.5,144.5
162,8.1,0.0691525936126709,-0.35263538360595703,2.137019395828247,-0.35096120834350586,-1.7935445308685303,0.07064986228942871,0.4578578770160675,0.17919331789016724,0.4986216127872467,2.985624376011377,0.21028372084863692,1.5374734080123316,180.382084095064,112.04570383912248,152.5438282647585,84.13237924865832,125.91284403669725,111.08715596330275,153.5,144.5,125.5,116.5,99.5,144.5
163,8.15,0.06944537162780762,-0.35225772857666016,2.1372616291046143,-0.3519899845123291,-1.7944695949554443,0.07095670700073242,0.45798569917678833,0.17925052344799042,0.4984264671802521,2.985046953517467,0.2111054091013653,1.5372221782574544,180.30570902394106,112.14732965009208,152.44324324324324,84.27567567567567,125.76110260336907,111.25880551301684,153.5,144.5,125.5,116.5,99.5,144.5
164,8.200000000000001,0.06976842880249023,-0.351870059967041,2.1375210285186768,-0.353041410446167,-1.7954227924346924,0.07127690315246582,0.4581103026866913,0.17931906878948212,0.49821776151657104,2.984467667075552,0.21195296503199929,1.5369834709224768,180.10555555555555,112.22222222222223,152.24416517055656,84.49192100538599,125.65384615384616,111.3923076923077,153.5,144.5,125.5,116.5,99.5,144.5
165,8.25,0.07008647918701172,-0.35143303871154785,2.137826681137085,-0.35416150093078613,-1.7963893413543701,0.07153844833374023,0.45825016498565674,0.1793850064277649,0.4979635179042816,2.9839275490052612,0.21282474782088498,1.536802194186764,180.04604051565377,112.40515653775323,152.1323792486583,84.5438282647585,125.42015503875969,111.55658914728683,153.5,144.5,125.5,116.5,99.5,144.5
166,8.3,0.07042884826660156,-0.35103631019592285,2.1380693912506104,-0.35518956184387207,-1.7973511219024658,0.07185721397399902,0.45837560296058655,0.17946211993694305,0.4977595806121826,2.9833625748678165,0.2136812375287841,1.536584194229983,179.95933456561923,112.63216266173752,151.9607142857143,84.71607142857142,125.33895705521472,111.68558282208589,153.5,144.5,125.5,116.5,99.5,144.5
167,8.35,0.07074165344238281,-0.350618839263916,2.138218641281128,-0.3560960292816162,-1.7982676029205322,0.07211756706237793,0.4585230052471161,0.17953093349933624,0.4975944459438324,2.982862917467953,0.214507478359635,1.5364126638898652,179.8706099815157,112.77634011090574,151.85383244206773,84.83957219251337,125.21341463414635,111.82469512195122,153.5,144.5,125.5,116.5,99.5,144.5
168,8.4,0.0710594654083252,-0.3502037525177002,2.1383516788482666,-0.356978178024292,-1.7991821765899658,0.07238435745239258,0.45866960287094116,0.17960238456726074,0.4974381625652313,2.9823675846159903,0.21533073189209892,1.5362405398254595,179.69429097605894,112.85267034990792,151.7424511545293,84.97513321492008,125.06106870229007,111.96946564885496,153.5,144.5,125.5,116.5,99.5,144.5
169,8.450000000000001,0.07139205932617188,-0.3497941493988037,2.1385557651519775,-0.35795021057128906,-1.8001229763031006,0.07268047332763672,0.458804190158844,0.17967799305915833,0.49724727869033813,2.981838500409879,0.21617230217979758,1.5360431910889818,179.53930530164533,112.96343692870201,151.55436720142603,85.0873440285205,124.97553516819572,112.08256880733946,153.5,144.5,125.5,116.5,99.5,144.5
170,8.5,0.07169294357299805,-0.34938549995422363,2.1387288570404053,-0.35887598991394043,-1.8010265827178955,0.07291793823242188,0.4589463770389557,0.17974238097667694,0.4970715641975403,2.9813394783433416,0.2169876753338041,1.5358817302736958,179.40950639853747,113.12614259597807,151.52057245080502,85.16815742397138,124.82469512195122,112.1875,153.5,144.5,125.5,116.5,99.5,144.5
171,8.55,0.07200288772583008,-0.3490157127380371,2.138930559158325,-0.359830379486084,-1.8019373416900635,0.07324600219726562,0.45906877517700195,0.1798098087310791,0.496898353099823,2.9807793142107744,0.21779107278681778,1.5356272811393186,179.31860036832413,113.19152854511971,151.3945945945946,85.33153153153152,124.74656488549618,112.32824427480917,153.5,144.5,125.5,116.5,99.5,144.5
172,8.6,0.07232046127319336,-0.34861326217651367,2.139152765274048,-0.36081480979919434,-1.8028628826141357,0.0735311508178711,0.45920032262802124,0.17987972497940063,0.49670034646987915,2.9802497609350427,0.21861763924035083,1.5354258270518208,179.1497227356747,113.28465804066543,151.23381294964028,85.51258992805755,124.67076923076922,112.43076923076923,153.5,144.5,125.5,116.5,99.5,144.5
173,8.65,0.07262349128723145,-0.3481745719909668,2.1393978595733643,-0.3618357181549072,-1.8037874698638916,0.07376813888549805,0.4593454897403717,0.17994381487369537,0.4964733123779297,2.9797539434859655,0.21945298243207512,1.5352626156025444,179.07564575645756,113.51660516605166,151.09285714285716,85.5875,124.40923076923077,112.64769230769231,153.5,144.5,125.5,116.5,99.5,144.5
174,8.700000000000001,0.07294774055480957,-0.34778857231140137,2.1395657062530518,-0.36273908615112305,-1.8046972751617432,0.07406115531921387,0.4594734311103821,0.18001851439476013,0.4963098168373108,2.9792328811437128,0.22026323597543673,1.5350627013825524,178.9463955637708,113.79482439926063,150.9555160142349,85.75978647686833,124.30091185410335,112.75987841945289,153.5,144.5,125.5,116.5,99.5,144.5
175,8.75,0.0732429027557373,-0.34740114212036133,2.1396610736846924,-0.36354708671569824,-1.8055646419525146,0.07435202598571777,0.4596138894557953,0.18008467555046082,0.4961819350719452,2.97874198425996,0.22103451104544677,1.5348480914137965,178.89814814814815,113.83888888888889,150.83035714285714,85.84107142857142,124.19667170953102,112.92738275340393,153.5,144.5,125.5,116.5,99.5,144.5
176,8.8,0.07354903221130371,-0.3470194339752197,2.139744520187378,-0.3643319606781006,-1.806433916091919,0.07460689544677734,0.45975083112716675,0.1801554262638092,0.49606239795684814,2.978262645746454,0.22181363720645852,1.534680273090467,178.73529411764707,113.9154411764706,150.65953654188948,85.99465240641712,124.1033434650456,113.02127659574468,153.5,144.5,125.5,116.5,99.5,144.5
177,8.85,0.07384371757507324,-0.3466062545776367,2.139841318130493,-0.3651392459869385,-1.807300329208374,0.0748147964477539,0.4599005877971649,0.1802217960357666,0.49592140316963196,2.977817205430477,0.22259976152619704,1.5345540778654159,178.5889908256881,114.03853211009174,150.55436720142603,86.0873440285205,123.99696509863429,113.15477996965099,153.5,144.5,125.5,116.5,99.5,144.5
178,8.9,0.07412528991699219,-0.3462245464324951,2.139951467514038,-0.3659532070159912,-1.8081510066986084,0.07503628730773926,0.46003860235214233,0.1802828013896942,0.4957866668701172,2.9773447155485857,0.22336517208462778,1.5343967763631117,178.3952205882353,114.16911764705883,150.52057245080502,86.20751341681574,123.87443267776096,113.26323751891074,153.5,144.5,125.5,116.5,99.5,144.5
179,8.950000000000001,0.07440924644470215,-0.3458740711212158,2.140151262283325,-0.36687660217285156,-1.8090193271636963,0.07534360885620117,0.4601544439792633,0.1803424060344696,0.49561938643455505,2.9767977282243314,0.22412731425569288,1.5341402508232478,178.28465804066545,114.25138632162661,150.41726618705036,86.34172661870504,123.75835866261399,113.35106382978724,153.5,144.5,125.5,116.5,99.5,144.5
180,9.0,0.0747065544128418,-0.34549641609191895,2.1403744220733643,-0.36783695220947266,-1.8099076747894287,0.0756540298461914,0.46027642488479614,0.18040679395198822,0.49542832374572754,2.9762616200739376,0.22491089806883302,1.5338927201879191,178.14814814814815,114.30925925925926,150.25493716337522,86.52603231597845,123.67378048780488,113.52134146341463,153.5,144.5,125.5,116.5,99.5,144.5
181,9.05,0.07500386238098145,-0.3450887203216553,2.1406338214874268,-0.3688466548919678,-1.8108079433441162,0.07590532302856445,0.4604056179523468,0.1804705560207367,0.4952049255371094,2.9757530358768527,0.2257161822605965,1.53370571115816,178.090573012939,114.58964879852125,150.11449016100178,86.57960644007156,123.40152671755725,113.68549618320611,153.5,144.5,125.5,116.5,99.5,144.5
182,9.1,0.0753169059753418,-0.34473109245300293,2.14076828956604,-0.369678258895874,-1.811678171157837,0.07622265815734863,0.46052467823028564,0.18054425716400146,0.49506768584251404,2.9752353317391735,0.22648145925922616,1.5334726274012922,177.96125461254613,114.81549815498155,149.96613190730838,86.7397504456328,123.32121212121213,113.79848484848485,153.5,144.5,125.5,116.5,99.5,144.5
183,9.15,0.07559680938720703,-0.34437036514282227,2.1408421993255615,-0.37042880058288574,-1.8125059604644775,0.07651114463806152,0.46065616607666016,0.18060731887817383,0.4949589967727661,2.974753244610443,0.22721159123582585,1.5332479014813145,177.94074074074075,114.85740740740741,149.83035714285714,86.84107142857142,123.22171945701358,113.96380090497738,153.5,144.5,125.5,116.5,99.5,144.5
184,9.200000000000001,0.07589292526245117,-0.3439946174621582,2.140889883041382,-0.371143102645874,-1.813340425491333,0.07674431800842285,0.46079325675964355,0.1806776225566864,0.4948573410511017,2.974307779296151,0.22796020604903391,1.533099309588509,177.78125,114.92463235294117,149.75357142857143,86.9875,123.1033434650456,114.02127659574468,153.5,144.5,125.5,116.5,99.5,144.5
185,9.25,0.07620525360107422,-0.34358739852905273,2.1410114765167236,-0.3719632625579834,-1.814211130142212,0.0770113468170166,0.46093234419822693,0.18075250089168549,0.49470439553260803,2.9738485492471076,0.22873899446737478,1.5329252432357408,177.62983425414365,115.02209944751381,149.5885509838998,87.06261180679785,123.00907715582451,114.16944024205749,153.5,144.5,125.5,116.5,99.5,144.5
186,9.3,0.07648944854736328,-0.3432149887084961,2.1411163806915283,-0.37274694442749023,-1.815044641494751,0.07724165916442871,0.46106383204460144,0.18081694841384888,0.49457380175590515,2.9733867808589687,0.2294845013195849,1.532762862142171,177.5377532228361,115.16022099447514,149.53392857142856,87.18928571428572,122.9203007518797,114.30075187969925,153.5,144.5,125.5,116.5,99.5,144.5
187,9.35,0.07677698135375977,-0.3428528308868408,2.141240358352661,-0.3735513687133789,-1.815882921218872,0.0774998664855957,0.46118849515914917,0.18088233470916748,0.4944372773170471,2.972905512577013,0.23022840911542203,1.5325712450768079,177.3572744014733,115.22283609576428,149.46028880866427,87.32490974729242,122.85476550680787,114.38426626323752,153.5,144.5,125.5,116.5,99.5,144.5
188,9.4,0.0770571231842041,-0.3424849510192871,2.1414473056793213,-0.3744657039642334,-1.8167355060577393,0.0777740478515625,0.46130770444869995,0.18094271421432495,0.4942556917667389,2.972395900697811,0.23098131565881214,1.5323478316701982,177.26568265682656,115.2988929889299,149.27877697841726,87.53057553956835,122.68996960486322,114.56079027355624,153.5,144.5,125.5,116.5,99.5,144.5
189,9.450000000000001,0.07737016677856445,-0.342057466506958,2.141662836074829,-0.37540316581726074,-1.8176252841949463,0.0780019760131836,0.4614429473876953,0.18101587891578674,0.49404376745224,2.971937929622746,0.23178384420497467,1.5322075384402518,177.15185185185186,115.49074074074075,149.15508021390374,87.58110516934046,122.55083459787556,114.7071320182094,153.5,144.5,125.5,116.5,99.5,144.5
190,9.5,0.07766246795654297,-0.3416898250579834,2.1418192386627197,-0.37624382972717285,-1.8184692859649658,0.07824969291687012,0.4615646302700043,0.18108303844928741,0.49388784170150757,2.971458199422589,0.23253457753822088,1.532028636785208,177.03136531365314,115.7619926199262,149.09608540925268,87.6814946619217,122.37065052950075,114.83055975794251,153.5,144.5,125.5,116.5,99.5,144.5
191,9.55,0.07795476913452148,-0.3413684368133545,2.141941785812378,-0.3770275115966797,-1.8192951679229736,0.07859158515930176,0.46167102456092834,0.1811514049768448,0.493769109249115,2.970933707421415,0.23324823721254048,1.5317514418190905,176.9538745387454,115.85793357933579,148.9125,87.83571428571429,122.28485757121439,114.97151424287856,153.5,144.5,125.5,116.5,99.5,144.5
192,9.600000000000001,0.07824110984802246,-0.34101247787475586,2.142021894454956,-0.377758264541626,-1.8201096057891846,0.07885241508483887,0.4617960453033447,0.1812191605567932,0.4936562180519104,2.9704743261937026,0.23396923342370426,1.5315616115019057,176.91296296296295,115.93333333333334,148.7992895204263,87.8721136767318,122.22138554216868,115.04819277108433,153.5,144.5,125.5,116.5,99.5,144.5
193,9.65,0.07851409912109375,-0.3406651020050049,2.1420438289642334,-0.37840747833251953,-1.8208954334259033,0.07907414436340332,0.4619254767894745,0.18128365278244019,0.49357619881629944,2.9700427164578094,0.23467003283828705,1.531406290826268,176.72660550458716,115.96697247706422,148.66666666666666,88.03565062388591,122.10075187969925,115.2,153.5,144.5,125.5,116.5,99.5,144.5
194,9.700000000000001,0.0787973403930664,-0.3403019905090332,2.1421539783477783,-0.37917351722717285,-1.8217113018035889,0.07928872108459473,0.4620499014854431,0.18134939670562744,0.49344402551651,2.9695949937149586,0.2354005274839711,1.5312593227046924,176.5745856353591,116.13996316758748,148.55714285714285,88.15357142857142,121.97151424287856,115.28485757121439,153.5,144.5,125.5,116.5,99.5,144.5
195,9.75,0.0790700912475586,-0.3399465084075928,2.142256021499634,-0.3799264430999756,-1.8225133419036865,0.07953119277954102,0.4621742069721222,0.18141207098960876,0.49331900477409363,2.9691397897270204,0.2361119529682917,1.5310752652879906,176.46753246753246,116.1948051948052,148.51346499102334,88.28366247755835,121.87179487179488,115.35897435897436,153.5,144.5,125.5,116.5,99.5,144.5
196,9.8,0.07936525344848633,-0.3395652770996094,2.1424262523651123,-0.38077759742736816,-1.8233559131622314,0.07980942726135254,0.4622967839241028,0.1814814954996109,0.49314773082733154,2.9686663855683912,0.2368560847667721,1.5308686762032178,176.31066176470588,116.31066176470588,148.43423423423422,88.38018018018018,121.80090497737557,115.51131221719457,153.5,144.5,125.5,116.5,99.5,144.5
197,9.850000000000001,0.07963991165161133,-0.3392293453216553,2.1426355838775635,-0.38166332244873047,-1.8241798877716064,0.08010458946228027,0.4624011218547821,0.18154188990592957,0.49297595024108887,2.9681475581960615,0.2375733169851157,1.5306164675286593,176.19666048237477,116.46011131725417,148.25493716337522,88.52603231597845,121.66415662650603,115.69126506024097,153.5,144.5,125.5,116.5,99.5,144.5
198,9.9,0.0799093246459961,-0.3388936519622803,2.1428072452545166,-0.3824946880340576,-1.8249871730804443,0.08036208152770996,0.4625093638896942,0.18160153925418854,0.49282288551330566,2.96765698398403,0.2382822156470204,1.5304043601092343,176.1654275092937,116.61524163568774,148.13903743315507,88.61675579322637,121.52395209580838,115.8188622754491,153.5,144.5,125.5,116.5,99.5,144.5
199,9.950000000000001,0.08018898963928223,-0.3385601043701172,2.1429102420806885,-0.38323259353637695,-1.8257830142974854,0.08061647415161133,0.46262210607528687,0.18166741728782654,0.4927053451538086,2.9671913430793757,0.23898394250556398,1.530211842068865,175.9833641404806,116.80961182994454,148.00891265597147,88.7361853832442,121.34131736526946,115.91766467065868,153.5,144.5,125.5,116.5,99.5,144.5
200,10.0,0.08046436309814453,-0.3382415771484375,2.143005609512329,-0.3839559555053711,-1.826568841934204,0.08091855049133301,0.46272996068000793,0.1817326545715332,0.4925980269908905,2.966706040986921,0.23966505206479058,1.5299660144748335,175.94824399260628,116.88170055452865,147.90357142857144,88.875,121.28485757121439,115.97151424287856,153.5,144.5,125.5,116.5,99.5,144.5
201,10.05,0.08074665069580078,-0.33786511421203613,2.1430771350860596,-0.3846616744995117,-1.8273651599884033,0.08117294311523438,0.4628618359565735,0.1818016618490219,0.4924779534339905,2.9662831397584024,0.24037109326932057,1.5297856157405307,175.91296296296295,116.93333333333334,147.8357142857143,88.97678571428571,121.21321321321321,116.08408408408408,153.5,144.5,125.5,116.5,99.5,144.5
202,10.100000000000001,0.08104395866394043,-0.33747291564941406,2.143158197402954,-0.38538122177124023,-1.8281786441802979,0.08141469955444336,0.46299612522125244,0.1818762868642807,0.49234649538993835,2.9658717952161218,0.2410971398407598,1.529631878545619,175.77348066298342,116.97237569060773,147.66844919786095,89.07664884135473,121.04954954954955,116.23723723723724,153.5,144.5,125.5,116.5,99.5,144.5
203,10.15,0.08135437965393066,-0.3370809555053711,2.143261194229126,-0.3861258029937744,-1.8290045261383057,0.08163881301879883,0.4631246328353882,0.18195557594299316,0.4922027885913849,2.9654593670041947,0.2418376138774495,1.5295057011593842,175.59375,117.15625,147.55714285714285,89.15357142857142,120.96846846846847,116.30630630630631,153.5,144.5,125.5,116.5,99.5,144.5
204,10.200000000000001,0.08162379264831543,-0.336728572845459,2.1433417797088623,-0.3868286609649658,-1.8297808170318604,0.0818796157836914,0.4632473886013031,0.18201974034309387,0.4920869767665863,2.9650285550976676,0.2425244693114342,1.5293251454891312,175.50092421441775,117.22550831792977,147.49640287769785,89.29856115107914,120.91441441441441,116.42642642642643,153.5,144.5,125.5,116.5,99.5,144.5
205,10.25,0.08189868927001953,-0.33635997772216797,2.1434710025787354,-0.38759851455688477,-1.8305761814117432,0.08211660385131836,0.4633697271347046,0.18208475410938263,0.49193906784057617,2.96459309787385,0.24322980878494999,1.5291490025080456,175.34558823529412,117.34558823529412,147.44584837545128,89.40252707581227,120.85179640718563,116.58383233532935,153.5,144.5,125.5,116.5,99.5,144.5
206,10.3,0.08215641975402832,-0.33603930473327637,2.1436569690704346,-0.3884272575378418,-1.831360101699829,0.08238768577575684,0.4634701907634735,0.18214136362075806,0.4917823076248169,2.964098496577238,0.24391097787992466,1.528910498289373,175.2193308550186,117.45539033457248,147.3016157989228,89.54039497307002,120.74029850746268,116.76716417910448,153.5,144.5,125.5,116.5,99.5,144.5
207,10.350000000000001,0.08241009712219238,-0.33572816848754883,2.1438496112823486,-0.38925790786743164,-1.8321373462677002,0.08263421058654785,0.46356678009033203,0.18219614028930664,0.49162596464157104,2.963606291745316,0.2445889804099729,1.5286923952915792,175.1654275092937,117.61524163568774,147.13903743315507,89.61675579322637,120.56716417910448,116.88208955223881,153.5,144.5,125.5,116.5,99.5,144.5
208,10.4,0.08267021179199219,-0.3354194164276123,2.1439502239227295,-0.38996124267578125,-1.8328936100006104,0.08286690711975098,0.46367040276527405,0.18225672841072083,0.49151718616485596,2.9631513188129674,0.24525283131916653,1.5285054838239949,175.04066543438077,117.78927911275416,147.05525846702318,89.73083778966132,120.4134328358209,116.95970149253732,153.5,144.5,125.5,116.5,99.5,144.5
209,10.450000000000001,0.08293676376342773,-0.3351125717163086,2.144045114517212,-0.3906574249267578,-1.8336527347564697,0.08315157890319824,0.46377241611480713,0.18232035636901855,0.49141186475753784,2.962684120156219,0.24590973734152607,1.5282716327187473,174.94824399260628,117.88170055452865,146.90357142857144,89.875,120.28699551569507,117.01345291479821,153.5,144.5,125.5,116.5,99.5,144.5
210,10.5,0.08321356773376465,-0.3347489833831787,2.144116163253784,-0.39133691787719727,-1.8344242572784424,0.0834043025970459,0.4638972580432892,0.18238937854766846,0.4912942945957184,2.96227267671648,0.24659092374373232,1.5280897214715035,174.91296296296295,117.93333333333334,146.88571428571427,89.92142857142858,120.21321321321321,117.08408408408408,153.5,144.5,125.5,116.5,99.5,144.5
211,10.55,0.08350491523742676,-0.3343937397003174,2.1442043781280518,-0.39203715324401855,-1.8352105617523193,0.08368825912475586,0.46401453018188477,0.1824638694524765,0.4911719560623169,2.961839510789782,0.24727871153316905,1.527884712729745,174.86506469500924,117.97966728280961,146.72241992882562,90.07829181494662,120.05838323353294,117.24251497005989,153.5,144.5,125.5,116.5,99.5,144.5
212,10.600000000000001,0.0838308334350586,-0.3339869976043701,2.14428448677063,-0.39273595809936523,-1.836031198501587,0.08392500877380371,0.4641464054584503,0.1825522780418396,0.4910319149494171,2.9614572982216925,0.24801422576492044,1.5277661311336326,174.64695009242143,118.1275415896488,146.57960644007156,90.14847942754919,120.01047904191617,117.30838323353294,153.5,144.5,125.5,116.5,99.5,144.5
213,10.65,0.08409857749938965,-0.33362388610839844,2.1443521976470947,-0.3934042453765869,-1.8367884159088135,0.08414530754089355,0.4642717242240906,0.18261843919754028,0.49091482162475586,2.961062005551973,0.2486872081181425,1.5276111162700594,174.58011049723757,118.25966850828729,146.52951699463327,90.25402504472272,119.94925373134329,117.49253731343283,153.5,144.5,125.5,116.5,99.5,144.5
214,10.700000000000001,0.08436179161071777,-0.3332979679107666,2.144429922103882,-0.3940706253051758,-1.8375351428985596,0.08437800407409668,0.4643825590610504,0.18268272280693054,0.49080890417099,2.9606380877033276,0.24934364989162214,1.5274342371359255,174.51386321626617,118.3271719038817,146.46028880866427,90.32490974729242,119.9044776119403,117.58059701492537,153.5,144.5,125.5,116.5,99.5,144.5
215,10.75,0.08461737632751465,-0.3329792022705078,2.1445071697235107,-0.3947317600250244,-1.8382723331451416,0.08459711074829102,0.4644913971424103,0.18274377286434174,0.49070537090301514,2.9602156604095273,0.24999284731771323,1.5272634371273033,174.365988909427,118.47689463955638,146.40398550724638,90.52355072463769,119.74664679582712,117.74664679582712,153.5,144.5,125.5,116.5,99.5,144.5
216,10.8,0.08489990234375,-0.33265018463134766,2.1446635723114014,-0.39550018310546875,-1.8390533924102783,0.08488345146179199,0.46459099650382996,0.18281340599060059,0.4905579686164856,2.9597516327777926,0.25066972869084286,1.5270384554405527,174.24253731343285,118.59328358208955,146.23655913978496,90.57885304659499,119.63189269746647,117.88673621460507,153.5,144.5,125.5,116.5,99.5,144.5
217,10.850000000000001,0.08516073226928711,-0.33235907554626465,2.1447718143463135,-0.39618992805480957,-1.839792013168335,0.08513855934143066,0.4646840989589691,0.18287599086761475,0.490449994802475,2.9592937079526007,0.25131068199787704,1.5268288391478573,174.1,118.77407407407408,146.14387211367674,90.66429840142096,119.56547619047619,117.95982142857143,153.5,144.5,125.5,116.5,99.5,144.5
218,10.9,0.08538818359375,-0.33209848403930664,2.1448538303375244,-0.3968334197998047,-1.8404881954193115,0.08540582656860352,0.4647737443447113,0.18292656540870667,0.49036794900894165,2.9588260345463926,0.2519052955451246,1.526578080993361,174.01669758812616,118.84972170686457,145.98934280639432,90.87744227353464,119.39136904761905,118.0327380952381,153.5,144.5,125.5,116.5,99.5,144.5
219,10.950000000000001,0.08565711975097656,-0.3317372798919678,2.144946336746216,-0.3975193500518799,-1.8412420749664307,0.08564972877502441,0.46489426493644714,0.18299412727355957,0.4902377128601074,2.9584269009018684,0.2525691245228958,1.5263989405077798,173.93530499075786,118.9279112754159,145.93214285714285,90.91607142857143,119.31492537313433,118.05223880597015,153.5,144.5,125.5,116.5,99.5,144.5
220,11.0,0.0859217643737793,-0.33138132095336914,2.1450302600860596,-0.3981921672821045,-1.8419883251190186,0.08591437339782715,0.46501392126083374,0.18306049704551697,0.49011310935020447,2.9580217349633346,0.2532216209433215,1.5261950681698875,173.91296296296295,118.93333333333334,145.8515205724508,91.01788908765653,119.13283582089552,118.22238805970149,153.5,144.5,125.5,116.5,99.5,144.5
221,11.05,0.08624505996704102,-0.33100438117980957,2.145153284072876,-0.39892148971557617,-1.8427960872650146,0.08619976043701172,0.46512672305107117,0.18314877152442932,0.48996061086654663,2.957607613764782,0.2539312512736262,1.526018223379884,173.87012987012986,119.0278293135436,145.71122994652407,91.09803921568627,119.03571428571429,118.34821428571429,153.5,144.5,125.5,116.5,99.5,144.5
222,11.100000000000001,0.08656692504882812,-0.33062744140625,2.1452200412750244,-0.39957165718078613,-1.8435862064361572,0.0864400863647461,0.4652460217475891,0.18323831260204315,0.4898369014263153,2.9572300696418954,0.2546340929444733,1.525894158118528,173.69372693726936,119.17712177121771,145.608228980322,91.18783542039355,119.03566121842496,118.41307578008916,153.5,144.5,125.5,116.5,99.5,144.5
223,11.15,0.08683204650878906,-0.33028292655944824,2.145278215408325,-0.40019822120666504,-1.8443176746368408,0.08665800094604492,0.465363085269928,0.18330582976341248,0.489729642868042,2.9568459528916935,0.2552810067322487,1.5257416199911475,173.56931608133087,119.28465804066543,145.49640287769785,91.29856115107914,118.96433878157504,118.58692421991084,153.5,144.5,125.5,116.5,99.5,144.5
224,11.200000000000001,0.0870814323425293,-0.329967737197876,2.1453487873077393,-0.40082788467407227,-1.8450300693511963,0.08685851097106934,0.4654698073863983,0.18336685001850128,0.489628404378891,2.95644839354968,0.25590934503745205,1.5255891603978773,173.47592592592594,119.37222222222222,145.4764492753623,91.3713768115942,118.89450222882616,118.69836552748886,153.5,144.5,125.5,116.5,99.5,144.5
225,11.25,0.08733224868774414,-0.3296823501586914,2.1454622745513916,-0.4015054702758789,-1.8457472324371338,0.08710289001464844,0.46556004881858826,0.18342721462249756,0.489518404006958,2.9560031176916133,0.2565293901319042,1.525382985006764,173.38007380073802,119.53874538745387,145.40398550724638,91.52355072463769,118.72700296735906,118.81305637982196,153.5,144.5,125.5,116.5,99.5,144.5
226,11.3,0.08760809898376465,-0.32938194274902344,2.1455862522125244,-0.40220069885253906,-1.8464901447296143,0.0874016284942627,0.46565011143684387,0.18349739909172058,0.489396333694458,2.9555477098002374,0.25716600189387,1.5251432665297389,173.28438661710038,119.62081784386618,145.28136200716847,91.60035842293907,118.6186943620178,118.94510385756676,153.5,144.5,125.5,116.5,99.5,144.5
227,11.350000000000001,0.08788204193115234,-0.32909727096557617,2.145700216293335,-0.402874231338501,-1.8472230434417725,0.08768606185913086,0.46573489904403687,0.18356746435165405,0.489285945892334,2.9550929273551074,0.2577942001185526,1.5249169760410777,173.1375464684015,119.77323420074349,145.15,91.7125,118.54518518518519,118.97333333333333,153.5,144.5,125.5,116.5,99.5,144.5
228,11.4,0.08812761306762695,-0.3288004398345947,2.1457808017730713,-0.4035065174102783,-1.8479249477386475,0.08795309066772461,0.4658331274986267,0.18362759053707123,0.48918604850769043,2.954667442103057,0.2583977152905913,1.5246904211096477,173.01669758812616,119.84972170686457,145.0444839857651,91.88612099644128,118.39169139465875,119.03857566765579,153.5,144.5,125.5,116.5,99.5,144.5
229,11.450000000000001,0.08840203285217285,-0.3284413814544678,2.145904779434204,-0.40421533584594727,-1.848675012588501,0.08823657035827637,0.46594515442848206,0.1836986243724823,0.48903775215148926,2.954259132853326,0.25904862781428195,1.5244736058966806,172.9795918367347,119.93320964749536,144.95543672014261,91.92335115864527,118.33777777777777,119.14370370370371,153.5,144.5,125.5,116.5,99.5,144.5
230,11.5,0.08866524696350098,-0.3281078338623047,2.1459848880767822,-0.40485453605651855,-1.8493969440460205,0.08849430084228516,0.4660542607307434,0.18376654386520386,0.4889219105243683,2.953862181281752,0.25967662623152105,1.5242769795384108,172.91296296296295,119.93333333333334,144.87142857142857,92.00714285714285,118.21545319465082,119.27043090638931,153.5,144.5,125.5,116.5,99.5,144.5
231,11.55,0.08895707130432129,-0.32776331901550293,2.1461079120635986,-0.4055519104003906,-1.850154161453247,0.08875513076782227,0.4661571979522705,0.1838444322347641,0.48878028988838196,2.9534537093896476,0.2603380219025856,1.5240974483045435,172.91296296296295,120.06296296296296,144.71122994652407,92.09803921568627,118.11209439528024,119.38643067846607,153.5,144.5,125.5,116.5,99.5,144.5
232,11.600000000000001,0.0892496109008789,-0.32740330696105957,2.1461260318756104,-0.40610790252685547,-1.8508861064910889,0.08895206451416016,0.466277539730072,0.18392625451087952,0.4886847734451294,2.953118524166259,0.2609935119388776,1.5240016927332147,172.78518518518518,120.18148148148148,144.63214285714287,92.18928571428572,118.04585798816568,119.46597633136095,153.5,144.5,125.5,116.5,99.5,144.5
233,11.65,0.08952522277832031,-0.3270576000213623,2.1461527347564697,-0.40666985511779785,-1.8516013622283936,0.08915877342224121,0.4663938283920288,0.1840011477470398,0.4885903596878052,2.9527702879112883,0.2616283898912373,1.5238782468025494,172.6155268022181,120.28835489833641,144.5547576301616,92.29443447037701,117.98074074074074,119.61925925925927,153.5,144.5,125.5,116.5,99.5,144.5
234,11.700000000000001,0.08978056907653809,-0.3267531394958496,2.1462299823760986,-0.4072854518890381,-1.8523013591766357,0.08938312530517578,0.4664921462535858,0.18406668305397034,0.4884874224662781,2.9523735168023304,0.26223916016603277,1.5237077590598973,172.56273062730628,120.35793357933579,144.49546279491832,92.38838475499092,117.91369047619048,119.70982142857143,153.5,144.5,125.5,116.5,99.5,144.5
235,11.75,0.09004330635070801,-0.32643961906433105,2.1463162899017334,-0.4079139232635498,-1.853010892868042,0.08960652351379395,0.46659132838249207,0.18413470685482025,0.4883759319782257,2.951981014112599,0.26285983127711954,1.5235446765211162,172.4537037037037,120.49444444444444,144.42649727767696,92.51724137931035,117.77728613569322,119.80678466076697,153.5,144.5,125.5,116.5,99.5,144.5
236,11.8,0.09031963348388672,-0.32611846923828125,2.1464226245880127,-0.4085705280303955,-1.8537380695343018,0.0898745059967041,0.4666886329650879,0.1842082142829895,0.48825129866600037,2.951573151830369,0.26348882611897456,1.5233462210892896,172.3543599257885,120.63636363636364,144.37589928057554,92.60431654676259,117.65481481481481,119.93037037037037,153.5,144.5,125.5,116.5,99.5,144.5
237,11.850000000000001,0.09060215950012207,-0.32582640647888184,2.146540880203247,-0.40923404693603516,-1.8544652462005615,0.0901956558227539,0.4667716324329376,0.1842835545539856,0.48813241720199585,2.951126516098558,0.26410487485151823,1.5230924876871847,172.2806691449814,120.7360594795539,144.25178571428572,92.71071428571429,117.61390532544378,120.00147928994083,153.5,144.5,125.5,116.5,99.5,144.5
238,11.9,0.0908665657043457,-0.3255164623260498,2.146620035171509,-0.40984654426574707,-1.8551695346832275,0.09046387672424316,0.46686920523643494,0.18435338139533997,0.48802533745765686,2.9507260105940314,0.2647118757611235,1.5228861802701876,172.1096654275093,120.83828996282529,144.13345195729536,92.80071174377224,117.4874446085672,120.05022156573116,153.5,144.5,125.5,116.5,99.5,144.5
