AI-SPARC/uncalibrated-visual-servoing/results/data/3_feat_ibvs.csv
,t,q_1,q_2,q_3,q_4,q_5,q_6,camera_x,camera_y,camera_z,camera_roll,camera_pitch,camera_yaw,f_1,f_2,f_3,f_4,f_5,f_6,desired_f_1,desired_f_2,desired_f_3,desired_f_4,desired_f_5,desired_f_6
0,0.0,8.821487426757812e-06,0.00015425682067871094,1.5707957744598389,0.0001304149627685547,-1.5707952976226807,7.152557373046875e-07,0.680819034576416,0.16908136010169983,0.6382145881652832,-3.1409235490667897,0.00014262589818666297,1.5708377616351568,205.71618625277162,161.3569844789357,181.67405764966742,137.32594235033258,157.62334801762114,161.33920704845815,149.5,167.5,126.5,143.5,100.5,167.5
1,0.05,4.9591064453125e-05,0.0008842945098876953,1.5709278583526611,6.556510925292969e-05,-1.5715854167938232,-0.0007832050323486328,0.6811843514442444,0.16902276873588562,0.6376317143440247,-3.140119143770287,0.0009324743851002738,1.5716634554127837,205.62334801762114,161.33920704845815,181.56953642384107,137.2869757174393,157.43708609271522,161.32008830022076,149.5,167.5,126.5,143.5,100.5,167.5
2,0.1,9.918212890625e-05,0.001600503921508789,1.571042776107788,1.0251998901367188e-05,-1.5723812580108643,-0.0015337467193603516,0.6815407276153564,0.16896973550319672,0.6370714902877808,-3.139337728103693,0.0017271363097933505,1.5724659229030988,205.46238938053096,161.38053097345133,181.43046357615893,137.2869757174393,157.31346578366447,161.3708609271523,149.5,167.5,126.5,143.5,100.5,167.5
3,0.15000000000000002,0.00012755393981933594,0.002329111099243164,1.5711157321929932,-3.814697265625e-06,-1.573152780532837,-0.0023174285888671875,0.6819039583206177,0.16890408098697662,0.6365290880203247,-3.1385464253433417,0.002494162737014644,1.5732818918386655,205.26106194690266,161.42477876106196,181.30752212389382,137.34513274336283,157.1098901098901,161.36043956043957,149.5,167.5,126.5,143.5,100.5,167.5
4,0.2,0.0001614093780517578,0.0030231475830078125,1.5712316036224365,-6.413459777832031e-05,-1.5739338397979736,-0.0030448436737060547,0.682248055934906,0.16884152591228485,0.6359860897064209,-3.1377925901250734,0.0032711828578973526,1.5740476407104143,205.05286343612335,161.5,181.1409691629956,137.30396475770925,156.8901098901099,161.36043956043957,149.5,167.5,126.5,143.5,100.5,167.5
5,0.25,0.00017404556274414062,0.0037348270416259766,1.571277379989624,-6.270408630371094e-05,-1.5746891498565674,-0.0037784576416015625,0.6826053261756897,0.16876712441444397,0.6354719996452332,-3.137027894026863,0.004020777892389473,1.5747995832807247,204.94713656387665,161.5,180.92527472527473,137.33846153846153,156.66079295154185,161.37665198237886,149.5,167.5,126.5,143.5,100.5,167.5
6,0.30000000000000004,0.00022983551025390625,0.0044460296630859375,1.5713446140289307,-9.1552734375e-05,-1.5754835605621338,-0.004469394683837891,0.682955801486969,0.16871881484985352,0.6349471807479858,-3.1362719479341927,0.004808150315285832,1.5755536135196533,204.76211453744494,161.5286343612335,180.79166666666666,137.3530701754386,156.57488986784142,161.34361233480178,149.5,167.5,126.5,143.5,100.5,167.5
7,0.35000000000000003,0.0002765655517578125,0.005171537399291992,1.5714280605316162,-0.0001361370086669922,-1.5762722492218018,-0.005167961120605469,0.6833145618438721,0.1686648279428482,0.6344019770622253,-3.1354996312119883,0.005589790258355856,1.576307326118035,204.56923076923076,161.56923076923076,180.62334801762114,137.33920704845815,156.35824175824175,161.35824175824175,149.5,167.5,126.5,143.5,100.5,167.5
8,0.4,0.00031375885009765625,0.0058972835540771484,1.5714752674102783,-0.00014972686767578125,-1.5770485401153564,-0.005861997604370117,0.6836751699447632,0.1686055213212967,0.6338780522346497,-3.1347313997445294,0.006356468750612533,1.5770482032144235,204.39340659340658,161.60659340659342,180.5,137.3231441048035,156.2061403508772,161.3969298245614,149.5,167.5,126.5,143.5,100.5,167.5
9,0.45,0.0003247261047363281,0.006622791290283203,1.571476697921753,-0.000118255615234375,-1.577793836593628,-0.006578683853149414,0.6840400099754333,0.16853103041648865,0.6333807110786438,-3.133962996321622,0.007092237079691401,1.5777859122234055,204.28982300884957,161.61725663716814,180.35824175824175,137.35824175824175,156.00218340611355,161.40393013100436,149.5,167.5,126.5,143.5,100.5,167.5
10,0.5,0.00036406517028808594,0.00732874870300293,1.5715014934539795,-0.00011754035949707031,-1.578566312789917,-0.0072422027587890625,0.6843897700309753,0.16847389936447144,0.6328837871551514,-3.133221251428189,0.00785424421677437,1.5785001496835112,204.08149779735683,161.58590308370043,180.2297592997812,137.38512035010942,155.77802197802197,161.37582417582416,149.5,167.5,126.5,143.5,100.5,167.5
11,0.55,0.00040912628173828125,0.007980108261108398,1.5715820789337158,-0.00017261505126953125,-1.5793468952178955,-0.007848024368286133,0.6847105026245117,0.16842041909694672,0.6323928236961365,-3.13253376805961,0.008624643985429989,1.579163228555457,203.8901098901099,161.63956043956043,180.07843137254903,137.400871459695,155.60612691466082,161.39387308533918,149.5,167.5,126.5,143.5,100.5,167.5
12,0.6000000000000001,0.0004436969757080078,0.00863337516784668,1.5716454982757568,-0.00021338462829589844,-1.5801165103912354,-0.008452415466308594,0.685033917427063,0.16836093366146088,0.6319100260734558,-3.1318452912931343,0.009381992440069684,1.5798156249823703,203.67328918322295,161.67328918322295,179.86681222707423,137.3646288209607,155.45652173913044,161.35,149.5,167.5,126.5,143.5,100.5,167.5
13,0.65,0.00046896934509277344,0.009328126907348633,1.5716803073883057,-0.00022912025451660156,-1.5808751583099365,-0.009082555770874023,0.6853806376457214,0.1682957112789154,0.6314147114753723,-3.13111824101267,0.010128518355065704,1.5804853274685782,203.5912087912088,161.72307692307692,179.72866520787747,137.36980306345734,155.32166301969366,161.3960612691466,149.5,167.5,126.5,143.5,100.5,167.5
14,0.7000000000000001,0.0004999637603759766,0.010043621063232422,1.5716755390167236,-0.0002117156982421875,-1.581634283065796,-0.009720087051391602,0.685736894607544,0.1682346761226654,0.6309288740158081,-3.1303754058102595,0.010873414702777272,1.5811702325719788,203.42070484581498,161.73788546255506,179.60612691466082,137.39387308533918,155.11328976034858,161.42919389978215,149.5,167.5,126.5,143.5,100.5,167.5
15,0.75,0.0005269050598144531,0.010725021362304688,1.5716745853424072,-0.00019884109497070312,-1.5823872089385986,-0.010330438613891602,0.6860766410827637,0.1681714951992035,0.630464494228363,-3.129668157355421,0.01161223633188371,1.5818234447238073,203.26651982378854,161.76872246696036,179.45652173913044,137.35,154.88671023965142,161.42919389978215,149.5,167.5,126.5,143.5,100.5,167.5
16,0.8,0.0005483627319335938,0.011407136917114258,1.5716211795806885,-0.00014138221740722656,-1.5831286907196045,-0.010929346084594727,0.6864178776741028,0.16810590028762817,0.6300298571586609,-3.128966242707762,0.012339125223111933,1.5824609215277536,203.16114790286974,161.7130242825607,179.32679738562092,137.44444444444446,154.71615720524017,161.3930131004367,149.5,167.5,126.5,143.5,100.5,167.5
17,0.8500000000000001,0.0006210803985595703,0.012036561965942383,1.5716917514801025,-0.00021004676818847656,-1.5839273929595947,-0.011434316635131836,0.6867232918739319,0.1680707484483719,0.6295607686042786,-3.128319797258945,0.013123530823839255,1.5830569073550744,202.87637969094922,161.7505518763797,179.15250544662308,137.44662309368192,154.58078602620088,161.38646288209608,149.5,167.5,126.5,143.5,100.5,167.5
18,0.9,0.0006592273712158203,0.012675762176513672,1.571753740310669,-0.00026535987854003906,-1.584693193435669,-0.011973381042480469,0.6870389580726624,0.1680147349834442,0.6290891170501709,-3.127657142836111,0.013874236953616203,1.5836535202164987,202.68201754385964,161.85745614035088,179.0,137.40434782608696,154.38997821350762,161.38997821350762,149.5,167.5,126.5,143.5,100.5,167.5
19,0.9500000000000001,0.0006723403930664062,0.013347864151000977,1.5717308521270752,-0.00024318695068359375,-1.5854294300079346,-0.012530088424682617,0.687376081943512,0.16794411838054657,0.628643810749054,-3.1269679487339337,0.014593912856076497,1.5842432741735393,202.52297592997812,161.88183807439825,178.8646288209607,137.41484716157206,154.22391304347826,161.42608695652174,149.5,167.5,126.5,143.5,100.5,167.5
20,1.0,0.0006768703460693359,0.014011621475219727,1.571692705154419,-0.00020647048950195312,-1.5861537456512451,-0.013088464736938477,0.6877104640007019,0.16786892712116241,0.6282133460044861,-3.12628758335861,0.015300992998750967,1.584826235048184,202.47587719298247,161.98684210526315,178.71583514099783,137.45119305856832,154.06073752711498,161.4295010845987,149.5,167.5,126.5,143.5,100.5,167.5
21,1.05,0.0007174015045166016,0.014708518981933594,1.5716354846954346,-0.00016427040100097656,-1.586911916732788,-0.013603687286376953,0.6880567669868469,0.16781574487686157,0.6277715563774109,-3.1255872099590976,0.0160414547999952,1.5854050856491544,202.31648351648352,161.93626373626373,178.58695652173913,137.46304347826086,153.8481561822126,161.44685466377442,149.5,167.5,126.5,143.5,100.5,167.5
22,1.1,0.0007615089416503906,0.015356779098510742,1.5716044902801514,-0.0001475811004638672,-1.5876705646514893,-0.014086484909057617,0.6883772611618042,0.16776502132415771,0.6273483633995056,-3.1249341213033666,0.016783637217256616,1.5859548221949196,202.17149220489978,161.94654788418708,178.3917748917749,137.42857142857142,153.71583514099783,161.45119305856832,149.5,167.5,126.5,143.5,100.5,167.5
23,1.1500000000000001,0.0008041858673095703,0.016040802001953125,1.5715358257293701,-9.655952453613281e-05,-1.588423490524292,-0.014603376388549805,0.6887167096138,0.1677139401435852,0.6269224286079407,-3.1242475008549864,0.017517711022734243,1.586538085841796,201.84598214285714,162.12723214285714,178.32679738562092,137.44444444444446,153.529284164859,161.43817787418655,149.5,167.5,126.5,143.5,100.5,167.5
24,1.2000000000000002,0.0007843971252441406,0.016718626022338867,1.5714161396026611,6.4373016357421875e-06,-1.589118242263794,-0.015113592147827148,0.6890628337860107,0.16762524843215942,0.6265296339988708,-3.123566607379506,0.0181926592648757,1.5870521758747091,201.6967032967033,162.11428571428573,178.13943355119827,137.47494553376907,153.35,161.45652173913044,149.5,167.5,126.5,143.5,100.5,167.5
25,1.25,0.0007808208465576172,0.01738882064819336,1.571319818496704,8.440017700195312e-05,-1.589827299118042,-0.01560831069946289,0.689402163028717,0.1675466150045395,0.6261284351348877,-3.122894180846301,0.018882025900678584,1.587568628769975,201.56359649122808,162.09429824561403,177.93492407809111,137.4772234273319,153.21428571428572,161.46320346320346,149.5,167.5,126.5,143.5,100.5,167.5
26,1.3,0.0007925033569335938,0.018078088760375977,1.5712292194366455,0.00015425682067871094,-1.5905487537384033,-0.016115427017211914,0.6897491216659546,0.1674775779247284,0.6257103085517883,-3.122203279953675,0.01958291253020385,1.588114121618569,201.47702407002188,162.11816192560175,177.78695652173914,137.4608695652174,153.0086393088553,161.42980561555075,149.5,167.5,126.5,143.5,100.5,167.5
27,1.35,0.0008308887481689453,0.018772602081298828,1.57112717628479,0.00022459030151367188,-1.5912930965423584,-0.016576051712036133,0.6900950074195862,0.16742487251758575,0.6252965331077576,-3.1215182293147143,0.020307134049987723,1.5886408562884788,201.36980306345734,162.19912472647704,177.64208242950107,137.51843817787417,152.82251082251082,161.45238095238096,149.5,167.5,126.5,143.5,100.5,167.5
28,1.4000000000000001,0.0008924007415771484,0.019469499588012695,1.5710294246673584,0.00028324127197265625,-1.5920584201812744,-0.016993045806884766,0.6904388070106506,0.1673862487077713,0.6248801350593567,-3.1208383657022383,0.021052837385413997,1.5891483182221733,201.16483516483515,162.2175824175824,177.5,137.5,152.6889848812095,161.49460043196544,149.5,167.5,126.5,143.5,100.5,167.5
29,1.4500000000000002,0.0009214878082275391,0.020170211791992188,1.570892572402954,0.0003845691680908203,-1.5927879810333252,-0.017454147338867188,0.6907894015312195,0.1673285812139511,0.624481737613678,-3.120149658582631,0.021760367962353443,1.589668209323237,200.8650442477876,162.28982300884957,177.35791757049893,137.48156182212583,152.4795698924731,161.48387096774192,149.5,167.5,126.5,143.5,100.5,167.5
30,1.5,0.0009081363677978516,0.02086472511291504,1.5707180500030518,0.0005257129669189453,-1.593475103378296,-0.01792430877685547,0.691143810749054,0.16724558174610138,0.6241095066070557,-3.1194655725692115,0.022424634175844414,1.5901546091876735,200.7511013215859,162.26872246696036,177.28787878787878,137.4935064935065,152.33333333333334,161.49134199134198,149.5,167.5,126.5,143.5,100.5,167.5
31,1.55,0.0008933544158935547,0.02152228355407715,1.570561170578003,0.0006501674652099609,-1.5941603183746338,-0.018366336822509766,0.6914795637130737,0.16716212034225464,0.6237520575523376,-3.118817413544275,0.023087601815236933,1.590611042909584,200.63296703296703,162.24615384615385,177.07359307359306,137.4978354978355,152.21428571428572,161.46320346320346,149.5,167.5,126.5,143.5,100.5,167.5
32,1.6,0.0009067058563232422,0.02220916748046875,1.5704271793365479,0.0007469654083251953,-1.5948727130889893,-0.01880812644958496,0.6918253302574158,0.16709570586681366,0.6233611702919006,-3.1181432058322036,0.02377681945385333,1.5910979728353138,200.46491228070175,162.28728070175438,176.93952483801297,137.52483801295895,151.98704103671707,161.47732181425485,149.5,167.5,126.5,143.5,100.5,167.5
33,1.6500000000000001,0.0009229183197021484,0.022872209548950195,1.570293664932251,0.0008404254913330078,-1.5955851078033447,-0.019210100173950195,0.6921584010124207,0.1670314222574234,0.6229872703552246,-3.117496245346572,0.024467631986371197,1.5915481905738056,200.34868421052633,162.32894736842104,176.75862068965517,137.5301724137931,151.78571428571428,161.53679653679654,149.5,167.5,126.5,143.5,100.5,167.5
34,1.7000000000000002,0.0009469985961914062,0.023545026779174805,1.5701210498809814,0.0009684562683105469,-1.5962984561920166,-0.019614219665527344,0.692496120929718,0.16697247326374054,0.6226291060447693,-3.1168435729749704,0.025158265491773992,1.5920096097705203,200.1706783369803,162.31072210065645,176.62554112554113,137.53896103896105,151.6889848812095,161.49460043196544,149.5,167.5,126.5,143.5,100.5,167.5
35,1.75,0.0009691715240478516,0.024216651916503906,1.5699818134307861,0.0010640621185302734,-1.5970122814178467,-0.020015239715576172,0.6928330063819885,0.16691213846206665,0.6222516894340515,-3.116189814961991,0.025849031521854488,1.5924659502700298,199.97149122807016,162.36184210526315,176.53648068669528,137.53648068669528,151.5204301075269,161.51612903225808,149.5,167.5,126.5,143.5,100.5,167.5
36,1.8,0.0009615421295166016,0.024871349334716797,1.5698130130767822,0.0011916160583496094,-1.5976946353912354,-0.02041792869567871,0.6931661367416382,0.1668342798948288,0.6219035387039185,-3.115551489252105,0.026507839927898343,1.592894597241195,199.8065934065934,162.31648351648352,176.32974137931035,137.52370689655172,151.3110151187905,161.50539956803456,149.5,167.5,126.5,143.5,100.5,167.5
37,1.85,0.0009679794311523438,0.025518417358398438,1.5696566104888916,0.00130462646484375,-1.5983879566192627,-0.020807504653930664,0.6934930086135864,0.16676528751850128,0.6215533018112183,-3.1149225233490427,0.027177083965600698,1.5933250752668047,199.62938596491227,162.37938596491227,176.24516129032259,137.56129032258065,151.18279569892474,161.50967741935483,149.5,167.5,126.5,143.5,100.5,167.5
38,1.9000000000000001,0.0009603500366210938,0.026154041290283203,1.569504976272583,0.001413583755493164,-1.5990688800811768,-0.021181344985961914,0.6938162446022034,0.16668781638145447,0.6212076544761658,-3.114303700178995,0.027834135865105213,1.5937258552763185,199.5438596491228,162.3859649122807,176.0647948164147,137.57235421166305,151.0043103448276,161.54741379310346,149.5,167.5,126.5,143.5,100.5,167.5
39,1.9500000000000002,0.0009741783142089844,0.026796817779541016,1.569342851638794,0.0015285015106201172,-1.5997660160064697,-0.0215456485748291,0.6941400170326233,0.16662396490573883,0.6208639144897461,-3.1136824973511463,0.028507406636519864,1.5941403562458294,199.33115468409585,162.400871459695,175.9225806451613,137.55483870967743,150.79310344827587,161.55603448275863,149.5,167.5,126.5,143.5,100.5,167.5
40,2.0,0.00096893310546875,0.027422666549682617,1.5691578388214111,0.0016677379608154297,-1.600440263748169,-0.02190876007080078,0.6944581270217896,0.16654890775680542,0.6205441951751709,-3.1130766922538062,0.029158466832396642,1.5945335363165094,199.19912472647704,162.47045951859957,175.7725321888412,137.62231759656652,150.647311827957,161.5225806451613,149.5,167.5,126.5,143.5,100.5,167.5
41,2.0500000000000003,0.0009915828704833984,0.028057336807250977,1.5690128803253174,0.0017600059509277344,-1.6011450290679932,-0.02221822738647461,0.6947764158248901,0.16649062931537628,0.6201961636543274,-3.112468630541492,0.02984050621926851,1.5949033268856958,199.07456140350877,162.4517543859649,175.57974137931035,137.5625,150.53648068669528,161.53648068669528,149.5,167.5,126.5,143.5,100.5,167.5
42,2.1,0.0010097026824951172,0.02873063087463379,1.5688207149505615,0.0018973350524902344,-1.6018397808074951,-0.022580862045288086,0.6951155066490173,0.1664300560951233,0.6198481917381287,-3.111822511313308,0.030510011964967595,1.5953231188561545,198.87472527472528,162.47912087912087,175.53648068669528,137.53648068669528,150.3548387096774,161.51612903225808,149.5,167.5,126.5,143.5,100.5,167.5
43,2.15,0.0009944438934326172,0.029367685317993164,1.568605661392212,0.0020608901977539062,-1.6025002002716064,-0.02292346954345703,0.6954413652420044,0.16634944081306458,0.6195375919342041,-3.111210724554591,0.031145458057539085,1.5956883003882643,198.67833698030634,162.48577680525165,175.3068669527897,137.57081545064378,150.22317596566523,161.54721030042919,149.5,167.5,126.5,143.5,100.5,167.5
44,2.2,0.0009829998016357422,0.030025482177734375,1.5684053897857666,0.002209901809692383,-1.603163480758667,-0.023293495178222656,0.6957764625549316,0.16627123951911926,0.619204580783844,-3.1105757641870824,0.03178222288784997,1.596085857487017,198.56263736263736,162.45494505494506,175.24516129032259,137.56129032258065,150.01290322580644,161.57204301075268,149.5,167.5,126.5,143.5,100.5,167.5
45,2.25,0.0009636878967285156,0.030628681182861328,1.5681993961334229,0.0023670196533203125,-1.603813886642456,-0.023629426956176758,0.6960856318473816,0.16618897020816803,0.6189122796058655,-3.109994520913685,0.032407971052376666,1.596440541545181,198.43736263736264,162.54505494505494,175.03879310344828,137.57543103448276,149.84154175588864,161.6017130620985,149.5,167.5,126.5,143.5,100.5,167.5
46,2.3000000000000003,0.0009586811065673828,0.03127288818359375,1.5679547786712646,0.0025544166564941406,-1.6044752597808838,-0.023968935012817383,0.6964139938354492,0.1661159098148346,0.6186138987541199,-3.1093794160928963,0.03304273548407473,1.5968157218328864,198.27133479212253,162.51859956236325,174.8795698924731,137.63010752688172,149.68094218415416,161.58672376873662,149.5,167.5,126.5,143.5,100.5,167.5
47,2.35,0.0009713172912597656,0.031893253326416016,1.5677711963653564,0.0026814937591552734,-1.605154275894165,-0.024271011352539062,0.6967270374298096,0.16605329513549805,0.6182968616485596,-3.108787443425497,0.03369797116606958,1.5971710005495054,198.12527472527472,162.52087912087913,174.7725321888412,137.62231759656652,149.53648068669528,161.53648068669528,149.5,167.5,126.5,143.5,100.5,167.5
48,2.4000000000000004,0.0009860992431640625,0.03250527381896973,1.5676014423370361,0.002793550491333008,-1.6058361530303955,-0.02454400062561035,0.6970348954200745,0.1659926176071167,0.6179783940315247,-3.1082067924189216,0.03435626621126203,1.5975003620279993,197.9032967032967,162.53406593406592,174.60085836909872,137.6587982832618,149.4255319148936,161.60638297872342,149.5,167.5,126.5,143.5,100.5,167.5
49,2.45,0.0009772777557373047,0.03311944007873535,1.5674307346343994,0.002912759780883789,-1.6064932346343994,-0.024865388870239258,0.6973472237586975,0.16591720283031464,0.6176578998565674,-3.1076152562693866,0.034987034781883426,1.5978540747006245,197.75816993464053,162.5599128540305,174.51282051282053,137.58333333333334,149.2826552462527,161.5610278372591,149.5,167.5,126.5,143.5,100.5,167.5
50,2.5,0.0009484291076660156,0.03374457359313965,1.5672075748443604,0.0030815601348876953,-1.6071279048919678,-0.0251924991607666,0.6976687908172607,0.16582989692687988,0.617359459400177,-3.1070154920227093,0.035594463219624985,1.598194395768029,197.6323851203501,162.56236323851203,174.3390557939914,137.61158798283262,149.09012875536482,161.57510729613733,149.5,167.5,126.5,143.5,100.5,167.5
51,2.5500000000000003,0.0009391307830810547,0.03436136245727539,1.5669996738433838,0.003232240676879883,-1.607778787612915,-0.025491952896118164,0.6979829668998718,0.16575489938259125,0.617058515548706,-3.106427563562075,0.036219667836003916,1.598527178890835,197.48245614035088,162.58552631578948,174.23706896551724,137.58620689655172,148.9059829059829,161.6239316239316,149.5,167.5,126.5,143.5,100.5,167.5
52,2.6,0.0009067058563232422,0.03496289253234863,1.5667431354522705,0.0034339427947998047,-1.608400583267212,-0.02580547332763672,0.6982941031455994,0.16566672921180725,0.61679607629776,-3.1058522909054878,0.0368152390836272,1.598850317894892,197.34725274725275,162.60879120879122,174.03879310344828,137.57543103448276,148.77777777777777,161.63888888888889,149.5,167.5,126.5,143.5,100.5,167.5
53,2.6500000000000004,0.0008807182312011719,0.0355987548828125,1.566462755203247,0.0036551952362060547,-1.6090261936187744,-0.026143789291381836,0.6986216306686401,0.1655823439359665,0.6165226697921753,-3.1052456881517614,0.03741178077888125,1.599206198911823,197.2061403508772,162.66008771929825,173.862660944206,137.65021459227466,148.5969827586207,161.61206896551724,149.5,167.5,126.5,143.5,100.5,167.5
54,2.7,0.0008881092071533203,0.036234378814697266,1.5662305355072021,0.00382232666015625,-1.6096861362457275,-0.026419639587402344,0.6989436745643616,0.1655186414718628,0.6162224411964417,-3.104645793251893,0.03804548215164965,1.5995354665666832,197.11258278145695,162.64238410596028,173.741452991453,137.66239316239316,148.4733475479744,161.63113006396588,149.5,167.5,126.5,143.5,100.5,167.5
55,2.75,0.0009038448333740234,0.03686165809631348,1.5660078525543213,0.003979206085205078,-1.610351800918579,-0.02668905258178711,0.6992596983909607,0.16546007990837097,0.6159230470657349,-3.104054473006671,0.03868516032962359,1.5998666614570292,196.86123348017622,162.58590308370043,173.58672376873662,137.68094218415416,148.37313432835822,161.590618336887,149.5,167.5,126.5,143.5,100.5,167.5
56,2.8000000000000003,0.0009057521820068359,0.03747367858886719,1.5658419132232666,0.0040857791900634766,-1.6110074520111084,-0.02696704864501953,0.6995687484741211,0.1653926968574524,0.6156006455421448,-3.103471583240576,0.03931370133242866,1.6001932901068943,196.70021881838073,162.63019693654266,173.53944562899787,137.6865671641791,148.13675213675214,161.57478632478632,149.5,167.5,126.5,143.5,100.5,167.5
57,2.85,0.0008950233459472656,0.038037776947021484,1.5656673908233643,0.0042035579681396484,-1.6116478443145752,-0.027185678482055664,0.6998559236526489,0.16531839966773987,0.6153168678283691,-3.1029381450380957,0.039930249994704584,1.6004458701467006,196.58333333333334,162.66228070175438,173.40384615384616,137.67735042735043,147.94444444444446,161.60683760683762,149.5,167.5,126.5,143.5,100.5,167.5
58,2.9000000000000004,0.0008842945098876953,0.038599252700805664,1.5654585361480713,0.0043528079986572266,-1.6122825145721436,-0.027398109436035156,0.7001422643661499,0.1652447134256363,0.6150544881820679,-3.1024089073770487,0.04054161294950611,1.6006922746560082,196.4295154185022,162.69823788546256,173.29677419354837,137.63440860215053,147.81623931623932,161.6602564102564,149.5,167.5,126.5,143.5,100.5,167.5
59,2.95,0.0008409023284912109,0.03917121887207031,1.5651819705963135,0.004571676254272461,-1.612879991531372,-0.027660131454467773,0.7004402875900269,0.16515149176120758,0.6148226857185364,-3.1018656541227174,0.0411126666787994,1.6009552391897042,196.28728070175438,162.7017543859649,173.06852248394003,137.610278372591,147.6936170212766,161.65744680851063,149.5,167.5,126.5,143.5,100.5,167.5
60,3.0,0.0008087158203125,0.039786577224731445,1.5648882389068604,0.004803180694580078,-1.6134865283966064,-0.02795243263244629,0.700758695602417,0.1650649905204773,0.614570677280426,-3.1012822942416562,0.041690086886844904,1.6012624026095064,196.21145374449338,162.70264317180616,172.90405117270788,137.67377398720683,147.53944562899787,161.6865671641791,149.5,167.5,126.5,143.5,100.5,167.5
61,3.0500000000000003,0.0008094310760498047,0.04039430618286133,1.5646297931671143,0.004995584487915039,-1.6141235828399658,-0.028208494186401367,0.7010675668716431,0.1649990677833557,0.6143038272857666,-3.100709900910817,0.04230043254198076,1.6015679755201704,196.06828193832598,162.66960352422907,172.73931623931625,137.70726495726495,147.43683083511777,161.6680942184154,149.5,167.5,126.5,143.5,100.5,167.5
62,3.1,0.0008256435394287109,0.04100203514099121,1.5644199848175049,0.00513911247253418,-1.614776849746704,-0.028454303741455078,0.7013730406761169,0.16494253277778625,0.6140096783638,-3.1001378860939885,0.04292683843126081,1.601880280726076,195.77802197802197,162.74285714285713,172.63191489361702,137.72978723404256,147.2725321888412,161.6244635193133,149.5,167.5,126.5,143.5,100.5,167.5
63,3.1500000000000004,0.0008108615875244141,0.04159832000732422,1.564218282699585,0.005278348922729492,-1.6154019832611084,-0.02868509292602539,0.7016770243644714,0.16486696898937225,0.6137180924415588,-3.0995744989287184,0.04352519362523443,1.6021451846635517,195.66157205240174,162.69650655021834,172.56289978678038,137.72068230277185,147.0940170940171,161.60470085470087,149.5,167.5,126.5,143.5,100.5,167.5
64,3.2,0.0007948875427246094,0.04214954376220703,1.5640332698822021,0.005403280258178711,-1.616023302078247,-0.02887701988220215,0.7019583582878113,0.16479100286960602,0.613448441028595,-3.0990552621713676,0.04412240919805263,1.6023687280008299,195.5414847161572,162.77729257641923,172.4456289978678,137.7185501066098,146.9145299145299,161.64957264957266,149.5,167.5,126.5,143.5,100.5,167.5
65,3.25,0.0007712841033935547,0.04270744323730469,1.5637962818145752,0.005578041076660156,-1.6166322231292725,-0.029069185256958008,0.7022451758384705,0.16471102833747864,0.6132034659385681,-3.098531604352506,0.044706462082120604,1.6025853482738017,195.41189427312776,162.73788546255506,172.33261802575106,137.69742489270385,146.7808510638298,161.69148936170214,149.5,167.5,126.5,143.5,100.5,167.5
66,3.3000000000000003,0.0007326602935791016,0.04324960708618164,1.5635430812835693,0.0057735443115234375,-1.6172220706939697,-0.029286623001098633,0.7025265097618103,0.16462217271327972,0.6129786968231201,-3.098019016715189,0.045270824522602504,1.6028113352570215,195.24778761061947,162.73451327433628,172.1228813559322,137.72669491525423,146.67940552016987,161.67940552016987,149.5,167.5,126.5,143.5,100.5,167.5
67,3.35,0.0007092952728271484,0.04381608963012695,1.5633203983306885,0.005935192108154297,-1.6178276538848877,-0.029511690139770508,0.7028170824050903,0.1645425260066986,0.612718403339386,-3.0974831567580616,0.045850514563161276,1.6030624895737118,195.22295805739515,162.72626931567328,171.90233545647558,137.72611464968153,146.51489361702127,161.69574468085105,149.5,167.5,126.5,143.5,100.5,167.5
68,3.4000000000000004,0.0007317066192626953,0.04441070556640625,1.563091516494751,0.006093740463256836,-1.6184742450714111,-0.029720067977905273,0.7031154036521912,0.16449129581451416,0.6124435663223267,-3.0969285917631084,0.04647008670025393,1.6033464983721069,195.01766004415012,162.7505518763797,171.79025423728814,137.7584745762712,146.40899357601714,161.67665952890792,149.5,167.5,126.5,143.5,100.5,167.5
69,3.45,0.0007412433624267578,0.04499936103820801,1.5628879070281982,0.0062291622161865234,-1.6191093921661377,-0.02992391586303711,0.7034120559692383,0.16443221271038055,0.6121584177017212,-3.096377027262578,0.047078822246670975,1.6036126074763937,194.76754385964912,162.76754385964912,171.69148936170214,137.7808510638298,146.24786324786325,161.6645299145299,149.5,167.5,126.5,143.5,100.5,167.5
70,3.5,0.0007231235504150391,0.04555869102478027,1.5627014636993408,0.006354570388793945,-1.6197173595428467,-0.030118942260742188,0.7036967873573303,0.1643560528755188,0.611882746219635,-3.0958494672302352,0.047661011664450845,1.6038406873655964,194.63457330415756,162.8030634573304,171.56382978723406,137.7468085106383,145.99154334038056,161.66173361522198,149.5,167.5,126.5,143.5,100.5,167.5
71,3.5500000000000003,0.0007042884826660156,0.04610323905944824,1.562471628189087,0.006520986557006836,-1.6203186511993408,-0.03028249740600586,0.703976035118103,0.16428028047084808,0.6116428971290588,-3.0953409382089685,0.048237938460309625,1.6040361873019056,194.5414847161572,162.77729257641923,171.4787234042553,137.7851063829787,145.85774946921444,161.68365180467092,149.5,167.5,126.5,143.5,100.5,167.5
72,3.6,0.0006918907165527344,0.046614646911621094,1.5622718334197998,0.00666046142578125,-1.6209242343902588,-0.030419111251831055,0.7042365670204163,0.16420908272266388,0.6114084720611572,-3.0948631165435683,0.048821612672159974,1.6042102221325163,194.41850220264317,162.7797356828194,171.39316239316238,137.82264957264957,145.76645435244163,161.71337579617835,149.5,167.5,126.5,143.5,100.5,167.5
73,3.6500000000000004,0.0006730556488037109,0.047110795974731445,1.5620896816253662,0.00678563117980957,-1.621523141860962,-0.030556201934814453,0.7044901251792908,0.16413402557373047,0.6111745834350586,-3.094397194616942,0.04939884959276366,1.604378118955008,194.27272727272728,162.79157427937915,171.23044397463002,137.79915433403806,145.64543524416135,161.75583864118897,149.5,167.5,126.5,143.5,100.5,167.5
74,3.7,0.0006425380706787109,0.04762721061706543,1.5618703365325928,0.006947994232177734,-1.6221067905426025,-0.030736446380615234,0.7047566175460815,0.16405174136161804,0.610946774482727,-3.093908900877921,0.04995782274718123,1.6045781703029358,194.22172949002217,162.77827050997783,171.00842105263158,137.76842105263157,145.51380042462844,161.72186836518046,149.5,167.5,126.5,143.5,100.5,167.5
75,3.75,0.000652313232421875,0.0481870174407959,1.5616438388824463,0.007105827331542969,-1.622727632522583,-0.030908584594726562,0.7050387263298035,0.16399437189102173,0.6106936931610107,-3.0933873458130825,0.05055331857324269,1.6048147160968522,194.06666666666666,162.84444444444443,170.86919831223628,137.78902953586498,145.43803418803418,161.74358974358975,149.5,167.5,126.5,143.5,100.5,167.5
76,3.8000000000000003,0.0006539821624755859,0.048776865005493164,1.5614025592803955,0.007277488708496094,-1.623340368270874,-0.03110671043395996,0.7053377032279968,0.16393190622329712,0.6104280352592468,-3.092836059785536,0.051137927912835404,1.605071065049976,193.7846153846154,162.85714285714286,170.71610169491527,137.79237288135593,145.2420382165605,161.7388535031847,149.5,167.5,126.5,143.5,100.5,167.5
77,3.85,0.0006270408630371094,0.04934835433959961,1.5611627101898193,0.007453203201293945,-1.6239240169525146,-0.03131246566772461,0.7056309580802917,0.16385194659233093,0.6101735830307007,-3.0922975281396092,0.051692848446386934,1.6053039649379075,193.66301969365426,162.89277899343546,170.66666666666666,137.84288747346073,145.0336842105263,161.74947368421053,149.5,167.5,126.5,143.5,100.5,167.5
78,3.9000000000000004,0.0005996227264404297,0.04986882209777832,1.5609400272369385,0.0076160430908203125,-1.6245043277740479,-0.03145432472229004,0.7058984041213989,0.16377271711826324,0.6099454164505005,-3.0918096343253403,0.052249563657171635,1.6054714799030865,193.58424507658643,162.88183807439825,170.53911205073996,137.8076109936575,144.84177215189874,161.75738396624473,149.5,167.5,126.5,143.5,100.5,167.5
79,3.95,0.0005800724029541016,0.05038118362426758,1.560687780380249,0.007806062698364258,-1.6250865459442139,-0.03158283233642578,0.7061612606048584,0.16369862854480743,0.6097395420074463,-3.091332362425187,0.052808912595353495,1.6056327912708996,193.42857142857142,162.85274725274726,170.45338983050848,137.84322033898306,144.76532769556025,161.76532769556025,149.5,167.5,126.5,143.5,100.5,167.5
80,4.0,0.0005495548248291016,0.050871849060058594,1.5604736804962158,0.007963895797729492,-1.6256587505340576,-0.03171396255493164,0.7064142227172852,0.16361792385578156,0.6095263957977295,-3.090870868755586,0.0533585636648173,1.6057854279593817,193.31858407079645,162.8429203539823,170.34533898305085,137.8728813559322,144.66807610993658,161.7674418604651,149.5,167.5,126.5,143.5,100.5,167.5
81,4.05,0.0005247592926025391,0.051354169845581055,1.5602853298187256,0.00809621810913086,-1.626237154006958,-0.03183341026306152,0.7066611647605896,0.16354098916053772,0.6093040108680725,-3.0904172474147997,0.05391486294749306,1.6059326882734144,193.20971302428256,162.83002207505518,170.109243697479,137.81302521008402,144.52966101694915,161.78601694915255,149.5,167.5,126.5,143.5,100.5,167.5
82,4.1000000000000005,0.0005114078521728516,0.05188298225402832,1.560051679611206,0.008266687393188477,-1.6268212795257568,-0.0319981575012207,0.7069311141967773,0.1634707897901535,0.6090755462646484,-3.0899214083616893,0.05447395397452056,1.606139037724614,193.0929203539823,162.8716814159292,169.9096638655462,137.81932773109244,144.4531914893617,161.79148936170213,149.5,167.5,126.5,143.5,100.5,167.5
83,4.15,0.0005128383636474609,0.05246233940124512,1.5598065853118896,0.008441686630249023,-1.62742018699646,-0.03218674659729004,0.7072246074676514,0.16340987384319305,0.6088185906410217,-3.089380062423311,0.05504406069412371,1.6063883671604684,192.87252747252748,163.0,169.8139534883721,137.81606765327695,144.22268907563026,161.85714285714286,149.5,167.5,126.5,143.5,100.5,167.5
84,4.2,0.00047397613525390625,0.05303359031677246,1.5594847202301025,0.008697509765625,-1.6279737949371338,-0.032389163970947266,0.7075208425521851,0.1633242517709732,0.6086100935935974,-3.0888432076159145,0.05556761121272914,1.6066089282479865,192.72246696035242,162.99118942731278,169.71247357293868,137.8181818181818,144.05648535564853,161.7887029288703,149.5,167.5,126.5,143.5,100.5,167.5
85,4.25,0.0004413127899169922,0.05358386039733887,1.5591914653778076,0.008924722671508789,-1.6285326480865479,-0.03254222869873047,0.7078056335449219,0.16324323415756226,0.6084006428718567,-3.0883298638389465,0.0561005592620304,1.6067860340733484,192.58771929824562,162.9078947368421,169.6215644820296,137.84355179704016,143.9242105263158,161.8294736842105,149.5,167.5,126.5,143.5,100.5,167.5
86,4.3,0.0003991127014160156,0.054085493087768555,1.5589334964752197,0.009125471115112305,-1.629080057144165,-0.03269600868225098,0.7080663442611694,0.16315658390522003,0.6082038283348083,-3.0878569134851794,0.05662262898667657,1.606951386681291,192.46696035242292,162.91629955947135,169.51476793248946,137.79957805907173,143.81684210526316,161.7642105263158,149.5,167.5,126.5,143.5,100.5,167.5
87,4.3500000000000005,0.00035762786865234375,0.05460333824157715,1.558664083480835,0.009334087371826172,-1.6296274662017822,-0.03284049034118652,0.7083348631858826,0.1630704551935196,0.6080025434494019,-3.0873715693605543,0.05714458325406484,1.6071102287199133,192.38325991189427,162.90088105726872,169.42372881355934,137.885593220339,143.69409282700423,161.76793248945148,149.5,167.5,126.5,143.5,100.5,167.5
88,4.4,0.0003387928009033203,0.05508565902709961,1.5584619045257568,0.009477376937866211,-1.630197286605835,-0.0329279899597168,0.7085814476013184,0.1629987359046936,0.6077880263328552,-3.086922068306125,0.0576933726061454,1.607234387186768,192.25333333333333,162.9311111111111,169.30296610169492,137.885593220339,143.56236786469344,161.84355179704016,149.5,167.5,126.5,143.5,100.5,167.5
89,4.45,0.00030303001403808594,0.05556988716125488,1.5582211017608643,0.009662151336669922,-1.6307461261749268,-0.0330510139465332,0.708832323551178,0.16291660070419312,0.6075934171676636,-3.0864664682357574,0.058219077471219086,1.6073764631751344,192.11258278145695,162.92273730684326,169.10041841004184,137.9100418410042,143.48832271762208,161.81953290870487,149.5,167.5,126.5,143.5,100.5,167.5
90,4.5,0.0002875328063964844,0.05608510971069336,1.5580132007598877,0.009808063507080078,-1.631317377090454,-0.03317904472351074,0.7090942859649658,0.16284677386283875,0.6073582172393799,-3.0859836267883494,0.05876506914985719,1.6075472254045733,191.92494481236204,163.0,168.9056603773585,137.84486373165618,143.33684210526314,161.88,149.5,167.5,126.5,143.5,100.5,167.5
91,4.55,0.0002446174621582031,0.056650400161743164,1.5577080249786377,0.010048151016235352,-1.6318562030792236,-0.03338456153869629,0.7093876600265503,0.16275981068611145,0.6071433424949646,-3.085450507121103,0.05927306826411372,1.607769074401103,191.78366445916114,163.00441501103754,168.78902953586498,137.81012658227849,143.15866388308976,161.89352818371609,149.5,167.5,126.5,143.5,100.5,167.5
92,4.6000000000000005,0.0001888275146484375,0.05720710754394531,1.5573699474334717,0.010323286056518555,-1.6323778629302979,-0.03359651565551758,0.7096794247627258,0.16266530752182007,0.6069535613059998,-3.08492407431246,0.05976358362422811,1.6079842319039095,191.65934065934067,162.98901098901098,168.71247357293868,137.8181818181818,142.98535564853557,161.85983263598325,149.5,167.5,126.5,143.5,100.5,167.5
93,4.65,0.00013518333435058594,0.057729482650756836,1.5570533275604248,0.010579586029052734,-1.632899522781372,-0.033762454986572266,0.7099533081054688,0.16257306933403015,0.6067750453948975,-3.084432163081229,0.06025755225545138,1.6081540916783956,191.52516411378556,163.00656455142231,168.5970464135021,137.8523206751055,142.84873949579833,161.82563025210084,149.5,167.5,126.5,143.5,100.5,167.5
94,4.7,9.298324584960938e-05,0.0582432746887207,1.5567667484283447,0.010805130004882812,-1.633432149887085,-0.033889055252075195,0.710220217704773,0.1624879091978073,0.6065855026245117,-3.0839514205273884,0.06076476949710765,1.6082960651606386,191.3920704845815,163.0022026431718,168.50315789473683,137.82315789473685,142.74159663865547,161.82983193277312,149.5,167.5,126.5,143.5,100.5,167.5
95,4.75,3.504753112792969e-05,0.05875682830810547,1.5564601421356201,0.011052846908569336,-1.6339476108551025,-0.034035682678222656,0.7104898691177368,0.16239330172538757,0.6064072251319885,-3.083467766665891,0.06125322126689124,1.608442561016115,191.2787610619469,162.96902654867256,168.40084388185653,137.93037974683546,142.6139240506329,161.86708860759492,149.5,167.5,126.5,143.5,100.5,167.5
96,4.800000000000001,-7.867813110351562e-06,0.059223175048828125,1.5562303066253662,0.011229991912841797,-1.634476900100708,-0.03413844108581543,0.7107317447662354,0.16230805218219757,0.6062179803848267,-3.0830276912593297,0.06176013351504173,1.6085587916067787,191.2146017699115,162.96902654867256,168.27100840336135,137.95378151260505,142.54122621564483,161.86046511627907,149.5,167.5,126.5,143.5,100.5,167.5
97,4.8500000000000005,-2.9802322387695312e-05,0.05970335006713867,1.556020975112915,0.011381864547729492,-1.6350271701812744,-0.03422880172729492,0.7109768390655518,0.16223615407943726,0.6060076355934143,-3.082577411315948,0.062287924976993335,1.608686173754697,191.0,163.0,168.05416666666667,137.92916666666667,142.40421052631578,161.90315789473684,149.5,167.5,126.5,143.5,100.5,167.5
98,4.9,-6.842613220214844e-05,0.06021881103515625,1.5557701587677002,0.011573314666748047,-1.6355583667755127,-0.03437995910644531,0.7112433314323425,0.16215354204177856,0.605795681476593,-3.082090348339953,0.0627919405951375,1.608858518554966,190.8849557522124,163.05088495575222,167.9206680584551,137.89352818371609,142.20208333333332,161.93541666666667,149.5,167.5,126.5,143.5,100.5,167.5
99,4.95,-0.00011348724365234375,0.06074047088623047,1.55545973777771,0.011823177337646484,-1.636078119277954,-0.03453636169433594,0.711514949798584,0.16206727921962738,0.6056132912635803,-3.081598714503008,0.06328280472774099,1.6090298090016941,190.74666666666667,163.0688888888889,167.7642105263158,137.81684210526316,142.05394190871368,161.9564315352697,149.5,167.5,126.5,143.5,100.5,167.5
100,5.0,-0.00017452239990234375,0.06128954887390137,1.5550801753997803,0.01213979721069336,-1.6365773677825928,-0.03473997116088867,0.7118045091629028,0.16197125613689423,0.6054508090019226,-3.0810792513273446,0.06375005909721654,1.6092333348945285,190.65265486725664,163.13716814159292,167.68987341772151,137.831223628692,141.9311064718163,161.89770354906054,149.5,167.5,126.5,143.5,100.5,167.5
101,5.050000000000001,-0.00022339820861816406,0.061844587326049805,1.5547049045562744,0.012448549270629883,-1.6370880603790283,-0.03489279747009277,0.7120948433876038,0.16188324987888336,0.605282187461853,-3.0805607807271773,0.06423135274272782,1.6093995172507514,190.50772626931567,163.07726269315674,167.59157894736842,137.8778947368421,141.82142857142858,161.8403361344538,149.5,167.5,126.5,143.5,100.5,167.5
102,5.1000000000000005,-0.00026035308837890625,0.06236624717712402,1.5544064044952393,0.01268315315246582,-1.6376116275787354,-0.03499770164489746,0.7123650312423706,0.1618029773235321,0.6050931215286255,-3.080074645236331,0.06472946901336335,1.609529121156839,190.38105726872246,163.05286343612335,167.49789915966386,137.84873949579833,141.71008403361344,161.86344537815125,149.5,167.5,126.5,143.5,100.5,167.5
103,5.15,-0.0003147125244140625,0.06287980079650879,1.5540883541107178,0.01294088363647461,-1.638115644454956,-0.035129547119140625,0.7126339673995972,0.16171202063560486,0.6049203276634216,-3.07959221354082,0.06520626150031066,1.609667232213879,190.21681415929203,163.02212389380531,167.41684210526316,137.94736842105263,141.56540084388186,161.86919831223628,149.5,167.5,126.5,143.5,100.5,167.5
104,5.2,-0.0003666877746582031,0.06333613395690918,1.553849458694458,0.013128280639648438,-1.6386220455169678,-0.03520989418029785,0.7128719687461853,0.16162283718585968,0.604742169380188,-3.079161557561322,0.06569025274745265,1.609753729058473,190.14855875831486,163.04656319290464,167.34105263157895,137.97684210526316,141.5137420718816,161.90486257928117,149.5,167.5,126.5,143.5,100.5,167.5
105,5.25,-0.0004184246063232422,0.0637974739074707,1.5536119937896729,0.013314008712768555,-1.6391279697418213,-0.035298824310302734,0.7131122350692749,0.16153381764888763,0.604559600353241,-3.0787255448961894,0.06617332343390742,1.6098493793820632,189.940133037694,163.07538802660753,167.08958333333334,137.96458333333334,141.3361344537815,161.9327731092437,149.5,167.5,126.5,143.5,100.5,167.5
106,5.300000000000001,-0.00047016143798828125,0.06429195404052734,1.5533478260040283,0.01352238655090332,-1.6396315097808838,-0.035422325134277344,0.7133699059486389,0.16144463419914246,0.6043686866760254,-3.078257832813687,0.06665041602111856,1.6099820729833498,189.81152993348115,163.03325942350332,166.93958333333333,137.91041666666666,141.15113871635612,161.9792960662526,149.5,167.5,126.5,143.5,100.5,167.5
107,5.3500000000000005,-0.0005350112915039062,0.06477761268615723,1.5530426502227783,0.013774633407592773,-1.6401164531707764,-0.03557896614074707,0.7136259078979492,0.16134759783744812,0.6042072772979736,-3.0777947843908144,0.06710685850925485,1.6101340105592612,189.74,163.12222222222223,166.84486373165618,137.84696016771488,141.03118503118503,161.96881496881497,149.5,167.5,126.5,143.5,100.5,167.5
108,5.4,-0.0006043910980224609,0.06530165672302246,1.552661657333374,0.014095783233642578,-1.6405937671661377,-0.03574728965759277,0.7139038443565369,0.16124814748764038,0.6040624380111694,-3.077299042553364,0.06755358918086052,1.610294813869121,189.63858093126385,163.11529933481154,166.68421052631578,137.85684210526315,140.90625,161.89166666666668,149.5,167.5,126.5,143.5,100.5,167.5
109,5.45,-0.0006420612335205078,0.06583786010742188,1.552316427230835,0.014374256134033203,-1.6411020755767822,-0.035868167877197266,0.714182436466217,0.16116851568222046,0.6038883328437805,-3.0767991799840773,0.06803403845710737,1.6104426416306086,189.5287610619469,163.0929203539823,166.6139240506329,137.89029535864978,140.7987421383648,161.85324947589098,149.5,167.5,126.5,143.5,100.5,167.5
110,5.5,-0.0006723403930664062,0.06634831428527832,1.5520164966583252,0.014610528945922852,-1.6416175365447998,-0.03594684600830078,0.7144456505775452,0.16109396517276764,0.603707492351532,-3.0763252224107753,0.06852476019903493,1.6105553337695446,189.3362831858407,163.0420353982301,166.5337552742616,137.87974683544303,140.68987341772151,161.89029535864978,149.5,167.5,126.5,143.5,100.5,167.5
111,5.550000000000001,-0.0007379055023193359,0.06682991981506348,1.5517170429229736,0.014856100082397461,-1.6420958042144775,-0.03606605529785156,0.7146994471549988,0.1609971821308136,0.6035451889038086,-3.0758696169607647,0.06897710660115144,1.6106690807477866,189.21681415929203,163.02212389380531,166.41684210526316,137.94736842105263,140.5536842105263,161.89263157894737,149.5,167.5,126.5,143.5,100.5,167.5
112,5.6000000000000005,-0.0007894039154052734,0.06728267669677734,1.5514709949493408,0.015051126480102539,-1.6425879001617432,-0.03614449501037598,0.714935302734375,0.16090968251228333,0.6033726334571838,-3.0754418324610566,0.06944551595818949,1.6107566304596304,189.14855875831486,163.04656319290464,166.34105263157895,137.97684210526316,140.47058823529412,161.96638655462183,149.5,167.5,126.5,143.5,100.5,167.5
113,5.65,-0.00084686279296875,0.06773042678833008,1.5512120723724365,0.015260934829711914,-1.6430714130401611,-0.036240577697753906,0.7151700854301453,0.16081862151622772,0.603210985660553,-3.075015808964289,0.06990531754625458,1.610855056292773,188.94,163.10222222222222,166.160751565762,137.9582463465553,140.2901878914405,161.98121085594988,149.5,167.5,126.5,143.5,100.5,167.5
114,5.7,-0.0009179115295410156,0.06819748878479004,1.550915002822876,0.015507936477661133,-1.6435387134552002,-0.036359310150146484,0.7154173254966736,0.16071896255016327,0.6030566692352295,-3.074570413928852,0.07034648919492775,1.6109630556977037,188.80444444444444,163.11333333333334,166.02922755741128,137.93528183716074,140.15113871635612,161.9792960662526,149.5,167.5,126.5,143.5,100.5,167.5
115,5.75,-0.000993490219116211,0.06867170333862305,1.550598382949829,0.01577448844909668,-1.6439998149871826,-0.03648543357849121,0.7156690359115601,0.1606169492006302,0.602908730506897,-3.0741179913402044,0.07077977817908747,1.6110746740824957,188.72767857142858,163.17410714285714,165.89144050104383,137.90814196242172,140.03118503118503,161.96881496881497,149.5,167.5,126.5,143.5,100.5,167.5
116,5.800000000000001,-0.0010581016540527344,0.06918001174926758,1.5502426624298096,0.01607227325439453,-1.6444694995880127,-0.03661036491394043,0.7159375548362732,0.16052167117595673,0.602758526802063,-3.0736377831394295,0.07122070361267978,1.611199187925414,188.63858093126385,163.11529933481154,165.73739495798318,137.86974789915968,139.92116182572613,161.93983402489627,149.5,167.5,126.5,143.5,100.5,167.5
117,5.8500000000000005,-0.0011093616485595703,0.06969738006591797,1.5498921871185303,0.016360998153686523,-1.6449501514434814,-0.03673887252807617,0.7162080407142639,0.1604350060224533,0.6025999784469604,-3.0731515024139964,0.07167286496874674,1.6113415539912352,188.50776053215077,163.07760532150775,165.66244725738397,137.87130801687763,139.7987421383648,161.85324947589098,149.5,167.5,126.5,143.5,100.5,167.5
118,5.9,-0.001154184341430664,0.0701911449432373,1.5495851039886475,0.016608238220214844,-1.6454365253448486,-0.03681826591491699,0.7164649963378906,0.16035284101963043,0.6024333834648132,-3.0726903212033454,0.07213428779027822,1.6114405637702136,188.3458980044346,163.06651884700665,165.5557894736842,137.89263157894737,139.7157894736842,161.88842105263157,149.5,167.5,126.5,143.5,100.5,167.5
119,5.95,-0.001215219497680664,0.0706777572631836,1.5492889881134033,0.016849040985107422,-1.645906686782837,-0.036924123764038086,0.7167202234268188,0.16026008129119873,0.6022648811340332,-3.072231054047712,0.07257751508264837,1.6115492233637703,188.23059866962305,163.04434589800442,165.48008385744234,137.8679245283019,139.5483193277311,161.91806722689077,149.5,167.5,126.5,143.5,100.5,167.5
120,6.0,-0.001293182373046875,0.0711359977722168,1.5489704608917236,0.01711869239807129,-1.6463563442230225,-0.03703618049621582,0.7169642448425293,0.16015730798244476,0.6021288633346558,-3.0717941070193664,0.07300052606417902,1.6116445342868981,188.14855875831486,163.04656319290464,165.40126050420167,137.96848739495798,139.49475890985326,161.9748427672956,149.5,167.5,126.5,143.5,100.5,167.5
121,6.050000000000001,-0.0013630390167236328,0.07157325744628906,1.5487034320831299,0.017339706420898438,-1.6468141078948975,-0.037134408950805664,0.7171953916549683,0.16005957126617432,0.6019775867462158,-3.0713753478864834,0.07343352170865446,1.611733086651688,187.93763919821825,163.07572383073497,165.29140461215934,137.98742138364778,139.32704402515722,162.0020964360587,149.5,167.5,126.5,143.5,100.5,167.5
122,6.1000000000000005,-0.0014569759368896484,0.07199239730834961,1.5484302043914795,0.01757335662841797,-1.6472456455230713,-0.03724026679992676,0.7174208760261536,0.1599472165107727,0.6018421649932861,-3.0709687356775555,0.07384032629879705,1.611804035353092,187.83482142857142,163.08258928571428,165.0688935281837,137.94989561586638,139.17561983471074,161.97107438016528,149.5,167.5,126.5,143.5,100.5,167.5
123,6.15,-0.0015249252319335938,0.07245016098022461,1.5481388568878174,0.017815589904785156,-1.6477010250091553,-0.03734326362609863,0.7176620960235596,0.15985114872455597,0.6016902327537537,-3.07053239802562,0.07426942388175156,1.6119015583133167,187.73942093541203,163.14922048997772,164.93347193347194,137.93555093555094,139.09958506224066,161.97717842323652,149.5,167.5,126.5,143.5,100.5,167.5
124,6.2,-0.0015888214111328125,0.07294940948486328,1.5478127002716064,0.018085479736328125,-1.6481592655181885,-0.03746509552001953,0.7179250717163086,0.1597575545310974,0.6015287637710571,-3.0700591827989743,0.07469892140907632,1.6120251418859057,187.66146993318486,163.15367483296214,164.85594989561588,137.89144050104383,138.97095435684648,161.93983402489627,149.5,167.5,126.5,143.5,100.5,167.5
125,6.25,-0.0016520023345947266,0.07344937324523926,1.5474650859832764,0.018375396728515625,-1.648616075515747,-0.03757214546203613,0.7181881666183472,0.15966461598873138,0.6013794541358948,-3.069587688601374,0.07512698201297491,1.6121349653491464,187.56347438752783,163.15812917594656,164.71488469601678,137.8825995807128,138.84375,161.90833333333333,149.5,167.5,126.5,143.5,100.5,167.5
126,6.300000000000001,-0.0016999244689941406,0.0739603042602539,1.5471203327178955,0.018658876419067383,-1.6490857601165771,-0.03765988349914551,0.718454897403717,0.15958142280578613,0.6012212038040161,-3.0691100087507506,0.07556966797846278,1.61224282186221,187.4177777777778,163.0822222222222,164.60210526315788,137.91368421052633,138.76150627615064,161.9121338912134,149.5,167.5,126.5,143.5,100.5,167.5
127,6.3500000000000005,-0.0017507076263427734,0.0744469165802002,1.5468251705169678,0.018897056579589844,-1.649552583694458,-0.037751197814941406,0.7187080383300781,0.15949659049510956,0.6010510325431824,-3.0686518267613847,0.07601021669723122,1.6123501603988177,187.26057906458797,163.05122494432072,164.5557894736842,137.89263157894737,138.60210526315788,161.94105263157894,149.5,167.5,126.5,143.5,100.5,167.5
128,6.4,-0.0018339157104492188,0.07489228248596191,1.5465147495269775,0.019161462783813477,-1.6499836444854736,-0.0378572940826416,0.7189457416534424,0.15939149260520935,0.6009181141853333,-3.068225139419536,0.07641431950835641,1.61243463765102,187.17477876106196,163.0420353982301,164.4602510460251,137.88493723849373,138.51046025104603,161.9539748953975,149.5,167.5,126.5,143.5,100.5,167.5
129,6.45,-0.001918792724609375,0.07533788681030273,1.546199083328247,0.019431591033935547,-1.65041184425354,-0.037972211837768555,0.7191841006278992,0.15928567945957184,0.6007884740829468,-3.0677972378868694,0.07681520293623799,1.612527243652717,187.046875,163.04910714285714,164.3655462184874,137.96848739495798,138.36268343815513,162.0020964360587,149.5,167.5,126.5,143.5,100.5,167.5
130,6.5,-0.0020024776458740234,0.07574653625488281,1.5459201335906982,0.019670963287353516,-1.65083909034729,-0.03805947303771973,0.719403088092804,0.1591811329126358,0.6006627082824707,-3.067401738724122,0.07721825251846642,1.6125906582199008,186.91051454138702,163.09395973154363,164.20041753653445,137.98121085594988,138.21784232365144,161.99792531120332,149.5,167.5,126.5,143.5,100.5,167.5
131,6.550000000000001,-0.0020759105682373047,0.0761725902557373,1.545635461807251,0.019912004470825195,-1.6512749195098877,-0.03813624382019043,0.7196288108825684,0.15908309817314148,0.600528359413147,-3.0669929239728506,0.0776297647377892,1.6126559188449696,186.8084632516704,163.086859688196,164.05416666666667,137.92916666666667,138.11387163561076,161.99792960662526,149.5,167.5,126.5,143.5,100.5,167.5
132,6.6000000000000005,-0.0021495819091796875,0.07662320137023926,1.545318841934204,0.02018141746520996,-1.6517083644866943,-0.03824162483215332,0.7198684811592102,0.15898463129997253,0.6003947257995605,-3.0665613990211553,0.07803618280475973,1.6127514806214704,186.71748878923768,163.1255605381166,163.93347193347194,137.93555093555094,138.00622406639005,161.97510373443984,149.5,167.5,126.5,143.5,100.5,167.5
133,6.65,-0.002210378646850586,0.07709002494812012,1.5450003147125244,0.02044820785522461,-1.6521532535552979,-0.03832721710205078,0.7201138138771057,0.15889477729797363,0.6002514362335205,-3.0661189721184057,0.07845512267057665,1.6128425347697928,186.56347438752783,163.15812917594656,163.8141962421712,137.86638830897704,137.8985507246377,161.95238095238096,149.5,167.5,126.5,143.5,100.5,167.5
134,6.7,-0.002288341522216797,0.07758641242980957,1.5446321964263916,0.020761728286743164,-1.6525800228118896,-0.03844714164733887,0.7203773856163025,0.15879370272159576,0.6001147031784058,-3.0656472610567675,0.07885142251655122,1.6129511993328218,186.49777777777777,163.05333333333334,163.6890756302521,137.88235294117646,137.81628392484342,161.8893528183716,149.5,167.5,126.5,143.5,100.5,167.5
135,6.75,-0.002337217330932617,0.0780649185180664,1.54433274269104,0.021004915237426758,-1.6530354022979736,-0.03852510452270508,0.7206263542175293,0.1587112545967102,0.5999513864517212,-3.065196896782123,0.07928061481759942,1.6130489442895832,186.30133928571428,163.015625,163.60210526315788,137.91368421052633,137.69811320754718,161.93710691823898,149.5,167.5,126.5,143.5,100.5,167.5
136,6.800000000000001,-0.0024139881134033203,0.07850837707519531,1.5440552234649658,0.021236658096313477,-1.6534616947174072,-0.038628339767456055,0.7208610773086548,0.1586112231016159,0.599800705909729,-3.064771427720216,0.07967974124428526,1.6131394232969405,186.2288888888889,163.01777777777778,163.5557894736842,137.89263157894737,137.55974842767296,161.9517819706499,149.5,167.5,126.5,143.5,100.5,167.5
137,6.8500000000000005,-0.002501249313354492,0.07893157005310059,1.5437538623809814,0.02149677276611328,-1.6538746356964111,-0.03872561454772949,0.7210878729820251,0.15850509703159332,0.5996771454811096,-3.0643624637869307,0.08006585673446434,1.6132120335209985,186.12026726057906,163.02227171492206,163.4602510460251,137.88493723849373,137.49475890985326,161.9748427672956,149.5,167.5,126.5,143.5,100.5,167.5
138,6.9,-0.0025980472564697266,0.07936453819274902,1.543440580368042,0.021767616271972656,-1.6542770862579346,-0.03885078430175781,0.7213209271430969,0.15839283168315887,0.5995532870292664,-3.06394218001428,0.08043989966701524,1.6133029971441397,186.0,163.02666666666667,163.38364779874215,137.9496855345912,137.336820083682,162.0041841004184,149.5,167.5,126.5,143.5,100.5,167.5
139,6.95,-0.002695798873901367,0.0797574520111084,1.5431573390960693,0.022016286849975586,-1.6546757221221924,-0.038942575454711914,0.7215339541435242,0.15828046202659607,0.599440336227417,-3.0635578968378514,0.0808136652921043,1.6133567182938604,185.8612975391499,163.08053691275168,163.175,137.97916666666666,137.19461697722568,161.98757763975155,149.5,167.5,126.5,143.5,100.5,167.5
140,7.0,-0.002768993377685547,0.08018088340759277,1.542881727218628,0.022249460220336914,-1.655097246170044,-0.039012908935546875,0.721757709980011,0.15818384289741516,0.5993015766143799,-3.0631510616806903,0.08121139128908829,1.6134177961870424,185.78222222222223,163.08444444444444,163.05416666666667,137.92916666666667,137.09958506224066,161.97717842323652,149.5,167.5,126.5,143.5,100.5,167.5
141,7.050000000000001,-0.002839803695678711,0.08062744140625,1.5425736904144287,0.022510766983032227,-1.655519723892212,-0.03910017013549805,0.7219942212104797,0.1580887734889984,0.5991647243499756,-3.062723461283062,0.08160682584854231,1.6135003549861753,185.71685393258426,163.09887640449438,162.94605809128632,137.91286307053943,137.00622406639005,161.97510373443984,149.5,167.5,126.5,143.5,100.5,167.5
142,7.1000000000000005,-0.0029032230377197266,0.08108878135681152,1.542250394821167,0.02278280258178711,-1.6559479236602783,-0.03918743133544922,0.7222368717193604,0.15799830853939056,0.5990267395973206,-3.062284916571879,0.08200792924921323,1.6135920422928158,185.53587443946188,163.03811659192826,162.8141962421712,137.86638830897704,136.89256198347107,161.97727272727272,149.5,167.5,126.5,143.5,100.5,167.5
143,7.15,-0.0029876232147216797,0.08154630661010742,1.5419189929962158,0.023066997528076172,-1.6563541889190674,-0.03931736946105957,0.7224810719490051,0.15789435803890228,0.5988954305648804,-3.0618446353372546,0.08238353638464531,1.6137033161221548,185.46412556053812,162.96188340807174,162.71488469601678,137.8825995807128,136.76150627615064,161.9121338912134,149.5,167.5,126.5,143.5,100.5,167.5
144,7.2,-0.0030486583709716797,0.08197283744812012,1.5416443347930908,0.023295879364013672,-1.6567819118499756,-0.03938865661621094,0.7227048277854919,0.15780584514141083,0.5987542271614075,-3.061437215950954,0.082786148274789,1.613779129590111,185.27740492170022,163.00447427293065,162.62605042016807,137.9033613445378,136.67573221757323,161.9246861924686,149.5,167.5,126.5,143.5,100.5,167.5
145,7.25,-0.0031309127807617188,0.08240246772766113,1.541367769241333,0.0235292911529541,-1.6571881771087646,-0.03947925567626953,0.7229331731796265,0.15770381689071655,0.5986112356185913,-3.0610231359885436,0.08316577696375127,1.6138521878291827,185.2288888888889,163.01777777777778,162.5557894736842,137.89263157894737,136.5397489539749,161.96861924686192,149.5,167.5,126.5,143.5,100.5,167.5
146,7.300000000000001,-0.0032165050506591797,0.08282065391540527,1.5410611629486084,0.023795127868652344,-1.6575872898101807,-0.03957104682922363,0.7231569886207581,0.15759988129138947,0.598493218421936,-3.0606184235218503,0.08353855900981474,1.6139224896391766,185.12026726057906,163.02227171492206,162.4602510460251,137.88493723849373,136.45511482254696,162.0062630480167,149.5,167.5,126.5,143.5,100.5,167.5
147,7.3500000000000005,-0.0033140182495117188,0.08324289321899414,1.5407373905181885,0.024079561233520508,-1.6579744815826416,-0.03969264030456543,0.7233849763870239,0.15748853981494904,0.5983819961547852,-3.060206645555481,0.08389600745417287,1.6140098045663105,185.02227171492206,163.0400890868597,162.39121338912133,137.9246861924686,136.28958333333333,162.01666666666668,149.5,167.5,126.5,143.5,100.5,167.5
148,7.4,-0.0034101009368896484,0.0836331844329834,1.5404260158538818,0.024357080459594727,-1.6583588123321533,-0.03977537155151367,0.7235966324806213,0.15737871825695038,0.5982859134674072,-3.0598246996051564,0.08425558494358441,1.6140578564532608,184.8635346756152,163.0268456375839,162.27196652719664,137.97071129707112,136.17561983471074,161.97107438016528,149.5,167.5,126.5,143.5,100.5,167.5
149,7.45,-0.003497600555419922,0.08400964736938477,1.540165662765503,0.02458477020263672,-1.6587507724761963,-0.03982138633728027,0.7237984538078308,0.15727455914020538,0.5981705784797668,-3.059457333598093,0.0846261920494328,1.6140774498598565,184.7706013363029,163.00890868596883,162.09166666666667,137.9375,136.09958506224066,161.97717842323652,149.5,167.5,126.5,143.5,100.5,167.5
150,7.5,-0.0035736560821533203,0.08442044258117676,1.539891004562378,0.024819374084472656,-1.6591541767120361,-0.03989768028259277,0.7240164279937744,0.15717743337154388,0.5980392694473267,-3.059059817563277,0.08500420237251922,1.6141427520537017,184.71973094170403,163.02242152466368,161.97101449275362,137.91718426501035,136.00622406639005,161.97510373443984,149.5,167.5,126.5,143.5,100.5,167.5
151,7.550000000000001,-0.0036368370056152344,0.08485102653503418,1.5395987033843994,0.025066375732421875,-1.6595690250396729,-0.03997349739074707,0.7242429852485657,0.15708836913108826,0.5979041457176208,-3.058647068608627,0.08539292908849631,1.6142228299541306,184.55955056179775,163.0247191011236,161.86875,137.86875,135.89256198347107,161.97727272727272,149.5,167.5,126.5,143.5,100.5,167.5
152,7.6000000000000005,-0.003722667694091797,0.08528900146484375,1.539273977279663,0.025346994400024414,-1.6599600315093994,-0.0400848388671875,0.7244769334793091,0.1569848656654358,0.5977819561958313,-3.058224025567799,0.085754428847006,1.6143145332865467,184.46412556053812,162.96188340807174,161.7405857740586,137.8807531380753,135.76826722338205,161.88726513569938,149.5,167.5,126.5,143.5,100.5,167.5
153,7.65,-0.003780841827392578,0.08571171760559082,1.5390064716339111,0.025569915771484375,-1.6603763103485107,-0.040135860443115234,0.7246979475021362,0.1568993777036667,0.5976381897926331,-3.0578211078215607,0.086147162344691,1.6143749402401575,184.2921348314607,162.95280898876405,161.68421052631578,137.85684210526315,135.70146137787057,161.9206680584551,149.5,167.5,126.5,143.5,100.5,167.5
154,7.7,-0.0038766860961914062,0.08612871170043945,1.5387184619903564,0.025818586349487305,-1.6607553958892822,-0.04024171829223633,0.724921703338623,0.1567898392677307,0.5975089073181152,-3.0574144809987316,0.08649753978495678,1.6144488519693552,184.25279642058166,162.94630872483222,161.57983193277312,137.90126050420167,135.5397489539749,161.96861924686192,149.5,167.5,126.5,143.5,100.5,167.5
155,7.75,-0.00395655632019043,0.0865182876586914,1.5384423732757568,0.026058673858642578,-1.6611464023590088,-0.040315866470336914,0.7251293659210205,0.1566907912492752,0.5973935127258301,-3.057035272031234,0.08686359325937057,1.614507202328421,184.1390134529148,162.94618834080717,161.48008385744234,137.8679245283019,135.49478079331942,161.9749478079332,149.5,167.5,126.5,143.5,100.5,167.5
156,7.800000000000001,-0.004047870635986328,0.0869300365447998,1.5381453037261963,0.026316165924072266,-1.6615264415740967,-0.04042959213256836,0.7253503799438477,0.15658441185951233,0.5972732901573181,-3.0566331822581345,0.08721465970499916,1.614594462926134,184.07415730337078,162.95505617977528,161.4446764091858,137.90605427974947,135.31524008350732,162.01878914405012,149.5,167.5,126.5,143.5,100.5,167.5
157,7.8500000000000005,-0.004144430160522461,0.08729362487792969,1.5378506183624268,0.026582002639770508,-1.6618969440460205,-0.040509939193725586,0.7255483865737915,0.15647543966770172,0.5971862077713013,-3.0562734473649433,0.08756020116689497,1.6146388269624985,183.90625,162.97767857142858,161.36743215031316,137.93528183716074,135.19461697722568,161.98757763975155,149.5,167.5,126.5,143.5,100.5,167.5
158,7.9,-0.00424957275390625,0.08764266967773438,1.5375773906707764,0.026830196380615234,-1.662257432937622,-0.04056692123413086,0.7257391214370728,0.1563614457845688,0.5970969200134277,-3.055926241212442,0.08789845691357723,1.6146499667309946,183.78794642857142,162.95982142857142,161.16216216216216,137.9085239085239,135.12603305785123,161.97520661157026,149.5,167.5,126.5,143.5,100.5,167.5
159,7.95,-0.004338979721069336,0.08803367614746094,1.5373013019561768,0.027071475982666016,-1.6626336574554443,-0.04065060615539551,0.7259488701820374,0.15625683963298798,0.5969789028167725,-3.0555431420248347,0.08824942632000705,1.61470807689699,183.72421524663676,162.96860986547085,161.07053941908714,137.8921161825726,135.02898550724638,161.96273291925465,149.5,167.5,126.5,143.5,100.5,167.5
160,8.0,-0.00442194938659668,0.08843183517456055,1.5370137691497803,0.027321815490722656,-1.6630146503448486,-0.040726423263549805,0.7261615991592407,0.15615667402744293,0.5968623757362366,-3.0551553995911402,0.08860465159205147,1.6147658918443926,183.60898876404494,162.92808988764045,160.92275574112736,137.84759916492692,134.91752577319588,161.97113402061856,149.5,167.5,126.5,143.5,100.5,167.5
161,8.05,-0.004507541656494141,0.08884000778198242,1.5367100238800049,0.02758646011352539,-1.663391351699829,-0.04083251953125,0.7263802289962769,0.1560545414686203,0.5967484712600708,-3.054757303803997,0.08895304359758978,1.6148518750959155,183.50112866817156,162.9729119638826,160.82708333333332,137.84375,134.81327800829877,161.94190871369295,149.5,167.5,126.5,143.5,100.5,167.5
162,8.1,-0.004590272903442383,0.08926081657409668,1.5363967418670654,0.027858495712280273,-1.6637699604034424,-0.040923357009887695,0.7266047596931458,0.1559545248746872,0.5966308116912842,-3.0543499211382095,0.08930308345356132,1.6149269004437494,183.39140271493213,162.93212669683257,160.71008403361344,137.85714285714286,134.74947807933194,161.93528183716074,149.5,167.5,126.5,143.5,100.5,167.5
163,8.15,-0.004668235778808594,0.08968114852905273,1.5361120700836182,0.028101444244384766,-1.6641533374786377,-0.04101848602294922,0.7268276214599609,0.15585729479789734,0.5964975357055664,-3.053942989649672,0.08965792278363265,1.6150115768081337,183.28314606741574,162.90112359550562,160.64779874213838,137.88888888888889,134.60751565762004,161.937369519833,149.5,167.5,126.5,143.5,100.5,167.5
164,8.200000000000001,-0.00475001335144043,0.09006142616271973,1.5358550548553467,0.028324127197265625,-1.6645300388336182,-0.04108619689941406,0.7270299792289734,0.15575841069221497,0.5963764786720276,-3.053571120303798,0.09000985934221317,1.6150618909698362,183.20535714285714,162.93526785714286,160.5441176470588,137.86974789915968,134.51572327044025,161.97903563941298,149.5,167.5,126.5,143.5,100.5,167.5
165,8.25,-0.0048367977142333984,0.09045910835266113,1.5355608463287354,0.028581619262695312,-1.664900541305542,-0.04118084907531738,0.7272428274154663,0.15565595030784607,0.5962641835212708,-3.0531821655188955,0.09035250624573794,1.6151350903453083,183.1121076233184,162.91928251121075,160.4602510460251,137.88493723849373,134.40501043841337,161.99791231732777,149.5,167.5,126.5,143.5,100.5,167.5
166,8.3,-0.004925966262817383,0.09084010124206543,1.5352756977081299,0.028833627700805664,-1.6652662754058838,-0.04127240180969238,0.7274476885795593,0.1555524319410324,0.5961586236953735,-3.0528070986818006,0.09069151332256362,1.6152010869272335,182.94170403587444,162.90134529147983,160.42708333333334,137.8875,134.246887966805,162.00207468879668,149.5,167.5,126.5,143.5,100.5,167.5
167,8.35,-0.005045413970947266,0.09117698669433594,1.53499436378479,0.02909398078918457,-1.6655995845794678,-0.041361093521118164,0.7276344895362854,0.1554301381111145,0.5960812568664551,-3.0524659142958885,0.09099942482257246,1.6152289494273198,182.85874439461884,162.90358744394618,160.3312629399586,137.8737060041408,134.15051546391751,161.96701030927835,149.5,167.5,126.5,143.5,100.5,167.5
168,8.4,-0.005157470703125,0.09151983261108398,1.5347135066986084,0.02935171127319336,-1.6659386157989502,-0.041434288024902344,0.7278232574462891,0.1553127020597458,0.5959994196891785,-3.0521217997837833,0.0913141523705964,1.6152494811798457,182.76339285714286,162.93080357142858,160.099173553719,137.88223140495867,134.0659793814433,161.9463917525773,149.5,167.5,126.5,143.5,100.5,167.5
169,8.450000000000001,-0.0052335262298583984,0.09191370010375977,1.5344388484954834,0.029589414596557617,-1.6663134098052979,-0.04150080680847168,0.7280322909355164,0.15521803498268127,0.5958778858184814,-3.051738317345804,0.09166370728586817,1.6153062479244835,182.68018018018017,162.90540540540542,160.0455486542443,137.88819875776397,133.98969072164948,161.9360824742268,149.5,167.5,126.5,143.5,100.5,167.5
170,8.5,-0.005312681198120117,0.09229207038879395,1.534179925918579,0.029814481735229492,-1.6666834354400635,-0.041559457778930664,0.7282335758209229,0.15512153506278992,0.5957585573196411,-3.051368388604512,0.09200946559007779,1.6153508153699458,182.54054054054055,162.90765765765767,159.9058577405858,137.8284518828452,133.90702479338842,161.94834710743802,149.5,167.5,126.5,143.5,100.5,167.5
171,8.55,-0.0054056644439697266,0.09270095825195312,1.533881425857544,0.0300750732421875,-1.6670401096343994,-0.04167056083679199,0.7284528613090515,0.15501566231250763,0.5956400632858276,-3.0509681949553658,0.09233609469317731,1.6154358302754002,182.44394618834082,162.86995515695068,159.8284518828452,137.7928870292887,133.79166666666666,161.89791666666667,149.5,167.5,126.5,143.5,100.5,167.5
172,8.6,-0.005499362945556641,0.09309911727905273,1.5335862636566162,0.030333518981933594,-1.6673939228057861,-0.04176664352416992,0.7286670804023743,0.15490961074829102,0.595526933670044,-3.050578423172322,0.09266113403097691,1.6155039479877287,182.29596412556054,162.87219730941703,159.7489539748954,137.8326359832636,133.72708333333333,161.92291666666668,149.5,167.5,126.5,143.5,100.5,167.5
173,8.65,-0.005606174468994141,0.09348869323730469,1.5333120822906494,0.030575037002563477,-1.6677343845367432,-0.041877031326293945,0.7288777828216553,0.15479525923728943,0.5954079627990723,-3.050193173374215,0.09297228119594923,1.615571285933171,182.28635346756153,162.84787472035794,159.64779874213838,137.8427672955975,133.5875,161.95416666666668,149.5,167.5,126.5,143.5,100.5,167.5
174,8.700000000000001,-0.005695343017578125,0.09386038780212402,1.5330383777618408,0.030817031860351562,-1.6680891513824463,-0.04196476936340332,0.7290775179862976,0.15469267964363098,0.5953015685081482,-3.0498259349102006,0.09329998574294121,1.6156342621239348,182.195067264574,162.87219730941703,159.56603773584905,137.85534591194968,133.51046025104603,161.9539748953975,149.5,167.5,126.5,143.5,100.5,167.5
175,8.75,-0.005783796310424805,0.0942373275756836,1.5327651500701904,0.03105759620666504,-1.6684439182281494,-0.04204821586608887,0.7292793393135071,0.15459071099758148,0.595191240310669,-3.0494550046969833,0.09362775240938238,1.6156943808435111,182.0653153153153,162.8963963963964,159.48008385744234,137.8679245283019,133.35758835758836,162.014553014553,149.5,167.5,126.5,143.5,100.5,167.5
176,8.8,-0.005890369415283203,0.09459638595581055,1.532470464706421,0.0313258171081543,-1.6687781810760498,-0.04214787483215332,0.7294758558273315,0.15447723865509033,0.595104992389679,-3.049094812142409,0.09393402078993356,1.6157494418305607,181.94819819819818,162.8536036036036,159.42708333333334,137.8875,133.21280991735537,161.96900826446281,149.5,167.5,126.5,143.5,100.5,167.5
177,8.85,-0.0059986114501953125,0.09491372108459473,1.5322139263153076,0.03156399726867676,-1.6691067218780518,-0.042203664779663086,0.7296500205993652,0.1543634980916977,0.5950272083282471,-3.0487729791945055,0.0942403667412376,1.6157553662238673,181.85874439461884,162.90358744394618,159.33747412008282,137.83643892339543,133.15051546391751,161.96701030927835,149.5,167.5,126.5,143.5,100.5,167.5
178,8.9,-0.006114959716796875,0.09526562690734863,1.5319092273712158,0.0318448543548584,-1.669426679611206,-0.04228973388671875,0.7298445701599121,0.1542443037033081,0.5949510931968689,-3.0484188339887015,0.09453450425216271,1.6157858333123065,181.74107142857142,162.84598214285714,159.11752577319587,137.8639175257732,133.0659793814433,161.9463917525773,149.5,167.5,126.5,143.5,100.5,167.5
179,8.950000000000001,-0.0062007904052734375,0.09563446044921875,1.5316531658172607,0.03206944465637207,-1.6697781085968018,-0.04236602783203125,0.7300415635108948,0.15414462983608246,0.5948361158370972,-3.048054856445974,0.09485924916491742,1.6158414555472793,181.6599099099099,162.86036036036037,159.07867494824018,137.86749482401657,132.9463917525773,161.9340206185567,149.5,167.5,126.5,143.5,100.5,167.5
180,9.0,-0.006291866302490234,0.09598422050476074,1.5313951969146729,0.03230118751525879,-1.6701204776763916,-0.0424199104309082,0.7302298545837402,0.15404202044010162,0.594735860824585,-3.0477075433469767,0.09517869213517828,1.6158674293083377,181.53932584269663,162.8808988764045,158.93528183716074,137.7724425887265,132.90871369294607,161.89834024896265,149.5,167.5,126.5,143.5,100.5,167.5
181,9.05,-0.006388425827026367,0.09639430046081543,1.5310847759246826,0.03257393836975098,-1.670459508895874,-0.0425260066986084,0.7304502129554749,0.153935045003891,0.5946216583251953,-3.047306077860375,0.09548663704758399,1.6159439951496455,181.45637583892616,162.84563758389262,158.8284518828452,137.7928870292887,132.79166666666666,161.89791666666667,149.5,167.5,126.5,143.5,100.5,167.5
182,9.1,-0.006475687026977539,0.0967872142791748,1.5307986736297607,0.032824039459228516,-1.6708056926727295,-0.04261302947998047,0.7306603193283081,0.15383431315422058,0.5945069193840027,-3.046921090919203,0.09580428707452912,1.6160110135797194,181.36322869955157,162.83856502242153,158.78033472803347,137.80334728033472,132.73388773388774,161.8981288981289,149.5,167.5,126.5,143.5,100.5,167.5
183,9.15,-0.006571054458618164,0.09717154502868652,1.5305230617523193,0.0330660343170166,-1.6711437702178955,-0.04270291328430176,0.7308668494224548,0.15372860431671143,0.5943918228149414,-3.0465428464882267,0.09611340453349604,1.616071614100203,181.26008968609867,162.84529147982062,158.69117647058823,137.78571428571428,132.5875,161.95416666666668,149.5,167.5,126.5,143.5,100.5,167.5
184,9.200000000000001,-0.006682395935058594,0.09754467010498047,1.530214548110962,0.033345937728881836,-1.6714632511138916,-0.04281806945800781,0.7310706377029419,0.15361252427101135,0.5943033695220947,-3.0461701811631396,0.09640239382185993,1.6161383994384257,181.2067415730337,162.80449438202248,158.61377870563675,137.85386221294362,132.51041666666666,161.95416666666668,149.5,167.5,126.5,143.5,100.5,167.5
185,9.25,-0.006776332855224609,0.09788966178894043,1.5299623012542725,0.03357195854187012,-1.6717979907989502,-0.04289388656616211,0.7312565445899963,0.1535082310438156,0.5942023992538452,-3.0458250207298962,0.09671185822846204,1.6161836729284154,181.05643340857787,162.76975169300226,158.49789915966386,137.84873949579833,132.3734439834025,161.99377593360995,149.5,167.5,126.5,143.5,100.5,167.5
186,9.3,-0.006886482238769531,0.09821772575378418,1.5297067165374756,0.03380703926086426,-1.6721155643463135,-0.042996883392333984,0.7314367890357971,0.1533936858177185,0.5941153168678284,-3.0454900475050266,0.0970013720880965,1.6162370581404524,181.00898876404494,162.74831460674156,158.43541666666667,137.84166666666667,132.23298969072164,161.95257731958762,149.5,167.5,126.5,143.5,100.5,167.5
187,9.35,-0.006986141204833984,0.09852313995361328,1.529461145401001,0.03403472900390625,-1.6724388599395752,-0.04305601119995117,0.7316038012504578,0.15328645706176758,0.5940390825271606,-3.0451785235093634,0.0973026306317578,1.6162554951565087,180.92584269662922,162.8112359550562,158.3866943866944,137.82536382536384,132.15051546391751,161.96701030927835,149.5,167.5,126.5,143.5,100.5,167.5
188,9.4,-0.007097721099853516,0.09884047508239746,1.5291788578033447,0.034299373626708984,-1.6727492809295654,-0.043126821517944336,0.7317793369293213,0.15317168831825256,0.5939745903015137,-3.0448546581642986,0.09758843828239007,1.6162738170204123,180.75391498881433,162.80313199105146,158.22727272727272,137.82644628099175,132.09053497942386,161.93827160493828,149.5,167.5,126.5,143.5,100.5,167.5
189,9.450000000000001,-0.007207155227661133,0.09918212890625,1.5289146900177002,0.03454089164733887,-1.673063039779663,-0.0432131290435791,0.7319663166999817,0.15305794775485992,0.593882143497467,-3.0445095231671813,0.09787525437972985,1.616312313397014,180.70246085011186,162.79418344519016,158.08695652173913,137.82608695652175,131.98969072164948,161.9360824742268,149.5,167.5,126.5,143.5,100.5,167.5
190,9.5,-0.007296085357666016,0.09953498840332031,1.5286529064178467,0.0347747802734375,-1.6733958721160889,-0.043286800384521484,0.7321556806564331,0.15295752882957458,0.5937805771827698,-3.04415806560869,0.0981818482931437,1.616361735686026,180.60986547085201,162.84529147982062,157.98336798336797,137.76507276507277,131.90871369294607,161.89834024896265,149.5,167.5,126.5,143.5,100.5,167.5
191,9.55,-0.0073850154876708984,0.09992575645446777,1.5283482074737549,0.03504490852355957,-1.67372727394104,-0.04337167739868164,0.7323655486106873,0.152856707572937,0.5936771035194397,-3.0437741973127705,0.09848457214602886,1.6164249399331776,180.4798206278027,162.83183856502242,157.88679245283018,137.76729559748426,131.82291666666666,161.87708333333333,149.5,167.5,126.5,143.5,100.5,167.5
192,9.600000000000001,-0.007477283477783203,0.10031509399414062,1.5280568599700928,0.035302162170410156,-1.6740553379058838,-0.04345560073852539,0.7325738668441772,0.1527540683746338,0.5935660600662231,-3.043392089244312,0.09878315917304561,1.6164839872229366,180.39643652561247,162.7750556792873,157.83716075156576,137.76826722338205,131.75156576200416,161.84968684759917,149.5,167.5,126.5,143.5,100.5,167.5
193,9.65,-0.0075719356536865234,0.10068202018737793,1.5277936458587646,0.03553509712219238,-1.674379587173462,-0.043527841567993164,0.7327708005905151,0.15264980494976044,0.5934556126594543,-3.043029125096236,0.09908047243138987,1.6165270740473598,180.26233183856502,162.77354260089686,157.7426778242678,137.7845188284519,131.64033264033264,161.9106029106029,149.5,167.5,126.5,143.5,100.5,167.5
194,9.700000000000001,-0.007683992385864258,0.10103654861450195,1.5275242328643799,0.035779476165771484,-1.6746852397918701,-0.04362988471984863,0.732964277267456,0.15253445506095886,0.5933571457862854,-3.04267274964055,0.0993570464068169,1.6165798616006781,180.2,162.73483146067414,157.64435146443515,137.78242677824267,131.55625,161.92916666666667,149.5,167.5,126.5,143.5,100.5,167.5
195,9.75,-0.007791996002197266,0.10138487815856934,1.5272610187530518,0.036017417907714844,-1.6749942302703857,-0.04373908042907715,0.7331541180610657,0.152421772480011,0.5932597517967224,-3.042320861401208,0.09963615490914347,1.616643701422249,180.0952380952381,162.73015873015873,157.5418410041841,137.77405857740587,131.44490644490645,161.985446985447,149.5,167.5,126.5,143.5,100.5,167.5
196,9.8,-0.007912397384643555,0.1017293930053711,1.5269768238067627,0.03627800941467285,-1.6752903461456299,-0.043880462646484375,0.7333441972732544,0.15230117738246918,0.593176007270813,-3.041968584068027,0.09989880398901368,1.6167264704023234,180.05643340857787,162.76975169300226,157.49579831932772,137.7983193277311,131.27216494845362,161.9422680412371,149.5,167.5,126.5,143.5,100.5,167.5
197,9.850000000000001,-0.008017301559448242,0.10204792022705078,1.5266988277435303,0.03653740882873535,-1.6755955219268799,-0.04394721984863281,0.7335190176963806,0.15219150483608246,0.5931076407432556,-3.0416441837667296,0.10017970482241245,1.6167485632647836,179.9729119638826,162.71106094808127,157.44050104384132,137.81628392484342,131.1687242798354,161.9485596707819,149.5,167.5,126.5,143.5,100.5,167.5
198,9.9,-0.008126974105834961,0.10233139991760254,1.5264484882354736,0.03677701950073242,-1.675894021987915,-0.044004201889038086,0.7336763143539429,0.15207920968532562,0.5930490493774414,-3.0413494033792388,0.10045576409762323,1.616753161661062,179.8552036199095,162.73076923076923,157.4070981210856,137.7787056367432,131.13636363636363,161.94628099173553,149.5,167.5,126.5,143.5,100.5,167.5
199,9.950000000000001,-0.008261442184448242,0.10262799263000488,1.5261719226837158,0.03704261779785156,-1.67616868019104,-0.044098854064941406,0.7338445782661438,0.15195085108280182,0.5929944515228271,-3.041037754053956,0.10070403649521735,1.6167700933739653,179.72808988764044,162.74606741573032,157.19502074688796,137.71161825726142,131.04742268041238,161.90103092783505,149.5,167.5,126.5,143.5,100.5,167.5
200,10.0,-0.008379697799682617,0.10298275947570801,1.5258657932281494,0.03732442855834961,-1.6764605045318604,-0.04421401023864746,0.7340400218963623,0.15183226764202118,0.5929160118103027,-3.0406785381697485,0.10096424739251558,1.616829390796737,179.71300448430495,162.76905829596413,157.0785123966942,137.76652892561984,130.94421487603304,161.86363636363637,149.5,167.5,126.5,143.5,100.5,167.5
201,10.05,-0.00845789909362793,0.10333824157714844,1.5255939960479736,0.037567138671875,-1.676788091659546,-0.04425787925720215,0.7342292666435242,0.15174025297164917,0.5928176641464233,-3.0403274107320555,0.10126807998697217,1.6168620118448822,179.53811659192826,162.7443946188341,157.00207468879668,137.746887966805,130.84823284823284,161.87110187110187,149.5,167.5,126.5,143.5,100.5,167.5
202,10.100000000000001,-0.008562803268432617,0.1036834716796875,1.5253183841705322,0.03781938552856445,-1.6770880222320557,-0.04433584213256836,0.7344173192977905,0.15163059532642365,0.5927284955978394,-3.0399804435423428,0.10154119838909371,1.616898133926626,179.4384787472036,162.7248322147651,156.83716075156576,137.76826722338205,130.77405857740587,161.86192468619248,149.5,167.5,126.5,143.5,100.5,167.5
203,10.15,-0.008647918701171875,0.10404419898986816,1.5250685214996338,0.03803825378417969,-1.67740797996521,-0.04440736770629883,0.7346093058586121,0.15153372287750244,0.5926138758659363,-3.039623534420062,0.10183360919761368,1.616950612208737,179.35634743875278,162.69487750556792,156.825,137.74583333333334,130.72708333333333,161.84166666666667,149.5,167.5,126.5,143.5,100.5,167.5
204,10.200000000000001,-0.008749008178710938,0.10439157485961914,1.5248215198516846,0.03825998306274414,-1.6777117252349854,-0.044487714767456055,0.7347965240478516,0.15142665803432465,0.5925067067146301,-3.0392758944680267,0.10210956461717009,1.6169938953345437,179.24107142857142,162.69866071428572,156.75156576200416,137.75991649269312,130.62033195020746,161.87759336099586,149.5,167.5,126.5,143.5,100.5,167.5
205,10.25,-0.008863449096679688,0.10472536087036133,1.5245721340179443,0.03848838806152344,-1.6780006885528564,-0.04458165168762207,0.7349792718887329,0.15131083130836487,0.5924113392829895,-3.038936436037006,0.1023700854203389,1.6170350680826229,179.2192393736018,162.68456375838926,156.64583333333334,137.73333333333332,130.56875,161.87916666666666,149.5,167.5,126.5,143.5,100.5,167.5
206,10.3,-0.008963823318481445,0.10507845878601074,1.5243098735809326,0.03872323036193848,-1.6783039569854736,-0.044683218002319336,0.7351700663566589,0.1512041687965393,0.5923087000846863,-3.0385820181555205,0.10264252247451254,1.617100661310303,179.10180995475113,162.70361990950227,156.56694560669456,137.72803347280336,130.42411642411642,161.96257796257797,149.5,167.5,126.5,143.5,100.5,167.5
207,10.350000000000001,-0.009088754653930664,0.10541725158691406,1.5240108966827393,0.03900027275085449,-1.6785809993743896,-0.04482293128967285,0.7353581786155701,0.15108171105384827,0.5922372341156006,-3.038233899653454,0.10288603321044726,1.6171768906730675,179.015873015873,162.6984126984127,156.5240083507307,137.75574112734864,130.24897119341563,161.9320987654321,149.5,167.5,126.5,143.5,100.5,167.5
208,10.4,-0.009212732315063477,0.105712890625,1.5237329006195068,0.03926682472229004,-1.6788537502288818,-0.0449068546295166,0.7355238795280457,0.1509608030319214,0.5921841263771057,-3.0379254097724027,0.10313261944303577,1.61719454914061,178.9547511312217,162.69230769230768,156.42348008385744,137.76939203354297,130.17113402061855,161.88659793814432,149.5,167.5,126.5,143.5,100.5,167.5
209,10.450000000000001,-0.00931692123413086,0.10601186752319336,1.5234787464141846,0.03950667381286621,-1.6791441440582275,-0.04495549201965332,0.7356880307197571,0.1508532464504242,0.5921154618263245,-3.0376183475212213,0.1034000751435658,1.6171987121654239,178.87810383747177,162.71557562076748,156.38830897703548,137.73277661795407,130.10493827160494,161.89506172839506,149.5,167.5,126.5,143.5,100.5,167.5
210,10.5,-0.009437322616577148,0.10631752014160156,1.5231916904449463,0.03978085517883301,-1.6794178485870361,-0.045027732849121094,0.7358585596084595,0.15073487162590027,0.5920605063438416,-3.037302045339645,0.10364819506727821,1.6172092255630646,178.72072072072072,162.72072072072072,156.20997920997922,137.69022869022868,130.0123711340206,161.87216494845362,149.5,167.5,126.5,143.5,100.5,167.5
211,10.55,-0.009555816650390625,0.1066594123840332,1.5228874683380127,0.040064096450805664,-1.6796939373016357,-0.04512596130371094,0.7360473871231079,0.15061740577220917,0.5919888019561768,-3.0369538527381703,0.10389444203515545,1.6172510615900968,178.6936936936937,162.68243243243242,156.04781704781703,137.7047817047817,129.94421487603304,161.86363636363637,149.5,167.5,126.5,143.5,100.5,167.5
212,10.600000000000001,-0.009639978408813477,0.10701537132263184,1.5226080417633057,0.0403141975402832,-1.6800029277801514,-0.04520440101623535,0.7362373471260071,0.1505219042301178,0.59189373254776,-3.0365995393705516,0.10417522505891358,1.617311753225706,178.58482142857142,162.58482142857142,156.02282157676348,137.701244813278,129.84823284823284,161.87110187110187,149.5,167.5,126.5,143.5,100.5,167.5
213,10.65,-0.009746551513671875,0.10732340812683105,1.5223557949066162,0.04054832458496094,-1.680288553237915,-0.04529523849487305,0.7364063858985901,0.15041249990463257,0.591817319393158,-3.0362828233478676,0.10443276261875893,1.6173566381281905,178.45515695067266,162.65695067264573,155.9582463465553,137.70563674321502,129.77405857740587,161.86192468619248,149.5,167.5,126.5,143.5,100.5,167.5
214,10.700000000000001,-0.009863615036010742,0.10764718055725098,1.5220873355865479,0.04079747200012207,-1.6805627346038818,-0.04538893699645996,0.7365849614143372,0.15029606223106384,0.5917387008666992,-3.035951201717578,0.10467819924606782,1.6173940464749914,178.36607142857142,162.66964285714286,155.81837160751564,137.67014613778704,129.7214137214137,161.8170478170478,149.5,167.5,126.5,143.5,100.5,167.5
215,10.75,-0.009966373443603516,0.10800981521606445,1.5218088626861572,0.04104781150817871,-1.6808512210845947,-0.045485496520996094,0.7367810606956482,0.15018877387046814,0.5916385650634766,-3.035589648825393,0.10493593188426399,1.617453439321009,178.26845637583892,162.662192393736,155.77035490605428,137.68058455114823,129.69583333333333,161.81458333333333,149.5,167.5,126.5,143.5,100.5,167.5
216,10.8,-0.010077714920043945,0.10837268829345703,1.521543264389038,0.04128551483154297,-1.6811320781707764,-0.045593976974487305,0.7369778156280518,0.15007559955120087,0.5915293097496033,-3.035225302392581,0.10518412708526889,1.6175157571986565,178.195067264574,162.6748878923767,155.69311064718164,137.69937369519832,129.59166666666667,161.85416666666666,149.5,167.5,126.5,143.5,100.5,167.5
217,10.850000000000001,-0.010192155838012695,0.10872626304626465,1.5212719440460205,0.04153132438659668,-1.681408166885376,-0.045705556869506836,0.737170398235321,0.14996084570884705,0.5914307236671448,-3.034868122122182,0.10542795362015756,1.6175771847386498,178.0995475113122,162.65837104072398,155.59748427672955,137.68553459119497,129.43892339544513,161.84057971014494,149.5,167.5,126.5,143.5,100.5,167.5
218,10.9,-0.010306358337402344,0.10906410217285156,1.5209977626800537,0.04178357124328613,-1.6816813945770264,-0.04580116271972656,0.7373555898666382,0.14984647929668427,0.5913450121879578,-3.0345250876442607,0.10567090525365457,1.6176212915552777,178.04308390022675,162.6530612244898,155.5553235908142,137.65970772442589,129.25,161.88223140495867,149.5,167.5,126.5,143.5,100.5,167.5
219,10.950000000000001,-0.010435819625854492,0.10936641693115234,1.5206892490386963,0.04208040237426758,-1.6819350719451904,-0.045896291732788086,0.737525999546051,0.1497229039669037,0.5913041830062866,-3.0342091694067657,0.1058958517727475,1.6176447684284012,177.97278911564626,162.61904761904762,155.49685534591194,137.69601677148847,129.1917525773196,161.84123711340206,149.5,167.5,126.5,143.5,100.5,167.5
220,11.0,-0.010555028915405273,0.10965132713317871,1.5204260349273682,0.04233384132385254,-1.682196855545044,-0.04595661163330078,0.7376847267150879,0.1496066004037857,0.5912498235702515,-3.033911574174409,0.10613387317360747,1.6176429508913726,177.9683257918552,162.59276018099547,155.3786610878661,137.7092050209205,129.12422360248448,161.84057971014494,149.5,167.5,126.5,143.5,100.5,167.5
221,11.05,-0.010646581649780273,0.10994100570678711,1.520179033279419,0.04256749153137207,-1.6824848651885986,-0.04599475860595703,0.7378423810005188,0.14950832724571228,0.591183066368103,-3.0336134779284056,0.10640001156751423,1.6176507992560067,177.82207207207207,162.63288288288288,155.30543933054392,137.6673640167364,129.059670781893,161.820987654321,149.5,167.5,126.5,143.5,100.5,167.5
222,11.100000000000001,-0.010756492614746094,0.11025452613830566,1.5199015140533447,0.04282855987548828,-1.6827547550201416,-0.04606127738952637,0.7380144000053406,0.14939776062965393,0.5911158919334412,-3.0332920820915708,0.106643784106614,1.6176682518592453,177.66143497757847,162.5896860986547,155.17364016736403,137.6276150627615,128.95426195426197,161.8066528066528,149.5,167.5,126.5,143.5,100.5,167.5
223,11.15,-0.010877370834350586,0.11057281494140625,1.5196211338043213,0.043091535568237305,-1.683013677597046,-0.04615592956542969,0.7381910681724548,0.1492798775434494,0.5910471677780151,-3.0329645222943094,0.10687340213593868,1.6177025832045866,177.61830357142858,162.5625,155.04149377593362,137.6597510373444,128.91041666666666,161.77708333333334,149.5,167.5,126.5,143.5,100.5,167.5
224,11.200000000000001,-0.010967493057250977,0.1109015941619873,1.5193803310394287,0.04330897331237793,-1.6833021640777588,-0.04622030258178711,0.7383672595024109,0.1491820067167282,0.5909489393234253,-3.032634223004973,0.10713532696234906,1.6177406102838825,177.53363228699553,162.58744394618833,154.985446985447,137.64241164241164,128.8204592901879,161.78496868475992,149.5,167.5,126.5,143.5,100.5,167.5
225,11.25,-0.011067628860473633,0.11123204231262207,1.5191171169281006,0.04355001449584961,-1.6835792064666748,-0.046294212341308594,0.7385462522506714,0.14907777309417725,0.5908617973327637,-3.0323000417151524,0.10738475826650958,1.6177781978025585,177.46532438478746,162.59731543624162,154.9106029106029,137.62785862785861,128.74321503131523,161.79958246346555,149.5,167.5,126.5,143.5,100.5,167.5
226,11.3,-0.01117086410522461,0.11156845092773438,1.5188376903533936,0.04380655288696289,-1.6838529109954834,-0.04637932777404785,0.738728940486908,0.14897125959396362,0.5907800197601318,-3.0319604630845522,0.10762873204797554,1.6178237294889881,177.32366071428572,162.61160714285714,154.81837160751564,137.67014613778704,128.71875,161.79166666666666,149.5,167.5,126.5,143.5,100.5,167.5
227,11.350000000000001,-0.011275768280029297,0.11191558837890625,1.518587350845337,0.044031381607055664,-1.6841256618499756,-0.04646944999694824,0.7389159798622131,0.14886347949504852,0.5906728506088257,-3.031611290798509,0.10787090025901341,1.617873411022998,177.23766816143498,162.6255605381166,154.74791666666667,137.66875,128.62916666666666,161.82916666666668,149.5,167.5,126.5,143.5,100.5,167.5
228,11.4,-0.011390924453735352,0.11226058006286621,1.5183207988739014,0.044274091720581055,-1.684387445449829,-0.046578407287597656,0.7391044497489929,0.1487492322921753,0.590577244758606,-3.031261376674607,0.10810029137524378,1.6179309038770655,177.12925170068027,162.60544217687075,154.69665271966528,137.67364016736403,128.50414937759336,161.8423236514523,149.5,167.5,126.5,143.5,100.5,167.5
229,11.450000000000001,-0.011520862579345703,0.11257767677307129,1.5180580615997314,0.044521331787109375,-1.6846325397491455,-0.046688079833984375,0.7392805814743042,0.14862558245658875,0.5904988646507263,-3.030932767693818,0.10831329271068724,1.6179705400623967,177.08200455580865,162.5899772209567,154.57563025210084,137.62605042016807,128.3416149068323,161.82194616977225,149.5,167.5,126.5,143.5,100.5,167.5
230,11.5,-0.011638879776000977,0.11289358139038086,1.5177710056304932,0.04479169845581055,-1.6848857402801514,-0.04678034782409668,0.7394553422927856,0.14851021766662598,0.5904353260993958,-3.0306070986329234,0.10853729291396506,1.6180051869987944,177.00226244343892,162.5497737556561,154.5441176470588,137.5861344537815,128.22474226804124,161.82061855670102,149.5,167.5,126.5,143.5,100.5,167.5
231,11.55,-0.011774778366088867,0.11318492889404297,1.517470121383667,0.04508233070373535,-1.685119867324829,-0.046883583068847656,0.7396208047866821,0.14838340878486633,0.5903970003128052,-3.0302993464818258,0.10874111991606734,1.618029139880952,176.98866213151928,162.57369614512473,154.49895178197065,137.52620545073376,128.1818181818182,161.8181818181818,149.5,167.5,126.5,143.5,100.5,167.5
232,11.600000000000001,-0.011912345886230469,0.11349964141845703,1.5171244144439697,0.04541373252868652,-1.685352087020874,-0.047005414962768555,0.7397994995117188,0.14825527369976044,0.5903672575950623,-3.029971222285855,0.1089405991151163,1.6180717880654725,176.9318181818182,162.56136363636364,154.44351464435147,137.5774058577406,128.08264462809916,161.80165289256198,149.5,167.5,126.5,143.5,100.5,167.5
233,11.65,-0.012039422988891602,0.11378717422485352,1.5168159008026123,0.04571390151977539,-1.685591459274292,-0.04708266258239746,0.7399622201919556,0.14813485741615295,0.5903357863426208,-3.0296684823772435,0.10915316385435005,1.6180795092438687,176.75,162.53153153153153,154.2436974789916,137.60504201680672,127.99585062240664,161.7551867219917,149.5,167.5,126.5,143.5,100.5,167.5
234,11.700000000000001,-0.012148857116699219,0.1140909194946289,1.5165531635284424,0.045961618423461914,-1.685847520828247,-0.047147274017333984,0.7401288151741028,0.14802581071853638,0.5902664661407471,-3.0293556672501283,0.10938289805188561,1.618095110019351,176.68314606741572,162.57303370786516,154.15481171548117,137.5878661087866,127.9043659043659,161.75259875259874,149.5,167.5,126.5,143.5,100.5,167.5
235,11.75,-0.012254714965820312,0.1144108772277832,1.516266107559204,0.04623103141784668,-1.6861059665679932,-0.04720926284790039,0.7403039932250977,0.14791911840438843,0.5901997089385986,-3.0290294799325483,0.10961435133246025,1.6181136217304621,176.5924276169265,162.55902004454342,154.05821205821206,137.55093555093555,127.9043659043659,161.75259875259874,149.5,167.5,126.5,143.5,100.5,167.5
236,11.8,-0.012364387512207031,0.1147620677947998,1.515967607498169,0.046503543853759766,-1.6863625049591064,-0.047313690185546875,0.7404952645301819,0.1478089541196823,0.5901168584823608,-3.0286754419107096,0.10983843772054236,1.6181729538183878,176.53587443946188,162.53587443946188,153.97713097713097,137.59251559251558,127.8108108108108,161.75051975051974,149.5,167.5,126.5,143.5,100.5,167.5
237,11.850000000000001,-0.01246190071105957,0.11509346961975098,1.5157010555267334,0.046747684478759766,-1.686629056930542,-0.04738759994506836,0.7406740784645081,0.14770732820034027,0.5900304317474365,-3.028341222067103,0.11007597895392339,1.618213602347233,176.453125,162.49330357142858,153.92723492723493,137.58212058212058,127.7223382045929,161.7661795407098,149.5,167.5,126.5,143.5,100.5,167.5
238,11.9,-0.012572288513183594,0.11540436744689941,1.5154364109039307,0.04699444770812988,-1.6868813037872314,-0.04747653007507324,0.7408447265625,0.14759743213653564,0.5899577736854553,-3.0280218597247526,0.11029915495811743,1.6182531419048396,176.36547085201795,162.4798206278027,153.86041666666668,137.61458333333334,127.7223382045929,161.7661795407098,149.5,167.5,126.5,143.5,100.5,167.5
239,11.950000000000001,-0.01268148422241211,0.11572051048278809,1.5152013301849365,0.047209739685058594,-1.687135934829712,-0.04757261276245117,0.7410168051719666,0.14748814702033997,0.5898637771606445,-3.0276979510711506,0.11052291490821343,1.6183017125272137,176.24660633484163,162.52036199095022,153.7891440501044,137.61169102296452,127.65828092243187,161.71907756813417,149.5,167.5,126.5,143.5,100.5,167.5
240,12.0,-0.012791633605957031,0.11605191230773926,1.5149667263031006,0.04742169380187988,-1.6873881816864014,-0.047655582427978516,0.7411962151527405,0.14737825095653534,0.5897583365440369,-3.027362458927902,0.11074523226495181,1.6183377905065146,176.10430839002268,162.56235827664398,153.69601677148847,137.64779874213838,127.5,161.75,149.5,167.5,126.5,143.5,100.5,167.5
241,12.05,-0.012911796569824219,0.11636734008789062,1.5147297382354736,0.047643184661865234,-1.6876275539398193,-0.04773092269897461,0.7413689494132996,0.14726226031780243,0.5896661281585693,-3.0270392836628193,0.11095593594135006,1.6183534755820372,176.03636363636363,162.53181818181818,153.57563025210084,137.62605042016807,127.30848861283644,161.71014492753622,149.5,167.5,126.5,143.5,100.5,167.5
242,12.100000000000001,-0.013017892837524414,0.11666250228881836,1.5144932270050049,0.04786825180053711,-1.687875509262085,-0.04776430130004883,0.7415294647216797,0.14715641736984253,0.5895879864692688,-3.0267357985661882,0.11118133737850906,1.6183410948963142,176.0,162.5,153.53473684210527,137.5621052631579,127.23076923076923,161.7255717255717,149.5,167.5,126.5,143.5,100.5,167.5
243,12.15,-0.013136863708496094,0.11695504188537598,1.514221429824829,0.04812884330749512,-1.6881110668182373,-0.04782843589782715,0.7416916489601135,0.1470421552658081,0.589531421661377,-3.026431049649048,0.11139006741145617,1.618344860781058,176.0,162.5,153.5,137.5,127.1694214876033,161.7293388429752,149.5,167.5,126.5,143.5,100.5,167.5
244,12.200000000000001,-0.013258934020996094,0.11725687980651855,1.5139086246490479,0.048429250717163086,-1.6883432865142822,-0.04790854454040527,0.7418605089187622,0.14692537486553192,0.589491605758667,-3.0261174592103037,0.11159361664783189,1.6183619686381667,175.94077448747151,162.45558086560365,153.5,137.5,127.12962962962963,161.71604938271605,149.5,167.5,126.5,143.5,100.5,167.5
245,12.25,-0.01339268684387207,0.11753535270690918,1.5136139392852783,0.048717498779296875,-1.688563585281372,-0.047989606857299805,0.7420187592506409,0.14680130779743195,0.589458167552948,-3.0258221559807446,0.11178570792886296,1.6183647004841055,175.84389140271495,162.4343891402715,153.39368421052632,137.49263157894737,127.01656314699792,161.71221532091099,149.5,167.5,126.5,143.5,100.5,167.5
246,12.3,-0.01352548599243164,0.11780834197998047,1.5133216381072998,0.049004554748535156,-1.6887824535369873,-0.04806923866271973,0.7421740293502808,0.14667823910713196,0.5894268155097961,-3.025531096675791,0.11197788665101543,1.6183670662518261,175.73363431151242,162.4627539503386,153.20083682008368,137.4581589958159,126.94791666666667,161.69583333333333,149.5,167.5,126.5,143.5,100.5,167.5
247,12.350000000000001,-0.013640403747558594,0.1181328296661377,1.5130083560943604,0.04929828643798828,-1.6890203952789307,-0.04816389083862305,0.7423532009124756,0.14656606316566467,0.589370608329773,-3.025198916778254,0.11218424414667406,1.6184088330599675,175.64269662921348,162.4943820224719,153.10766045548655,137.472049689441,126.90605427974948,161.70146137787057,149.5,167.5,126.5,143.5,100.5,167.5
248,12.4,-0.013751983642578125,0.11847639083862305,1.512695550918579,0.04958772659301758,-1.6892616748809814,-0.04826498031616211,0.7425411343574524,0.146455779671669,0.5893004536628723,-3.024850725225073,0.11239247757232161,1.6184625108349002,175.5324384787472,162.48545861297538,153.04583333333332,137.48958333333334,126.83367983367984,161.7130977130977,149.5,167.5,126.5,143.5,100.5,167.5
249,12.450000000000001,-0.013873577117919922,0.11880970001220703,1.5123941898345947,0.04986882209777832,-1.6894919872283936,-0.04837465286254883,0.742725133895874,0.14633913338184357,0.5892316699028015,-3.024509765425557,0.11258922235130173,1.6185125970898135,175.43303571428572,162.44642857142858,152.96458333333334,137.51875,126.76041666666667,161.7125,149.5,167.5,126.5,143.5,100.5,167.5
