AI-SPARC/uncalibrated-visual-servoing/results/data/4_feat_mckf_r.csv
,t,q_1,q_2,q_3,q_4,q_5,q_6,camera_x,camera_y,camera_z,camera_roll,camera_pitch,camera_yaw,f_1,f_2,f_3,f_4,f_5,f_6,f_7,f_8,desired_f_1,desired_f_2,desired_f_3,desired_f_4,desired_f_5,desired_f_6,desired_f_7,desired_f_8
0,0.0,8.58306884765625e-06,0.00015425682067871094,1.570796251296997,0.0001308917999267578,-1.5707952976226807,1.1920928955078125e-06,0.6808194518089294,0.16908100247383118,0.6382140517234802,-3.1409236307315758,0.000142941057518954,1.5708374245447392,149.61725663716814,145.28982300884957,125.56984478935698,121.2350332594235,101.5,145.27631578947367,125.59823399558499,169.33112582781456,125.0,121.0,101.0,145.0,125.0,169.0,149.0,145.0
1,0.05,-0.002312183380126953,-0.0004703998565673828,1.574434518814087,-0.0028123855590820312,-1.5692713260650635,-0.0013284683227539062,0.6808088421821594,0.1676374077796936,0.6364704370498657,-3.1408455796440204,-0.001390980387396119,1.5698393855654265,149.54625550660793,145.29955947136563,125.42731277533039,121.17180616740089,101.33920704845815,145.37665198237886,125.43076923076923,169.43076923076924,125.0,121.0,101.0,145.0,125.0,169.0,149.0,145.0
2,0.1,-0.004888057708740234,-0.0008416175842285156,1.5775806903839111,-0.005408048629760742,-1.5680387020111084,-0.0026743412017822266,0.6809740662574768,0.16599158942699432,0.6348556280136108,-3.140666051376651,-0.0026316492338816972,1.568604052206645,149.35824175824175,145.35824175824175,125.16703296703297,121.3076923076923,101.0,145.45414847161572,125.2390350877193,169.5328947368421,125.0,121.0,101.0,145.0,125.0,169.0,149.0,145.0
3,0.15000000000000002,-0.008047342300415039,-0.0009298324584960938,1.580021619796753,-0.0071756839752197266,-1.5675246715545654,-0.0043866634368896484,0.6813524961471558,0.16387465596199036,0.6334444284439087,-3.140086645652343,-0.0031537411632911877,1.5671525535923334,148.84782608695653,145.38478260869564,124.5,121.18260869565218,100.35,145.54347826086956,124.66228070175438,169.625,125.0,121.0,101.0,145.0,125.0,169.0,149.0,145.0
4,0.2,-0.012399435043334961,0.00025391578674316406,1.5798194408416748,-0.006705045700073242,-1.5690796375274658,-0.006275177001953125,0.6826011538505554,0.16071899235248566,0.6327284574508667,-3.1386261214628814,-0.0016183197381381556,1.5646844837934648,147.61353711790392,145.41921397379912,123.18260869565218,121.34782608695652,99.05217391304348,145.64565217391305,123.5,169.81739130434784,125.0,121.0,101.0,145.0,125.0,169.0,149.0,145.0
5,0.25,-0.012348413467407227,-0.0014913082122802734,1.5864465236663818,-0.012657642364501953,-1.5641272068023682,-0.006882190704345703,0.6816080212593079,0.16128256916999817,0.6300387382507324,-3.139738955229717,-0.006546809856918412,1.5653447515870014,148.82543103448276,145.43965517241378,124.375,121.19827586206897,100.1038961038961,145.60173160173161,124.57758620689656,169.9094827586207,125.0,121.0,101.0,145.0,125.0,169.0,149.0,145.0
6,0.30000000000000004,-0.014704704284667969,-0.0017688274383544922,1.5889122486114502,-0.013778448104858398,-1.562624216079712,-0.008681774139404297,0.6816737055778503,0.1598227173089981,0.6286698579788208,-3.1386991488336826,-0.008062490994478743,1.5647775132181403,148.71182795698925,145.31182795698925,124.2452025586354,120.95735607675905,99.875,145.54741379310346,124.44060475161987,169.79913606911447,125.0,121.0,101.0,145.0,125.0,169.0,149.0,145.0
7,0.35000000000000003,-0.016646623611450195,-0.001764059066772461,1.590986967086792,-0.014619588851928711,-1.561208963394165,-0.010068178176879883,0.6818305253982544,0.15862807631492615,0.6273432970046997,-3.137484885910954,-0.009498270431446174,1.5642031066741124,148.64743589743588,145.13675213675214,124.06837606837607,120.65598290598291,99.76609442060087,145.40987124463518,124.35974304068523,169.7066381156317,125.0,121.0,101.0,145.0,125.0,169.0,149.0,145.0
8,0.4,-0.01818108558654785,-0.0017881393432617188,1.5928027629852295,-0.014970064163208008,-1.5600664615631104,-0.011095762252807617,0.6818829774856567,0.15769566595554352,0.6261610984802246,-3.1360676043109033,-0.0106589875173655,1.563677650219936,148.62473347547976,144.8507462686567,123.94893617021276,120.5,99.6017130620985,145.15845824411136,124.28326180257511,169.5,125.0,121.0,101.0,145.0,125.0,169.0,149.0,145.0
9,0.45,-0.019858360290527344,-0.002695798873901367,1.5958607196807861,-0.015147924423217773,-1.5592496395111084,-0.012429475784301758,0.6813526153564453,0.15664058923721313,0.6247208714485168,-3.134123845021948,-0.011506652240720458,1.563307009111205,148.56236786469344,144.36363636363637,123.70550847457628,119.90254237288136,99.42004264392324,144.64605543710022,124.12210526315789,169.0,125.0,121.0,101.0,145.0,125.0,169.0,149.0,145.0
10,0.5,-0.020948410034179688,-0.0043506622314453125,1.600069284439087,-0.015334367752075195,-1.5594074726104736,-0.0130157470703125,0.680221676826477,0.1559065878391266,0.6230089068412781,-3.1317666316449744,-0.011381699772129703,1.5627789691198588,148.38396624472574,143.54641350210971,123.47679324894514,119.09071729957806,99.0609243697479,143.9096638655462,123.87659574468086,168.3787234042553,125.0,121.0,101.0,145.0,125.0,169.0,149.0,145.0
11,0.55,-0.02078866958618164,-0.003945350646972656,1.6010234355926514,-0.01560664176940918,-1.5594322681427002,-0.011845827102661133,0.6803104281425476,0.1560259759426117,0.6221143007278442,-3.1306645930832206,-0.01135170832447207,1.5617599828221052,148.42947368421054,143.39368421052632,123.5,118.86497890295358,99.12101910828025,143.69426751592357,123.92901878914405,168.16492693110646,125.0,121.0,101.0,145.0,125.0,169.0,149.0,145.0
12,0.6000000000000001,-0.02066493034362793,-0.003017902374267578,1.6013295650482178,-0.016086578369140625,-1.5592472553253174,-0.010648965835571289,0.6807621121406555,0.15613152086734772,0.6213252544403076,-3.1298949143808112,-0.0115283967289753,1.5606771027934407,148.5,143.3613445378151,123.52,118.84842105263158,99.15822784810126,143.75738396624473,124.02521008403362,168.22899159663865,125.0,121.0,101.0,145.0,125.0,169.0,149.0,145.0
13,0.65,-0.02047109603881836,-0.0021691322326660156,1.6016242504119873,-0.016289234161376953,-1.5592014789581299,-0.009403467178344727,0.6811346411705017,0.1562700718641281,0.620570957660675,-3.1289398720939747,-0.01156832524287116,1.559614221721754,148.60587002096437,143.30607966457023,123.53556485355648,118.77824267782427,99.22105263157894,143.74526315789473,124.12108559498957,168.16283924843424,125.0,121.0,101.0,145.0,125.0,169.0,149.0,145.0
14,0.7000000000000001,-0.020226240158081055,-0.0013132095336914062,1.6019032001495361,-0.01641082763671875,-1.559295892715454,-0.00810098648071289,0.6814941763877869,0.1564299762248993,0.6198146939277649,-3.1279101255783557,-0.011465158946600855,1.5585461649316936,148.66458333333333,143.23125,123.54811715481172,118.67154811715481,99.24369747899159,143.73319327731093,124.2029288702929,168.13179916317992,125.0,121.0,101.0,145.0,125.0,169.0,149.0,145.0
15,0.75,-0.0198824405670166,-0.0003802776336669922,1.601989507675171,-0.016299962997436523,-1.5595076084136963,-0.006705760955810547,0.6818749904632568,0.15664546191692352,0.6191118359565735,-3.126762490476991,-0.011241778780961302,1.5574848963756944,148.81327800829877,143.06016597510373,123.61506276150628,118.5460251046025,99.25,143.6827731092437,124.27521008403362,168.0483193277311,125.0,121.0,101.0,145.0,125.0,169.0,149.0,145.0
16,0.8,-0.019466876983642578,0.0005452632904052734,1.6018822193145752,-0.01598358154296875,-1.559875726699829,-0.005267620086669922,0.6822417974472046,0.15689487755298615,0.6185234785079956,-3.1256092300932337,-0.010857762023063966,1.5564556664510847,148.8724279835391,142.98559670781893,123.6054279749478,118.47807933194154,99.21593291404612,143.59119496855345,124.3655462184874,168.01680672268907,125.0,121.0,101.0,145.0,125.0,169.0,149.0,145.0
17,0.8500000000000001,-0.019275426864624023,0.0021924972534179688,1.6007344722747803,-0.015945911407470703,-1.5595996379852295,-0.004193782806396484,0.6831552982330322,0.15704280138015747,0.6181754469871521,-3.1250586781904284,-0.01111978890788962,1.555562250064163,148.95051546391753,143.04948453608247,123.68257261410788,118.62448132780084,99.34033613445378,143.8109243697479,124.5,168.2689075630252,125.0,121.0,101.0,145.0,125.0,169.0,149.0,145.0
18,0.9,-0.01916980743408203,0.003968954086303711,1.5992295742034912,-0.01557016372680664,-1.559185266494751,-0.0032303333282470703,0.6841541528701782,0.15714414417743683,0.617944061756134,-3.1243998260141757,-0.011521227635999977,1.5546893771065742,149.07867494824018,143.3416149068323,123.89506172839506,118.90123456790124,99.46526315789474,144.06736842105263,124.61603375527426,168.45358649789029,125.0,121.0,101.0,145.0,125.0,169.0,149.0,145.0
19,0.9500000000000001,-0.01918196678161621,0.005729198455810547,1.5979974269866943,-0.015129566192626953,-1.5588767528533936,-0.002302408218383789,0.6851211786270142,0.1571553647518158,0.6175302863121033,-3.1234189070774434,-0.011816315512731185,1.5537317325611224,149.1871101871102,143.48440748440748,123.94444444444444,119.0246913580247,99.51572327044025,144.28930817610063,124.7016806722689,168.53991596638656,125.0,121.0,101.0,145.0,125.0,169.0,149.0,145.0
20,1.0,-0.0190584659576416,0.00719904899597168,1.5972120761871338,-0.014408349990844727,-1.5589830875396729,-0.0012803077697753906,0.6858404278755188,0.15722370147705078,0.6169826984405518,-3.122000292918888,-0.011692374446108628,1.5528190278699214,149.26141078838174,143.41286307053943,123.92197125256673,118.96303901437372,99.51565762004175,144.23799582463465,124.76939203354297,168.55974842767296,125.0,121.0,101.0,145.0,125.0,169.0,149.0,145.0
21,1.05,-0.01915597915649414,0.008863449096679688,1.595918893814087,-0.01386713981628418,-1.5586659908294678,-0.0006263256072998047,0.6867702007293701,0.157176211476326,0.616663932800293,-3.1210800282681714,-0.011997851817152539,1.5520497686100143,149.25833333333333,143.5,123.94444444444444,119.0246913580247,99.5460251046025,144.38493723849373,124.86610878661088,168.7154811715481,125.0,121.0,101.0,145.0,125.0,169.0,149.0,145.0
22,1.1,-0.019177913665771484,0.010644912719726562,1.5943195819854736,-0.012816667556762695,-1.5583951473236084,2.86102294921875e-05,0.6877304911613464,0.15717503428459167,0.6164159178733826,-3.1198380865210864,-0.012254895331754861,1.551351926716321,149.33333333333334,143.54583333333332,123.97540983606558,119.10040983606558,99.63865546218487,144.5,124.97916666666667,168.83125,125.0,121.0,101.0,145.0,125.0,169.0,149.0,145.0
23,1.1500000000000001,-0.01916790008544922,0.012418031692504883,1.5925242900848389,-0.011324405670166016,-1.5582244396209717,0.0006306171417236328,0.6886599063873291,0.15718643367290497,0.6162588596343994,-3.118359467115757,-0.012411093458077753,1.5507380043574246,149.41458333333333,143.59375,124.02459016393442,119.10040983606558,99.69037656903765,144.5,125.01452282157676,168.86721991701245,125.0,121.0,101.0,145.0,125.0,169.0,149.0,145.0
24,1.2000000000000002,-0.019396066665649414,0.014042377471923828,1.5909802913665771,-0.010293245315551758,-1.5578835010528564,0.0010428428649902344,0.6895692348480225,0.15704943239688873,0.6160802245140076,-3.117241707735437,-0.012741608576592294,1.5500749200898707,149.45228215767634,143.6576763485477,124.04684317718942,119.16089613034623,99.67154811715481,144.5481171548117,125.06404958677686,168.9297520661157,125.0,121.0,101.0,145.0,125.0,169.0,149.0,145.0
25,1.25,-0.019599437713623047,0.01551961898803711,1.5896241664886475,-0.009235858917236328,-1.5576460361480713,0.0014376640319824219,0.6903771162033081,0.15692080557346344,0.6158720254898071,-3.116057465555604,-0.012968256093958484,1.5494552675997078,149.47817047817048,143.65696465696465,124.04684317718942,119.16089613034623,99.7071129707113,144.65690376569037,125.0703933747412,168.9544513457557,125.0,121.0,101.0,145.0,125.0,169.0,149.0,145.0
26,1.3,-0.01969146728515625,0.01681995391845703,1.5884296894073486,-0.007951736450195312,-1.5576331615447998,0.0019676685333251953,0.6910366415977478,0.15685077011585236,0.6156521439552307,-3.1146607118692016,-0.012963616328703078,1.5488154035494803,149.50103950103951,143.6174636174636,124.03877551020408,119.13673469387756,99.6847599164927,144.5991649269311,125.08921161825727,168.89004149377593,125.0,121.0,101.0,145.0,125.0,169.0,149.0,145.0
27,1.35,-0.0197904109954834,0.018311500549316406,1.5870506763458252,-0.006702899932861328,-1.5575830936431885,0.0024907588958740234,0.6918179392814636,0.15677666664123535,0.6154266595840454,-3.1132913111900593,-0.012994944667411511,1.5481738628672157,149.52282157676348,143.54564315352698,123.96945010183299,119.13034623217922,99.67083333333333,144.62083333333334,125.09583333333333,168.84166666666667,125.0,121.0,101.0,145.0,125.0,169.0,149.0,145.0
28,1.4000000000000001,-0.019724607467651367,0.01980137825012207,1.585634469985962,-0.00525212287902832,-1.557727575302124,0.0031418800354003906,0.692556619644165,0.15679867565631866,0.6152055263519287,-3.1117576372952342,-0.012826382277111406,1.5475739258167343,149.5,143.5,123.97755102040816,119.10612244897959,99.67154811715481,144.5481171548117,125.11850311850311,168.82952182952184,125.0,121.0,101.0,145.0,125.0,169.0,149.0,145.0
29,1.4500000000000002,-0.019601106643676758,0.0217130184173584,1.5835883617401123,-0.0033674240112304688,-1.557842493057251,0.0038726329803466797,0.6935245990753174,0.15685953199863434,0.6150717735290527,-3.109996066255827,-0.012681763472266782,1.5469482348755816,149.5,143.5,123.98159509202453,119.04703476482618,99.7160751565762,144.50313152400835,125.21802935010483,168.72955974842768,125.0,121.0,101.0,145.0,125.0,169.0,149.0,145.0
30,1.5,-0.018885374069213867,0.025421857833862305,1.5792362689971924,0.0004220008850097656,-1.5585825443267822,0.00510716438293457,0.695367693901062,0.1572556048631668,0.615048348903656,-3.106828236929594,-0.011882194424929965,1.5464161806482242,149.47717842323652,143.45435684647302,123.98159509202453,119.04703476482618,99.7160751565762,144.50313152400835,125.20253164556962,168.6561181434599,125.0,121.0,101.0,145.0,125.0,169.0,149.0,145.0
31,1.55,-0.01723647117614746,0.030179738998413086,1.5740869045257568,0.0056078433990478516,-1.5607106685638428,0.007737874984741211,0.6975266933441162,0.15817005932331085,0.6146836876869202,-3.102006806215949,-0.009618445725696749,1.5454649675232282,149.34368530020703,143.17391304347825,123.84317718940937,118.87780040733197,99.57083333333334,144.35833333333332,125.09936575052853,168.4524312896406,125.0,121.0,101.0,145.0,125.0,169.0,149.0,145.0
32,1.6,-0.01513218879699707,0.035231590270996094,1.5680906772613525,0.009485006332397461,-1.561722993850708,0.010906457901000977,0.6999978423118591,0.15952232480049133,0.6148129105567932,-3.0990507169586463,-0.00844341181866316,1.5444200017136194,149.59751037344398,143.33402489626556,124.0,119.0,99.89308176100629,144.54297693920336,125.3678646934461,168.56659619450318,125.0,121.0,101.0,145.0,125.0,169.0,149.0,145.0
33,1.6500000000000001,-0.012219905853271484,0.0406498908996582,1.5607235431671143,0.016093969345092773,-1.5653502941131592,0.014940261840820312,0.7023897767066956,0.1611926257610321,0.6153258085250854,-3.094410612747251,-0.004573253990945728,1.5434363376648708,149.39121338912133,143.13807531380752,123.90983606557377,118.94057377049181,99.71789473684211,144.44,125.24416135881104,168.36730360934183,125.0,121.0,101.0,145.0,125.0,169.0,149.0,145.0
34,1.7000000000000002,-0.010196685791015625,0.04625511169433594,1.5541408061981201,0.020117521286010742,-1.5668771266937256,0.018213272094726562,0.705189049243927,0.16245156526565552,0.6154176592826843,-3.0913716996728366,-0.002838696568627615,1.542252195891997,149.5,143.3613445378151,123.94489795918368,119.13673469387756,99.89419087136929,144.8091286307054,125.37872340425533,168.5723404255319,125.0,121.0,101.0,145.0,125.0,169.0,149.0,145.0
35,1.75,-0.007219791412353516,0.05007791519165039,1.5497486591339111,0.024614334106445312,-1.5698845386505127,0.022432804107666016,0.7066361308097839,0.164265975356102,0.6152378916740417,-3.0875036298077805,0.00046686790714909823,1.5411687455203722,149.5,143.0,123.93456032719837,118.93456032719837,99.80293501048219,144.45702306079664,125.41452991452991,168.258547008547,125.0,121.0,101.0,145.0,125.0,169.0,149.0,145.0
36,1.8,-0.005299806594848633,0.05567169189453125,1.542743444442749,0.02884507179260254,-1.5716407299041748,0.02525949478149414,0.7094656229019165,0.1654478907585144,0.6155742406845093,-3.0847249253008378,0.0024416732531690093,1.5403660474331538,149.5,143.3613445378151,123.93877551020408,119.18163265306123,99.90248962655602,144.85684647302904,125.48394004282655,168.5203426124197,125.0,121.0,101.0,145.0,125.0,169.0,149.0,145.0
37,1.85,-0.002544403076171875,0.06098437309265137,1.5364997386932373,0.03361868858337402,-1.5744049549102783,0.02892160415649414,0.7118678092956543,0.16714289784431458,0.6155266165733337,-3.0809652795068287,0.0055201704047088745,1.5396429751508698,149.4842105263158,143.34105263157895,123.92057026476579,119.19959266802444,99.91735537190083,144.93801652892563,125.5,168.5,125.0,121.0,101.0,145.0,125.0,169.0,149.0,145.0
38,1.9000000000000001,0.00035452842712402344,0.06588077545166016,1.530773401260376,0.03812003135681152,-1.5773160457611084,0.03277468681335449,0.7139992117881775,0.1689450591802597,0.6154459714889526,-3.0774099632789964,0.008780014161665132,1.5389049648867377,149.45569620253164,143.27426160337552,123.89634146341463,119.20731707317073,99.90269151138716,144.91718426501035,125.48394004282655,168.4796573875803,125.0,121.0,101.0,145.0,125.0,169.0,149.0,145.0
39,1.9500000000000002,0.0034151077270507812,0.07121729850769043,1.5243051052093506,0.04319119453430176,-1.5802266597747803,0.03683948516845703,0.7163412570953369,0.17087695002555847,0.6154773831367493,-3.0736102653728268,0.012087284016242603,1.5381426886083376,149.46186440677965,143.1843220338983,123.92057026476579,119.19959266802444,99.9399585921325,144.9503105590062,125.5,168.37662337662337,125.0,121.0,101.0,145.0,125.0,169.0,149.0,145.0
40,2.0,0.0059545040130615234,0.07572412490844727,1.5190813541412354,0.04709625244140625,-1.5828874111175537,0.04057598114013672,0.7183307409286499,0.1724673956632614,0.6153722405433655,-3.0705731487794834,0.015118154074808604,1.537180962098107,149.40976645435245,143.19108280254778,123.84662576687117,119.24130879345603,99.94421487603306,144.97520661157026,125.5,168.37662337662337,125.0,121.0,101.0,145.0,125.0,169.0,149.0,145.0
41,2.0500000000000003,0.008915185928344727,0.08061981201171875,1.5134294033050537,0.05136990547180176,-1.5858094692230225,0.04471540451049805,0.7204458713531494,0.17435288429260254,0.6152263283729553,-3.067245263057218,0.018477546386216213,1.5362833416580175,149.40085287846483,143.16204690831557,123.8036809815951,119.32515337423312,99.9356846473029,145.0207468879668,125.48156182212581,168.35791757049893,125.0,121.0,101.0,145.0,125.0,169.0,149.0,145.0
42,2.1,0.011608123779296875,0.08518147468566895,1.5083506107330322,0.055207014083862305,-1.5884077548980713,0.04845571517944336,0.7224151492118835,0.17608654499053955,0.6149665117263794,-3.06411616356893,0.021499685930946418,1.5355090021351052,149.40085287846483,143.16204690831557,123.8036809815951,119.32515337423312,99.9356846473029,145.0207468879668,125.5,168.33913043478262,125.0,121.0,101.0,145.0,125.0,169.0,149.0,145.0
43,2.15,0.014684438705444336,0.09044432640075684,1.502549409866333,0.05948352813720703,-1.591407060623169,0.05268979072570801,0.7246947288513184,0.17807911336421967,0.614626407623291,-3.060619543516779,0.025005518330196767,1.5346871777268756,149.40085287846483,143.16204690831557,123.8036809815951,119.32515337423312,99.93139293139293,145.04573804573803,125.59694989106754,168.32897603485839,125.0,121.0,101.0,145.0,125.0,169.0,149.0,145.0
44,2.2,0.01816725730895996,0.09646129608154297,1.4956567287445068,0.06448602676391602,-1.5947625637054443,0.057053327560424805,0.727318525314331,0.18035711348056793,0.6143820881843567,-3.056782181459015,0.028927996809536664,1.5342095216670806,149.40085287846483,143.16204690831557,123.76543209876543,119.38683127572017,99.92708333333333,145.18958333333333,125.64847161572052,168.3646288209607,125.0,121.0,101.0,145.0,125.0,169.0,149.0,145.0
45,2.25,0.021747589111328125,0.10162544250488281,1.4894649982452393,0.06937026977539062,-1.5980565547943115,0.061156511306762695,0.7294243574142456,0.18271954357624054,0.6142926216125488,-3.0532414428930847,0.03277858108371265,1.5341040587824661,149.39614561027838,143.08137044967881,123.82857142857142,119.33061224489796,99.95634095634095,145.12474012474013,125.65054945054945,168.23076923076923,125.0,121.0,101.0,145.0,125.0,169.0,149.0,145.0
46,2.3000000000000003,0.024907588958740234,0.10696053504943848,1.4835526943206787,0.07353019714355469,-1.6013123989105225,0.06534576416015625,0.731722354888916,0.1847960501909256,0.6139439940452576,-3.050000212428666,0.036606389275551425,1.533503888248715,149.34978540772534,143.137339055794,123.75726141078839,119.47095435684648,99.92050209205021,145.27405857740587,125.67549668874172,168.32008830022076,125.0,121.0,101.0,145.0,125.0,169.0,149.0,145.0
47,2.35,0.028148174285888672,0.11192870140075684,1.4779636859893799,0.07787656784057617,-1.604341745376587,0.0691990852355957,0.7337604761123657,0.18696202337741852,0.613616943359375,-3.046617036334116,0.04021295799621019,1.5333290732120088,149.3978494623656,143.08172043010754,123.8045267489712,119.41358024691358,99.94339622641509,145.26205450733752,125.69315673289184,168.23620309050773,125.0,121.0,101.0,145.0,125.0,169.0,149.0,145.0
48,2.4000000000000004,0.03141164779663086,0.11705470085144043,1.4723832607269287,0.08194780349731445,-1.6076686382293701,0.07336115837097168,0.7358905673027039,0.18913690745830536,0.6131811141967773,-3.0433990710986722,0.044161989589200035,1.5329186456169763,149.3548387096774,143.11182795698926,123.74741200828157,119.49482401656314,99.88235294117646,145.35714285714286,125.67770419426049,168.27373068432672,125.0,121.0,101.0,145.0,125.0,169.0,149.0,145.0
49,2.45,0.03478407859802246,0.12206196784973145,1.4670608043670654,0.0860142707824707,-1.6108481884002686,0.07742953300476074,0.7379031777381897,0.19141942262649536,0.6126473546028137,-3.0400609309027735,0.04799058797936165,1.5327276345790062,149.4094827586207,143.00646551724137,123.8045267489712,119.41358024691358,99.90146750524109,145.33962264150944,125.69844789356985,168.23503325942352,125.0,121.0,101.0,145.0,125.0,169.0,149.0,145.0
50,2.5,0.037627458572387695,0.12656164169311523,1.4618971347808838,0.08998608589172363,-1.613673448562622,0.08116698265075684,0.7397465705871582,0.19334706664085388,0.6123846173286438,-3.0371533879955983,0.051419910268728025,1.5323010870543712,149.3952483801296,142.98488120950324,123.78053830227744,119.45962732919254,99.9142259414226,145.36192468619248,125.70509977827051,168.1330376940133,125.0,121.0,101.0,145.0,125.0,169.0,149.0,145.0
51,2.5500000000000003,0.04062390327453613,0.13127779960632324,1.4570162296295166,0.09343457221984863,-1.6167609691619873,0.08513069152832031,0.7416850328445435,0.19538141787052155,0.6118080615997314,-3.0343193906408765,0.055153764030014034,1.5318501170235657,149.3470715835141,142.99132321041213,123.70867768595042,119.54752066115702,99.88541666666667,145.42291666666668,125.70222222222222,168.20888888888888,125.0,121.0,101.0,145.0,125.0,169.0,149.0,145.0
52,2.6,0.044051170349121094,0.1363539695739746,1.4514200687408447,0.09772729873657227,-1.619960069656372,0.08931756019592285,0.7437012195587158,0.19775083661079407,0.6113461256027222,-3.0310450453958473,0.05908750616961132,1.5316708619491617,149.35886214442013,142.86652078774617,123.78189300411523,119.51028806584362,99.93096234309624,145.43096234309624,125.71269487750557,168.13140311804008,125.0,121.0,101.0,145.0,125.0,169.0,149.0,145.0
53,2.6500000000000004,0.04663658142089844,0.14048051834106445,1.4467966556549072,0.10128951072692871,-1.6225769519805908,0.09296107292175293,0.7453681826591492,0.1995352804660797,0.6110087037086487,-3.0284258432154236,0.06233985946293228,1.5311045640388419,149.33333333333334,142.8267543859649,123.73347107438016,119.51652892561984,99.90605427974948,145.4384133611691,125.71269487750557,168.13140311804008,125.0,121.0,101.0,145.0,125.0,169.0,149.0,145.0
54,2.7,0.04954171180725098,0.14494824409484863,1.4415862560272217,0.10533285140991211,-1.625361680984497,0.0968935489654541,0.7471495866775513,0.2015630602836609,0.6107499599456787,-3.025624295331302,0.06583369850022755,1.530622080315331,149.33991228070175,142.7938596491228,123.73347107438016,119.51652892561984,99.93110647181628,145.482254697286,125.76233183856502,168.09641255605382,125.0,121.0,101.0,145.0,125.0,169.0,149.0,145.0
55,2.75,0.05256843566894531,0.14939260482788086,1.4363505840301514,0.109375,-1.6283295154571533,0.10095453262329102,0.7488927245140076,0.20367935299873352,0.6105152368545532,-3.0229195770018813,0.06954091672729691,1.530173242819349,149.3208791208791,142.77582417582417,123.7432712215321,119.54037267080746,99.93110647181628,145.482254697286,125.78876404494382,168.08988764044943,125.0,121.0,101.0,145.0,125.0,169.0,149.0,145.0
56,2.8000000000000003,0.055622100830078125,0.15419387817382812,1.430633783340454,0.11377358436584473,-1.631324052810669,0.1050724983215332,0.7508124709129333,0.20583565533161163,0.6102848052978516,-3.020013701171648,0.07332325406401093,1.5297339693402072,149.27373068432672,142.77704194260485,123.74380165289256,119.56611570247934,99.94979079497908,145.5,125.76523702031602,168.04288939051918,125.0,121.0,101.0,145.0,125.0,169.0,149.0,145.0
57,2.85,0.058838844299316406,0.15927577018737793,1.4250009059906006,0.11803460121154785,-1.6345508098602295,0.10967469215393066,0.7528321743011475,0.20811723172664642,0.6097846627235413,-3.016964719589441,0.0774402643917876,1.5290444344148106,149.27373068432672,142.77704194260485,123.71694214876032,119.59710743801652,99.93736951983298,145.62630480167016,125.7918552036199,168.04751131221718,125.0,121.0,101.0,145.0,125.0,169.0,149.0,145.0
58,2.9000000000000004,0.06208205223083496,0.16366887092590332,1.4201443195343018,0.1219024658203125,-1.6377484798431396,0.1141502857208252,0.7544535994529724,0.2104119062423706,0.6093242764472961,-3.0142450957304314,0.08150478747101071,1.528503955328427,149.24061810154527,142.6953642384106,123.7184265010352,119.57142857142857,99.9125,145.61875,125.83069977426636,167.99548532731376,125.0,121.0,101.0,145.0,125.0,169.0,149.0,145.0
59,2.95,0.0650029182434082,0.16793465614318848,1.415236234664917,0.12571215629577637,-1.6405651569366455,0.11819219589233398,0.7560794353485107,0.21250483393669128,0.6089903712272644,-3.0117160621115078,0.08513130151382112,1.5280244783864325,149.26431718061673,142.636563876652,123.7184265010352,119.57142857142857,99.9625,145.63333333333333,125.96162528216705,167.91196388261852,125.0,121.0,101.0,145.0,125.0,169.0,149.0,145.0
60,3.0,0.0677342414855957,0.17211580276489258,1.41036057472229,0.1292734146118164,-1.643334150314331,0.12181210517883301,0.7577219009399414,0.2144647091627121,0.608711838722229,-3.009466488618181,0.08864075532237921,1.5277603888360944,149.22787610619469,142.67256637168143,123.69484536082474,119.61030927835051,99.99166666666666,145.675,125.88409090909092,167.99545454545455,125.0,121.0,101.0,145.0,125.0,169.0,149.0,145.0
61,3.0500000000000003,0.0714561939239502,0.1770784854888916,1.404369592666626,0.13406085968017578,-1.6469848155975342,0.1268770694732666,0.7595236301422119,0.21714237332344055,0.6084522008895874,-3.0065775337777083,0.0933344416632751,1.527269210845405,149.21238938053096,142.60619469026548,123.7184265010352,119.57142857142857,99.99166666666666,145.675,125.93891402714932,167.89819004524887,125.0,121.0,101.0,145.0,125.0,169.0,149.0,145.0
62,3.1,0.07460618019104004,0.18165898323059082,1.3990094661712646,0.13805365562438965,-1.6501924991607666,0.13129758834838867,0.7612635493278503,0.21942506730556488,0.6081284284591675,-3.00415868698357,0.09746213811587705,1.5267588992339631,149.15144766146994,142.61247216035636,123.69135802469135,119.6358024691358,100.0,145.7125,125.94784580498866,167.92290249433105,125.0,121.0,101.0,145.0,125.0,169.0,149.0,145.0
63,3.1500000000000004,0.07786393165588379,0.18641948699951172,1.3933756351470947,0.14241957664489746,-1.6534068584442139,0.1358504295349121,0.7630451321601868,0.22180652618408203,0.6078017950057983,-3.0015042548192574,0.10166654311067783,1.5262734381050682,149.1380846325167,142.5924276169265,123.67008196721312,119.67008196721312,100.01673640167364,145.7489539748954,126.00228832951944,167.86270022883295,125.0,121.0,101.0,145.0,125.0,169.0,149.0,145.0
64,3.2,0.08096480369567871,0.19103598594665527,1.3881208896636963,0.14632892608642578,-1.6565229892730713,0.14009571075439453,0.7647883892059326,0.22408516705036163,0.6073656678199768,-2.9990579608855814,0.10572567895122263,1.525923005172385,149.06741573033707,142.57977528089887,123.67008196721312,119.67008196721312,100.02494802494803,145.87110187110187,126.01605504587155,167.88532110091742,125.0,121.0,101.0,145.0,125.0,169.0,149.0,145.0
65,3.25,0.08382916450500488,0.1948080062866211,1.3836662769317627,0.14998316764831543,-1.6593339443206787,0.14416956901550293,0.7660983204841614,0.22618365287780762,0.6070735454559326,-2.996885727284075,0.10943882315090356,1.5254495300879587,149.01360544217687,142.47619047619048,123.67008196721312,119.67008196721312,100.01255230125523,145.79707112970712,126.00229357798165,167.79128440366972,125.0,121.0,101.0,145.0,125.0,169.0,149.0,145.0
66,3.3000000000000003,0.08649802207946777,0.198822021484375,1.379014253616333,0.15357589721679688,-1.6619312763214111,0.14813947677612305,0.7675874829292297,0.22817452251911163,0.6067152619361877,-2.994710379424151,0.11294158941743572,1.5248676442250932,149.01360544217687,142.47619047619048,123.67008196721312,119.67008196721312,100.02282157676349,145.89626556016597,126.03917050691244,167.81336405529953,125.0,121.0,101.0,145.0,125.0,169.0,149.0,145.0
67,3.35,0.08928918838500977,0.20257043838500977,1.3745052814483643,0.1572434902191162,-1.664646863937378,0.15224313735961914,0.7688913345336914,0.23024603724479675,0.6064581871032715,-2.9926377443292305,0.11659127179563503,1.524303383995827,149.00456621004565,142.39954337899545,123.67008196721312,119.67008196721312,100.02282157676349,145.89626556016597,126.0554272517321,167.64665127020785,125.0,121.0,101.0,145.0,125.0,169.0,149.0,145.0
68,3.4000000000000004,0.09175491333007812,0.2060837745666504,1.3707869052886963,0.15991735458374023,-1.6671769618988037,0.15600991249084473,0.7701683640480042,0.23208259046077728,0.6059419512748718,-2.990959415835455,0.11996279872486887,1.5236842039381149,149.00456621004565,142.39954337899545,123.64476386036961,119.67351129363449,100.04149377593362,145.98340248962654,126.06279069767442,167.71627906976744,125.0,121.0,101.0,145.0,125.0,169.0,149.0,145.0
69,3.45,0.09468770027160645,0.2096099853515625,1.3667047023773193,0.16315603256225586,-1.6700923442840576,0.1603684425354004,0.7713194489479065,0.23425355553627014,0.6056046485900879,-2.989215786207165,0.12384478440085141,1.5230396873457246,148.99545454545455,142.35454545454544,123.64476386036961,119.67351129363449,100.06418219461698,145.99585921325053,126.06744186046511,167.66976744186047,125.0,121.0,101.0,145.0,125.0,169.0,149.0,145.0
70,3.5,0.09773826599121094,0.21316766738891602,1.3626377582550049,0.1663365364074707,-1.6731812953948975,0.1650221347808838,0.7724568843841553,0.23651251196861267,0.6052335500717163,-2.987574120331966,0.12795418975597853,1.522258644974052,148.9502262443439,142.26470588235293,123.61934156378601,119.67078189300412,100.0703933747412,146.09316770186336,126.03720930232558,167.62790697674419,125.0,121.0,101.0,145.0,125.0,169.0,149.0,145.0
71,3.5500000000000003,0.10057544708251953,0.21580910682678223,1.3595373630523682,0.1689765453338623,-1.6759707927703857,0.16953158378601074,0.773142397403717,0.2385917454957962,0.6049925088882446,-2.986391473177938,0.13168706289823437,1.5213102270861258,148.92378752886836,142.07621247113164,123.61649484536082,119.64536082474227,100.09937888198758,146.0103519668737,126.08120649651973,167.54988399071925,125.0,121.0,101.0,145.0,125.0,169.0,149.0,145.0
72,3.6,0.1030111312866211,0.21852350234985352,1.3558752536773682,0.17193078994750977,-1.6783287525177002,0.1735062599182129,0.7739751935005188,0.24040916562080383,0.6050282120704651,-2.985272716846427,0.13489861882934748,1.520412046159531,148.9351851851852,142.05092592592592,123.59420289855072,119.61904761904762,100.14553014553015,146.03118503118503,126.15617715617715,167.36829836829835,125.0,121.0,101.0,145.0,125.0,169.0,149.0,145.0
73,3.6500000000000004,0.10542941093444824,0.22106409072875977,1.3529226779937744,0.1739177703857422,-1.6808745861053467,0.1774599552154541,0.7747583389282227,0.24219514429569244,0.6048135757446289,-2.9846277806656687,0.1382338080726338,1.5194956661153534,148.92378752886836,142.07621247113164,123.58471074380165,119.69421487603306,100.15899581589959,146.21757322175733,126.17136150234742,167.5281690140845,125.0,121.0,101.0,145.0,125.0,169.0,149.0,145.0
74,3.7,0.10796475410461426,0.22308611869812012,1.349973440170288,0.17653179168701172,-1.6833956241607666,0.1814873218536377,0.775185763835907,0.24404777586460114,0.6049553751945496,-2.983903599152208,0.1415805561661407,1.5186410272736413,148.830626450116,141.9721577726218,123.56846473029046,119.62033195020747,100.18333333333334,146.18333333333334,126.16822429906541,167.34345794392524,125.0,121.0,101.0,145.0,125.0,169.0,149.0,145.0
75,3.75,0.11027073860168457,0.22470712661743164,1.347830057144165,0.17824053764343262,-1.6857426166534424,0.18548917770385742,0.7754802703857422,0.24572241306304932,0.6049605011940002,-2.983668657942677,0.1446781072585438,1.5174887273676052,148.78240740740742,141.91666666666666,123.56846473029046,119.62033195020747,100.18371607515658,146.20876826722338,126.2196261682243,167.33878504672896,125.0,121.0,101.0,145.0,125.0,169.0,149.0,145.0
76,3.8000000000000003,0.11240696907043457,0.2263782024383545,1.3454043865203857,0.18023371696472168,-1.6878554821014404,0.18918061256408691,0.7758345007896423,0.24729037284851074,0.605080246925354,-2.9833151652994467,0.14751140099382218,1.5164492152189963,148.7953488372093,141.84651162790698,123.54488517745303,119.55949895615866,100.2029288702929,146.22594142259413,126.24882629107981,167.2018779342723,125.0,121.0,101.0,145.0,125.0,169.0,149.0,145.0
77,3.85,0.1146080493927002,0.22774577140808105,1.3434498310089111,0.18163585662841797,-1.690108060836792,0.19300150871276855,0.7760411500930786,0.2488848865032196,0.6051845550537109,-2.983444936808646,0.15043367021642154,1.5153074849408434,148.7511737089202,141.82394366197184,123.46848739495799,119.61974789915966,100.2029288702929,146.22594142259413,126.24882629107981,167.2018779342723,125.0,121.0,101.0,145.0,125.0,169.0,149.0,145.0
78,3.9000000000000004,0.11709761619567871,0.2293243408203125,1.341186285018921,0.18327832221984863,-1.6924984455108643,0.1970834732055664,0.776283860206604,0.25070881843566895,0.6053022742271423,-2.9835138755123505,0.15355795627831054,1.5142380258569257,148.7764705882353,141.81176470588235,123.46750524109015,119.64570230607967,100.25210084033614,146.2310924369748,126.30679156908666,167.18266978922716,125.0,121.0,101.0,145.0,125.0,169.0,149.0,145.0
79,3.95,0.1196742057800293,0.23105335235595703,1.338681936264038,0.18503808975219727,-1.6950795650482178,0.20125722885131836,0.7765895128250122,0.25259503722190857,0.6054491996765137,-2.9836249056810655,0.15688746084550947,1.5131983089591616,148.75,141.8066037735849,123.45073375262055,119.69392033542977,100.27672955974843,146.28511530398322,126.30679156908666,167.18266978922716,125.0,121.0,101.0,145.0,125.0,169.0,149.0,145.0
80,4.0,0.12226009368896484,0.23260951042175293,1.3363993167877197,0.18673014640808105,-1.6976687908172607,0.205519437789917,0.7767874002456665,0.25447821617126465,0.6055942177772522,-2.9837947214060336,0.16023425604439714,1.512077676573978,148.7570754716981,141.69811320754718,123.45073375262055,119.69392033542977,100.28781512605042,146.35504201680672,126.32710280373831,167.16355140186917,125.0,121.0,101.0,145.0,125.0,169.0,149.0,145.0
81,4.05,0.12470412254333496,0.2336900234222412,1.3342955112457275,0.1884315013885498,-1.700084924697876,0.2095935344696045,0.7767637372016907,0.25623685121536255,0.6060025691986084,-2.984216105451165,0.1633299986710544,1.5109284970862829,148.70352941176472,141.61176470588236,123.43697478991596,119.67226890756302,100.30105263157894,146.37684210526317,126.35362997658079,167.1545667447307,125.0,121.0,101.0,145.0,125.0,169.0,149.0,145.0
82,4.1000000000000005,0.12709784507751465,0.23455119132995605,1.3320491313934326,0.19037127494812012,-1.7023522853851318,0.21362972259521484,0.7766294479370117,0.2579573094844818,0.6066596508026123,-2.9847491266762156,0.166251531757254,1.5097221133531413,148.56769596199524,141.45368171021377,123.43008474576271,119.56991525423729,100.29894736842105,146.33052631578948,126.41258741258741,167.06526806526807,125.0,121.0,101.0,145.0,125.0,169.0,149.0,145.0
83,4.15,0.1290278434753418,0.23551201820373535,1.329591989517212,0.19237446784973145,-1.7040579319000244,0.2170403003692627,0.7766660451889038,0.25937581062316895,0.6073571443557739,-2.985134234229745,0.1685219249368537,1.5085812769627673,148.56428571428572,141.36190476190475,123.43008474576271,119.56991525423729,100.35805084745763,146.3050847457627,126.46713615023474,166.981220657277,125.0,121.0,101.0,145.0,125.0,169.0,149.0,145.0
84,4.2,0.13077998161315918,0.2364506721496582,1.3271105289459229,0.1942915916442871,-1.7056753635406494,0.22025227546691895,0.7767460346221924,0.26066455245018005,0.6080935001373291,-2.9856114178187143,0.1706511201749119,1.5074254572390178,148.49521531100478,141.26076555023923,123.43008474576271,119.56991525423729,100.43283582089552,146.317697228145,126.49411764705883,166.97411764705882,125.0,121.0,101.0,145.0,125.0,169.0,149.0,145.0
85,4.25,0.13220858573913574,0.23716259002685547,1.3246567249298096,0.196333646774292,-1.7069766521453857,0.22315335273742676,0.7767734527587891,0.26171547174453735,0.6089802980422974,-2.9860620384627867,0.1724102733507119,1.5061945973088886,148.38701923076923,141.27644230769232,123.40976645435244,119.55414012738854,100.4796573875803,146.31263383297645,126.46445497630332,166.91232227488152,125.0,121.0,101.0,145.0,125.0,169.0,149.0,145.0
86,4.3,0.13350200653076172,0.23785853385925293,1.322596788406372,0.19802093505859375,-1.7081749439239502,0.22608208656311035,0.776821494102478,0.26267167925834656,0.6096468567848206,-2.986480814183549,0.1740797124571398,1.504788712934982,148.3468899521531,141.244019138756,123.3482905982906,119.58333333333333,100.51605995717345,146.3254817987152,126.54739336492891,166.8436018957346,125.0,121.0,101.0,145.0,125.0,169.0,149.0,145.0
87,4.3500000000000005,0.1347808837890625,0.2387242317199707,1.3205068111419678,0.19962763786315918,-1.7093617916107178,0.22877073287963867,0.7769660949707031,0.26363033056259155,0.610200822353363,-2.986802255592985,0.17571433448344417,1.5036172420491725,148.27884615384616,141.11778846153845,123.32334047109208,119.59100642398288,100.57995735607676,146.36247334754796,126.61666666666666,166.77857142857144,125.0,121.0,101.0,145.0,125.0,169.0,149.0,145.0
88,4.4,0.1358168125152588,0.23943114280700684,1.3185827732086182,0.20113515853881836,-1.710313081741333,0.23108530044555664,0.7770851254463196,0.2644093930721283,0.6107810139656067,-2.9871107916691355,0.177043198903307,1.5025254905335037,148.27884615384616,141.11778846153845,123.30472103004291,119.60944206008584,100.66098081023455,146.4179104477612,126.65071770334929,166.70334928229664,125.0,121.0,101.0,145.0,125.0,169.0,149.0,145.0
89,4.45,0.13677024841308594,0.23995518684387207,1.316992998123169,0.2023482322692871,-1.711256742477417,0.23332643508911133,0.7771329879760742,0.2651122510433197,0.6113152503967285,-2.987554391211581,0.17832385672676068,1.5013970431783403,148.27884615384616,141.11778846153845,123.3125,119.65517241379311,100.68736616702355,146.46038543897217,126.7277108433735,166.70361445783132,125.0,121.0,101.0,145.0,125.0,169.0,149.0,145.0
90,4.5,0.1377251148223877,0.24053072929382324,1.3153221607208252,0.20363783836364746,-1.7122328281402588,0.23552799224853516,0.777204692363739,0.26581740379333496,0.6118533611297607,-2.98795462468072,0.17963858981237157,1.500323094021566,148.22966507177034,141.10047846889952,123.3125,119.65517241379311,100.68736616702355,146.46038543897217,126.75603864734299,166.70048309178745,125.0,121.0,101.0,145.0,125.0,169.0,149.0,145.0
91,4.55,0.138685941696167,0.24121427536010742,1.31351637840271,0.205033540725708,-1.7132017612457275,0.2377455234527588,0.7773274779319763,0.2665363550186157,0.612383246421814,-2.9882812833900805,0.18096583489272217,1.499251977766724,148.19230769230768,141.0625,123.27982646420824,119.67245119305856,100.71153846153847,146.47008547008548,126.76941747572816,166.64805825242718,125.0,121.0,101.0,145.0,125.0,169.0,149.0,145.0
92,4.6000000000000005,0.13962864875793457,0.24188804626464844,1.3117616176605225,0.20636534690856934,-1.7141497135162354,0.2399446964263916,0.7774509787559509,0.2672431468963623,0.6128926873207092,-2.9886292167758843,0.18226415012337266,1.4981727066466801,148.17349397590363,141.0433734939759,123.15800865800865,119.7965367965368,100.70235546038543,146.53961456102783,126.77372262773723,166.62043795620437,125.0,121.0,101.0,145.0,125.0,169.0,149.0,145.0
93,4.65,0.14070439338684082,0.24255013465881348,1.3100450038909912,0.20767760276794434,-1.7151515483856201,0.24217987060546875,0.7775312662124634,0.2680482864379883,0.6133891940116882,-2.988992367739721,0.18362158074256987,1.4971997111544808,148.15738498789347,141.00968523002422,123.12826086956522,119.81086956521739,100.74304068522484,146.56745182012847,126.80195599022005,166.60146699266502,125.0,121.0,101.0,145.0,125.0,169.0,149.0,145.0
94,4.7,0.14176487922668457,0.24316787719726562,1.3083384037017822,0.20899271965026855,-1.7161357402801514,0.244384765625,0.7775909304618835,0.2688397765159607,0.6139148473739624,-2.9893846820998964,0.1849494993482631,1.496232021311939,148.12408759124088,140.992700729927,123.15468409586056,119.87145969498911,100.8051391862955,146.63169164882228,126.76412776412776,166.56265356265357,125.0,121.0,101.0,145.0,125.0,169.0,149.0,145.0
95,4.75,0.14267301559448242,0.24355244636535645,1.3070123195648193,0.21006059646606445,-1.7170274257659912,0.2465348243713379,0.7775639891624451,0.269503116607666,0.6143985986709595,-2.989850091550226,0.18615606627820694,1.4951337290154896,148.12652068126522,140.94403892944038,123.15468409586056,119.87145969498911,100.82692307692308,146.64529914529913,126.76412776412776,166.56265356265357,125.0,121.0,101.0,145.0,125.0,169.0,149.0,145.0
96,4.800000000000001,0.14354944229125977,0.24383759498596191,1.3056724071502686,0.21117138862609863,-1.7178890705108643,0.24870777130126953,0.7774916887283325,0.2701372802257538,0.614967405796051,-2.9903887180795077,0.1873209679611501,1.49396203794372,148.09046454767727,140.90709046454768,123.08260869565217,119.86086956521739,100.84796573875803,146.62955032119913,126.76412776412776,166.56265356265357,125.0,121.0,101.0,145.0,125.0,169.0,149.0,145.0
97,4.8500000000000005,0.14449810981750488,0.244215726852417,1.3041326999664307,0.2124333381652832,-1.718759298324585,0.2509315013885498,0.7774477601051331,0.27083563804626465,0.6155789494514465,-2.9908984602527737,0.18851095842661528,1.4928208060083263,148.0562347188264,140.8753056234719,123.0806100217865,119.9041394335512,100.86480686695279,146.60944206008583,126.76412776412776,166.56265356265357,125.0,121.0,101.0,145.0,125.0,169.0,149.0,145.0
98,4.9,0.1454308032989502,0.24472832679748535,1.3024466037750244,0.21381568908691406,-1.7196142673492432,0.2531697750091553,0.777472734451294,0.2715325653553009,0.6161664128303528,-2.9913023342794514,0.18971220068010158,1.4916659837119581,148.0514705882353,140.84803921568627,122.98030634573304,119.91466083150985,100.89200863930886,146.6025917926566,126.83251231527093,166.51477832512316,125.0,121.0,101.0,145.0,125.0,169.0,149.0,145.0
99,4.95,0.14648699760437012,0.24541711807250977,1.3005592823028564,0.2152717113494873,-1.7205564975738525,0.25539660453796387,0.7775638103485107,0.2723321318626404,0.6167376637458801,-2.9916798479485878,0.1910062722663563,1.4906678849826624,148.0244498777506,140.8435207823961,122.92527472527472,119.97362637362637,100.95217391304348,146.6108695652174,126.89382716049383,166.45925925925926,125.0,121.0,101.0,145.0,125.0,169.0,149.0,145.0
100,5.0,0.14754462242126465,0.24623489379882812,1.298675775527954,0.2166738510131836,-1.7215282917022705,0.25754284858703613,0.7777221202850342,0.27313971519470215,0.6172075271606445,-2.9919758049210246,0.19233270483727521,1.489770379956059,147.95331695331694,140.84520884520884,122.92256637168141,120.01327433628319,100.96949891067538,146.67538126361657,126.91379310344827,166.4384236453202,125.0,121.0,101.0,145.0,125.0,169.0,149.0,145.0
101,5.050000000000001,0.14855051040649414,0.2469635009765625,1.2969586849212646,0.21798443794250488,-1.7224524021148682,0.2596597671508789,0.7778417468070984,0.27390387654304504,0.6176472902297974,-2.992274084015212,0.19360453613798606,1.488840518182471,147.91604938271604,140.8074074074074,122.9490022172949,120.01330376940133,101.00653594771242,146.69281045751634,126.91379310344827,166.4384236453202,125.0,121.0,101.0,145.0,125.0,169.0,149.0,145.0
102,5.1000000000000005,0.14947223663330078,0.2476215362548828,1.2952754497528076,0.21930837631225586,-1.7233083248138428,0.2617530822753906,0.7779413461685181,0.27460306882858276,0.6181207895278931,-2.992581052714257,0.19480189609001192,1.4878345618607234,147.8641975308642,140.7925925925926,122.91130820399113,120.03769401330376,101.03275109170306,146.69650655021834,126.91379310344827,166.4384236453202,125.0,121.0,101.0,145.0,125.0,169.0,149.0,145.0
103,5.15,0.15040183067321777,0.24834513664245605,1.2935316562652588,0.22069168090820312,-1.7241528034210205,0.2638571262359619,0.7780682444572449,0.2753148078918457,0.6185752153396606,-2.992827378057491,0.1960039870821439,1.4868359455403946,147.83622828784118,140.75434243176178,122.88839285714286,120.109375,101.14725274725275,146.74285714285713,126.96039603960396,166.34653465346534,125.0,121.0,101.0,145.0,125.0,169.0,149.0,145.0
104,5.2,0.15119504928588867,0.2489933967590332,1.2920477390289307,0.2218484878540039,-1.7249329090118408,0.2657740116119385,0.7781946659088135,0.27592000365257263,0.6189368367195129,-2.9930665845481226,0.1971076135528002,1.4858722607321597,147.77,140.7325,122.85682326621924,120.17897091722595,101.18061674008811,146.7797356828194,126.98263027295286,166.36228287841192,125.0,121.0,101.0,145.0,125.0,169.0,149.0,145.0
105,5.25,0.1519613265991211,0.24967455863952637,1.290543794631958,0.2230668067932129,-1.7256724834442139,0.2676372528076172,0.7783372402191162,0.276509553194046,0.6192793846130371,-2.9932165093028886,0.19818126286226892,1.4849430014743061,147.7070707070707,140.66666666666666,122.83035714285714,120.17633928571429,101.18061674008811,146.7797356828194,126.98263027295286,166.36228287841192,125.0,121.0,101.0,145.0,125.0,169.0,149.0,145.0
106,5.300000000000001,0.1527106761932373,0.2503688335418701,1.288959264755249,0.22437286376953125,-1.7263567447662354,0.2694857120513916,0.7784857749938965,0.2770925760269165,0.6196559071540833,-2.9933338120867754,0.19920505130669947,1.4840081537088514,147.67002518891687,140.5969773299748,122.83035714285714,120.17633928571429,101.2043956043956,146.76703296703297,127.0272952853598,166.34491315136475,125.0,121.0,101.0,145.0,125.0,169.0,149.0,145.0
107,5.3500000000000005,0.15341424942016602,0.25110721588134766,1.2872679233551025,0.22576379776000977,-1.7269952297210693,0.27127599716186523,0.7786678075790405,0.27764779329299927,0.6200587749481201,-2.9934093910019723,0.20018214020655128,1.4830843022784836,147.67171717171718,140.5681818181818,122.80846325167037,120.19153674832963,101.26106194690266,146.7920353982301,127.0525,166.285,125.0,121.0,101.0,145.0,125.0,169.0,149.0,145.0
108,5.4,0.15408778190612793,0.25179076194763184,1.2856733798980713,0.22705340385437012,-1.7276322841644287,0.27303385734558105,0.7788323760032654,0.2781760096549988,0.6204512715339661,-2.9935408617271877,0.20113915632008858,1.482150248060004,147.6886075949367,140.54430379746836,122.80444444444444,120.21777777777778,101.31263858093126,146.82926829268294,127.0525,166.285,125.0,121.0,101.0,145.0,125.0,169.0,149.0,145.0
109,5.45,0.15472817420959473,0.25239133834838867,1.2841236591339111,0.22833514213562012,-1.7282540798187256,0.27478504180908203,0.7789602279663086,0.2786731719970703,0.6208820939064026,-2.9937154650004576,0.20206944592165416,1.4811789908454598,147.66666666666666,140.52777777777777,122.77951002227171,120.20935412026726,101.31111111111112,146.85555555555555,127.02756892230576,166.2731829573935,125.0,121.0,101.0,145.0,125.0,169.0,149.0,145.0
110,5.5,0.15538883209228516,0.25292181968688965,1.2826063632965088,0.22960519790649414,-1.7288711071014404,0.27660322189331055,0.779045581817627,0.27918195724487305,0.6213493943214417,-2.993954606574162,0.20299287294711604,1.4801493482898247,147.66666666666666,140.52777777777777,122.75446428571429,120.21875,101.3207126948775,146.83073496659242,127.04020100502512,166.19346733668343,125.0,121.0,101.0,145.0,125.0,169.0,149.0,145.0
111,5.550000000000001,0.1560988426208496,0.25354433059692383,1.2810823917388916,0.23079323768615723,-1.7295582294464111,0.2784912586212158,0.7791732549667358,0.27973243594169617,0.6217532753944397,-2.9942237667336964,0.20399412063250086,1.4791089643049387,147.60152284263958,140.4720812182741,122.70535714285714,120.20982142857143,101.31111111111112,146.85555555555555,127.09045226130654,166.16331658291458,125.0,121.0,101.0,145.0,125.0,169.0,149.0,145.0
112,5.6000000000000005,0.1568279266357422,0.254169225692749,1.2795016765594482,0.2320261001586914,-1.7302162647247314,0.2803480625152588,0.779296338558197,0.28030070662498474,0.6221875548362732,-2.994491740881428,0.20496136082483002,1.4781130480994715,147.59240506329115,140.44556962025317,122.70535714285714,120.20982142857143,101.34298440979956,146.92650334075725,127.11838790931989,166.15617128463475,125.0,121.0,101.0,145.0,125.0,169.0,149.0,145.0
113,5.65,0.157517671585083,0.2546257972717285,1.2780296802520752,0.2332165241241455,-1.7308385372161865,0.2821846008300781,0.7793399691581726,0.2808273732662201,0.6226919293403625,-2.994852692766743,0.2058645569826139,1.4770714757028083,147.5699745547074,140.39440203562341,122.68232662192393,120.22371364653245,101.39149888143177,146.94854586129753,127.12280701754386,166.1002506265664,125.0,121.0,101.0,145.0,125.0,169.0,149.0,145.0
114,5.7,0.15815234184265137,0.25500988960266113,1.2766687870025635,0.23430848121643066,-1.7314198017120361,0.2839694023132324,0.7793622016906738,0.2813089191913605,0.6231896877288818,-2.99525406637573,0.20670504557256203,1.4760085071659736,147.529262086514,140.38167938931298,122.68232662192393,120.22371364653245,101.39149888143177,146.94854586129753,127.1859296482412,166.06532663316582,125.0,121.0,101.0,145.0,125.0,169.0,149.0,145.0
115,5.75,0.15879583358764648,0.25547313690185547,1.2752296924591064,0.23543167114257812,-1.7320163249969482,0.28575682640075684,0.7794247269630432,0.28180330991744995,0.6236706376075745,-2.995628863811016,0.2075689776145175,1.474960452580709,147.529262086514,140.38167938931298,122.65842696629214,120.27191011235955,101.39149888143177,146.94854586129753,127.1859296482412,166.06532663316582,125.0,121.0,101.0,145.0,125.0,169.0,149.0,145.0
116,5.800000000000001,0.15949463844299316,0.2560131549835205,1.2736952304840088,0.23662328720092773,-1.7326595783233643,0.28761935234069824,0.7795110940933228,0.28234338760375977,0.6241458654403687,-2.9959850697726957,0.20850056090966856,1.473907812135536,147.5484693877551,140.35969387755102,122.65842696629214,120.27191011235955,101.41741071428571,146.95535714285714,127.21158690176323,166.07556675062972,125.0,121.0,101.0,145.0,125.0,169.0,149.0,145.0
117,5.8500000000000005,0.1602015495300293,0.25655174255371094,1.2720520496368408,0.23790764808654785,-1.733318567276001,0.28951573371887207,0.7795925736427307,0.2828885316848755,0.624687135219574,-2.9963728793137774,0.20944692051172967,1.4728272512317733,147.48586118251927,140.33676092544988,122.65842696629214,120.27191011235955,101.40715883668904,146.9798657718121,127.25380710659898,166.0482233502538,125.0,121.0,101.0,145.0,125.0,169.0,149.0,145.0
118,5.9,0.16089510917663574,0.2570936679840088,1.2704036235809326,0.23919916152954102,-1.733952283859253,0.29140400886535645,0.7796773910522461,0.28342586755752563,0.6252274513244629,-2.996751002302865,0.21036726444431142,1.471738442677433,147.43927648578813,140.31007751937983,122.6410835214447,120.30474040632055,101.44295302013423,147.0178970917226,127.3650385604113,165.9897172236504,125.0,121.0,101.0,145.0,125.0,169.0,149.0,145.0
119,5.95,0.1615581512451172,0.2576878070831299,1.2687809467315674,0.24044513702392578,-1.7345802783966064,0.2931652069091797,0.7797988653182983,0.28394344449043274,0.6257117390632629,-2.997070846387329,0.21127263880457195,1.4707525975745124,147.43927648578813,140.31007751937983,122.59410430839003,120.31519274376417,101.48314606741573,147.05168539325842,127.37948717948719,165.96410256410257,125.0,121.0,101.0,145.0,125.0,169.0,149.0,145.0
120,6.0,0.16225218772888184,0.258242130279541,1.267197847366333,0.24165034294128418,-1.7352383136749268,0.2949559688568115,0.7798929810523987,0.28447985649108887,0.6262063384056091,-2.997447823029836,0.2121998670482499,1.4697635979480477,147.43410852713177,140.2532299741602,122.59410430839003,120.31519274376417,101.48988764044944,147.08988764044943,127.39845758354755,165.98457583547557,125.0,121.0,101.0,145.0,125.0,169.0,149.0,145.0
121,6.050000000000001,0.16292452812194824,0.25870251655578613,1.2655584812164307,0.24294757843017578,-1.735853910446167,0.2967381477355957,0.7799379825592041,0.2849949300289154,0.6268073320388794,-2.9978740960707784,0.21306910290381526,1.4687423143835916,147.4315245478036,140.21963824289406,122.55227272727272,120.38181818181818,101.55855855855856,147.1081081081081,127.45854922279793,165.86528497409327,125.0,121.0,101.0,145.0,125.0,169.0,149.0,145.0
122,6.1000000000000005,0.16356921195983887,0.2591891288757324,1.2640717029571533,0.24404692649841309,-1.7364952564239502,0.298429012298584,0.7800134420394897,0.28548887372016907,0.6273021697998047,-2.9983068498527436,0.21394337485901466,1.467785060025409,147.32987012987013,140.23116883116884,122.55227272727272,120.42954545454545,101.5665914221219,147.1331828442438,127.45854922279793,165.86528497409327,125.0,121.0,101.0,145.0,125.0,169.0,149.0,145.0
123,6.15,0.16418099403381348,0.2597219944000244,1.2626192569732666,0.24515390396118164,-1.7370960712432861,0.30011820793151855,0.7801159024238586,0.2859644591808319,0.6277340054512024,-2.998643616602677,0.21480242803239463,1.466809161641438,147.32987012987013,140.23116883116884,122.49427917620137,120.47368421052632,101.54298642533936,147.14705882352942,127.47272727272727,165.83896103896103,125.0,121.0,101.0,145.0,125.0,169.0,149.0,145.0
124,6.2,0.16489124298095703,0.26032304763793945,1.2610957622528076,0.24628877639770508,-1.737766981124878,0.30188822746276855,0.7802280187606812,0.28651756048202515,0.6281570196151733,-2.9989955004790296,0.21574577298789394,1.4658643619190967,147.31770833333334,140.20572916666666,122.49427917620137,120.47368421052632,101.57954545454545,147.1818181818182,127.47272727272727,165.83896103896103,125.0,121.0,101.0,145.0,125.0,169.0,149.0,145.0
125,6.25,0.16556596755981445,0.2608327865600586,1.2596180438995361,0.24741458892822266,-1.7384073734283447,0.30365943908691406,0.780299961566925,0.28703781962394714,0.6286245584487915,-2.99939643758878,0.21664494536432916,1.4648663322329802,147.29090909090908,140.1974025974026,122.41780821917808,120.48858447488584,101.57954545454545,147.1818181818182,127.47272727272727,165.83896103896103,125.0,121.0,101.0,145.0,125.0,169.0,149.0,145.0
126,6.300000000000001,0.16633057594299316,0.26142072677612305,1.2580187320709229,0.2486274242401123,-1.7390892505645752,0.30550098419189453,0.7803854942321777,0.28763142228126526,0.629101574420929,-2.9997844915341934,0.21760401163911672,1.46390141126315,147.29090909090908,140.1974025974026,122.4233409610984,120.51487414187643,101.60364464692483,147.16856492027335,127.45833333333333,165.81510416666666,125.0,121.0,101.0,145.0,125.0,169.0,149.0,145.0
127,6.3500000000000005,0.1670980453491211,0.2620518207550049,1.2564022541046143,0.24982976913452148,-1.7397973537445068,0.30740785598754883,0.7804940938949585,0.28822991251945496,0.6295549869537354,-3.000180384868824,0.21860101967413326,1.4628797672070284,147.1942257217848,140.24409448818898,122.41055045871559,120.59174311926606,101.64611872146119,147.22374429223746,127.45833333333333,165.81510416666666,125.0,121.0,101.0,145.0,125.0,169.0,149.0,145.0
128,6.4,0.16782283782958984,0.26268887519836426,1.2549374103546143,0.2509620189666748,-1.740473985671997,0.3092975616455078,0.7806112170219421,0.28879719972610474,0.6299082636833191,-3.0004803021612294,0.2195888944669019,1.4618465365604416,147.21052631578948,140.1657894736842,122.38390804597701,120.59540229885057,101.6590909090909,147.27272727272728,127.45833333333333,165.81510416666666,125.0,121.0,101.0,145.0,125.0,169.0,149.0,145.0
129,6.45,0.1685349941253662,0.26317882537841797,1.2534830570220947,0.2521235942840576,-1.7411110401153564,0.3111741542816162,0.7806522250175476,0.2893451452255249,0.6303737163543701,-3.0008775600265807,0.22050626024445646,1.4607837493285933,147.13829787234042,140.125,122.33025404157044,120.5958429561201,101.68564920273349,147.26651480637813,127.45833333333333,165.81510416666666,125.0,121.0,101.0,145.0,125.0,169.0,149.0,145.0
130,6.5,0.16924262046813965,0.26372575759887695,1.2519428730010986,0.25336766242980957,-1.7417042255401611,0.31302905082702637,0.7807186245918274,0.28989851474761963,0.6308408379554749,-3.0012077831726622,0.221394226068479,1.4597439839617115,147.16137566137567,140.07142857142858,122.30787037037037,120.58101851851852,101.71689497716895,147.29908675799086,127.4453125,165.76041666666666,125.0,121.0,101.0,145.0,125.0,169.0,149.0,145.0
131,6.550000000000001,0.16993069648742676,0.26412081718444824,1.250525712966919,0.2544987201690674,-1.7422816753387451,0.3148949146270752,0.7807168364524841,0.29042577743530273,0.6313607692718506,-3.0016789230920167,0.22222850674358938,1.458640098568483,147.11968085106383,140.0372340425532,122.30787037037037,120.58101851851852,101.79176201372998,147.3066361556064,127.49479166666667,165.74739583333334,125.0,121.0,101.0,145.0,125.0,169.0,149.0,145.0
132,6.6000000000000005,0.1705331802368164,0.26453232765197754,1.2490894794464111,0.25565552711486816,-1.7428057193756104,0.31666064262390137,0.7807438373565674,0.29089170694351196,0.6318759918212891,-3.002091737015137,0.22300390804890272,1.4575496590218397,147.1058201058201,139.9814814814815,122.2830626450116,120.5707656612529,101.81506849315069,147.31963470319636,127.53125,165.70833333333334,125.0,121.0,101.0,145.0,125.0,169.0,149.0,145.0
133,6.65,0.17112231254577637,0.2649202346801758,1.2476322650909424,0.25681138038635254,-1.7433130741119385,0.3183934688568115,0.7807642221450806,0.2913467288017273,0.6324236392974854,-3.0025387525609277,0.22374577296966147,1.4564662274118827,147.04266666666666,139.896,122.23720930232558,120.63255813953488,101.8675799086758,147.324200913242,127.57552083333333,165.66927083333334,125.0,121.0,101.0,145.0,125.0,169.0,149.0,145.0
134,6.7,0.17165350914001465,0.26537609100341797,1.246145486831665,0.2579951286315918,-1.7437598705291748,0.3199882507324219,0.7808324694633484,0.29176709055900574,0.632931113243103,-3.0028747906787787,0.22442978208508682,1.4554710909864885,147.04266666666666,139.896,122.2046511627907,120.66976744186047,101.95612009237875,147.39953810623555,127.60471204188482,165.61780104712042,125.0,121.0,101.0,145.0,125.0,169.0,149.0,145.0
135,6.75,0.17214369773864746,0.265716552734375,1.2448608875274658,0.2590210437774658,-1.7442033290863037,0.32152533531188965,0.7808555364608765,0.2921459376811981,0.6334140300750732,-3.0032674421062846,0.22508229550422393,1.4544772179744294,146.99195710455763,139.79892761394103,122.19158878504673,120.7196261682243,102.00232018561485,147.4199535962877,127.60471204188482,165.61780104712042,125.0,121.0,101.0,145.0,125.0,169.0,149.0,145.0
136,6.800000000000001,0.1725456714630127,0.2660210132598877,1.2435791492462158,0.26009130477905273,-1.7445518970489502,0.3229556083679199,0.7808778882026672,0.2924598157405853,0.633919894695282,-3.0036016591935653,0.22563218194013815,1.4534922437316726,146.99462365591398,139.7688172043011,122.19158878504673,120.7196261682243,102.00232018561485,147.4199535962877,127.60471204188482,165.61780104712042,125.0,121.0,101.0,145.0,125.0,169.0,149.0,145.0
137,6.8500000000000005,0.17294549942016602,0.2663147449493408,1.2422325611114502,0.2612171173095703,-1.7448933124542236,0.3244173526763916,0.7808929681777954,0.29277199506759644,0.6344718337059021,-3.003961033907597,0.22617374981221178,1.4524678526150727,146.97304582210242,139.7412398921833,122.18544600938966,120.72065727699531,102.0046511627907,147.39302325581394,127.64566929133858,165.51706036745406,125.0,121.0,101.0,145.0,125.0,169.0,149.0,145.0
138,6.9,0.1733541488647461,0.2666811943054199,1.2408902645111084,0.26225757598876953,-1.7452661991119385,0.3258974552154541,0.7809517979621887,0.29309698939323425,0.6349680423736572,-3.004342296411475,0.22674559948834985,1.4514362203314655,146.95956873315365,139.733153638814,122.16666666666667,120.7699530516432,101.99767981438515,147.47331786542924,127.64566929133858,165.51706036745406,125.0,121.0,101.0,145.0,125.0,169.0,149.0,145.0
139,6.95,0.17377328872680664,0.2669339179992676,1.23964524269104,0.2632613182067871,-1.7456309795379639,0.32740044593811035,0.7809461951255798,0.2934202551841736,0.635497510433197,-3.004780841131519,0.22729686550588057,1.4503780258982646,146.93243243243242,139.72432432432433,122.09433962264151,120.7877358490566,101.99767981438515,147.47331786542924,127.6921052631579,165.46315789473684,125.0,121.0,101.0,145.0,125.0,169.0,149.0,145.0
140,7.0,0.17428112030029297,0.2672920227050781,1.2383239269256592,0.26427626609802246,-1.7460606098175049,0.32894349098205566,0.780973494052887,0.29381757974624634,0.6359904408454895,-3.0052098683772805,0.22792543324527118,1.4493855117344736,146.90785907859077,139.710027100271,122.09456264775413,120.85579196217495,102.0,147.5,127.71767810026385,165.47493403693932,125.0,121.0,101.0,145.0,125.0,169.0,149.0,145.0
141,7.050000000000001,0.17479205131530762,0.2676889896392822,1.236950159072876,0.26535820960998535,-1.7464916706085205,0.330488920211792,0.7810156941413879,0.2942197322845459,0.6364794969558716,-3.005588506998455,0.22857058749366163,1.448405073877502,146.9027027027027,139.6810810810811,122.07311320754717,120.87264150943396,102.02331002331002,147.4848484848485,127.72751322751323,165.44708994708995,125.0,121.0,101.0,145.0,125.0,169.0,149.0,145.0
142,7.1000000000000005,0.175309419631958,0.26813340187072754,1.235520601272583,0.2664632797241211,-1.7469327449798584,0.332047700881958,0.7810803651809692,0.2946301996707916,0.6369643807411194,-3.005960898232578,0.22923005088079845,1.4474214804046108,146.9027027027027,139.6810810810811,122.07311320754717,120.87264150943396,102.04918032786885,147.50117096018735,127.73404255319149,165.43351063829786,125.0,121.0,101.0,145.0,125.0,169.0,149.0,145.0
143,7.15,0.17582130432128906,0.26854681968688965,1.2341034412384033,0.26755332946777344,-1.747380018234253,0.33363962173461914,0.7811310887336731,0.29503342509269714,0.6374682188034058,-3.0063762961880385,0.22989029096753763,1.446391899948775,146.87601078167117,139.6711590296496,122.08274231678487,120.89834515366431,102.07511737089202,147.5093896713615,127.75066312997347,165.40848806366049,125.0,121.0,101.0,145.0,125.0,169.0,149.0,145.0
144,7.2,0.17630481719970703,0.26897263526916504,1.2327015399932861,0.2686269283294678,-1.747819185256958,0.3352327346801758,0.7811960577964783,0.29541638493537903,0.6379527449607849,-3.0067813084926183,0.23054488736721107,1.4453328185512624,146.8521505376344,139.65591397849462,122.06161137440758,120.88151658767772,102.09669811320755,147.5495283018868,127.75066312997347,165.40848806366049,125.0,121.0,101.0,145.0,125.0,169.0,149.0,145.0
145,7.25,0.17677807807922363,0.2693049907684326,1.2313401699066162,0.26969170570373535,-1.7482330799102783,0.33684468269348145,0.7812133431434631,0.2957850992679596,0.6384889483451843,-3.0072466685591754,0.23115873099500048,1.444226712246851,146.82972972972973,139.60270270270271,122.00947867298578,120.89810426540285,102.09882352941176,147.57647058823528,127.77659574468085,165.39361702127658,125.0,121.0,101.0,145.0,125.0,169.0,149.0,145.0
146,7.300000000000001,0.17728185653686523,0.26963353157043457,1.2299201488494873,0.27080821990966797,-1.7486402988433838,0.3384439945220947,0.7812169790267944,0.29617780447006226,0.6390617489814758,-3.007719061335084,0.23176085107746158,1.4431606586412131,146.80216802168022,139.61246612466124,122.00947867298578,120.89810426540285,102.13981042654028,147.60189573459715,127.832,165.33333333333334,125.0,121.0,101.0,145.0,125.0,169.0,149.0,145.0
147,7.3500000000000005,0.1777667999267578,0.26995277404785156,1.2285854816436768,0.27182435989379883,-1.7490651607513428,0.34003210067749023,0.7812268733978271,0.2965540587902069,0.6395938396453857,-3.00821893665577,0.2323693980022104,1.4420828642736632,146.77445652173913,139.60597826086956,121.9833729216152,120.89073634204276,102.12351543942992,147.624703087886,127.832,165.33333333333334,125.0,121.0,101.0,145.0,125.0,169.0,149.0,145.0
148,7.4,0.17829465866088867,0.2702524662017822,1.2272117137908936,0.2728769779205322,-1.7494990825653076,0.3416917324066162,0.7812119126319885,0.2969619035720825,0.640164852142334,-3.0087611439754562,0.23298873182895366,1.4409717931278416,146.75204359673023,139.58855585831063,121.97607655502392,120.9377990430622,102.12351543942992,147.624703087886,127.89008042895442,165.32975871313673,125.0,121.0,101.0,145.0,125.0,169.0,149.0,145.0
149,7.45,0.1788499355316162,0.2706785202026367,1.2256886959075928,0.27404284477233887,-1.7499616146087646,0.3433520793914795,0.7812510132789612,0.29739952087402344,0.6407206058502197,-3.0092258705502113,0.23366196384168347,1.4399109087617243,146.73497267759564,139.5655737704918,121.96163069544365,120.96163069544365,102.12559241706161,147.69668246445497,127.92432432432433,165.27027027027026,125.0,121.0,101.0,145.0,125.0,169.0,149.0,145.0
150,7.5,0.17940378189086914,0.27100300788879395,1.2243120670318604,0.2750866413116455,-1.7504246234893799,0.3449971675872803,0.7812421321868896,0.2978268563747406,0.6412740349769592,-3.009765309097445,0.23430825461849417,1.438845085717599,146.72207084468664,139.53950953678475,121.96163069544365,120.96163069544365,102.31516587677726,147.74881516587678,127.92432432432433,165.27027027027026,125.0,121.0,101.0,145.0,125.0,169.0,149.0,145.0
151,7.550000000000001,0.17975759506225586,0.2711176872253418,1.2231781482696533,0.2760002613067627,-1.7507660388946533,0.3464696407318115,0.7811781764030457,0.29808729887008667,0.6418513059616089,-3.010323889472285,0.23478540378800128,1.4377166694268753,146.67397260273972,139.5150684931507,121.91566265060241,120.94939759036144,102.35308056872037,147.7654028436019,127.89402173913044,165.22282608695653,125.0,121.0,101.0,145.0,125.0,169.0,149.0,145.0
152,7.6000000000000005,0.18008875846862793,0.2711765766143799,1.2221601009368896,0.2768092155456543,-1.7510707378387451,0.3479442596435547,0.7810952663421631,0.29832908511161804,0.6424054503440857,-3.01091564354012,0.23521510474864435,1.436548133225746,146.61325966850828,139.48066298342542,121.88942307692308,120.9423076923077,102.37677725118483,147.81042654028437,127.89402173913044,165.22282608695653,125.0,121.0,101.0,145.0,125.0,169.0,149.0,145.0
153,7.65,0.18038058280944824,0.2711470127105713,1.2211964130401611,0.277620792388916,-1.7513039112091064,0.34938502311706543,0.7809724807739258,0.2985386252403259,0.6429957151412964,-3.011510024994801,0.23556237284171555,1.4353585863798026,146.5939226519337,139.45303867403314,121.88942307692308,120.9423076923077,102.3729216152019,147.78384798099762,127.9423076923077,165.12087912087912,125.0,121.0,101.0,145.0,125.0,169.0,149.0,145.0
154,7.7,0.18068528175354004,0.2712078094482422,1.2202327251434326,0.27832674980163574,-1.7515814304351807,0.35085010528564453,0.7809049487113953,0.29876455664634705,0.6435191631317139,-3.012137156619974,0.23594957875181477,1.434158983592851,146.56786703601108,139.46814404432132,121.86440677966101,121.01694915254237,102.37677725118483,147.81042654028437,127.9423076923077,165.12087912087912,125.0,121.0,101.0,145.0,125.0,169.0,149.0,145.0
155,7.75,0.18102812767028809,0.2713003158569336,1.2192747592926025,0.2790501117706299,-1.7518885135650635,0.3523736000061035,0.7808405160903931,0.29902127385139465,0.6440126895904541,-3.0127353985964365,0.23638839274675186,1.4329540807942465,146.560773480663,139.439226519337,121.84057971014492,121.03140096618357,102.43705463182899,147.84323040380048,127.94490358126721,165.0909090909091,125.0,121.0,101.0,145.0,125.0,169.0,149.0,145.0
156,7.800000000000001,0.1813197135925293,0.2713000774383545,1.2184336185455322,0.27968573570251465,-1.7521617412567139,0.35385560989379883,0.7807440161705017,0.29923176765441895,0.6445131301879883,-3.01337794192431,0.2367676003751244,1.4317203632349818,146.43213296398892,139.41828254847644,121.76885644768856,121.09975669099757,102.43705463182899,147.84323040380048,127.97237569060773,165.07734806629836,125.0,121.0,101.0,145.0,125.0,169.0,149.0,145.0
157,7.8500000000000005,0.18166780471801758,0.2715113162994385,1.2174394130706787,0.2804596424102783,-1.7524387836456299,0.3553173542022705,0.7807335257530212,0.2995051145553589,0.644926905632019,-3.0138230353820874,0.2372094262098488,1.4306096435168594,146.40277777777777,139.41944444444445,121.74878048780488,121.11951219512196,102.50236966824644,147.88388625592418,127.99445983379502,165.05540166204986,125.0,121.0,101.0,145.0,125.0,169.0,149.0,145.0
158,7.9,0.18198561668395996,0.27168869972229004,1.2165253162384033,0.28118133544921875,-1.752701997756958,0.35674571990966797,0.7807145118713379,0.299752414226532,0.6453206539154053,-3.0142641857412964,0.23763238127523,1.429498209460828,146.41782729805013,139.39275766016712,121.7156862745098,121.1593137254902,102.51543942992875,147.90736342042754,128.0891364902507,165.03621169916434,125.0,121.0,101.0,145.0,125.0,169.0,149.0,145.0
159,7.95,0.18234992027282715,0.2719244956970215,1.2154943943023682,0.281980037689209,-1.7530181407928467,0.35816121101379395,0.7807113528251648,0.30003634095191956,0.6457385420799255,-3.0147018272143566,0.23810643108505625,1.4284580033465675,146.41782729805013,139.39275766016712,121.7156862745098,121.1593137254902,102.54265402843602,147.90995260663507,128.08055555555555,165.00833333333333,125.0,121.0,101.0,145.0,125.0,169.0,149.0,145.0
160,8.0,0.18270301818847656,0.2721402645111084,1.2145001888275146,0.28273463249206543,-1.7533361911773682,0.35960936546325684,0.7807031273841858,0.30030983686447144,0.6461523175239563,-3.0151768810251536,0.23857783411616382,1.4273660079901642,146.41782729805013,139.39275766016712,121.66009852216749,121.16009852216749,102.618138424821,147.88782816229116,128.08055555555555,165.00833333333333,125.0,121.0,101.0,145.0,125.0,169.0,149.0,145.0
161,8.05,0.18307042121887207,0.27242302894592285,1.2134201526641846,0.28354787826538086,-1.7536747455596924,0.36106300354003906,0.780724287033081,0.3005988299846649,0.6465621590614319,-3.0156215323578217,0.2390802544025421,1.4262942215188543,146.39166666666668,139.38055555555556,121.66009852216749,121.16009852216749,102.618138424821,147.88782816229116,128.0891364902507,165.03621169916434,125.0,121.0,101.0,145.0,125.0,169.0,149.0,145.0
162,8.1,0.1834414005279541,0.27272963523864746,1.2122433185577393,0.2844552993774414,-1.7540042400360107,0.3625514507293701,0.7807510495185852,0.30089297890663147,0.6470085382461548,-3.0160526330583872,0.23958451370860984,1.4251932393085969,146.3631284916201,139.33519553072625,121.60591133004927,121.16995073891626,102.618138424821,147.88782816229116,128.09418282548475,164.98060941828254,125.0,121.0,101.0,145.0,125.0,169.0,149.0,145.0
163,8.15,0.18384170532226562,0.2730560302734375,1.2110564708709717,0.2853400707244873,-1.7543394565582275,0.36405348777770996,0.7807825803756714,0.30121201276779175,0.6474460363388062,-3.0165021153771314,0.2400918536780013,1.4241056628873408,146.3361344537815,139.3249299719888,121.5925925925926,121.19506172839506,102.68345323741008,147.92565947242207,128.16897506925207,165.01108033240996,125.0,121.0,101.0,145.0,125.0,169.0,149.0,145.0
164,8.200000000000001,0.1842176914215088,0.27340102195739746,1.2097995281219482,0.286318302154541,-1.7546641826629639,0.3654911518096924,0.7808237075805664,0.30151334404945374,0.647906482219696,-3.0168938998697237,0.2405933327473215,1.4230671456989699,146.31564245810057,139.30446927374302,121.58663366336634,121.22277227722772,102.72705314009661,147.96618357487924,128.1900826446281,164.98071625344352,125.0,121.0,101.0,145.0,125.0,169.0,149.0,145.0
165,8.25,0.18455743789672852,0.273698091506958,1.208622694015503,0.28723955154418945,-1.7549684047698975,0.3668975830078125,0.7808509469032288,0.3017835021018982,0.648358941078186,-3.0172965442325963,0.2410631920358941,1.4220159117062379,146.30446927374302,139.2513966480447,121.58663366336634,121.22277227722772,102.74334140435835,147.98789346246974,128.21823204419888,164.9696132596685,125.0,121.0,101.0,145.0,125.0,169.0,149.0,145.0
166,8.3,0.18486618995666504,0.2739541530609131,1.207430124282837,0.2881810665130615,-1.7552406787872314,0.36827754974365234,0.7808639407157898,0.3020279109477997,0.6488530039787292,-3.0177192340311425,0.2414870743546217,1.4209476696126564,146.2865168539326,139.19662921348313,121.58663366336634,121.22277227722772,102.74695863746959,148.01459854014598,128.21823204419888,164.9696132596685,125.0,121.0,101.0,145.0,125.0,169.0,149.0,145.0
167,8.35,0.18513774871826172,0.27413511276245117,1.2062408924102783,0.2891416549682617,-1.755460500717163,0.3696448802947998,0.7808448076248169,0.30224040150642395,0.6494043469429016,-3.0181733661862347,0.24184288786127017,1.4198362050004971,146.2577030812325,139.19327731092437,121.58663366336634,121.22277227722772,102.77427184466019,148.01941747572815,128.20385674931129,164.94490358126723,125.0,121.0,101.0,145.0,125.0,169.0,149.0,145.0
168,8.4,0.1853795051574707,0.27429914474487305,1.2050979137420654,0.29005861282348633,-1.7556602954864502,0.3710362911224365,0.780826985836029,0.3024306297302246,0.6499419212341309,-3.0186411707983214,0.2421779745610355,1.4186648558973078,146.21629213483146,139.12640449438203,121.59057071960298,121.25062034739454,102.7566909975669,148.04136253041364,128.27197802197801,164.8846153846154,125.0,121.0,101.0,145.0,125.0,169.0,149.0,145.0
169,8.450000000000001,0.18560528755187988,0.2744767665863037,1.2039458751678467,0.29096031188964844,-1.7558443546295166,0.3723790645599365,0.78082275390625,0.30261147022247314,0.6504751443862915,-3.0191030125668403,0.24248795391713235,1.41752213768559,146.19774011299435,139.07344632768363,121.59398496240601,121.34085213032581,102.77804878048781,148.05853658536586,128.3013698630137,164.8794520547945,125.0,121.0,101.0,145.0,125.0,169.0,149.0,145.0
170,8.5,0.18580007553100586,0.27469587326049805,1.202744722366333,0.29192423820495605,-1.756009817123413,0.3736705780029297,0.7808443307876587,0.302772581577301,0.6510002613067627,-3.0194931751554104,0.24279234014659612,1.4164117101654057,146.17796610169492,139.01694915254237,121.5678391959799,121.35175879396985,102.77804878048781,148.05853658536586,128.3013698630137,164.8794520547945,125.0,121.0,101.0,145.0,125.0,169.0,149.0,145.0
171,8.55,0.18599295616149902,0.27492213249206543,1.2014553546905518,0.292966365814209,-1.7561461925506592,0.37496209144592285,0.7808651924133301,0.302934855222702,0.651570200920105,-3.019876779788823,0.24306844978422829,1.4152947315078617,146.16338028169014,138.99154929577466,121.56926952141058,121.38035264483628,102.80882352941177,148.10294117647058,128.3305785123967,164.82644628099175,125.0,121.0,101.0,145.0,125.0,169.0,149.0,145.0
172,8.6,0.18615078926086426,0.2750890254974365,1.200287103652954,0.2939016819000244,-1.7562711238861084,0.3762187957763672,0.7808694839477539,0.30306577682495117,0.6521190404891968,-3.0202925659615856,0.24331390028453848,1.4141664150658884,146.135593220339,138.98305084745763,121.54292929292929,121.37121212121212,102.81326781326781,148.13022113022112,128.3232044198895,164.79834254143645,125.0,121.0,101.0,145.0,125.0,169.0,149.0,145.0
173,8.65,0.1863112449645996,0.2751941680908203,1.1991832256317139,0.294780969619751,-1.7563812732696533,0.37751197814941406,0.7808423042297363,0.30319491028785706,0.6526809334754944,-3.0207647849848276,0.24353155967908197,1.4129885623162948,146.10764872521247,138.9943342776204,121.52658227848102,121.39493670886075,102.81326781326781,148.13022113022112,128.40389972144845,164.77437325905294,125.0,121.0,101.0,145.0,125.0,169.0,149.0,145.0
174,8.700000000000001,0.18654489517211914,0.27544617652893066,1.1979343891143799,0.2957446575164795,-1.756572961807251,0.3788414001464844,0.7808703780174255,0.30338823795318604,0.6532096266746521,-3.021189800396147,0.24385772828583552,1.411877295542558,146.05070422535212,138.99718309859156,121.48484848484848,121.46464646464646,102.81326781326781,148.13022113022112,128.40389972144845,164.77437325905294,125.0,121.0,101.0,145.0,125.0,169.0,149.0,145.0
175,8.75,0.18682289123535156,0.27579545974731445,1.1966159343719482,0.29677510261535645,-1.7567880153656006,0.38021111488342285,0.7809321284294128,0.30362337827682495,0.6536983251571655,-3.021541423515426,0.24424209459623072,1.4107937939797952,146.02542372881356,138.98305084745763,121.46329113924051,121.48354430379747,102.87223587223588,148.2014742014742,128.42618384401115,164.72144846796658,125.0,121.0,101.0,145.0,125.0,169.0,149.0,145.0
176,8.8,0.1870589256286621,0.27603673934936523,1.195481538772583,0.2976648807525635,-1.7569773197174072,0.3815314769744873,0.7809544801712036,0.3038174510002136,0.6541681289672852,-3.0219363790190092,0.2445739416337708,1.409699389498327,146.02542372881356,138.98305084745763,121.40816326530613,121.51785714285714,102.8743842364532,148.22906403940885,128.42618384401115,164.72144846796658,125.0,121.0,101.0,145.0,125.0,169.0,149.0,145.0
177,8.85,0.1873476505279541,0.27627134323120117,1.1943228244781494,0.298581600189209,-1.7571966648101807,0.3829030990600586,0.7809559106826782,0.3040492534637451,0.6546576023101807,-3.022360421020277,0.24493674278321342,1.408607494466175,146.02542372881356,138.98305084745763,121.3969465648855,121.54452926208651,102.9017199017199,148.2211302211302,128.42618384401115,164.72144846796658,125.0,121.0,101.0,145.0,125.0,169.0,149.0,145.0
178,8.9,0.18763947486877441,0.2765359878540039,1.193115472793579,0.29953455924987793,-1.7574269771575928,0.3843073844909668,0.7809699177742004,0.30428528785705566,0.6551511287689209,-3.0227784282773644,0.2453192118719091,1.4074907705605435,146.0,139.0,121.36989795918367,121.55357142857143,102.95308641975309,148.2246913580247,128.48179271708685,164.66106442577032,125.0,121.0,101.0,145.0,125.0,169.0,149.0,145.0
179,8.950000000000001,0.187941312789917,0.2768533229827881,1.1919300556182861,0.3004319667816162,-1.7576963901519775,0.3857076168060303,0.7810144424438477,0.30453139543533325,0.6555911302566528,-3.023191219579599,0.2457436756354833,1.406397029524437,146.0,139.0,121.36989795918367,121.55357142857143,102.95049504950495,148.25247524752476,128.51123595505618,164.65449438202248,125.0,121.0,101.0,145.0,125.0,169.0,149.0,145.0
180,9.0,0.1882612705230713,0.27715349197387695,1.1907217502593994,0.3013441562652588,-1.7579834461212158,0.3871471881866455,0.7810440063476562,0.30478838086128235,0.656059741973877,-3.0236456916387766,0.24617941420417513,1.4052765198152264,145.94857142857143,138.94,121.36989795918367,121.55357142857143,102.95037220843672,148.2803970223325,128.5421348314607,164.60955056179776,125.0,121.0,101.0,145.0,125.0,169.0,149.0,145.0
181,9.05,0.18854999542236328,0.27742910385131836,1.1895434856414795,0.3022277355194092,-1.758230447769165,0.3885459899902344,0.7810700535774231,0.30502235889434814,0.656531572341919,-3.024100981368307,0.24656390273962042,1.4041559882240435,145.94857142857143,138.94,121.3274111675127,121.58883248730965,102.97029702970298,148.29950495049505,128.57183098591548,164.6056338028169,125.0,121.0,101.0,145.0,125.0,169.0,149.0,145.0
182,9.1,0.18887972831726074,0.27773022651672363,1.18831467628479,0.30315208435058594,-1.7585127353668213,0.3899703025817871,0.7810957431793213,0.3052871823310852,0.6570116877555847,-3.0245600069797214,0.24698930925804877,1.4030578373291573,145.91977077363896,138.9484240687679,121.3274111675127,121.58883248730965,102.9801488833747,148.37468982630273,128.65168539325842,164.60955056179776,125.0,121.0,101.0,145.0,125.0,169.0,149.0,145.0
183,9.15,0.18921732902526855,0.27798914909362793,1.1871001720428467,0.3040897846221924,-1.7588026523590088,0.3913757801055908,0.7810937166213989,0.3055528402328491,0.6575167179107666,-3.0250324093487992,0.24741304812862014,1.4019839600651565,145.94812680115274,138.89337175792508,121.27918781725889,121.61928934010152,103.03241895261846,148.36658354114712,128.68169014084506,164.60845070422536,125.0,121.0,101.0,145.0,125.0,169.0,149.0,145.0
184,9.200000000000001,0.1895592212677002,0.27827000617980957,1.185779333114624,0.30510926246643066,-1.7590982913970947,0.39275431632995605,0.7810986638069153,0.3058222532272339,0.6580665707588196,-3.025503730788553,0.24783696510820002,1.40094088632106,145.89913544668588,138.86167146974063,121.27918781725889,121.61928934010152,103.05,148.42,128.68169014084506,164.60845070422536,125.0,121.0,101.0,145.0,125.0,169.0,149.0,145.0
185,9.25,0.18985366821289062,0.2784614562988281,1.1845319271087646,0.3061046600341797,-1.7593328952789307,0.3941066265106201,0.7810668349266052,0.3060505986213684,0.6586431264877319,-3.0259862294843742,0.24818664578666685,1.3998609651933998,145.86994219653178,138.85838150289018,121.22448979591837,121.61989795918367,103.05,148.42,128.71549295774648,164.49577464788732,125.0,121.0,101.0,145.0,125.0,169.0,149.0,145.0
186,9.3,0.19020771980285645,0.2787048816680908,1.1833431720733643,0.3069775104522705,-1.7596285343170166,0.39549827575683594,0.7810572385787964,0.3063279092311859,0.659148633480072,-3.0265121228756398,0.2485924746160428,1.3988045988354878,145.8521739130435,138.83478260869566,121.2,121.67179487179487,103.0625,148.4625,128.71549295774648,164.49577464788732,125.0,121.0,101.0,145.0,125.0,169.0,149.0,145.0
187,9.35,0.1905655860900879,0.2789123058319092,1.1821777820587158,0.30785560607910156,-1.7599146366119385,0.3968944549560547,0.7810248136520386,0.3066049814224243,0.6596675515174866,-3.0270433216715595,0.2489871197584604,1.3977438700217597,145.8521739130435,138.83478260869566,121.2,121.67179487179487,103.11970074812967,148.5211970074813,128.76704545454547,164.5,125.0,121.0,101.0,145.0,125.0,169.0,149.0,145.0
188,9.4,0.1908888816833496,0.27904605865478516,1.181061029434204,0.3087189197540283,-1.7601873874664307,0.3982527256011963,0.7809618711471558,0.3068479895591736,0.660218358039856,-3.027601812360851,0.24934872594598917,1.3966753650919275,145.7748538011696,138.80701754385964,121.2082262210797,121.69922879177378,103.11970074812967,148.5211970074813,128.76487252124645,164.47025495750708,125.0,121.0,101.0,145.0,125.0,169.0,149.0,145.0
189,9.450000000000001,0.19118237495422363,0.27922725677490234,1.1799476146697998,0.30957865715026855,-1.7604272365570068,0.39960741996765137,0.7809317111968994,0.30707529187202454,0.6607255339622498,-3.028100827165791,0.2496958490760717,1.3955887718340851,145.71470588235294,138.80882352941177,121.2082262210797,121.69922879177378,103.16791979949875,148.53383458646616,128.76487252124645,164.47025495750708,125.0,121.0,101.0,145.0,125.0,169.0,149.0,145.0
190,9.5,0.19142818450927734,0.2794063091278076,1.1788609027862549,0.31043505668640137,-1.7606279850006104,0.40094780921936035,0.7809129953384399,0.3072689175605774,0.6612169146537781,-3.0285614165350894,0.2500130038312942,1.3944696047035554,145.6970588235294,138.75,121.17994858611826,121.72493573264782,103.22166246851386,148.54911838790932,128.76487252124645,164.47025495750708,125.0,121.0,101.0,145.0,125.0,169.0,149.0,145.0
191,9.55,0.19162368774414062,0.27954554557800293,1.1777760982513428,0.3113131523132324,-1.7607758045196533,0.4022352695465088,0.7808838486671448,0.3074227273464203,0.6617375612258911,-3.029007408540434,0.2502676035829727,1.393343917051053,145.6451612903226,138.73020527859236,121.12919896640827,121.7467700258398,103.22166246851386,148.54911838790932,128.78977272727272,164.45170454545453,125.0,121.0,101.0,145.0,125.0,169.0,149.0,145.0
192,9.600000000000001,0.1918625831604004,0.2797572612762451,1.1766135692596436,0.31224560737609863,-1.760941743850708,0.40353989601135254,0.7808768153190613,0.30761653184890747,0.6622442007064819,-3.0294172717918983,0.2505590905102242,1.392257869732791,145.62573099415204,138.70760233918128,121.12919896640827,121.7467700258398,103.25,148.54545454545453,128.79942693409743,164.31232091690543,125.0,121.0,101.0,145.0,125.0,169.0,149.0,145.0
193,9.65,0.19207477569580078,0.27996087074279785,1.1756093502044678,0.312974214553833,-1.7611181735992432,0.4048433303833008,0.7808897495269775,0.3077905774116516,0.6626712083816528,-3.029881592413048,0.25084071386710155,1.3911349092724676,145.62573099415204,138.70760233918128,121.08311688311689,121.77142857142857,103.28680203045685,148.5736040609137,128.84438040345822,164.32276657060518,125.0,121.0,101.0,145.0,125.0,169.0,149.0,145.0
194,9.700000000000001,0.19231748580932617,0.28017711639404297,1.174546480178833,0.313762903213501,-1.7613213062286377,0.40614867210388184,0.7808960676193237,0.30798617005348206,0.6631218791007996,-3.0303445273897314,0.2511507257468852,1.3900463777043202,145.62573099415204,138.70760233918128,121.08311688311689,121.77142857142857,103.28680203045685,148.5736040609137,128.86705202312137,164.30057803468208,125.0,121.0,101.0,145.0,125.0,169.0,149.0,145.0
195,9.75,0.19257736206054688,0.2804131507873535,1.1734449863433838,0.314561128616333,-1.7615478038787842,0.40749669075012207,0.7809082269668579,0.3081957697868347,0.6635807156562805,-3.030836583705238,0.2514826186552497,1.3889305487544847,145.61290322580646,138.68035190615836,121.03412073490814,121.83727034120734,103.28680203045685,148.5736040609137,128.91907514450867,164.3092485549133,125.0,121.0,101.0,145.0,125.0,169.0,149.0,145.0
196,9.8,0.19289445877075195,0.2807438373565674,1.172194242477417,0.31548428535461426,-1.761814832687378,0.40885329246520996,0.7809462547302246,0.3084546625614166,0.6640493273735046,-3.031278954812559,0.25187764449788375,1.3878848637114949,145.61290322580646,138.68035190615836,121.01049868766404,121.88713910761155,103.32908163265306,148.5969387755102,128.91907514450867,164.3092485549133,125.0,121.0,101.0,145.0,125.0,169.0,149.0,145.0
197,9.850000000000001,0.19321060180664062,0.28106689453125,1.1709535121917725,0.31641244888305664,-1.7620885372161865,0.4102194309234619,0.7809795141220093,0.30871087312698364,0.6645175218582153,-3.0317201966664737,0.252281888669994,1.3868301663936546,145.55162241887905,138.66961651917404,121.01049868766404,121.88713910761155,103.32908163265306,148.5969387755102,128.91907514450867,164.3092485549133,125.0,121.0,101.0,145.0,125.0,169.0,149.0,145.0
198,9.9,0.19351577758789062,0.2814185619354248,1.1696751117706299,0.3173787593841553,-1.7623398303985596,0.411607027053833,0.7810267210006714,0.30896300077438354,0.6649823784828186,-3.032131766120467,0.25267658082886585,1.3857458854201652,145.57100591715977,138.6449704142012,121.0130890052356,121.91623036649214,103.3587786259542,148.6615776081425,128.93333333333334,164.28115942028987,125.0,121.0,101.0,145.0,125.0,169.0,149.0,145.0
199,9.950000000000001,0.19379210472106934,0.2816648483276367,1.168506383895874,0.318265438079834,-1.7625772953033447,0.4129793643951416,0.78103107213974,0.30918365716934204,0.6654702425003052,-3.0326075339847725,0.2530292945567838,1.384629270359711,145.52225519287833,138.5786350148368,121.0130890052356,121.91623036649214,103.36802030456853,148.68781725888326,128.93333333333334,164.28115942028987,125.0,121.0,101.0,145.0,125.0,169.0,149.0,145.0
200,10.0,0.1940171718597412,0.2818632125854492,1.1673405170440674,0.31917333602905273,-1.7627432346343994,0.41431140899658203,0.7810195088386536,0.30936458706855774,0.6659926772117615,-3.0330700347145343,0.2533023979310339,1.383489393347172,145.50148367952522,138.53115727002967,120.97120418848168,121.94240837696336,103.39493670886075,148.69620253164558,128.97694524495677,164.23631123919307,125.0,121.0,101.0,145.0,125.0,169.0,149.0,145.0
201,10.05,0.19425153732299805,0.28209424018859863,1.1661484241485596,0.3200838565826416,-1.7629177570343018,0.41560864448547363,0.7810238599777222,0.30955570936203003,0.6665040850639343,-3.0335183488624247,0.2535818831224798,1.3823970405815018,145.5,138.5,120.96587926509186,122.02887139107611,103.44529262086515,148.72010178117048,129.014409221902,164.21325648414987,125.0,121.0,101.0,145.0,125.0,169.0,149.0,145.0
202,10.100000000000001,0.19446325302124023,0.2823498249053955,1.1649668216705322,0.32099342346191406,-1.7630980014801025,0.4168572425842285,0.7810476422309875,0.309730589389801,0.6669883728027344,-3.033923806225888,0.2538746479934179,1.3813408173356578,145.5,138.5,120.92913385826772,122.03937007874016,103.4515306122449,148.74744897959184,129.04335260115607,164.20231213872833,125.0,121.0,101.0,145.0,125.0,169.0,149.0,145.0
203,10.15,0.19471168518066406,0.28259873390197754,1.1637609004974365,0.32191944122314453,-1.7633049488067627,0.4181382656097412,0.781055748462677,0.30993157625198364,0.6674934029579163,-3.03436298150285,0.2541888334221127,1.3802869010749634,145.5,138.5,120.90263157894736,122.02894736842106,103.47570332480818,148.73145780051152,129.06376811594203,164.2231884057971,125.0,121.0,101.0,145.0,125.0,169.0,149.0,145.0
204,10.200000000000001,0.19498038291931152,0.28288769721984863,1.1624329090118408,0.32294154167175293,-1.7635271549224854,0.41945481300354004,0.781072735786438,0.3101499676704407,0.6680370569229126,-3.03480386670207,0.2545249398024126,1.3792213277477585,145.47619047619048,138.49107142857142,120.90263157894736,122.02894736842106,103.5360824742268,148.71907216494844,129.06376811594203,164.2231884057971,125.0,121.0,101.0,145.0,125.0,169.0,149.0,145.0
205,10.25,0.19520020484924316,0.28319311141967773,1.1610815525054932,0.323986291885376,-1.7637207508087158,0.4207577705383301,0.7811111807823181,0.310333788394928,0.6685798764228821,-3.03521679493589,0.25483840269729635,1.3781212448235063,145.48059701492537,138.4597014925373,120.82058047493403,122.11345646437995,103.5360824742268,148.71907216494844,129.06376811594203,164.2231884057971,125.0,121.0,101.0,145.0,125.0,169.0,149.0,145.0
206,10.3,0.19550061225891113,0.2835714817047119,1.1596276760101318,0.3251168727874756,-1.7639620304107666,0.42209482192993164,0.7811582684516907,0.31058311462402344,0.6691223978996277,-3.035602578986204,0.2552208694762865,1.3770856382265333,145.41741741741743,138.36636636636638,120.79629629629629,122.12962962962963,103.55813953488372,148.73643410852713,129.08163265306123,164.17784256559767,125.0,121.0,101.0,145.0,125.0,169.0,149.0,145.0
207,10.350000000000001,0.195753812789917,0.2839362621307373,1.1582014560699463,0.32622528076171875,-1.7641394138336182,0.42334890365600586,0.7812120318412781,0.3107999265193939,0.6696586608886719,-3.0359509379958536,0.25553242842195767,1.3760788884334971,145.36253776435046,138.3021148036254,120.79629629629629,122.12962962962963,103.55813953488372,148.73643410852713,129.0672514619883,164.15204678362574,125.0,121.0,101.0,145.0,125.0,169.0,149.0,145.0
208,10.4,0.19596624374389648,0.28429412841796875,1.1567695140838623,0.32733702659606934,-1.7642595767974854,0.42458415031433105,0.7812725901603699,0.31098851561546326,0.6702027916908264,-3.036281461627734,0.2557856222241303,1.3750428543222688,145.36253776435046,138.3021148036254,120.79575596816976,122.15915119363395,103.57772020725389,148.75647668393782,129.0672514619883,164.15204678362574,125.0,121.0,101.0,145.0,125.0,169.0,149.0,145.0
209,10.450000000000001,0.19617247581481934,0.2846386432647705,1.155336618423462,0.3284578323364258,-1.7643811702728271,0.4258451461791992,0.7813257575035095,0.31117111444473267,0.6707584857940674,-3.0366256875527884,0.2560407293712858,1.3739726428815087,145.35151515151514,138.27272727272728,120.77513227513228,122.17989417989418,103.57772020725389,148.75647668393782,129.09620991253644,164.06997084548104,125.0,121.0,101.0,145.0,125.0,169.0,149.0,145.0
210,10.5,0.19640207290649414,0.28501415252685547,1.1539318561553955,0.32950568199157715,-1.764535665512085,0.4271209239959717,0.7813958525657654,0.31137385964393616,0.6712761521339417,-3.0370002790320667,0.2563213500692428,1.3729105683048985,145.3181818181818,138.25151515151515,120.75862068965517,122.20424403183024,103.62140992167102,148.8172323759791,129.134110787172,164.02332361516034,125.0,121.0,101.0,145.0,125.0,169.0,149.0,145.0
211,10.55,0.19660353660583496,0.2853264808654785,1.1526472568511963,0.33046388626098633,-1.7646749019622803,0.42834997177124023,0.7814454436302185,0.3115500211715698,0.671775221824646,-3.0373881193822054,0.2565699164028186,1.3718586508404478,145.3181818181818,138.25151515151515,120.75862068965517,122.20424403183024,103.63350785340315,148.79057591623035,129.16374269005848,164.01461988304092,125.0,121.0,101.0,145.0,125.0,169.0,149.0,145.0
212,10.600000000000001,0.19681644439697266,0.2857067584991455,1.1512525081634521,0.33148694038391113,-1.7648375034332275,0.42961573600769043,0.7815248370170593,0.311739444732666,0.6722843050956726,-3.0377737330224637,0.25685152511063924,1.3707876610431404,145.3181818181818,138.25151515151515,120.70822281167109,122.22015915119363,103.60104986876641,148.8713910761155,129.16374269005848,164.01461988304092,125.0,121.0,101.0,145.0,125.0,169.0,149.0,145.0
213,10.65,0.19709300994873047,0.28598666191101074,1.1499083042144775,0.3324918746948242,-1.7650177478790283,0.43094563484191895,0.7815300822257996,0.3119671940803528,0.6728457808494568,-3.0382495413959796,0.25712957606464737,1.3696998669564748,145.29179331306992,138.2370820668693,120.69680851063829,122.24734042553192,103.63852242744063,148.8575197889182,129.24483775811208,164.00884955752213,125.0,121.0,101.0,145.0,125.0,169.0,149.0,145.0
214,10.700000000000001,0.1973733901977539,0.28637194633483887,1.148435354232788,0.3335912227630615,-1.7652208805084229,0.43224430084228516,0.7815850973129272,0.31220543384552,0.673396110534668,-3.038657566419227,0.2574516944889187,1.368667401548378,145.29179331306992,138.2370820668693,120.68351063829788,122.29787234042553,103.64021164021165,148.8862433862434,129.30383480825958,163.99115044247787,125.0,121.0,101.0,145.0,125.0,169.0,149.0,145.0
215,10.75,0.19769001007080078,0.2867906093597412,1.1469290256500244,0.3347139358520508,-1.7654688358306885,0.43355655670166016,0.7816466093063354,0.3124709129333496,0.6739382743835449,-3.039065141237641,0.2578245384063069,1.3676667638681204,145.3048780487805,138.20731707317074,120.63829787234043,122.32978723404256,103.65957446808511,148.8962765957447,129.3362831858407,163.93805309734512,125.0,121.0,101.0,145.0,125.0,169.0,149.0,145.0
216,10.8,0.19803953170776367,0.28722596168518066,1.1454188823699951,0.33580994606018066,-1.7657520771026611,0.43487095832824707,0.7817094326019287,0.31276121735572815,0.6744722723960876,-3.0395021222602225,0.25822351587405773,1.3666964950424871,145.27522935779817,138.2018348623853,120.64,122.4,103.72606382978724,148.93882978723406,129.36686390532543,163.9378698224852,125.0,121.0,101.0,145.0,125.0,169.0,149.0,145.0
217,10.850000000000001,0.19834089279174805,0.28764891624450684,1.1439721584320068,0.33688950538635254,-1.7660162448883057,0.4361305236816406,0.7817792892456055,0.3130135238170624,0.6749768853187561,-3.039885124416992,0.2586114670607297,1.3657405127024642,145.2621951219512,138.1737804878049,120.57712765957447,122.42553191489361,103.74468085106383,148.98936170212767,129.36686390532543,163.9378698224852,125.0,121.0,101.0,145.0,125.0,169.0,149.0,145.0
218,10.9,0.19866228103637695,0.28801798820495605,1.142547845840454,0.33797311782836914,-1.7662718296051025,0.4373891353607178,0.7818116545677185,0.31327560544013977,0.6755102872848511,-3.040290952546246,0.2589809572467367,1.364798118895265,145.23547400611622,138.18960244648318,120.57712765957447,122.42553191489361,103.74468085106383,148.98936170212767,129.36686390532543,163.9378698224852,125.0,121.0,101.0,145.0,125.0,169.0,149.0,145.0
219,10.950000000000001,0.19899725914001465,0.28841137886047363,1.1410763263702393,0.3390920162200928,-1.7665369510650635,0.4387037754058838,0.7818498015403748,0.31355053186416626,0.6760515570640564,-3.0407055964308065,0.2593683435866916,1.3638145330555547,145.20552147239263,138.19631901840492,120.57712765957447,122.42553191489361,103.76,149.01333333333332,129.39762611275964,163.9347181008902,125.0,121.0,101.0,145.0,125.0,169.0,149.0,145.0
220,11.0,0.19933009147644043,0.2888052463531494,1.139587163925171,0.34022998809814453,-1.7668025493621826,0.4400351047515869,0.7818865776062012,0.3138231635093689,0.6766020059585571,-3.041122851021309,0.2597586868003941,1.3628125170487269,145.17538461538462,138.19384615384615,120.52941176470588,122.42245989304813,103.808,149.00266666666667,129.4077380952381,163.9047619047619,125.0,121.0,101.0,145.0,125.0,169.0,149.0,145.0
221,11.05,0.19966697692871094,0.2892327308654785,1.1380841732025146,0.34136223793029785,-1.7670738697052002,0.4413726329803467,0.7819409370422363,0.3141027092933655,0.6771334409713745,-3.0415313824683228,0.26015934287936476,1.3618119668363289,145.10185185185185,138.1851851851852,120.5201072386059,122.45040214477211,103.88203753351206,149.0670241286863,129.4358208955224,163.88955223880598,125.0,121.0,101.0,145.0,125.0,169.0,149.0,145.0
222,11.100000000000001,0.19993376731872559,0.2895987033843994,1.1367218494415283,0.34241819381713867,-1.7672903537750244,0.4426307678222656,0.7819856405258179,0.3143252730369568,0.6776304244995117,-3.041895735273516,0.2605034388823727,1.3608176228192115,145.06211180124222,138.1552795031056,120.5201072386059,122.45040214477211,103.9245283018868,149.04312668463612,129.4311377245509,163.85928143712576,125.0,121.0,101.0,145.0,125.0,169.0,149.0,145.0
223,11.15,0.20015811920166016,0.2899940013885498,1.1353495121002197,0.34346699714660645,-1.7674777507781982,0.4438741207122803,0.7820591926574707,0.3145207166671753,0.678108811378479,-3.0422324594422157,0.260823423262184,1.3597967298439302,145.0373831775701,138.13707165109034,120.49193548387096,122.45698924731182,103.91129032258064,149.06989247311827,129.4311377245509,163.85928143712576,125.0,121.0,101.0,145.0,125.0,169.0,149.0,145.0
224,11.200000000000001,0.20040416717529297,0.2903726100921631,1.13395094871521,0.3445467948913574,-1.76766037940979,0.44515085220336914,0.7821135520935059,0.31473198533058167,0.6786156892776489,-3.042589568931198,0.26113782889940035,1.3587589983761115,145.0373831775701,138.13707165109034,120.47708894878706,122.48247978436657,103.9245283018868,149.04312668463612,129.4311377245509,163.85928143712576,125.0,121.0,101.0,145.0,125.0,169.0,149.0,145.0
225,11.25,0.20067048072814941,0.290818452835083,1.1324541568756104,0.34569263458251953,-1.7678654193878174,0.4464757442474365,0.7821930050849915,0.3149639368057251,0.6791250705718994,-3.0429347656123715,0.2614917774187432,1.3577030709195506,145.009375,138.125,120.47708894878706,122.48247978436657,103.97289972899729,149.0650406504065,129.4311377245509,163.85928143712576,125.0,121.0,101.0,145.0,125.0,169.0,149.0,145.0
