AI-SPARC/uncalibrated-visual-servoing/results/data/4_feat_ibvs_tr.csv
,t,q_1,q_2,q_3,q_4,q_5,q_6,camera_x,camera_y,camera_z,camera_roll,camera_pitch,camera_yaw,f_1,f_2,f_3,f_4,f_5,f_6,f_7,f_8,desired_f_1,desired_f_2,desired_f_3,desired_f_4,desired_f_5,desired_f_6,desired_f_7,desired_f_8
0,0.0,9.361875081825843e-06,-0.3926333301083327,1.9634954084936185,7.252088425691028e-05,-1.5707955582218611,2.220446049250313e-15,0.4463258536086648,0.16906234102687412,0.592161801541222,-3.141307158888575,0.00012241039484984628,1.5708380808617421,151.4127579737336,65.55722326454034,125.41947565543072,39.58052434456929,99.43609022556392,65.56390977443608,125.41275797373358,91.55722326454034,149.0,145.0,125.0,121.0,101.0,145.0,125.0,169.0
1,0.05,-0.004096640831049658,-0.3930329093866125,1.9595325514560091,8.721337845818411e-05,-1.5674668926004758,-0.0035453224244021975,0.44720238089166636,0.1675300738389262,0.595027856844052,3.137514176375771,-0.0032041934911938084,1.570285902546848,151.4169884169884,67.07915057915058,125.51823416506718,41.28598848368522,99.6930501930502,67.12355212355213,125.56092843326886,92.93230174081238,149.0,145.0,125.0,121.0,101.0,145.0,125.0,169.0
2,0.1,-0.008215691151239213,-0.3933358341035529,1.9556224340143418,0.0001038465967644342,-1.5641408332803906,-0.007098314357578239,0.4481034755703156,0.16598987922531977,0.5978146505561889,3.1332805687139564,-0.00649177117575235,1.5697586856069508,151.29126213592232,68.60582524271845,125.6399217221135,43.0587084148728,100.0098231827112,68.75442043222004,125.7023346303502,94.23540856031128,149.0,145.0,125.0,121.0,101.0,145.0,125.0,169.0
3,0.15000000000000002,-0.012328662661121204,-0.39371509676580585,1.95199491467742,-3.89412570771519e-05,-1.5608518742644284,-0.010683641676825228,0.4489421433017654,0.16445016921774452,0.6004605690885678,3.129072837678125,-0.009705806538313422,1.5692991665763276,151.29783037475346,70.02169625246549,125.81037924151697,44.82435129740519,100.22067594433399,70.21272365805169,125.890625,95.59375,149.0,145.0,125.0,121.0,101.0,145.0,125.0,169.0
4,0.2,-0.016348582331137784,-0.3938551474854002,1.9483714918954016,-0.00017492021574039285,-1.5576361703965445,-0.014174975531431322,0.4498631856075602,0.16294045833876386,0.6029980117820646,3.12509497649075,-0.012820428964760074,1.568861548671274,151.23904382470118,71.40836653386454,125.88306451612904,46.28225806451613,100.5553319919517,71.7605633802817,125.9,96.9,149.0,145.0,125.0,121.0,101.0,145.0,125.0,169.0
5,0.25,-0.020345980426842658,-0.39448047619338134,1.9452453375314906,-0.0005852925228717609,-1.5544517161168505,-0.01774797454378252,0.4505175281485829,0.16143751405965448,0.6054472697417016,3.1208295008186786,-0.015869262547113423,1.5685565979239688,151.1851106639839,72.84708249496983,125.94897959183673,47.97551020408163,100.83739837398375,73.09756097560975,126.06425702811245,98.13052208835342,149.0,145.0,125.0,121.0,101.0,145.0,125.0,169.0
6,0.30000000000000004,-0.024541303994447095,-0.3948488060997022,1.9420634223299533,-0.0008882608534284131,-1.5511737901747802,-0.021422323506971708,0.4513057042205465,0.15984817714297336,0.6078091330164165,3.1168476737141906,-0.018985037456670788,1.568177251715656,151.15415821501014,74.0709939148073,126.03734439834025,49.46473029045643,101.01871101871102,74.51767151767152,126.1419878296146,99.29411764705883,149.0,145.0,125.0,121.0,101.0,145.0,125.0,169.0
7,0.35000000000000003,-0.02842180910940595,-0.39522556938689357,1.939142225891711,-0.0013903302962487984,-1.548105351569376,-0.02491268668589086,0.45202577367326974,0.15837841209265144,0.610021120017364,3.1129047237011838,-0.021867221339219232,1.5679468435089898,151.20781893004116,75.41769547325103,126.05578512396694,50.97520661157025,101.22199170124482,75.91078838174273,126.22727272727273,100.5,149.0,145.0,125.0,121.0,101.0,145.0,125.0,169.0
8,0.4,-0.03212860307656529,-0.395369463205538,1.9362351373402555,-0.001900422356565734,-1.545154643393368,-0.028262624647970913,0.452819357454395,0.15697013487936823,0.612122056927344,3.109186887068136,-0.02461472076736312,1.5677629419435783,151.20416666666668,76.64791666666666,126.1923890063425,52.36786469344609,101.46511627906976,77.15856236786469,126.35269709543569,101.65975103734439,149.0,145.0,125.0,121.0,101.0,145.0,125.0,169.0
9,0.45,-0.03587768410225811,-0.395578134661029,1.9334872675160106,-0.002458981751451983,-1.5421969870121632,-0.03165592398804362,0.45356907452708967,0.1555403431783034,0.614150919943927,3.1054936716823254,-0.027344136216079163,1.567599366377516,151.11434511434513,77.87733887733887,126.29399141630901,53.67811158798283,101.66737739872069,78.43923240938166,126.46041666666666,102.75208333333333,149.0,145.0,125.0,121.0,101.0,145.0,125.0,169.0
10,0.5,-0.039736605097875355,-0.3960010927805131,1.9309892790650638,-0.0030968562081237216,-1.5391887705048282,-0.035179484642981595,0.4542081434873208,0.1540657695181983,0.6161163566293543,3.1017302410806913,-0.030091821830577816,1.567479676376768,151.08958333333334,79.06041666666667,126.4,55.052173913043475,101.84516129032258,79.6,126.5379746835443,103.86708860759494,149.0,145.0,125.0,121.0,101.0,145.0,125.0,169.0
11,0.55,-0.04359394717535281,-0.3963654775841312,1.9285788818417853,-0.0037563465615693126,-1.5362031785007186,-0.0386798602039633,0.4548604550938063,0.15258639275384978,0.6179995328559897,3.0980728895719203,-0.03279529207860006,1.5673541450274042,151.14830508474577,80.27966101694915,126.42391304347827,56.34347826086957,102.06318082788671,80.68409586056644,126.52966101694915,104.90677966101696,149.0,145.0,125.0,121.0,101.0,145.0,125.0,169.0
12,0.6000000000000001,-0.04742126449174178,-0.396510651553716,1.9261455704115207,-0.004392277892874219,-1.53326291340385,-0.04207831030508835,0.4556054647453513,0.15110935343944756,0.6197985636035336,3.0946217009657717,-0.03544122945631845,1.567166695269187,151.0940170940171,81.37606837606837,126.46710526315789,57.58552631578947,102.30463576158941,81.93818984547461,126.58886509635974,105.96359743040685,149.0,145.0,125.0,121.0,101.0,145.0,125.0,169.0
13,0.65,-0.05117605346158971,-0.39699965354803757,1.9241115567195664,-0.0052259499705087364,-1.5303816111802115,-0.045534939976632494,0.4561509281630946,0.14966498752415797,0.6215034267563877,3.091007639276127,-0.03799416626792168,1.5671309674659493,151.09677419354838,82.44086021505376,126.54867256637168,58.83185840707964,102.4358407079646,83.09292035398231,126.59482758620689,107.0,149.0,145.0,125.0,121.0,101.0,145.0,125.0,169.0
14,0.7000000000000001,-0.05457377431956312,-0.39751003507530314,1.9223183016158538,-0.006255131579879336,-1.5277376796523026,-0.04875245862728139,0.4566262641417763,0.1483607628709836,0.6230766171985614,3.0874198156901675,-0.04029772220092914,1.567218523710477,151.0647948164147,83.47732181425486,126.59550561797752,59.96179775280899,102.54017857142857,84.203125,126.625,107.90517241379311,149.0,145.0,125.0,121.0,101.0,145.0,125.0,169.0
15,0.75,-0.057709184243769585,-0.3980022613336782,1.9207144424334786,-0.007425191180744584,-1.5252721533659432,-0.05180002008088547,0.4570659774809023,0.14715785682602095,0.6245288697722335,3.0838999460612095,-0.04241262770947053,1.5674021892358927,151.09130434782608,84.47173913043478,126.60859728506787,61.088235294117645,102.63288288288288,85.21396396396396,126.74025974025975,108.77705627705627,149.0,145.0,125.0,121.0,101.0,145.0,125.0,169.0
16,0.8,-0.060720517523304096,-0.39811110524844606,1.9189972591907951,-0.00852668103605625,-1.5228991621026564,-0.05470922228531849,0.4576734577396895,0.14599012891653457,0.6258794548231597,3.080717400160134,-0.044441247890942503,1.5675657675952719,151.08515283842794,85.46943231441048,126.69634703196347,62.19178082191781,102.78103837471784,86.15349887133183,126.81521739130434,109.71739130434783,149.0,145.0,125.0,121.0,101.0,145.0,125.0,169.0
17,0.8500000000000001,-0.0638284040451449,-0.3981818314679857,1.9173188682023454,-0.009595039573509823,-1.5204883288161346,-0.05765934762609559,0.4583021076253288,0.1447779598955033,0.627184194399511,3.0776271560973623,-0.04649304042102658,1.5676837962860302,151.05263157894737,86.44956140350877,126.75743707093821,63.17620137299771,102.94965675057209,87.12356979405034,126.91266375545851,110.62227074235808,149.0,145.0,125.0,121.0,101.0,145.0,125.0,169.0
18,0.9,-0.06720744456329175,-0.39848261914047445,1.9157785828195388,-0.010618189336548678,-1.5179151873357553,-0.06084961274423817,0.45883451554455007,0.14346163181963656,0.6284948010131602,3.074453031283163,-0.04866902574602891,1.5677964141557508,151.05263157894737,87.44956140350877,126.80600461893765,64.21478060046189,103.0715935334873,88.0715935334873,126.96069868995633,111.52620087336244,149.0,145.0,125.0,121.0,101.0,145.0,125.0,169.0
19,0.9500000000000001,-0.07065748691768015,-0.39874588389988386,1.9142692340865475,-0.011605458813742864,-1.5153144624389103,-0.06406532401465181,0.45938366344084147,0.14211266818547838,0.6297643097525356,3.071364802777271,-0.05085629398220051,1.5678741266247809,150.9911111111111,88.31777777777778,126.88372093023256,65.22790697674418,103.0625,89.04629629629629,126.9669603524229,112.47356828193833,149.0,145.0,125.0,121.0,101.0,145.0,125.0,169.0
20,1.0,-0.07386738019706574,-0.3991464156471336,1.9129703391748993,-0.012721667784989066,-1.5128589202944926,-0.0671536624762723,0.45982331482080213,0.14086444459126224,0.6309669349430224,3.0682217056485297,-0.05288269426576701,1.5680712215848935,150.9092970521542,89.10204081632654,126.91725768321513,66.13711583924349,103.12177985948477,89.95081967213115,127.02449888641425,113.37416481069042,149.0,145.0,125.0,121.0,101.0,145.0,125.0,169.0
21,1.05,-0.07716911896269085,-0.399890209838615,1.911896520112208,-0.013863571149428822,-1.510326737458632,-0.07041614381129602,0.46008603658808567,0.1395931841433432,0.6321741178133035,3.0649042895324254,-0.05494129710761461,1.5683770361136975,150.94533029612757,90.00227790432803,126.94312796208531,67.14691943127963,103.33720930232558,90.89767441860465,127.02733485193622,114.02733485193622,149.0,145.0,125.0,121.0,101.0,145.0,125.0,169.0
22,1.1,-0.07992210128952504,-0.4004565467357968,1.9110904775407578,-0.015298315049367073,-1.508190001605155,-0.07328098768958213,0.4603686382859331,0.13853020035252556,0.6331506839290622,3.0617787765349713,-0.056626380554445445,1.5688087087407618,150.95862068965516,90.9264367816092,127.00236406619385,68.096926713948,103.45093457943925,91.73598130841121,127.10158013544019,114.89841986455981,149.0,145.0,125.0,121.0,101.0,145.0,125.0,169.0
23,1.1500000000000001,-0.08290119968782195,-0.4009910101006535,1.9102400568068765,-0.016609978377363888,-1.505925864596004,-0.0762716295021959,0.4606854650883813,0.1373731681770083,0.6341302605702491,3.058735577146496,-0.058419043627518374,1.569154200506699,150.89293849658316,91.77904328018224,127.0,69.0,103.52955082742317,92.44917257683215,127.13616071428571,115.61383928571429,149.0,145.0,125.0,121.0,101.0,145.0,125.0,169.0
24,1.2000000000000002,-0.08619031689339396,-0.4013054647716503,1.9092519370429457,-0.01775175125227113,-1.503503166973048,-0.07939163147525496,0.4611425541294047,0.13607760287892123,0.6350871871989573,3.055911364511564,-0.060361538268493005,1.569327738362901,150.76363636363635,92.41363636363636,127.0071599045346,69.84248210023867,103.57411764705883,93.2164705882353,127.09909909909909,116.38963963963964,149.0,145.0,125.0,121.0,101.0,145.0,125.0,169.0
25,1.25,-0.0893554774578571,-0.4019945135158256,1.9086182935161125,-0.019061700892576194,-1.501150924383933,-0.08254310298319112,0.46138354389919356,0.1348485472451148,0.6359899368481529,3.052887347548326,-0.06219531372533917,1.5696738496565659,150.82528735632184,93.19770114942528,127.04358353510897,70.64406779661017,103.68824940047962,94.01918465227818,127.05045871559633,117.04816513761467,149.0,145.0,125.0,121.0,101.0,145.0,125.0,169.0
26,1.3,-0.09201210252364467,-0.4026599311583894,1.908225836894771,-0.020625674662067883,-1.4991408440053275,-0.08533664810045583,0.46157356848110614,0.1338216323038895,0.6367454912619855,3.049914755684815,-0.06370178118790518,1.5701513742125797,150.85714285714286,94.01152073732719,127.07560975609756,71.57073170731708,103.76849642004774,94.79952267303102,127.06407322654462,117.82608695652173,149.0,145.0,125.0,121.0,101.0,145.0,125.0,169.0
27,1.35,-0.09447235366325168,-0.403080979993538,1.9078254931782226,-0.02222473537110492,-1.497284688203096,-0.08792578231586168,0.4618622485130207,0.1328590903242905,0.6374003908877804,3.0471627267553476,-0.06507674119205652,1.5706027204261683,150.78472222222223,94.76157407407408,127.10539215686275,72.28676470588235,103.80145278450364,95.53268765133171,127.10933940774487,118.48063781321184,149.0,145.0,125.0,121.0,101.0,145.0,125.0,169.0
28,1.4000000000000001,-0.09712385980582106,-0.4036421929608367,1.9074989926696855,-0.02376737576158927,-1.4953122780673196,-0.09067482744117772,0.46209270021629306,0.1318247876192862,0.6380625091476627,3.0443696843735473,-0.06653682128932449,1.5710416262884608,150.70709382151028,95.32951945080092,127.10922330097087,73.02669902912622,103.85265700483092,96.18599033816425,127.0715935334873,119.0715935334873,149.0,145.0,125.0,121.0,101.0,145.0,125.0,169.0
29,1.4500000000000002,-0.099449408325341,-0.4042857661158976,1.9074387515457252,-0.025516434227564222,-1.4935613078549164,-0.0932452066926448,0.46223970680596166,0.13092416078765456,0.6386027042631374,3.041578257985779,-0.06777608558957192,1.5716166410970989,150.77030162412993,96.06032482598607,127.16831683168317,73.65841584158416,103.8498789346247,96.83292978208233,127.06436781609196,119.82758620689656,149.0,145.0,125.0,121.0,101.0,145.0,125.0,169.0
30,1.5,-0.10187260428366107,-0.4050358043910114,1.9073385279589123,-0.027170757811929125,-1.4917286529028875,-0.09586400373072479,0.4623361329541152,0.12999233781563282,0.6392081204970581,3.038715610793033,-0.06907131652801944,1.5721613355853734,150.7060185185185,96.77314814814815,127.06203473945409,74.45161290322581,103.95833333333333,97.48529411764706,127.04608294930875,120.34562211981567,149.0,145.0,125.0,121.0,101.0,145.0,125.0,169.0
31,1.55,-0.1043084619697785,-0.4054603204874443,1.9071997845773057,-0.028807669587787466,-1.4899442619013552,-0.0984152701903045,0.46259771935476296,0.12903282349138007,0.6396915525380198,3.0361601819190414,-0.07034260641064607,1.572607066039717,150.5967365967366,97.38461538461539,127.08620689655173,75.14532019704434,103.94878048780488,98.11219512195122,127.04838709677419,121.05760368663594,149.0,145.0,125.0,121.0,101.0,145.0,125.0,169.0
32,1.6,-0.10696269914326084,-0.40616679270533185,1.907174290151688,-0.03038490835226071,-1.4880079344524448,-0.10118058161595922,0.46272989666133973,0.12800179221630956,0.6402182847233913,3.033455001065099,-0.07171591768539885,1.5730786511899069,150.63953488372093,98.04651162790698,127.17412935323384,75.70149253731343,103.8905109489051,98.7396593673966,127.03472222222223,121.63657407407408,149.0,145.0,125.0,121.0,101.0,145.0,125.0,169.0
33,1.6500000000000001,-0.1093481970348158,-0.4068238495358969,1.907179771367355,-0.0320333743742407,-1.4862395664165389,-0.10371837786195837,0.4628541550022506,0.12707763700784971,0.6407099330877987,3.030784786889087,-0.07293268651606366,1.57358121698286,150.55244755244755,98.65967365967366,127.08955223880596,76.45771144278606,103.92574257425743,99.42821782178218,127.04872389791183,122.12064965197216,149.0,145.0,125.0,121.0,101.0,145.0,125.0,169.0
34,1.7000000000000002,-0.11146143936979103,-0.4071373724511318,1.9072280877657803,-0.03377559060891899,-1.4846897903963194,-0.10603008303968986,0.46312347942532506,0.12623954673958246,0.6410278329670075,3.028442389588772,-0.07397766299266638,1.574091409973861,150.52459016393442,99.27400468384074,127.10025062656642,77.0501253132832,103.96314496314497,99.96314496314497,126.95127610208817,122.87935034802784,149.0,145.0,125.0,121.0,101.0,145.0,125.0,169.0
35,1.75,-0.11383725347702134,-0.4079824069147917,1.9074503782689103,-0.03546879518725099,-1.482938403321449,-0.1086091835474754,0.46313930237285655,0.1253291374940116,0.641460950702256,3.025740239513948,-0.07514452371704647,1.574656645100603,150.50233644859813,99.83878504672897,127.14713216957605,77.6932668329177,104.0,100.5,126.98135198135198,123.24475524475524,149.0,145.0,125.0,121.0,101.0,145.0,125.0,169.0
36,1.8,-0.11588359138884075,-0.40836874663433465,1.9076597816114829,-0.03728803011662718,-1.4814671783549676,-0.11084006463503604,0.463356844968551,0.12451816919296685,0.6417106888271112,3.0234112922139316,-0.07609892423710392,1.5751540860631268,150.44730679156908,100.39344262295081,127.03768844221105,78.33668341708542,103.99012345679013,101.12098765432098,126.9375,123.90277777777777,149.0,145.0,125.0,121.0,101.0,145.0,125.0,169.0
37,1.85,-0.11790041338394186,-0.4088159968572542,1.9079219209646663,-0.03908259709585815,-1.4799970113844827,-0.11309643034639683,0.4635339279967829,0.12372449991129991,0.6419488882405806,3.0210915902004105,-0.07704038485405086,1.5757097516254701,150.42216981132074,100.96462264150944,127.13164556962025,78.80759493670887,104.0074812967581,101.55610972568579,126.83294663573086,124.34570765661253,149.0,145.0,125.0,121.0,101.0,145.0,125.0,169.0
38,1.9000000000000001,-0.11980039837968492,-0.40947847447602204,1.9083874092113176,-0.04102479409368298,-1.4786227826416019,-0.11525819719198305,0.46358678992344465,0.12298868163614933,0.6421615594890805,3.018625345392975,-0.07786788226470716,1.5762936020901122,150.41509433962264,101.5,127.08060453400503,79.3853904282116,103.96517412935323,102.19402985074628,126.88837209302325,124.92558139534884,149.0,145.0,125.0,121.0,101.0,145.0,125.0,169.0
39,1.9500000000000002,-0.12159707715992196,-0.41000935874380273,1.9087992891289396,-0.04291225496353368,-1.477298239331808,-0.11736072592447266,0.46369078782718715,0.12228853916329716,0.642345521580899,3.01629848640114,-0.0786594377388295,1.5769096229771677,150.26241134751774,102.04491725768321,127.11224489795919,79.88520408163265,104.01503759398496,102.60401002506266,126.77083333333333,125.37037037037037,149.0,145.0,125.0,121.0,101.0,145.0,125.0,169.0
40,2.0,-0.12367171058365312,-0.41104681354546946,1.9094967251925228,-0.044850742415099454,-1.4758109231954988,-0.11972402523991521,0.46355930859866856,0.12150654632455737,0.6425668514326127,3.013653358422227,-0.07953317070141583,1.5775532232806158,150.27857142857144,102.53809523809524,127.09873417721519,80.51139240506329,103.9275,103.1575,126.79672897196262,125.88084112149532,149.0,145.0,125.0,121.0,101.0,145.0,125.0,169.0
41,2.0500000000000003,-0.12529364902232043,-0.4114507135294927,1.9100096762400636,-0.04683869764723925,-1.474649569427675,-0.12163274480157149,0.46370769156886815,0.12086442697410173,0.6426353681094394,3.0114828295970772,-0.08018373696682388,1.578128482953412,150.1725768321513,103.06382978723404,127.02827763496144,80.96401028277634,103.95,103.58,126.64896073903002,126.38337182448036,149.0,145.0,125.0,121.0,101.0,145.0,125.0,169.0
42,2.1,-0.12718838156822487,-0.41233907996551533,1.9107243090494714,-0.04880598346259646,-1.473296862707425,-0.12381370095997557,0.46362947773194174,0.12014542058136762,0.6427808716005298,3.0089987964367464,-0.08094334206125887,1.5787510083615093,150.07469879518072,103.51566265060241,127.0,81.5,103.89974937343358,104.15288220551379,126.71495327102804,126.83644859813084,149.0,145.0,125.0,121.0,101.0,145.0,125.0,169.0
43,2.15,-0.12902470370130903,-0.4131584786105176,1.9114687331432814,-0.05075900527225574,-1.4719808012435225,-0.12598849296078596,0.46357493119026033,0.11944625108410398,0.6428733222068184,3.0066282584231065,-0.08167171163585446,1.5794159757727388,150.1229314420804,104.04728132387707,126.97164948453609,82.00773195876289,103.84210526315789,104.51127819548873,126.54861111111111,127.27546296296296,149.0,145.0,125.0,121.0,101.0,145.0,125.0,169.0
44,2.2,-0.13048200789199615,-0.4134673941283573,1.9120637456838354,-0.05281434094330617,-1.4709676433753218,-0.12768961436732873,0.46374990805992533,0.11886094673033117,0.6428507434272028,3.004594253282087,-0.08219152025364254,1.5799307299321732,150.0,104.5,126.92583120204604,82.48849104859335,103.88,105.03,126.48372093023256,127.76511627906977,149.0,145.0,125.0,121.0,101.0,145.0,125.0,169.0
45,2.25,-0.13194554075978626,-0.4143355947702929,1.913026485487662,-0.05497779215041243,-1.4699200326701565,-0.12957730348019414,0.4636311924997702,0.11831334946080427,0.642838556655884,3.002236740254961,-0.08266981366115266,1.5806567517527441,150.0498812351544,104.92399049881236,126.92248062015504,82.91731266149871,103.77833753148614,105.45088161209068,126.39578454332553,128.17564402810305,149.0,145.0,125.0,121.0,101.0,145.0,125.0,169.0
46,2.3000000000000003,-0.13279230439188172,-0.41479444933026066,1.9139494708442513,-0.05732840361703895,-1.469293216634422,-0.13092533454987798,0.46366393809150735,0.11798440139855071,0.6426910008507207,3.000163781942308,-0.08282691563598558,1.5813923683934081,150.01923076923077,105.45192307692308,126.88746803069054,83.32225063938618,103.72292191435768,105.83123425692695,126.36342592592592,128.59259259259258,149.0,145.0,125.0,121.0,101.0,145.0,125.0,169.0
47,2.35,-0.1340113835810106,-0.41512814720078994,1.9146513403354932,-0.05945753490107597,-1.4684418476717012,-0.13242797069753554,0.46379574930481676,0.11749556708097678,0.6426150622790738,2.998170651174243,-0.08319623323667431,1.581931057654352,149.90973871733968,105.8812351543943,126.9020618556701,83.79381443298969,103.66075949367088,106.31139240506329,126.23653395784544,129.04449648711943,149.0,145.0,125.0,121.0,101.0,145.0,125.0,169.0
48,2.4000000000000004,-0.13477139353693968,-0.4157368951945113,1.9157117192048316,-0.06187686309838636,-1.467882678632157,-0.13370596847710026,0.46373941738068364,0.11721034398136732,0.6424483391009438,2.9960297001783975,-0.0832738151731065,1.582683311326735,149.8926014319809,106.17661097852029,126.8611825192802,84.23650385604113,103.6126582278481,106.57215189873418,126.22196261682242,129.3714953271028,149.0,145.0,125.0,121.0,101.0,145.0,125.0,169.0
49,2.45,-0.13542671956677843,-0.41575602782985355,1.916517250510756,-0.06424633063199403,-1.467448731828088,-0.13473339857238376,0.4639776514413038,0.11692134741800281,0.6421873937841676,2.9943118950537078,-0.08331642525983084,1.5832419744616946,149.89473684210526,106.61004784688996,126.81794871794872,84.55128205128206,103.5761421319797,107.12944162436548,126.0979020979021,129.9020979020979,149.0,145.0,125.0,121.0,101.0,145.0,125.0,169.0
50,2.5,-0.13560156626582076,-0.416483267782195,1.917804947167605,-0.06688497423557171,-1.467234626264692,-0.13568574505438313,0.46379862432493213,0.11688327877667504,0.6419416513249414,2.992137331066939,-0.08307662725273103,1.5842162628659735,149.86966824644549,106.97867298578198,126.84715025906736,84.97927461139896,103.5959595959596,107.33080808080808,126.11943793911007,130.17564402810305,149.0,145.0,125.0,121.0,101.0,145.0,125.0,169.0
51,2.5500000000000003,-0.1361059372688107,-0.41674074084998214,1.9187866282519055,-0.06933980006226648,-1.4668870874544275,-0.13665808037673877,0.46389456099750076,0.11667211662512894,0.6416761384640051,2.9902888866948274,-0.08301371282690356,1.5848708945318457,149.81884057971016,107.42270531400966,126.75578406169666,85.34447300771208,103.4759493670886,107.67341772151899,126.03023255813953,130.59767441860464,149.0,145.0,125.0,121.0,101.0,145.0,125.0,169.0
52,2.6,-0.13682400161749708,-0.4168438387028859,1.9195545748363694,-0.07161838067612258,-1.46640302221536,-0.1376815478545259,0.4640894455971776,0.116364036829766,0.6414689322487425,2.988532925894642,-0.083091330363634,1.5853733027883243,149.7565632458234,107.8090692124105,126.70207253886011,85.6839378238342,103.51269035532995,108.15228426395939,125.99533799533799,130.95104895104896,149.0,145.0,125.0,121.0,101.0,145.0,125.0,169.0
53,2.6500000000000004,-0.13740499604508294,-0.41740676791279796,1.920663371147783,-0.07403291827783809,-1.4659725174969198,-0.13879228331714755,0.46402856977563023,0.11614740040847384,0.6412484361709441,2.9865216051729897,-0.08305903473215341,1.586113626793378,149.73396674584322,108.16627078384798,126.6340206185567,86.09020618556701,103.42639593908629,108.42639593908629,126.01643192488262,131.21830985915494,149.0,145.0,125.0,121.0,101.0,145.0,125.0,169.0
54,2.7,-0.13813363032337245,-0.4171969297124245,1.9213199494539976,-0.07624197190857229,-1.4655205937034017,-0.13974602791463742,0.4643806896012313,0.11581035868386777,0.6409704075273036,2.9850452979708386,-0.08314864226891341,1.586510439889779,149.60283687943263,108.56264775413712,126.60103626943005,86.49222797927462,103.39493670886075,108.69620253164557,125.9067599067599,131.78787878787878,149.0,145.0,125.0,121.0,101.0,145.0,125.0,169.0
55,2.75,-0.13950882255913966,-0.41754041106708684,1.9220006861081833,-0.07820168383259851,-1.4645988858583046,-0.14122129775551784,0.464504942248542,0.11525715983484217,0.6408964084005422,2.983173172651282,-0.08357044113728058,1.5868744219333233,149.48699763593382,108.97635933806147,126.51706036745406,86.97637795275591,103.26767676767676,109.2449494949495,125.87822014051523,132.04918032786884,149.0,145.0,125.0,121.0,101.0,145.0,125.0,169.0
56,2.8000000000000003,-0.1402700627255884,-0.4173782513369986,1.922729541558562,-0.08039942722334148,-1.464139970109409,-0.1421992843353137,0.464829778546642,0.11490937669005614,0.6405891433326599,2.98172708288311,-0.08366023473939375,1.5872629488385368,149.4775413711584,109.32387706855792,126.53246753246754,87.25194805194805,103.22979797979798,109.57575757575758,125.63594470046083,132.46082949308754,149.0,145.0,125.0,121.0,101.0,145.0,125.0,169.0
57,2.85,-0.14035173197875173,-0.4177654436207896,1.9239685052396993,-0.08301788305871449,-1.4640839335059628,-0.1428705155141201,0.46480691206771424,0.11487875626684427,0.6402233315309838,2.9799105058578648,-0.08332851483593616,1.5880025736650325,149.42316784869976,109.66430260047281,126.45736434108527,87.55813953488372,103.1234256926952,109.7984886649874,125.66976744186047,132.80697674418604,149.0,145.0,125.0,121.0,101.0,145.0,125.0,169.0
58,2.9000000000000004,-0.14113202217912368,-0.4178280452762029,1.9247188601473164,-0.0851825654180498,-1.4635799942964853,-0.14385483234176766,0.4650143811044207,0.114542376717401,0.6399986762585762,2.978286925982399,-0.08342978154282794,1.5883997259837344,149.32142857142858,110.02619047619048,126.43116883116883,87.95064935064936,103.00502512562814,110.27889447236181,125.55299539170507,133.1820276497696,149.0,145.0,125.0,121.0,101.0,145.0,125.0,169.0
59,2.95,-0.1412517417017356,-0.4179967983803654,1.9257915776954349,-0.08768010718600916,-1.463503907419832,-0.14447355982328114,0.4651033582345339,0.11447946136813952,0.6396358506959129,2.976645126722325,-0.08314979818192267,1.5890367630487552,149.29928741092635,110.40380047505938,126.43569553805774,88.25721784776903,103.0,110.5,125.44137931034483,133.5264367816092,149.0,145.0,125.0,121.0,101.0,145.0,125.0,169.0
60,3.0,-0.14152843513315272,-0.41831028003114756,1.9268786212972229,-0.0901438422535552,-1.4633329228222323,-0.14517017871516424,0.4651322274861814,0.1143637150244298,0.6393248129267909,2.9748855898068842,-0.0829320927300941,1.5896169432611886,149.22142857142856,110.76428571428572,126.30927835051547,88.62628865979381,102.9425,110.83,125.39310344827587,133.87816091954022,149.0,145.0,125.0,121.0,101.0,145.0,125.0,169.0
61,3.0500000000000003,-0.14203762621615645,-0.41848196527780024,1.9278098499272573,-0.09244794956458824,-1.463019585813397,-0.1459685489766649,0.46525374640813133,0.11414281887162847,0.639039658203733,2.9732406600150862,-0.08285813511945472,1.5900760667351783,149.16587677725119,111.09004739336493,126.2842377260982,88.93798449612403,102.83879093198992,111.24181360201511,125.26573426573427,134.14452214452214,149.0,145.0,125.0,121.0,101.0,145.0,125.0,169.0
62,3.1,-0.1417865889468688,-0.4186287287210817,1.9290337023988027,-0.09512806166811849,-1.4632199831972992,-0.14629262733990434,0.4653156155219813,0.11422507224745165,0.6385832017646599,2.971658853802506,-0.08234887770193684,1.5907459857525954,149.06698564593302,111.42344497607655,126.22916666666667,89.2109375,102.77833753148614,111.45088161209068,125.23394495412845,134.5619266055046,149.0,145.0,125.0,121.0,101.0,145.0,125.0,169.0
63,3.1500000000000004,-0.14233377134689817,-0.41908609891610826,1.930066808695769,-0.09741333409440367,-1.4628477526489467,-0.14717261298454742,0.4652891925771803,0.1140136356645883,0.6383539956634573,2.9698334258905277,-0.08228691043788686,1.5912709084024912,149.07125890736341,111.74821852731591,126.19329896907216,89.5618556701031,102.76381909547739,111.71105527638191,125.11860465116278,134.88372093023256,149.0,145.0,125.0,121.0,101.0,145.0,125.0,169.0
64,3.2,-0.14261476619264402,-0.41937779394979513,1.9311234098889756,-0.0998207528138022,-1.4626863159441763,-0.1478025612493168,0.4653234751482966,0.11389362341904671,0.6380477556079589,2.9681298909392964,-0.08206954295806587,1.591773699842023,149.0494117647059,112.07529411764706,126.0880829015544,89.88341968911917,102.64483627204031,112.1662468513854,125.0625,135.09722222222223,149.0,145.0,125.0,121.0,101.0,145.0,125.0,169.0
65,3.25,-0.14218775232666614,-0.41921708714965744,1.9322258741116016,-0.10248475847081107,-1.4630336882754005,-0.14789411510230543,0.46552236073483205,0.11402249342984724,0.6375350872189699,2.9667938831824237,-0.08148535424207598,1.592345486181059,149.01923076923077,112.45192307692308,126.0749354005168,90.1343669250646,102.57430730478589,112.35012594458438,125.02517162471396,135.48970251716247,149.0,145.0,125.0,121.0,101.0,145.0,125.0,169.0
66,3.3000000000000003,-0.14245968764594563,-0.4191695383706975,1.933043751774819,-0.10477408672014343,-1.4628952062086311,-0.14838427424531497,0.46572737516124685,0.11388067494943983,0.6372286973768834,2.965323052580726,-0.08130306991771079,1.5926961403428606,148.9431279620853,112.72511848341232,126.0,90.5,102.47117794486215,112.61654135338345,124.9375,135.90277777777777,149.0,145.0,125.0,121.0,101.0,145.0,125.0,169.0
67,3.35,-0.14272998219299815,-0.41899922859269534,1.9337656111038486,-0.10700765011603774,-1.46275987092847,-0.14882227965149708,0.4659929272345773,0.11373042395181454,0.636927598680898,2.9639385599140025,-0.08113888102410655,1.5929895496531998,148.90070921985816,113.05200945626477,126.03589743589744,90.81025641025641,102.43859649122807,112.99749373433583,124.87528868360278,136.17551963048498,149.0,145.0,125.0,121.0,101.0,145.0,125.0,169.0
68,3.4000000000000004,-0.1425157367740293,-0.41897218676866244,1.934785380794918,-0.10952375563172057,-1.4629543689004727,-0.1490091974094927,0.4661372693034871,0.11378573221507018,0.6365165387691505,2.9625008572255194,-0.0806739015332195,1.593472353233723,148.84285714285716,113.37380952380953,125.92525773195877,91.0979381443299,102.3715710723192,113.36658354114714,124.7159090909091,136.475,149.0,145.0,125.0,121.0,101.0,145.0,125.0,169.0
69,3.45,-0.141834735986198,-0.4190726742830373,1.9360564059109695,-0.11228098693171296,-1.4634503299534858,-0.14895872955082856,0.4661690112589917,0.11403921948617445,0.6360161633591863,2.9610144991095733,-0.0799376402482758,1.5941425870741397,148.77122641509433,113.6627358490566,125.84102564102564,91.33333333333333,102.26315789473684,113.50877192982456,124.71853546910755,136.77345537757438,149.0,145.0,125.0,121.0,101.0,145.0,125.0,169.0
70,3.5,-0.1419482384639683,-0.4189606751395103,1.9368524310839303,-0.1145603597888023,-1.4634184214934693,-0.14928791567504973,0.4663847358347969,0.11395700358921043,0.6356949062328078,2.9596268340485485,-0.07968505447988283,1.5944673419848123,148.78588235294117,113.97882352941177,125.82820512820513,91.57692307692308,102.214463840399,113.76309226932668,124.60997732426304,137.10430839002268,149.0,145.0,125.0,121.0,101.0,145.0,125.0,169.0
71,3.5500000000000003,-0.14189786405240712,-0.41894732693113435,1.9377161063431787,-0.11691195628430151,-1.4634849228275577,-0.14951136765935447,0.46653350832679713,0.11394917395543142,0.6353794205168588,2.9581610595862493,-0.07933718827633036,1.5948419695061282,148.61882352941177,114.24941176470588,125.81912144702842,91.97157622739019,102.05940594059406,114.1509900990099,124.55555555555556,137.3922902494331,149.0,145.0,125.0,121.0,101.0,145.0,125.0,169.0
72,3.6,-0.1413992196718521,-0.4187626272846976,1.938716708070391,-0.11947632538279374,-1.4638866045422843,-0.1494293843191219,0.4667251003727076,0.11410721948788972,0.6349160153086468,2.9568691671748715,-0.07873282671063327,1.595295199117015,148.60421545667447,114.6135831381733,125.72051282051282,92.24358974358974,101.96019900497512,114.44776119402985,124.44920993227991,137.65688487584652,149.0,145.0,125.0,121.0,101.0,145.0,125.0,169.0
73,3.6500000000000004,-0.14078671577360025,-0.41831918106891175,1.9395996842277654,-0.12203954227251845,-1.4643930102113325,-0.14916980772370847,0.4670380921941347,0.1142900306913697,0.6344174691130813,2.955749652116611,-0.07808377817883692,1.5956554177040663,148.6037296037296,114.83216783216783,125.68041237113403,92.47938144329896,101.97029702970298,114.61881188118812,124.38461538461539,138.01131221719456,149.0,145.0,125.0,121.0,101.0,145.0,125.0,169.0
74,3.7,-0.14034303892651634,-0.41808966576561524,1.9404879559390436,-0.12451426936103038,-1.4647547673109882,-0.14906282492021505,0.46725471675610475,0.11442331824572752,0.634002040270506,2.9544740081898735,-0.07752870691383615,1.5960315757705537,148.53971962616822,115.17289719626169,125.50389610389611,92.78441558441558,101.91442542787286,114.91687041564792,124.37219730941705,138.33856502242153,149.0,145.0,125.0,121.0,101.0,145.0,125.0,169.0
75,3.75,-0.14041261238971758,-0.41769210404093826,1.9410687386624295,-0.12665428605061413,-1.464769156985386,-0.14922006779124652,0.4676039292718775,0.11433850859991193,0.6336856393040746,2.9533154343020698,-0.0772954123402175,1.596202627610388,148.5,115.5,125.56883116883117,93.04935064935064,101.7725,115.2625,124.27191011235955,138.65842696629213,149.0,145.0,125.0,121.0,101.0,145.0,125.0,169.0
76,3.8000000000000003,-0.13996371653685857,-0.4173900660688852,1.941862971654281,-0.1290502766488486,-1.4651277513779046,-0.1490671307851521,0.46785322993843087,0.11447102582267024,0.6332932949528374,2.9520996790652223,-0.0767608974325277,1.5965334359240135,148.42056074766356,115.76168224299066,125.55641025641026,93.36923076923077,101.7225,115.4675,124.15384615384616,138.93212669683257,149.0,145.0,125.0,121.0,101.0,145.0,125.0,169.0
77,3.85,-0.13935549531816482,-0.4170324155207963,1.9427235014386737,-0.13155502600153524,-1.4656297550033353,-0.14876766109809658,0.46811523941736505,0.1146611877308249,0.6328424364389522,2.9509312993318493,-0.07611702314973973,1.5968504373019283,148.32167832167832,116.0979020979021,125.4293059125964,93.60668380462725,101.66584158415841,115.70049504950495,124.06575963718821,139.2358276643991,149.0,145.0,125.0,121.0,101.0,145.0,125.0,169.0
78,3.9000000000000004,-0.13926761935263077,-0.4168671735855014,1.9434644587757717,-0.13380484981291785,-1.4657531695466552,-0.14881635672913074,0.46832731507872677,0.11465740951267495,0.6325323858146215,2.9496179814926053,-0.0757676733853539,1.597063637625386,148.34186046511627,116.36511627906977,125.3659793814433,93.90979381443299,101.57071960297766,116.03225806451613,124.04035874439462,139.53139013452915,149.0,145.0,125.0,121.0,101.0,145.0,125.0,169.0
79,3.95,-0.13878800034905847,-0.41629515358048375,1.944111065061552,-0.13614017498136333,-1.466173331514737,-0.148516085899697,0.4687080720156693,0.11478065697338213,0.632113051868308,2.9486051853429176,-0.07523339177678212,1.597251386885446,148.2960372960373,116.68065268065268,125.2687338501292,94.14470284237726,101.44776119402985,116.40049751243781,124.03174603174604,139.9002267573696,149.0,145.0,125.0,121.0,101.0,145.0,125.0,169.0
80,4.0,-0.13846435891228648,-0.4158151679012576,1.9446652149236021,-0.13831082108786052,-1.4664351469998111,-0.14835810446084263,0.46905299871961414,0.11485373490185678,0.631780279437971,2.9475355654866626,-0.07482292955539561,1.5974539875340945,148.1958041958042,116.97668997668998,125.19338422391857,94.48346055979644,101.37220843672456,116.59553349875931,123.8542600896861,140.152466367713,149.0,145.0,125.0,121.0,101.0,145.0,125.0,169.0
81,4.05,-0.13797316126878556,-0.4151209941546883,1.9452175973807444,-0.14058706261373866,-1.4668728310108596,-0.14798486019526447,0.4694917006907298,0.11497372993353844,0.6313640916545011,2.9466161811510023,-0.07430125132190737,1.597570049081308,148.1461716937355,117.20649651972158,125.17091836734694,94.6811224489796,101.21428571428571,116.8743842364532,123.75723830734967,140.43652561247217,149.0,145.0,125.0,121.0,101.0,145.0,125.0,169.0
82,4.1000000000000005,-0.13710937382017097,-0.4144587005932632,1.9458723297422376,-0.14300370807837792,-1.4675448089479728,-0.14739501576228298,0.4698753554947631,0.1152496609079526,0.6309071214732263,2.9456802132019906,-0.073582848314386,1.5978051300291858,148.19764705882352,117.59529411764706,125.13810741687979,94.94884910485933,101.18004866180048,117.11435523114355,123.64966740576497,140.71840354767184,149.0,145.0,125.0,121.0,101.0,145.0,125.0,169.0
83,4.15,-0.13616002333338972,-0.41359503135013354,1.9464249083409042,-0.1454328025921381,-1.4683141228006305,-0.14663316441606655,0.47035410008404593,0.115543235668283,0.6304310500741371,2.9448575200921008,-0.07281953309001725,1.5979300126934408,148.0,117.85150812064965,125.0,95.26582278481013,101.08088235294117,117.42647058823529,123.61915367483296,141.07572383073497,149.0,145.0,125.0,121.0,101.0,145.0,125.0,169.0
84,4.2,-0.13567316280111008,-0.4129434244005008,1.9469167723219556,-0.147619869363937,-1.4687275952602628,-0.14624135266224148,0.47076542646834774,0.1156684985939751,0.630065317506419,2.9439189771868204,-0.0723267925516602,1.5980258912398215,148.0,118.04640371229698,125.0,95.5,100.99026763990268,117.7007299270073,123.57743362831859,141.38716814159292,149.0,145.0,125.0,121.0,101.0,145.0,125.0,169.0
85,4.25,-0.13479693020130412,-0.4122630162164387,1.947496106983433,-0.1499447380671195,-1.4693960783602504,-0.14561992492198428,0.47115002783242477,0.11595196927176021,0.6296411035612223,2.943015554117214,-0.07162800779030996,1.5982368606574973,148.0,118.27294117647058,125.0,95.73417721518987,100.92978208232445,117.95157384987894,123.47240618101546,141.66887417218544,149.0,145.0,125.0,121.0,101.0,145.0,125.0,169.0
86,4.3,-0.13345335957149862,-0.41163834475672,1.9482651840872451,-0.1524977945734154,-1.470385393298515,-0.1447312434835646,0.4714574200208896,0.11643033748715802,0.6291363282171005,2.9420874070852205,-0.07065594119042343,1.5985954472066592,147.93488372093023,118.80465116279069,124.93877551020408,96.03061224489795,100.91747572815534,118.11893203883496,123.47566371681415,141.9004424778761,149.0,145.0,125.0,121.0,101.0,145.0,125.0,169.0
87,4.3500000000000005,-0.1333490566719533,-0.4107463796579345,1.9484207992163975,-0.15442136103429638,-1.470581665135728,-0.14438702329740005,0.4720294665170898,0.11638173681493622,0.6288630873423912,2.9412766351775215,-0.07039608714374232,1.5983828760157681,147.93055555555554,118.97453703703704,124.86616161616162,96.27777777777777,100.76885644768856,118.49148418491484,123.40879120879121,142.27692307692308,149.0,145.0,125.0,121.0,101.0,145.0,125.0,169.0
88,4.4,-0.13255355851967687,-0.40982517921502204,1.9487529551797502,-0.1565854246850069,-1.4712176889479682,-0.1436752507986756,0.4725424217992326,0.11661685171426442,0.6284807431638,2.940525422246982,-0.06977571014542046,1.5984165429490893,147.80600461893764,119.2217090069284,124.84303797468354,96.48354430379747,100.79368932038835,118.81067961165049,123.34361233480176,142.55066079295153,149.0,145.0,125.0,121.0,101.0,145.0,125.0,169.0
89,4.45,-0.13181973623344767,-0.40973124205681755,1.9495349096178538,-0.15885043114602082,-1.4717246573493243,-0.14328956697980777,0.4726319438086225,0.116892644705195,0.6281759032166818,2.9392534513339923,-0.0691391506317896,1.5987671135987045,147.6574712643678,119.52643678160919,124.8,96.77974683544304,100.76941747572816,118.99757281553399,123.29735682819383,142.78854625550662,149.0,145.0,125.0,121.0,101.0,145.0,125.0,169.0
90,4.5,-0.13164521669620743,-0.409726987840064,1.9501977514020048,-0.16088932454059002,-1.4718612573353234,-0.14322618533340936,0.47273221226807643,0.11694469170813565,0.6279682604548339,2.9379195494101853,-0.06880242819964598,1.598945489682722,147.78899082568807,119.8211009174312,124.76142131979695,97.12182741116752,100.66176470588235,119.34558823529412,123.3129102844639,143.12910284463894,149.0,145.0,125.0,121.0,101.0,145.0,125.0,169.0
91,4.55,-0.13085865333752533,-0.4088793321063666,1.9505867139500284,-0.16302908387397164,-1.4725004134594917,-0.14254292190842266,0.4732028585189583,0.11718293112836128,0.6275750890426902,2.937174601150835,-0.06817770319231287,1.5989941028556487,147.68192219679634,120.05720823798627,124.68193384223919,97.32569974554707,100.52554744525547,119.51094890510949,123.19912472647702,143.47045951859957,149.0,145.0,125.0,121.0,101.0,145.0,125.0,169.0
92,4.6000000000000005,-0.13041087479616786,-0.4081743538436391,1.950845422898511,-0.16496514305379817,-1.4728652943446505,-0.14206782488854852,0.47363464787227144,0.11729774260647,0.627314435042741,2.936301951301809,-0.06776732286602312,1.5989672625191653,147.64827586206897,120.34022988505747,124.62531645569621,97.58481012658228,100.47002398081534,119.85611510791367,123.17324561403508,143.66666666666666,149.0,145.0,125.0,121.0,101.0,145.0,125.0,169.0
93,4.65,-0.12964472268572846,-0.4073459116528193,1.9511952068299445,-0.16704051120971153,-1.4734775815805108,-0.14138959670303075,0.47409296638243487,0.11753220795961722,0.6269502658390901,2.9355543288909027,-0.06717085829563671,1.599003989998016,147.6118721461187,120.68264840182648,124.50761421319797,97.8527918781726,100.30048076923077,120.12740384615384,123.09271523178808,143.96688741721854,149.0,145.0,125.0,121.0,101.0,145.0,125.0,169.0
94,4.7,-0.12892545467452443,-0.4060788078467361,1.9512334603944348,-0.16896886356426322,-1.4740930521712734,-0.14056954092341778,0.47478121738035,0.11771675022346902,0.6265833452681115,2.935088628264964,-0.06664481846725125,1.5988348408486475,147.57272727272726,120.93181818181819,124.50252525252525,98.12626262626263,100.24038461538461,120.4014423076923,122.91956521739131,144.36521739130436,149.0,145.0,125.0,121.0,101.0,145.0,125.0,169.0
95,4.75,-0.12776495704965862,-0.4052159035899203,1.951625459155351,-0.17116303637484265,-1.4749737521835957,-0.1396056182021983,0.4752139329747123,0.1181131841279628,0.6261871394017683,2.9343558769359697,-0.06584200223527972,1.5989325772457912,147.57077625570776,121.19634703196347,124.40954773869346,98.35175879396985,100.17391304347827,120.66425120772946,122.92608695652174,144.54782608695652,149.0,145.0,125.0,121.0,101.0,145.0,125.0,169.0
96,4.800000000000001,-0.1265847555074986,-0.40395720644811917,1.9518110872124232,-0.17327528066268938,-1.475912305833801,-0.13851334958681605,0.47584501854087546,0.11848933259891732,0.6257419156108696,2.9339084458526563,-0.06505371178356922,1.5988932650630852,147.52402745995423,121.43478260869566,124.35353535353535,98.61111111111111,100.10096153846153,120.9326923076923,122.80345572354211,144.74082073434124,149.0,145.0,125.0,121.0,101.0,145.0,125.0,169.0
97,4.8500000000000005,-0.12485803559399411,-0.4025691016933455,1.9521816041952267,-0.17566542917747618,-1.4772780150099232,-0.13706577925165853,0.47648257657373905,0.11907836360933408,0.6251397702708008,2.933582085091005,-0.06393086003799132,1.5989617018222435,147.53881278538813,121.71461187214612,124.24371859296483,98.75125628140704,100.0381861575179,121.0835322195704,122.6980306345733,145.16630196936543,149.0,145.0,125.0,121.0,101.0,145.0,125.0,169.0
98,4.9,-0.12370192564564775,-0.40148718908236125,1.952337335982146,-0.17770161404579543,-1.4781561024307273,-0.1359998941671341,0.4770228493541296,0.11946330919590606,0.6247868606591616,2.9329878714126045,-0.06317968368934723,1.5989427165903933,147.51693002257338,121.97968397291196,124.24937027707809,98.96725440806046,100.0547619047619,121.23571428571428,122.73866090712743,145.4038876889849,149.0,145.0,125.0,121.0,101.0,145.0,125.0,169.0
99,4.95,-0.12312467875484145,-0.4003762273999403,1.9522378401973848,-0.1794289125517894,-1.4786344647186764,-0.13522675305360288,0.4776394952512982,0.11960907614084101,0.6245610832235393,2.932397174405206,-0.06277060277006172,1.5987074486813817,147.4331065759637,122.22675736961452,124.17326732673267,99.33415841584159,99.877990430622,121.66746411483254,122.71767241379311,145.68534482758622,149.0,145.0,125.0,121.0,101.0,145.0,125.0,169.0
100,5.0,-0.12186875442204492,-0.398821276585001,1.9521975677877252,-0.18139689432545048,-1.4796470230431593,-0.13397375197319672,0.47840730888160066,0.12000340321439819,0.6241145208328998,2.9321759859568313,-0.06198102177686354,1.5985546083117568,147.42403628117913,122.5124716553288,124.14214463840399,99.55361596009975,99.87142857142857,121.8952380952381,122.60645161290323,145.9763440860215,149.0,145.0,125.0,121.0,101.0,145.0,125.0,169.0
101,5.050000000000001,-0.12055404170160511,-0.3975241871277557,1.952299766921353,-0.18342805854389743,-1.4806804023556337,-0.13274411490732296,0.4790349061371917,0.12044240738280096,0.6236953079272682,2.931775097205276,-0.06114045601105861,1.5984898111281105,147.4049773755656,122.73529411764706,124.11881188118812,99.70297029702971,99.80094786729858,122.1090047393365,122.58924731182796,146.28817204301075,149.0,145.0,125.0,121.0,101.0,145.0,125.0,169.0
102,5.1000000000000005,-0.11951283595014939,-0.3964739061774556,1.9523396443511825,-0.1852829699220555,-1.4814580539220232,-0.13174003521712319,0.47956379019640477,0.12079080153824212,0.6234130471164516,2.9311882361276798,-0.06048394866221824,1.5984322049387003,147.41176470588235,123.02941176470588,124.09950248756219,99.93283582089552,99.83847980997625,122.41567695961996,122.53648068669528,146.53648068669528,149.0,145.0,125.0,121.0,101.0,145.0,125.0,169.0
103,5.15,-0.11827765153228631,-0.395732275763252,1.9526396802612593,-0.18729164953166944,-1.4823517852756778,-0.13072876599198224,0.4799106583551741,0.1212411404706547,0.6231105712807614,2.930415982760653,-0.05968763439927684,1.5985489366090264,147.36711711711712,123.22747747747748,124.07692307692308,100.26550868486352,99.76959619952494,122.68171021377673,122.53118279569892,146.80645161290323,149.0,145.0,125.0,121.0,101.0,145.0,125.0,169.0
104,5.2,-0.1167691246624809,-0.39465108027194384,1.952894822775944,-0.18937556954014756,-1.483493862395834,-0.12947199877838855,0.4803991580543039,0.12178050145322589,0.6226885790498428,2.929911170844877,-0.05873515503343089,1.5986327212724853,147.38738738738738,123.44369369369369,124.02475247524752,100.45049504950495,99.63615023474179,122.83098591549296,122.50535331905782,147.06209850107066,149.0,145.0,125.0,121.0,101.0,145.0,125.0,169.0
105,5.25,-0.11532659498558617,-0.3930936719683027,1.9527899911599498,-0.19127798520938377,-1.4846273139527861,-0.1280741088965982,0.4811400717497404,0.12226272572086169,0.6222722416833079,2.9297073356060697,-0.05786579687261844,1.598495372331802,147.38374717832957,123.75169300225734,124.02481389578163,100.61042183622828,99.53971962616822,123.02803738317758,122.49253731343283,147.35394456289978,149.0,145.0,125.0,121.0,101.0,145.0,125.0,169.0
106,5.300000000000001,-0.11428283231512282,-0.391553099906226,1.9524450769802755,-0.1929141647173691,-1.48545286916098,-0.12686422367656114,0.4819170196569906,0.1225853363646327,0.621998886925981,2.929455012827389,-0.05725871325963342,1.5982063352458162,147.32286995515696,124.0201793721973,123.99752475247524,100.82178217821782,99.47306791569086,123.25058548009368,122.44585987261146,147.59023354564755,149.0,145.0,125.0,121.0,101.0,145.0,125.0,169.0
107,5.3500000000000005,-0.11337692474747385,-0.39006048181373343,1.9520588688548708,-0.19447447056172207,-1.486178558389085,-0.1257280972126673,0.4826833850246024,0.12285594719687791,0.62176687296202,2.9291687560194464,-0.056731519635794043,1.5978731767796068,147.32062780269058,124.24215246636771,123.89578163771712,101.2258064516129,99.43793911007026,123.7423887587822,122.46481876332622,147.90405117270788,149.0,145.0,125.0,121.0,101.0,145.0,125.0,169.0
108,5.4,-0.11158492682672261,-0.3882750779679429,1.9519324995458893,-0.19640735837806256,-1.4875833819757043,-0.12409274627388234,0.4834929552533156,0.12347654816803882,0.6212583525268188,2.9291805710274934,-0.05567385488978806,1.597785751453831,147.30648769574944,124.48322147651007,123.9090909090909,101.35626535626535,99.3953488372093,123.91627906976744,122.37791932059449,148.208067940552,149.0,145.0,125.0,121.0,101.0,145.0,125.0,169.0
109,5.45,-0.11001814999296977,-0.38697647619802433,1.951897206198101,-0.1982601529106236,-1.4887510976174667,-0.12270209895548323,0.48407775465814,0.12404075372929246,0.6209051801313913,2.928827375610459,-0.05475290734111841,1.597779000152403,147.33333333333334,124.7807606263982,123.91133004926108,101.51231527093596,99.33796296296296,124.04629629629629,122.36942675159236,148.43099787685776,149.0,145.0,125.0,121.0,101.0,145.0,125.0,169.0
110,5.5,-0.10883609469062971,-0.38545596989913644,1.9515266518277317,-0.19984221576013006,-1.4896654852889828,-0.12140328798751066,0.48482180080003123,0.12443148159573705,0.6206475723487311,2.9285898814615625,-0.05408285225339573,1.5975204734073343,147.27293064876957,125.01118568232663,123.81617647058823,101.75490196078431,99.27634660421546,124.24824355971897,122.40254237288136,148.65677966101694,149.0,145.0,125.0,121.0,101.0,145.0,125.0,169.0
111,5.550000000000001,-0.10800951972231632,-0.3835274683615273,1.9507906689472065,-0.20113486098242328,-1.4903670237928415,-0.12017872954708331,0.4858154716167058,0.12464985222012812,0.6204149207534054,2.9286503000946142,-0.05364929027034322,1.5970054382806071,147.2751677852349,125.2662192393736,123.7960687960688,102.06142506142506,99.17016317016316,124.6946386946387,122.36363636363636,149.0676532769556,149.0,145.0,125.0,121.0,101.0,145.0,125.0,169.0
112,5.6000000000000005,-0.10655555869492206,-0.3818153861018856,1.950378850993487,-0.20271109100553408,-1.4914756989747415,-0.11871269081173841,0.4866216510676972,0.1251497349679649,0.6200909912388555,2.92859809617031,-0.05284559970135918,1.5968065052026084,147.24168514412418,125.52549889135256,123.85925925925926,102.34814814814816,99.1270207852194,124.93302540415705,122.30379746835443,149.31856540084388,149.0,145.0,125.0,121.0,101.0,145.0,125.0,169.0
113,5.65,-0.104826373595869,-0.380165219138366,1.9501374338654296,-0.20446455105450623,-1.492809381449292,-0.11709110160320524,0.48736171680112367,0.12576867877599462,0.6196976488794768,2.9285106028502206,-0.05184721959524389,1.596686868983508,147.29333333333332,125.82444444444444,123.81995133819952,102.51338199513383,99.09345794392523,125.08644859813084,122.2983193277311,149.50840336134453,149.0,145.0,125.0,121.0,101.0,145.0,125.0,169.0
114,5.7,-0.10329326758377366,-0.37814492046484416,1.949581238590504,-0.20602144709010917,-1.4940510946310237,-0.11542654646370298,0.4883155890562907,0.12628330268080082,0.6193220207127555,2.9286617413084737,-0.05098194323398738,1.5963343499006108,147.26339285714286,126.03571428571429,123.74818401937046,102.71186440677967,99.02777777777777,125.35185185185185,122.19087136929461,149.8941908713693,149.0,145.0,125.0,121.0,101.0,145.0,125.0,169.0
115,5.75,-0.10177059580006054,-0.3765449001534358,1.949166109259239,-0.20757017416557044,-1.4952019864306392,-0.11390083890544878,0.48905337921689257,0.12682620404003261,0.6190457941062584,2.9285195256368146,-0.05014085656424932,1.5961401446373238,147.3088888888889,126.25777777777778,123.67312348668281,102.8861985472155,98.99539170506912,125.60599078341014,122.15208333333334,150.11666666666667,149.0,145.0,125.0,121.0,101.0,145.0,125.0,169.0
116,5.800000000000001,-0.09995146549568146,-0.37488508865809766,1.9488128737480457,-0.20921767482223252,-1.4965713867935149,-0.11220594315279797,0.48978411684599454,0.12749364857049383,0.6187080735593057,2.928431984178374,-0.049125903942616976,1.5960297608454557,147.23296703296703,126.47692307692307,123.63746958637469,103.15571776155718,98.97921478060046,125.80600461893765,122.20250521920669,150.36743215031316,149.0,145.0,125.0,121.0,101.0,145.0,125.0,169.0
117,5.8500000000000005,-0.09858057992323399,-0.37302184967781216,1.9481818600561072,-0.21057702645950105,-1.4976398885880577,-0.11070031344450815,0.49067094599704325,0.12796235151955876,0.6184297360338187,2.9285089873698804,-0.04839166010103602,1.595708170697006,147.2609649122807,126.71491228070175,123.60386473429952,103.3743961352657,98.90993071593533,126.04157043879907,122.2125,150.61458333333334,149.0,145.0,125.0,121.0,101.0,145.0,125.0,169.0
118,5.9,-0.09707872176960075,-0.37084790636522946,1.9474078665059658,-0.21189961617873632,-1.4988404595198155,-0.1090264118729456,0.49170059295750423,0.12847050253225142,0.6180953326185769,2.9288108119761063,-0.0475889814940172,1.5953155289594274,147.30666666666667,127.02222222222223,123.64492753623189,103.55797101449275,98.875,126.325,122.08418891170432,150.9158110882957,149.0,145.0,125.0,121.0,101.0,145.0,125.0,169.0
119,5.95,-0.09521249573964763,-0.3692186101563477,1.9470251061929487,-0.21349055784105309,-1.5002476614390128,-0.10728907401041443,0.4924054598141267,0.1291689948460815,0.6177810054833082,2.928713592421033,-0.04654599070546341,1.595202689064607,147.27593818984548,127.20971302428256,123.66187050359713,103.74580335731414,98.91095890410959,126.5296803652968,122.14462809917356,151.12396694214877,149.0,145.0,125.0,121.0,101.0,145.0,125.0,169.0
120,6.0,-0.09369689469762887,-0.3677755524213162,1.9466028616254727,-0.21491676111183722,-1.5013702129410325,-0.10581389208020564,0.4930541154554859,0.12973294069122335,0.6175626631384087,2.928506234680026,-0.0457191174013717,1.5950573728434483,147.27412280701753,127.4298245614035,123.56115107913669,103.96163069544365,98.8082191780822,126.83333333333333,122.22129436325679,151.41127348643008,149.0,145.0,125.0,121.0,101.0,145.0,125.0,169.0
121,6.050000000000001,-0.09225274649522941,-0.3659769222494593,1.9459048305663753,-0.21613978893688124,-1.5024478520795155,-0.10430605991070774,0.4938928678735814,0.13025133789064633,0.6173378245855154,2.928576333581185,-0.044976988676115916,1.5948045387538285,147.28540305010893,127.67102396514161,123.54939759036145,104.23855421686747,98.74318181818182,127.025,122.16938775510204,151.73877551020408,149.0,145.0,125.0,121.0,101.0,145.0,125.0,169.0
122,6.1000000000000005,-0.09073753181124156,-0.3639138178639687,1.94506056872119,-0.21731511556459226,-1.5036167399904619,-0.10265279819705952,0.49485921875915706,0.1307874789427133,0.6170790612973709,2.928826029306177,-0.04419511205831233,1.5944541726574022,147.37444933920705,128.0,123.55369928400955,104.44630071599045,98.74266365688487,127.1941309255079,122.0838445807771,151.96523517382414,149.0,145.0,125.0,121.0,101.0,145.0,125.0,169.0
123,6.15,-0.088982575360538,-0.3616429722940442,1.944188199301479,-0.21857903718244653,-1.5050210371487243,-0.10075323817487236,0.49590303818863946,0.13141449708573513,0.616747913565125,2.9291989959578166,-0.043244987927208205,1.594049789082047,147.31567328918322,128.14128035320087,123.5727923627685,104.63245823389022,98.71748878923766,127.46412556053812,122.10655737704919,152.1905737704918,149.0,145.0,125.0,121.0,101.0,145.0,125.0,169.0
124,6.2,-0.08726482227670296,-0.3598243077253245,1.943538554329555,-0.2198793764476541,-1.5063294001380738,-0.09904378374091527,0.49671471122951116,0.13205593135901483,0.6164839079655376,2.929281725166057,-0.04231780083569081,1.593826170035392,147.2991266375546,128.4301310043668,123.51781472684085,104.85273159144893,98.69751693002257,127.77200902934537,122.21399176954732,152.51440329218107,149.0,145.0,125.0,121.0,101.0,145.0,125.0,169.0
125,6.25,-0.08610413817050544,-0.35792467109444326,1.9425614968208889,-0.22078643298554068,-1.5071958817133169,-0.09763501298548993,0.49763616002425454,0.13246120121748445,0.6163587561015924,2.929448020793996,-0.04177482523507152,1.5934253861498278,147.30735930735932,128.6861471861472,123.49761904761905,105.08095238095238,98.68243243243244,128.0427927927928,122.12219959266803,152.84317718940937,149.0,145.0,125.0,121.0,101.0,145.0,125.0,169.0
126,6.300000000000001,-0.08485499292252285,-0.3563722124315394,1.9417701671564531,-0.22177560417786024,-1.5080792278976345,-0.09627187957724104,0.4983680217841703,0.132926588615305,0.6162813339998712,2.9293690388901092,-0.041178394003300235,1.5931648001626402,147.40393013100436,128.94759825327512,123.48456057007125,105.34441805225653,98.71685393258427,128.22696629213482,122.11812627291242,153.0,149.0,145.0,125.0,121.0,101.0,145.0,125.0,169.0
127,6.3500000000000005,-0.08307006162436803,-0.35426603138894475,1.9409579846048244,-0.22296550824623518,-1.5094830474747534,-0.09443902005843707,0.4993148199952752,0.13358994505895316,0.6159696392055498,2.9296936971363925,-0.040207699131632524,1.5928583540656258,147.40262582056891,129.11159737417944,123.5,105.5,98.6369710467706,128.4075723830735,122.17107942973523,153.20366598778003,149.0,145.0,125.0,121.0,101.0,145.0,125.0,169.0
128,6.4,-0.08135488687006331,-0.3520338145944524,1.9400090711429367,-0.22403860164206302,-1.5108380069548684,-0.09261078736890571,0.5003347397408421,0.13422128214234558,0.6156747911166647,2.9301145201055845,-0.03929431785326722,1.5924927494516443,147.39696312364424,129.3709327548807,123.54245283018868,105.70283018867924,98.58,128.69333333333333,122.20934959349593,153.65243902439025,149.0,145.0,125.0,121.0,101.0,145.0,125.0,169.0
129,6.45,-0.0802905322426013,-0.3501870502340143,1.938866079025483,-0.22472914965168833,-1.5115964976456233,-0.09124128482148253,0.5012407124595871,0.1346014319511562,0.6156565522365562,2.930255371853306,-0.03884638929877112,1.592057220509659,147.38362068965517,129.62715517241378,123.49408983451536,105.97399527186761,98.6322869955157,129.03811659192826,122.17647058823529,153.85395537525355,149.0,145.0,125.0,121.0,101.0,145.0,125.0,169.0
130,6.5,-0.07887393680076737,-0.34865170908360854,1.9381021490959336,-0.2256941952725371,-1.5126051447491191,-0.0898048939079712,0.5019359460487816,0.13514985633672266,0.6155588702529948,2.930214722740823,-0.03814599489383216,1.5918651010492753,147.45553145336225,129.8308026030369,123.45626477541371,106.19385342789599,98.66369710467706,129.18708240534522,122.17408906882591,154.0242914979757,149.0,145.0,125.0,121.0,101.0,145.0,125.0,169.0
131,6.550000000000001,-0.07713942716467326,-0.3466608053336788,1.9372560164139063,-0.2267390014065347,-1.5139416191345623,-0.08805664152618409,0.502823288382775,0.13581237187870177,0.615300763316405,2.930510043742382,-0.03721957186231933,1.5916064109954093,147.45217391304348,130.07391304347826,123.52582159624413,106.36619718309859,98.63716814159292,129.391592920354,122.27991886409737,154.22718052738335,149.0,145.0,125.0,121.0,101.0,145.0,125.0,169.0
132,6.6000000000000005,-0.07574916023021494,-0.3446259322171539,1.9362180838268523,-0.22755831679819094,-1.5150182204065672,-0.08647465149299416,0.5037779123098595,0.13632705577580712,0.6151249451671611,2.9308482352984955,-0.03651977109454296,1.5912171278309895,147.46868250539956,130.28941684665227,123.52582159624413,106.5469483568075,98.55824175824176,129.5934065934066,122.23886639676114,154.62145748987854,149.0,145.0,125.0,121.0,101.0,145.0,125.0,169.0
133,6.65,-0.0746921018554505,-0.34271922460360305,1.9349905756685297,-0.22812898632901213,-1.5157842069969254,-0.08508627992129592,0.5047124449600288,0.13671046772838866,0.6151127926581916,2.9310774801458828,-0.03607553244198849,1.5907513740434587,147.47948164146868,130.51619870410366,123.57075471698113,106.7995283018868,98.59688195991092,129.97327394209353,122.21572580645162,154.8991935483871,149.0,145.0,125.0,121.0,101.0,145.0,125.0,169.0
134,6.7,-0.07340556040623358,-0.3416088849051846,1.9342921316265826,-0.2289783967557426,-1.5166189841814628,-0.08383614254962612,0.5052029671620862,0.1372357233373134,0.6151599745727415,2.930759101890588,-0.03548226835068536,1.590656611204203,147.54094827586206,130.73491379310346,123.53990610328638,107.01643192488262,98.63111111111111,130.12444444444444,122.25506072874494,155.0425101214575,149.0,145.0,125.0,121.0,101.0,145.0,125.0,169.0
135,6.75,-0.07186287236595934,-0.33996873295350216,1.9334598938276395,-0.2298650273245073,-1.5177489474823878,-0.0822911272455209,0.5059309010125895,0.13784533885619893,0.615039230570043,2.9308369175344113,-0.03469614611274599,1.5904549767372487,147.54782608695652,130.92608695652174,123.5607476635514,107.25233644859813,98.68141592920354,130.38053097345133,122.32926829268293,155.28048780487805,149.0,145.0,125.0,121.0,101.0,145.0,125.0,169.0
136,6.800000000000001,-0.07044900193618897,-0.3384364752207194,1.9326444919898798,-0.23068687430733714,-1.5187652086370749,-0.08087138841077124,0.50661825641995,0.1384061750853506,0.6149507033471397,2.9308715475971083,-0.03399312259785947,1.590271254606838,147.58029978586723,131.19700214132763,123.52941176470588,107.44,98.63894967177242,130.53610503282275,122.4239350912779,155.55375253549695,149.0,145.0,125.0,121.0,101.0,145.0,125.0,169.0
137,6.8500000000000005,-0.0693957340430007,-0.3362304487380747,1.9312640250700222,-0.23110612729495372,-1.5195804092945986,-0.07943280532428565,0.5077018478246438,0.13878146466433045,0.6148687511639461,2.9313985661330375,-0.03353647720533121,1.5897324943988203,147.6338329764454,131.43468950749465,123.57511737089202,107.62206572769954,98.61758241758241,130.76703296703297,122.36363636363636,155.8242424242424,149.0,145.0,125.0,121.0,101.0,145.0,125.0,169.0
138,6.9,-0.06821465999419374,-0.3343696434315686,1.930074343079001,-0.23163561924463805,-1.5204464215732676,-0.07800305531149343,0.5085912112809723,0.13923183753519003,0.6148382989885545,2.9316613282488846,-0.03300289361782203,1.5893295089980732,147.61853448275863,131.61637931034483,123.59484777517564,107.86416861826697,98.63111111111111,131.12444444444444,122.43058350100604,156.0261569416499,149.0,145.0,125.0,121.0,101.0,145.0,125.0,169.0
139,6.95,-0.0668556753424312,-0.3329677124514223,1.9292345523671726,-0.23234586236171983,-1.5213842292995903,-0.07666204757555128,0.5092141724125162,0.13978432809258565,0.614815091867003,2.9316336350065266,-0.0323544201206573,1.5891866454069898,147.59869848156183,131.82863340563992,123.63317757009345,108.03738317757009,98.70484581497797,131.2863436123348,122.53629032258064,156.2641129032258,149.0,145.0,125.0,121.0,101.0,145.0,125.0,169.0
140,7.0,-0.06621977383754896,-0.3314815501678203,1.928027885084152,-0.2326235118771236,-1.5217645113762073,-0.07568161860862377,0.5099788697583684,0.14001922722486787,0.6149500104756368,2.931697988670493,-0.032189736743850124,1.5887832822690422,147.70043103448276,132.14870689655172,123.60889929742389,108.30444964871194,98.67105263157895,131.47368421052633,122.5506072874494,156.5,149.0,145.0,125.0,121.0,101.0,145.0,125.0,169.0
141,7.050000000000001,-0.06509847603063967,-0.3292839247381072,1.9266584599046785,-0.23300047014188907,-1.5226480070625605,-0.07420791481263178,0.5110456678903426,0.14043273428106745,0.6148499802302646,2.9322700588059805,-0.03167206137740507,1.5882643824082854,147.73875802997858,132.3661670235546,123.60421545667447,108.53161592505855,98.66013071895425,131.68409586056646,122.60965794768612,156.80684104627767,149.0,145.0,125.0,121.0,101.0,145.0,125.0,169.0
142,7.1000000000000005,-0.06410763707014944,-0.3268223090582305,1.9250551941261378,-0.2331915176128847,-1.5234534748542234,-0.07273082742279557,0.5122663116308837,0.14078161193120595,0.6147545402294067,2.9330491857210808,-0.031246902456540954,1.58762167917297,147.78418803418805,132.47222222222223,123.60606060606061,108.73193473193473,98.6119733924612,132.10643015521063,122.67871485943775,157.02008032128515,149.0,145.0,125.0,121.0,101.0,145.0,125.0,169.0
143,7.15,-0.06255235871681952,-0.325061842944252,1.9240447193052246,-0.23377197114102133,-1.5245689797454567,-0.07123273595970314,0.5130419316656019,0.14141541675939898,0.6146470756103496,2.933349601515782,-0.030480364101826737,1.5874758948675176,147.77516059957173,132.65952890792292,123.64037122969837,108.93735498839906,98.67912087912087,132.22417582417583,122.69860279441117,157.2315369261477,149.0,145.0,125.0,121.0,101.0,145.0,125.0,169.0
144,7.2,-0.06134527307923898,-0.32319981791836927,1.9228470690176573,-0.23415017299132002,-1.525442119737126,-0.06987620360768343,0.5139166902213801,0.1418923518253838,0.6145915308862793,2.933741946723778,-0.02993088168156346,1.587166493904782,147.82089552238807,132.92324093816632,123.68822170900692,109.1039260969977,98.68131868131869,132.4021978021978,122.699203187251,157.4003984063745,149.0,145.0,125.0,121.0,101.0,145.0,125.0,169.0
145,7.25,-0.06004320268032837,-0.3213603327940038,1.9217002456789416,-0.23458772633486236,-1.5264063462831432,-0.06844838421557142,0.514767825139139,0.14241198604666425,0.6145166471508455,2.9341113194397557,-0.02930381035182439,1.586864715980406,147.8177966101695,133.21186440677965,123.66435185185185,109.19212962962963,98.65943600867679,132.60303687635576,122.754,157.74,149.0,145.0,125.0,121.0,101.0,145.0,125.0,169.0
146,7.300000000000001,-0.05956281468733016,-0.31937252566011676,1.9200045760137305,-0.23444160210613774,-1.5266994072010016,-0.06739995414183042,0.5158132606030529,0.14256941264048253,0.6146746601405084,2.93460166420275,-0.029268767005673362,1.5862445113530086,147.8340425531915,133.35744680851064,123.68298368298369,109.51981351981352,98.69848156182212,132.79609544468548,122.80360721442885,157.95390781563125,149.0,145.0,125.0,121.0,101.0,145.0,125.0,169.0
147,7.3500000000000005,-0.05879625892939133,-0.31715914825677194,1.9183824277704495,-0.2344260258177311,-1.5272792696095516,-0.06615186732070644,0.5169318991183078,0.14284260803409288,0.6146798449581068,2.9352873045245675,-0.02900410158847075,1.5856521905576073,147.9468085106383,133.56382978723406,123.69373549883991,109.69373549883991,98.69956140350877,133.2061403508772,122.7935871743487,158.124248496994,149.0,145.0,125.0,121.0,101.0,145.0,125.0,169.0
148,7.4,-0.05730644304412591,-0.31577161880314497,1.9174932378239893,-0.2349537184067878,-1.5283009101432627,-0.06479267540484512,0.517519569004773,0.1434756776258151,0.6146618868611664,2.935366889143671,-0.02827996348788839,1.5856044332699273,148.00425531914894,133.68510638297872,123.75,109.89583333333333,98.68927789934355,133.31072210065645,122.872,158.33,149.0,145.0,125.0,121.0,101.0,145.0,125.0,169.0
149,7.45,-0.05573768997174877,-0.31408393343507957,1.9164684260343048,-0.23543181511939748,-1.5294304469414293,-0.06330435960581537,0.5182504444308081,0.1441322631926105,0.6145769540328745,2.9356708067795947,-0.027492884699965185,1.5854805847284368,148.0253164556962,133.86075949367088,123.8013856812933,110.01616628175519,98.75816993464052,133.45969498910677,122.89920948616601,158.53754940711462,149.0,145.0,125.0,121.0,101.0,145.0,125.0,169.0
150,7.5,-0.05460114654863801,-0.31256303568744537,1.9153160863448697,-0.23568814308837904,-1.5301893473234864,-0.06208326510643758,0.5189574591933762,0.1446052458151056,0.6146368562432784,2.9358677752587634,-0.02700988778865077,1.5852629603754531,148.02966101694915,134.15254237288136,123.81149425287356,110.17011494252874,98.84665226781857,133.62850971922245,122.938,158.832,149.0,145.0,125.0,121.0,101.0,145.0,125.0,169.0
151,7.550000000000001,-0.05416741230956923,-0.31083748804723177,1.9137155511327721,-0.2354819373017527,-1.530414579608367,-0.061155231132204335,0.5198709156191572,0.14475942263047115,0.6148451813714815,2.936239398720844,-0.027004631074502863,1.5847316730330168,148.0615711252654,134.41188959660298,123.7690531177829,110.36258660508084,98.92857142857143,133.87878787878788,122.96007984031937,159.00598802395209,149.0,145.0,125.0,121.0,101.0,145.0,125.0,169.0
152,7.6000000000000005,-0.05365356607620475,-0.30906449749559517,1.9121621997209184,-0.2353168397820955,-1.5307256960431879,-0.06018219837122185,0.5207953327358331,0.14494791094010367,0.6149992599053388,2.9366713724537705,-0.02692567639670734,1.5842183516532549,148.10638297872342,134.5468085106383,123.79302325581395,110.75581395348837,98.95860566448802,134.14161220043573,122.95991983967936,159.1803607214429,149.0,145.0,125.0,121.0,101.0,145.0,125.0,169.0
153,7.65,-0.05234691552890958,-0.3074637779011029,1.9111483138079706,-0.23567983693684225,-1.5316852001371348,-0.058862793521191836,0.5215117611141927,0.14549564596445053,0.6149302080169562,2.9369919355291105,-0.02626852163302918,1.584033061157129,148.16737288135593,134.6906779661017,123.89814814814815,110.84027777777777,99.008658008658,134.33116883116884,123.00392927308448,159.47544204322202,149.0,145.0,125.0,121.0,101.0,145.0,125.0,169.0
154,7.7,-0.051674420336238924,-0.3062876056205117,1.9099737210411645,-0.23570927593462265,-1.5320366393631648,-0.05799335857701582,0.5221016709949574,0.14578179992147738,0.6151501519475522,2.9370072110134164,-0.02610040011694312,1.5837832941928103,148.20974576271186,134.8177966101695,123.95823665893272,111.02320185614849,99.0755939524838,134.48596112311014,123.06746031746032,159.61507936507937,149.0,145.0,125.0,121.0,101.0,145.0,125.0,169.0
155,7.75,-0.050965984280006094,-0.30517474388788957,1.9088765257070737,-0.23578437505631866,-1.5324213219493297,-0.05713065292593189,0.5226521207572234,0.14608521105243694,0.6153530788645823,2.93699334184945,-0.025896619394762885,1.5835699520937137,148.28450106157112,135.1464968152866,123.97222222222223,111.14814814814815,99.0646551724138,134.6594827586207,123.15768463073853,159.87624750499003,149.0,145.0,125.0,121.0,101.0,145.0,125.0,169.0
156,7.800000000000001,-0.05041323647920848,-0.3035560394869159,1.9073867092335073,-0.23560126827729544,-1.5327459272417459,-0.05618301032828921,0.5234901134270753,0.1463017647918527,0.6155336674080799,2.9373515830569947,-0.025791835409986162,1.583120182669969,148.3582089552239,135.33262260127933,123.98601398601399,111.31002331002331,99.14596949891067,134.8540305010893,123.172,160.052,149.0,145.0,125.0,121.0,101.0,145.0,125.0,169.0
157,7.8500000000000005,-0.04978615136272868,-0.3020261096008001,1.9059822385062848,-0.23547380776408522,-1.5331247309240483,-0.055222420744353684,0.5242705622728945,0.14655554295564388,0.6157066769839101,2.9376529767424997,-0.02563189807960503,1.5827229983651683,148.33050847457628,135.51271186440678,124.02558139534884,111.7139534883721,99.14838709677419,135.2021505376344,123.20477137176938,160.20079522862824,149.0,145.0,125.0,121.0,101.0,145.0,125.0,169.0
158,7.9,-0.048557194032431195,-0.3009536084908544,1.9051978274101762,-0.23584592017465011,-1.5339569038534373,-0.05410834654000096,0.5247194568437923,0.14709506905611522,0.6157468107990041,2.9376452437110516,-0.025036687702476725,1.5826954790896397,148.41525423728814,135.64830508474577,124.10114942528736,111.82068965517242,99.24838012958963,135.36069114470843,123.25296442687747,160.42094861660078,149.0,145.0,125.0,121.0,101.0,145.0,125.0,169.0
159,7.95,-0.047666817935241745,-0.30007739974332637,1.9043191436080917,-0.2360354099172275,-1.534472120196508,-0.0532278040208185,0.5251163437727994,0.14749192004163522,0.61593117081011,2.9375038428845235,-0.02469976736192649,1.5826239842002827,148.4498933901919,135.7867803837953,124.13103448275862,111.94022988505748,99.34632034632034,135.42207792207793,123.33067729083665,160.6195219123506,149.0,145.0,125.0,121.0,101.0,145.0,125.0,169.0
160,8.0,-0.04719681810522047,-0.29882636915369387,1.9030515611237933,-0.23588966742578998,-1.5347059489144002,-0.05245935023531567,0.5257693706852945,0.14768535989098105,0.616148126966607,2.9376666556807787,-0.024636145099102332,1.5822898077618432,148.50533049040513,136.02558635394456,124.15277777777777,112.07175925925925,99.36659436008676,135.65075921908894,123.38645418326693,160.81075697211156,149.0,145.0,125.0,121.0,101.0,145.0,125.0,169.0
161,8.05,-0.0467359419240454,-0.29760188969267043,1.9017691623714805,-0.2357134223666022,-1.5349223055895767,-0.05170317710163275,0.5264102913222262,0.14787772850131609,0.6163845262688764,2.9378168021939235,-0.02458526016486582,1.5819628418018907,148.5659574468085,136.2340425531915,124.24249422632795,112.24249422632795,99.34573304157549,135.7680525164114,123.45436507936508,160.984126984127,149.0,145.0,125.0,121.0,101.0,145.0,125.0,169.0
162,8.1,-0.04615851850121411,-0.2961904355527909,1.9004300645942864,-0.23555160648481976,-1.535274001177549,-0.05080744679061633,0.5271317308016042,0.14811593177844956,0.6165639776288919,2.9380934624145603,-0.02443555196050792,1.5815860214915676,148.52978723404254,136.41702127659573,124.32870370370371,112.45138888888889,99.42207792207792,136.12121212121212,123.58730158730158,161.14880952380952,149.0,145.0,125.0,121.0,101.0,145.0,125.0,169.0
163,8.15,-0.045877657942842376,-0.29533387205574346,1.899281943974767,-0.2353519656258647,-1.5352969871653999,-0.05027045377947825,0.5276038933341737,0.14824193633298308,0.6168951957724034,2.938014526642954,-0.0245170690177581,1.581338256455154,148.5859872611465,136.54989384288749,124.28735632183908,112.74712643678161,99.42640692640693,136.26623376623377,123.65868263473054,161.30738522954093,149.0,145.0,125.0,121.0,101.0,145.0,125.0,169.0
164,8.200000000000001,-0.04498978913180718,-0.2940406917349079,1.8982456395337755,-0.23540784896982192,-1.5359002937240662,-0.049312053687943,0.5282103791144427,0.14862439299635583,0.6169505039290373,2.938272542592649,-0.024130333769537833,1.5811611183499261,148.59100642398286,136.67665952890792,124.35172413793103,112.85977011494253,99.45986984815619,136.412147505423,123.67594433399603,161.46123260437375,149.0,145.0,125.0,121.0,101.0,145.0,125.0,169.0
165,8.25,-0.04436137646577709,-0.2929872561869189,1.8972014799585866,-0.2353617413010478,-1.5362542428233281,-0.04855348929900627,0.5287309252896232,0.1488994884612474,0.6171233617331927,2.9383653120987683,-0.02394003678692167,1.580973730764964,148.59528907922913,136.86723768736616,124.34174311926606,112.95642201834862,99.52813852813853,136.56493506493507,123.75249500998004,161.71457085828342,149.0,145.0,125.0,121.0,101.0,145.0,125.0,169.0
166,8.3,-0.04428161269982578,-0.291635914707951,1.8957196841658925,-0.23489127350634487,-1.5361880254593876,-0.04801039267066809,0.5294863619449683,0.14891698616493665,0.6173914760500555,2.93871570875083,-0.024134781104134265,1.580525512812521,148.71974522292993,137.15711252653927,124.38799076212472,113.10623556581986,99.54859611231102,136.74298056155507,123.76846307385229,161.91816367265469,149.0,145.0,125.0,121.0,101.0,145.0,125.0,169.0
167,8.35,-0.04395493198158906,-0.2901666829094065,1.8942575973807436,-0.23451289559151345,-1.536351402013957,-0.04726933307976955,0.5302690806686924,0.14904226908372203,0.6175941261106555,2.9391288335918366,-0.024144917676544253,1.5800836837382939,148.76645435244163,137.28662420382165,124.45034642032333,113.33487297921478,99.54761904761905,136.95238095238096,123.7808764940239,162.0597609561753,149.0,145.0,125.0,121.0,101.0,145.0,125.0,169.0
168,8.4,-0.04331866194372891,-0.2890531486916279,1.8931368555709707,-0.23439761656999059,-1.5367230977693325,-0.04646730112440611,0.5308194396629659,0.14932144083325471,0.617778426955032,2.939274332210565,-0.023946806519149117,1.5798574954148394,148.7728237791932,137.39490445859872,124.47575057736721,113.51270207852194,99.57483731019522,137.236442516269,123.832,162.162,149.0,145.0,125.0,121.0,101.0,145.0,125.0,169.0
169,8.450000000000001,-0.04255204297089188,-0.2884707229228005,1.892372845395129,-0.23447387098584738,-1.5371132003921364,-0.045783257376306175,0.5310708128558344,0.14967960433350302,0.6180173619204227,2.939049891793545,-0.023688230437194282,1.579882349219019,148.8619957537155,137.52866242038218,124.49425287356321,113.65747126436781,99.66593886462883,137.2991266375546,123.93280632411067,162.33596837944663,149.0,145.0,125.0,121.0,101.0,145.0,125.0,169.0
170,8.5,-0.04177669843559384,-0.2874071050212814,1.891375435328869,-0.2344341959807288,-1.5375920013667344,-0.04496349163866409,0.5315710766491383,0.15002368995512813,0.6181491418789388,2.939199926621847,-0.023389600232814407,1.5797558142258468,148.95762711864407,137.60593220338984,124.50230414746544,113.77880184331798,99.7,137.4217391304348,123.97642436149313,162.49312377210217,149.0,145.0,125.0,121.0,101.0,145.0,125.0,169.0
171,8.55,-0.0408543860854067,-0.28632126634246857,1.8904084267681753,-0.23443570440349903,-1.5381832348094626,-0.04407105872838102,0.5320617250449344,0.15043553903254686,0.6182523098221417,2.939368220219611,-0.02299568873601366,1.5796823378511677,149.0168776371308,137.76793248945148,124.59216589861751,113.91244239631337,99.7537796976242,137.56155507559396,124.03155818540434,162.60157790927022,149.0,145.0,125.0,121.0,101.0,145.0,125.0,169.0
172,8.6,-0.03989557542311628,-0.28536054944151434,1.889533859124854,-0.23449708217219012,-1.5388002632597386,-0.04318374620985432,0.5324803527241352,0.1508678120900525,0.6183648018631186,2.939442639890222,-0.02257081897474977,1.5796474971843977,149.0063025210084,137.90546218487395,124.65825688073394,114.04357798165138,99.82543103448276,137.64439655172413,124.06972111553785,162.75498007968127,149.0,145.0,125.0,121.0,101.0,145.0,125.0,169.0
173,8.65,-0.039281905320402544,-0.2843225831340481,1.888479647719917,-0.2343600645029933,-1.539161112695937,-0.0424464351212368,0.5329895859228494,0.1511392744909402,0.6185361721810338,2.93959730015031,-0.02237239014870255,1.5794631055882475,149.01473684210526,138.08,124.64827586206897,114.14022988505747,99.86637931034483,137.77586206896552,124.102,162.906,149.0,145.0,125.0,121.0,101.0,145.0,125.0,169.0
174,8.700000000000001,-0.03882231997350827,-0.28312464262702,1.8872716755589511,-0.23408702336101772,-1.5394215930817872,-0.04174605123737951,0.5336047064531526,0.15133569152156942,0.6187120605576603,2.939889120269397,-0.02227133974727762,1.5791776967475022,148.99574468085106,138.31489361702128,124.70642201834862,114.30275229357798,99.94827586206897,137.95905172413794,124.13545816733068,163.0239043824701,149.0,145.0,125.0,121.0,101.0,145.0,125.0,169.0
175,8.75,-0.03853414339124672,-0.2820033142272358,1.8860765676938485,-0.23377540034149114,-1.5395583227842886,-0.04114767379644313,0.5342031641051422,0.151454835657331,0.6189141732653015,2.9401469545009826,-0.02226919897908123,1.5788463840828375,149.0615711252654,138.41188959660298,124.65747126436781,114.47356321839081,99.98481561822126,138.1518438177874,124.19161676646706,163.15369261477045,149.0,145.0,125.0,121.0,101.0,145.0,125.0,169.0
176,8.8,-0.03792827086109041,-0.28087406754954314,1.885040197603276,-0.23362250625113123,-1.5399506104856,-0.040414132517318624,0.5347554583778619,0.15172048656299733,0.6190206395134663,2.940426807433715,-0.022042414952308693,1.5786498127934252,149.12978723404257,138.49574468085106,124.68055555555556,114.65277777777777,100.04301075268818,138.29032258064515,124.15841584158416,163.32673267326732,149.0,145.0,125.0,121.0,101.0,145.0,125.0,169.0
177,8.85,-0.037260370950024324,-0.2799587680184863,1.8841375070415474,-0.23354749526191076,-1.540362552152831,-0.03970499563040786,0.535186545227881,0.15202226049809775,0.6191568764573188,2.9405475000226677,-0.021783986861613414,1.5785389357013817,149.15286624203821,138.619957537155,124.81986143187066,114.82217090069284,100.10322580645162,138.44301075268817,124.21021611001964,163.47544204322202,149.0,145.0,125.0,121.0,101.0,145.0,125.0,169.0
178,8.9,-0.03680965600927921,-0.2793522097430783,1.8833015656409193,-0.23343381211608438,-1.5405591011240434,-0.03918697019892692,0.5354885258675279,0.15223363734781978,0.619405615711139,2.940450053975178,-0.02169038894159926,1.5784451290939092,149.23354564755837,138.71337579617835,124.86143187066975,114.85450346420323,100.11612903225806,138.48172043010752,124.30616302186878,163.62425447316105,149.0,145.0,125.0,121.0,101.0,145.0,125.0,169.0
179,8.950000000000001,-0.03644056587985167,-0.2784290660850952,1.882213883682211,-0.23315041029796824,-1.54072178942429,-0.038621414373162466,0.535970029612153,0.1523990410961393,0.6196388678433813,2.9405889225581285,-0.021649888503988884,1.578224521148245,149.23566878980893,138.81528662420382,124.93055555555556,115.02546296296296,100.25434782608696,138.6478260869565,124.29423459244533,163.76739562624255,149.0,145.0,125.0,121.0,101.0,145.0,125.0,169.0
180,9.0,-0.03641257641216811,-0.27785487662323494,1.8811861773335066,-0.2327854342764497,-1.5405646874225418,-0.03833558263089154,0.5363187933747153,0.1524184891159177,0.620005636017003,2.940499448494038,-0.02185814025173684,1.5780051386799223,149.32409381663112,138.96801705756928,124.96304849884527,115.0715935334873,100.30131004366812,138.74235807860262,124.3670634920635,163.86507936507937,149.0,145.0,125.0,121.0,101.0,145.0,125.0,169.0
181,9.05,-0.03630815178711888,-0.2771084787171345,1.8800876798988808,-0.23240457165739414,-1.5404975142031097,-0.03795593910593009,0.5367461650323284,0.15246791810225974,0.6203275311577223,2.9405339331272353,-0.02200128323614453,1.5777500917669933,149.41113490364026,139.21841541755887,125.00232018561485,115.18097447795823,100.28416485900217,138.9934924078091,124.47895791583166,164.01402805611224,149.0,145.0,125.0,121.0,101.0,145.0,125.0,169.0
182,9.1,-0.03596784020154731,-0.27637282118881545,1.8790687773578076,-0.2321166117168909,-1.540610563709195,-0.03746033268615667,0.537133182802389,0.15262800081146424,0.6206107076424512,2.94055477274141,-0.021988896939173656,1.577582352558475,149.42918454935622,139.3068669527897,124.96028037383178,115.4088785046729,100.38012958963283,139.23326133909288,124.56262425447316,164.15109343936382,149.0,145.0,125.0,121.0,101.0,145.0,125.0,169.0
183,9.15,-0.035511650870328815,-0.27572154711132146,1.8782072871957585,-0.2319196055500372,-1.5408051210040368,-0.03698203935048605,0.5374532979343692,0.15284404970304843,0.6208404909417161,2.9405600770663813,-0.021892485007021015,1.5775316262642798,149.409381663113,139.4456289978678,125.06542056074767,115.67757009345794,100.40347071583514,139.27982646420824,124.632,164.214,149.0,145.0,125.0,121.0,101.0,145.0,125.0,169.0
184,9.200000000000001,-0.0348243838623552,-0.2749501943706565,1.8774981290632615,-0.23191260476366837,-1.5412666212620874,-0.03632947467501868,0.5377982491232884,0.1531568911275153,0.6209231770506759,2.940663092461965,-0.021572638355979105,1.5774861497789432,149.41666666666666,139.51282051282053,125.11520737327189,115.78801843317973,100.40172786177106,139.3304535637149,124.67,164.33,149.0,145.0,125.0,121.0,101.0,145.0,125.0,169.0
185,9.25,-0.03420135316323103,-0.27411896259922575,1.876726535872808,-0.23185045505623103,-1.5416879448313106,-0.03568916686413548,0.5381840372566951,0.15343799030137817,0.6210102728400021,2.940816361039404,-0.021292512602542606,1.5773950128781586,149.51709401709402,139.60683760683762,125.10114942528736,115.82068965517242,100.41431670281996,139.44034707158352,124.6566866267465,164.44111776447104,149.0,145.0,125.0,121.0,101.0,145.0,125.0,169.0
186,9.3,-0.033441966325051364,-0.273359791648498,1.8760006373620906,-0.23183664712686403,-1.542193335040781,-0.034992430913863615,0.5385128307962642,0.1537861283700101,0.6211102937345833,2.9408979979252146,-0.02093806550207814,1.5773699406746309,149.51605995717344,139.6745182012848,125.1036866359447,115.93778801843318,100.45217391304348,139.50652173913045,124.79166666666667,164.60119047619048,149.0,145.0,125.0,121.0,101.0,145.0,125.0,169.0
187,9.35,-0.03284687452407109,-0.2721942326550617,1.8750036036134263,-0.23161291655345906,-1.5426193843570788,-0.034299998265367115,0.539076693944558,0.15404693310236423,0.6211544307680552,2.9413229334931277,-0.020674447802534628,1.5771930325112402,149.5107296137339,139.74248927038627,125.1550925925926,115.97453703703704,100.52597402597402,139.6103896103896,124.77844311377245,164.7125748502994,149.0,145.0,125.0,121.0,101.0,145.0,125.0,169.0
188,9.4,-0.03267621120755981,-0.2712531620418237,1.8739064865409345,-0.23118961158186657,-1.5426531562320394,-0.03389149074304987,0.539587582775195,0.15411980819549626,0.6213636095160101,2.941600204982909,-0.020734611307654267,1.5769502051583915,149.53004291845494,139.87768240343348,125.15972222222223,116.02314814814815,100.57359307359307,139.73376623376623,124.80838323353294,164.84630738522955,149.0,145.0,125.0,121.0,101.0,145.0,125.0,169.0
189,9.450000000000001,-0.032706276792572986,-0.2702449897650001,1.872663593524405,-0.23061363227578013,-1.5425234685341076,-0.03357384013342335,0.5401633478065438,0.15409933381926294,0.6216188820223773,2.9419432619823627,-0.02093926655472243,1.576626671838743,149.59914712153517,140.08955223880596,125.18013856812934,116.17782909930716,100.55939524838013,139.84449244060474,124.828,164.948,149.0,145.0,125.0,121.0,101.0,145.0,125.0,169.0
190,9.5,-0.0323450742637319,-0.26911067285522083,1.8715537319939317,-0.23024518168877162,-1.5427611777306494,-0.03298924214661847,0.5407463681685363,0.15425485660615723,0.6217385050142663,2.9423581907165284,-0.020836302367518707,1.5763597440772916,149.6196581196581,140.18376068376068,125.26036866359448,116.26267281105991,100.5391304347826,140.01304347826087,124.858,165.036,149.0,145.0,125.0,121.0,101.0,145.0,125.0,169.0
191,9.55,-0.032016265383887355,-0.26835183285760733,1.8705900322039941,-0.22992350914957926,-1.542901743656384,-0.032525049251697524,0.5411381258144666,0.15440855950372098,0.6219642055025807,2.9424886608341425,-0.020794291489857192,1.576203545656588,149.68443496801706,140.272921108742,125.32949308755761,116.39861751152074,100.63834422657952,140.1851851851852,124.88577154308618,165.11623246492985,149.0,145.0,125.0,121.0,101.0,145.0,125.0,169.0
192,9.600000000000001,-0.031682145079093615,-0.267945246141561,1.8698281311480658,-0.2297000522283983,-1.5429983680421557,-0.0321626974890461,0.5413429583984715,0.1545744290585107,0.6222510511406036,2.9423655717563357,-0.020766441863500174,1.5761662392374287,149.68094218415416,140.41327623126338,125.36866359447005,116.53456221198157,100.66593886462883,140.2991266375546,124.9417670682731,165.16265060240963,149.0,145.0,125.0,121.0,101.0,145.0,125.0,169.0
193,9.65,-0.031232149908709594,-0.26754268608335785,1.869173290770478,-0.22957836039560764,-1.54321357370935,-0.03173975294268638,0.5415266821691271,0.15479200961314205,0.6224769884624695,2.9422508062058896,-0.020634086251012575,1.5761619633796984,149.6587982832618,140.42703862660943,125.41705069124424,116.6589861751152,100.70087336244542,140.33406113537117,124.99001996007983,165.24151696606788,149.0,145.0,125.0,121.0,101.0,145.0,125.0,169.0
194,9.700000000000001,-0.030903889252729133,-0.26712234455787254,1.868486883625045,-0.22940229719647398,-1.5433410168722466,-0.03138506035472499,0.5417369841657773,0.15495153316071564,0.622707827750003,2.942172967294966,-0.020576316002803262,1.5761190327128962,149.7633262260128,140.53518123667376,125.40092165898618,116.76497695852535,100.72826086956522,140.41304347826087,125.02385685884691,165.40159045725648,149.0,145.0,125.0,121.0,101.0,145.0,125.0,169.0
195,9.75,-0.030389576324094225,-0.2664815276382537,1.8677480445783674,-0.22924737642634163,-1.5436510152350102,-0.03087035002804228,0.5420350972864529,0.15519151894179073,0.6228587172106064,2.9422524828724423,-0.020376122929858055,1.5760662810311858,149.796573875803,140.56745182012847,125.44137931034483,116.82758620689656,100.79609544468546,140.5466377440347,125.0611439842209,165.5207100591716,149.0,145.0,125.0,121.0,101.0,145.0,125.0,169.0
196,9.8,-0.030121584328889117,-0.2660439131210053,1.86697338978027,-0.2289692898925031,-1.5437055046952741,-0.030561265255157455,0.5422634121166396,0.155325288738632,0.6231291266962342,2.9422014971636603,-0.02038235365476444,1.576021460399669,149.80042918454936,140.65236051502146,125.49308755760369,116.88709677419355,100.8574514038877,140.58315334773218,125.0813492063492,165.58531746031747,149.0,145.0,125.0,121.0,101.0,145.0,125.0,169.0
197,9.850000000000001,-0.030020522406494443,-0.2655597489757495,1.8661166988008366,-0.22860504005760562,-1.543643838817415,-0.030316931665851587,0.542540727911663,0.15537871031926812,0.6234206285171149,2.942196088008395,-0.020491796948302166,1.575894932200435,149.89743589743588,140.76282051282053,125.51501154734412,117.07390300230946,100.92190889370933,140.68980477223428,125.15430861723446,165.7314629258517,149.0,145.0,125.0,121.0,101.0,145.0,125.0,169.0
198,9.9,-0.02968565681650981,-0.26493802284590195,1.865320812947009,-0.22834296667344,-1.5438084179029756,-0.029917970835996233,0.542853424842582,0.15553632951550056,0.6236076051547884,2.942298747713886,-0.020412092993632586,1.5758044168734302,149.9063829787234,140.8787234042553,125.57241379310345,117.14252873563218,100.95021645021644,140.73593073593074,125.15631262525051,165.81563126252505,149.0,145.0,125.0,121.0,101.0,145.0,125.0,169.0
199,9.950000000000001,-0.02946402922037228,-0.2642897954658947,1.86446254203043,-0.2280227193222606,-1.543897161128152,-0.02954981318341421,0.5431976036803166,0.1556395389255287,0.6238164624713781,2.942420180089279,-0.020401715980542853,1.575645246425869,149.87898089171975,141.06794055201698,125.58333333333333,117.18518518518519,101.04139433551198,140.85838779956427,125.2064128256513,165.875751503006,149.0,145.0,125.0,121.0,101.0,145.0,125.0,169.0
200,10.0,-0.029463020001392337,-0.2634966444493987,1.8634717362524933,-0.22756952748343107,-1.5438435410656028,-0.02926104670520413,0.5436491824395224,0.1556338057864204,0.6240224362860348,2.942680974738397,-0.020520870176054664,1.5753679955122413,149.86624203821657,141.1868365180467,125.52995391705069,117.35483870967742,101.0021645021645,141.02597402597402,125.20481927710843,165.97791164658634,149.0,145.0,125.0,121.0,101.0,145.0,125.0,169.0
201,10.05,-0.02921632907199223,-0.26276811441213255,1.8626505906557709,-0.2272712099716938,-1.543985528085165,-0.028873309530927482,0.5440273996613456,0.1557446808684773,0.6241644522134063,2.942899728128557,-0.02046479829553252,1.575202406856522,149.88912579957355,141.28571428571428,125.52424942263279,117.3810623556582,101.07173913043478,141.11304347826086,125.20481927710843,166.02208835341366,149.0,145.0,125.0,121.0,101.0,145.0,125.0,169.0
202,10.100000000000001,-0.0290366432681739,-0.26204486369729096,1.8618121309769364,-0.22694124361822388,-1.5440758445405418,-0.028523730520645163,0.5444120835950704,0.15582434283678753,0.6243173192741756,2.943124706711022,-0.02045218799609837,1.5750171795644883,149.92077087794434,141.3254817987152,125.54838709677419,117.5,101.13362068965517,141.22413793103448,125.24849699398797,166.11022044088176,149.0,145.0,125.0,121.0,101.0,145.0,125.0,169.0
203,10.15,-0.028875859905806767,-0.2614285839452748,1.861036626861603,-0.2266257530770055,-1.5441331284224056,-0.028231528208848555,0.5447418072319308,0.15589804761086618,0.6244858788958114,2.943288574968976,-0.02045893062761955,1.5748768920896832,149.94444444444446,141.39316239316238,125.59027777777777,117.63425925925925,101.17965367965368,141.37012987012986,125.26104417670683,166.16666666666666,149.0,145.0,125.0,121.0,101.0,145.0,125.0,169.0
204,10.200000000000001,-0.02866347220182508,-0.2611160929033365,1.8604636123900669,-0.22642578495396704,-1.5441919005261449,-0.028002858176462198,0.5449024841304996,0.15600423148523757,0.6246925370155625,2.9432331578887796,-0.02044428271945097,1.5748548995317742,149.98072805139185,141.44111349036402,125.60092807424594,117.65893271461717,101.22826086956522,141.38478260869564,125.34343434343434,166.24040404040403,149.0,145.0,125.0,121.0,101.0,145.0,125.0,169.0
205,10.25,-0.02850674046457824,-0.2605309601686674,1.859727615737964,-0.22611790129658615,-1.544245546474384,-0.027739935172956365,0.5452145831242305,0.15607666307347842,0.6248503910286027,2.943397947315404,-0.020448630161819484,1.5747399370979556,150.0235546038544,141.5117773019272,125.66129032258064,117.75806451612904,101.24183006535948,141.4400871459695,125.42137096774194,166.35685483870967,149.0,145.0,125.0,121.0,101.0,145.0,125.0,169.0
206,10.3,-0.02835107259829517,-0.2598447341542771,1.858932390441284,-0.22577302261668297,-1.5443147306842224,-0.02744967965912215,0.5455803656171339,0.1561456627035761,0.6249895555417451,2.943643272681335,-0.020445579221661285,1.574592366355382,150.05139186295503,141.5546038543897,125.6844547563805,117.8538283062645,101.24400871459694,141.48366013071896,125.44959677419355,166.44959677419354,149.0,145.0,125.0,121.0,101.0,145.0,125.0,169.0
207,10.350000000000001,-0.028150200784538892,-0.2591181923359933,1.8581351568338738,-0.22543725582922702,-1.5444287092081153,-0.027124096204312664,0.5459598316153486,0.15623481550397528,0.6251095632143511,2.9439192692328455,-0.02040612869572316,1.5744461173424782,150.05555555555554,141.60683760683762,125.65661252900232,117.90023201856148,101.29193899782135,141.60348583877996,125.4493927125506,166.5,149.0,145.0,125.0,121.0,101.0,145.0,125.0,169.0
208,10.4,-0.02801271204626099,-0.25850806611525856,1.8573740909063217,-0.22508526987213617,-1.5444641212524788,-0.026882700547135485,0.5462861532959371,0.15629841851444348,0.6252657110599024,2.9441261789887463,-0.020425272973319922,1.574335743283481,150.0854700854701,141.64957264957266,125.76334106728538,118.0046403712297,101.28104575163398,141.64705882352942,125.47474747474747,166.54949494949494,149.0,145.0,125.0,121.0,101.0,145.0,125.0,169.0
209,10.450000000000001,-0.027824487944040577,-0.2581015845236032,1.8567384088368746,-0.22482104913780132,-1.544520268204038,-0.026651587117592523,0.5464981711007036,0.15639075046087464,0.625456257295814,2.9441665972549913,-0.020416632709737686,1.5742856811462427,150.11087420042645,141.71428571428572,125.79069767441861,118.0,101.31072210065645,141.68927789934355,125.48884381338742,166.62474645030426,149.0,145.0,125.0,121.0,101.0,145.0,125.0,169.0
210,10.5,-0.027797973225158312,-0.2576477657086751,1.855975358152337,-0.22443326153530796,-1.5444418676882146,-0.026487778975208265,0.5467609195012968,0.15640680278394695,0.6256937516291537,2.9442459352837207,-0.020528506387865214,1.5741650995735592,150.15811965811966,141.76495726495727,125.76279069767442,118.08604651162791,101.32675438596492,141.75,125.5,166.6991869918699,149.0,145.0,125.0,121.0,101.0,145.0,125.0,169.0
211,10.55,-0.027607681019516495,-0.25713512290092577,1.855262089927174,-0.22411721137103857,-1.544509018522361,-0.026227037894063887,0.5470294125222013,0.15649805162158498,0.6258729721731995,2.9443692724405643,-0.020517066235632608,1.5740842014599872,150.17094017094018,141.8354700854701,125.79350348027842,118.12064965197216,101.36483516483517,141.8021978021978,125.56997971602433,166.76064908722108,149.0,145.0,125.0,121.0,101.0,145.0,125.0,169.0
212,10.600000000000001,-0.027502252586761422,-0.2565003606008869,1.854454037554781,-0.22372036677313423,-1.5445259556664084,-0.02598529380928216,0.5473743355700457,0.15654608581416485,0.6260413650593578,2.9445992766165383,-0.020554605808049492,1.5739445242473056,150.19444444444446,141.9188034188034,125.83333333333333,118.22453703703704,101.4065934065934,141.8879120879121,125.6336032388664,166.8684210526316,149.0,145.0,125.0,121.0,101.0,145.0,125.0,169.0
213,10.65,-0.02744958832061828,-0.2558054835708474,1.8536016506589537,-0.22327770628223487,-1.544511816526179,-0.025761802182647564,0.5477577888465452,0.1565671396696193,0.6262020836246629,2.944889520786748,-0.020621116593474643,1.5737746300440978,150.20430107526883,142.0193548387097,125.81524249422633,118.24480369515011,101.4585152838428,142.03930131004367,125.65252525252525,166.94747474747476,149.0,145.0,125.0,121.0,101.0,145.0,125.0,169.0
214,10.700000000000001,-0.02754499865241744,-0.25517170055379257,1.8526993490449577,-0.2227422801585659,-1.54435073611032,-0.025651334226420186,0.5481305294523103,0.15652183792319346,0.6264193962178458,2.9451541265907255,-0.020809290433220794,1.5735964702717113,150.26839826839827,142.16017316017317,125.79767441860466,118.36046511627907,101.4304347826087,142.2173913043478,125.66332665330661,167.0,149.0,145.0,125.0,121.0,101.0,145.0,125.0,169.0
215,10.75,-0.02725458915507506,-0.25473121423990763,1.8520701427605353,-0.22246123469297308,-1.5444792595049996,-0.02538942042938297,0.5483421788467542,0.15666387593501307,0.6265838257702507,2.945254790503892,-0.020736176271907037,1.573603486080198,150.28416485900217,142.2993492407809,125.86416861826697,118.42622950819673,101.4400871459695,142.24183006535947,125.69818913480886,167.03621730382295,149.0,145.0,125.0,121.0,101.0,145.0,125.0,169.0
216,10.8,-0.026892888881997923,-0.25418429943565357,1.851444121436617,-0.2222249879840259,-1.544709851633642,-0.025033894776153254,0.5485994011030229,0.15683409423332045,0.6266929168547688,2.9454261715094776,-0.020583116072366733,1.5735686235457733,150.2965367965368,142.32251082251082,125.85377358490567,118.55188679245283,101.4400871459695,142.24183006535947,125.69818913480886,167.03621730382295,149.0,145.0,125.0,121.0,101.0,145.0,125.0,169.0
217,10.850000000000001,-0.02623687125871088,-0.25361842754824204,1.8510001188858523,-0.2221919570765194,-1.5452142392978816,-0.024512268174602614,0.5488204105569153,0.15713931631258568,0.6266899083202334,2.945606749389621,-0.020193464991682588,1.5736119930326242,150.32321041214752,142.32321041214752,125.89834515366431,118.64302600472813,101.47702407002188,142.27789934354485,125.76907630522088,167.1285140562249,149.0,145.0,125.0,121.0,101.0,145.0,125.0,169.0
218,10.9,-0.02564691846675826,-0.2530095549337865,1.8505075330087273,-0.22210211810114444,-1.5456669326123205,-0.024028335889910934,0.5490728857646153,0.15741238952146544,0.6266902066641864,2.94583576181806,-0.019849281195453435,1.5736350586079542,150.32321041214752,142.32321041214752,125.90094339622641,118.7122641509434,101.4825327510917,142.30349344978166,125.76907630522088,167.1285140562249,149.0,145.0,125.0,121.0,101.0,145.0,125.0,169.0
219,10.950000000000001,-0.024957960309110128,-0.25248958943073685,1.8501317743647316,-0.22210688672001533,-1.5461971044275975,-0.02351927284256261,0.5492620511168964,0.157733486238669,0.6266696874110614,2.9459996742194905,-0.019432007982067647,1.573718881280609,150.34199134199133,142.34199134199133,125.92974238875878,118.77985948477752,101.55337690631808,142.30936819172112,125.81726907630522,167.13253012048193,149.0,145.0,125.0,121.0,101.0,145.0,125.0,169.0
220,11.0,-0.024240365615567416,-0.25191172631309433,1.8497890439527955,-0.2221466318407197,-1.546779659289232,-0.022985233742824462,0.549475206159599,0.15806487788975038,0.6265985442886404,2.9462212934174903,-0.018969481750595377,1.573795717384298,150.34848484848484,142.36796536796535,125.93457943925233,118.80607476635514,101.57205240174673,142.32751091703057,125.81726907630522,167.13253012048193,149.0,145.0,125.0,121.0,101.0,145.0,125.0,169.0
221,11.05,-0.02349146561799298,-0.2513557263116941,1.8494874874465461,-0.22222145966194562,-1.5473930043253468,-0.02243844305740872,0.5496714224907386,0.15841098222383893,0.6265149537426596,2.9464275013871375,-0.018478663961548455,1.573885817618539,150.375,142.375,125.98364485981308,118.80140186915888,101.57205240174673,142.32751091703057,125.81927710843374,167.17871485943775,149.0,145.0,125.0,121.0,101.0,145.0,125.0,169.0
222,11.100000000000001,-0.022847157190732936,-0.250845512087007,1.8491263705081602,-0.22222856642969946,-1.5479050448104053,-0.021948542029885942,0.5498607768604772,0.1587099373648351,0.6264895583010568,2.946591394878527,-0.018075470482940083,1.5739474507170612,150.38279569892472,142.47096774193548,125.98364485981308,118.80140186915888,101.5414847161572,142.36899563318778,125.81287726358148,167.20321931589538,149.0,145.0,125.0,121.0,101.0,145.0,125.0,169.0
223,11.15,-0.022136343391544244,-0.25030061566811135,1.848764180679387,-0.22225862300666988,-1.5484806980021455,-0.02139882048503594,0.550058924831959,0.15903955025457814,0.6264485162207823,2.94676837415732,-0.01762121427574916,1.5740046451935548,150.3755364806867,142.49570815450645,126.0,118.82284382284382,101.55411255411255,142.44588744588745,125.83501006036218,167.24144869215291,149.0,145.0,125.0,121.0,101.0,145.0,125.0,169.0
