AI-SPARC/uncalibrated-visual-servoing/results/data/4_feat_mckf_tr.csv
,t,q_1,q_2,q_3,q_4,q_5,q_6,camera_x,camera_y,camera_z,camera_roll,camera_pitch,camera_yaw,f_1,f_2,f_3,f_4,f_5,f_6,f_7,f_8,desired_f_1,desired_f_2,desired_f_3,desired_f_4,desired_f_5,desired_f_6,desired_f_7,desired_f_8,noise_1,noise_2,noise_3,noise_4,noise_5,noise_6,noise_7,noise_8
0,0.0,9.361875081825843e-06,-0.3926333301083327,1.9634954084936185,7.252088425691028e-05,-1.5707955582218611,2.220446049250313e-15,0.4463258536086648,0.16906234102687412,0.592161801541222,-3.141307158888575,0.00012241039484984628,1.5708380808617421,151.05680171461992,65.33125101459177,120.48293339638053,44.09022942430376,99.61686642657749,65.28622076991928,130.1131175287212,87.11150283445855,149.0,145.0,125.0,121.0,101.0,145.0,125.0,169.0,-0.3559562591136578,-0.22597224994857068,-4.9365422590501895,4.509705079734469,0.18077620101356612,-0.2776890045168014,4.700359554987641,-4.44572043008179
1,0.05,-0.004968168823334285,-0.38196484102754624,1.9534722413310108,0.005555719916709556,-1.5671508449900164,-0.004065361843569981,0.45257931213935054,0.16714082689496562,0.5935614390284664,-3.1351509476894246,-0.003558424133993446,1.569894595817129,151.72869008826586,66.48205959974749,120.67381776964373,40.23926499397027,104.59989617038198,66.30663206089389,125.66707366679015,92.69258041797634,149.0,145.0,125.0,121.0,101.0,145.0,125.0,169.0,0.3159321145322776,0.039282864287828435,-4.753148522491109,-0.22328182250913808,5.114020464167295,-0.28847151726053366,0.16707366679014607,0.19258041797634876
2,0.1,-0.011790553727336839,-0.38715360491582107,1.9538065395692268,0.0048399687087576915,-1.5625315824554669,-0.010856336864177418,0.45128665401159046,0.16448368159737675,0.5957558600269183,-3.1408293292870866,-0.008175413553501217,1.5698762202465109,146.4216316857292,67.65297442523773,125.92858423323783,42.20958083923192,95.09366736467832,67.86639308075414,125.09642639893505,93.43392170979537,149.0,145.0,125.0,121.0,101.0,145.0,125.0,169.0,-4.871701647604099,0.2244029966662954,0.45065716989808824,0.42071327685187887,-4.611313478233561,0.22463062864685188,-0.3931371684273667,0.024054537119847216
3,0.15000000000000002,-0.0121505381464444,-0.38170473148589945,1.9481071122937301,0.006191164859640885,-1.561728302482945,-0.010691349518723747,0.4543180597208596,0.1643783867110616,0.5970206781912184,-3.1397309179258794,-0.008976317373636201,1.5693464475700567,151.10676204642627,68.18731371005828,120.42379536388245,47.57996183533926,100.06268956475799,68.98509271028429,125.61555448854111,94.13321587832988,149.0,145.0,125.0,121.0,101.0,145.0,125.0,169.0,-0.21766543448977144,-0.19054888536156117,-5.116434521175021,4.807931183998263,0.16326983555102592,0.4144930971314795,0.004016027002655349,-0.07255335243935433
4,0.2,-0.015758973861226266,-0.380153331431746,1.9448797583167412,0.006918098510932946,-1.5590285586420416,-0.01431446911923473,0.4558747176035461,0.16297109502030385,0.5984223387893748,-3.1407440754999203,-0.011668159633460856,1.5693672899370603,151.3440358659305,69.14787468883539,120.67296159577238,43.4064526799643,100.33999513412488,69.29184970005457,125.97427572232593,90.45719230624236,149.0,145.0,125.0,121.0,101.0,145.0,125.0,169.0,-0.0647933087335994,-0.044063890819120134,-4.934730711919925,-0.31470116618954014,0.3615215529115737,-0.2208704565012044,0.3424927765894925,-4.622265058098714
5,0.25,-0.020297509038901485,-0.3790660796713108,1.9415720655404973,0.007827653719277183,-1.5557419092909566,-0.018626365178361137,0.457331196332687,0.16118184396436402,0.6000758507662889,3.141013839194687,-0.014938862219043515,1.5691561184842973,151.38541949239632,74.73535034311801,125.27347601374322,44.72882085743525,105.30911245638718,70.30319826231633,120.57921685938885,95.74158126432667,149.0,145.0,125.0,121.0,101.0,145.0,125.0,169.0,-0.018835826752630243,4.605756532673142,-0.3834440642294892,-0.06455146225286111,5.219618292963062,-0.19680173768366974,-5.165881179826845,-0.22312461802627048
6,0.30000000000000004,-0.023975136219057447,-0.3868496016612899,1.9455370316080032,0.00307999058306363,-1.5536092580973255,-0.020844514445193862,0.45430899681473896,0.15978620900485443,0.6014282684422235,3.132335487740455,-0.016890374221216514,1.5678475771199136,150.88606596569147,71.16177278170771,125.61901330730905,41.223005045425104,100.34209534550122,71.68766923325202,125.5575663021341,96.8362195587304,149.0,145.0,125.0,121.0,101.0,145.0,125.0,169.0,-0.18522116302140226,0.013257930222565594,0.11901330730904609,-4.776994954574894,0.274635028040903,0.07258986817266058,-0.07111739138259347,-0.03214979293952913
7,0.35000000000000003,-0.027297102260846806,-0.3871575258467672,1.9425333107415046,0.0033147276607499165,-1.5509990884243017,-0.023443582263316998,0.4549317129870036,0.1585208154918041,0.6035782177194586,3.1291591695156638,-0.01940067222699806,1.5672098079742414,150.70963912614155,71.83495342165956,125.42567180878994,47.27268875988732,100.51323960748486,72.51317574475773,125.71750214570096,98.17044547845711,149.0,145.0,125.0,121.0,101.0,145.0,125.0,169.0,-0.34194817544573586,-0.40711007040393277,-0.17272176550724552,0.03774900085118083,0.284323944834254,-0.2579085925916612,-0.052956936135354626,0.31615406129144924
8,0.4,-0.02906357228889922,-0.38597547882497185,1.9397598136323149,0.0030471817438706417,-1.5495104434665485,-0.024943808374138232,0.4560591783580455,0.1578347631788975,0.6049499893225417,3.1272518312678708,-0.020818752407381066,1.567001576080662,151.18422320054825,73.11161666715186,120.65079884209891,47.829188900788,105.304381680157,74.03371383980615,126.04265924674125,98.94319707534372,149.0,145.0,125.0,121.0,101.0,145.0,125.0,169.0,0.16222320054825998,-0.04438333284814378,-4.99566580436575,-0.35868988709079286,4.885682493165124,0.4036325389931436,0.21535000979345786,0.20022518779351572
9,0.45,-0.03565129632826736,-0.3898850160378742,1.9400242201927904,0.0016955476569346928,-1.5451970383103921,-0.031437763664362794,0.4553117044332354,0.1552713482170194,0.6066805932415651,3.121973715140113,-0.02488648213014568,1.5670931473736318,151.02574839923147,74.67033636440443,125.32572795510919,49.414963569997845,100.54712562863129,74.3923303260225,125.97768065965796,104.28211789889397,149.0,145.0,125.0,121.0,101.0,145.0,125.0,169.0,0.09026452826372375,0.4909008805334712,-0.22571237410891898,-0.08503643000215422,-0.049981809385235915,-0.32461182273782785,0.18576146773877178,4.6013098180858965
10,0.5,-0.039573582957930675,-0.38912808888402406,1.9361510894488685,0.002517620044422131,-1.5422318207565109,-0.03441061640938692,0.4565228867686067,0.1537379304030283,0.6088844695665123,3.119507214232781,-0.027709844605223934,1.5662662596542918,150.37154033180795,75.73799662067631,130.6873053279106,45.93437656935478,96.03425090958503,75.90261295837364,130.43156949450562,100.5489221720604,149.0,145.0,125.0,121.0,101.0,145.0,125.0,169.0,-0.4882157657530475,0.44531369384703445,5.046972687577952,-4.843170208191994,-4.732278016034806,-0.03540357055197213,4.6067222439964555,-0.14557884626953685
11,0.55,-0.040462859829655695,-0.38195828937625187,1.9277792406435106,0.006193418256873251,-1.540901817531064,-0.03453426602353149,0.46047544287290787,0.15331893620800963,0.6109274355966259,3.121959746206324,-0.02911374117251479,1.5654594164906173,151.52600048661705,75.98493819383854,125.42637387766595,57.52194917010738,100.86188031603396,76.86290562183358,125.92093179393284,101.49462757805401,149.0,145.0,125.0,121.0,101.0,145.0,125.0,169.0,0.586852413594713,-0.219929960319682,-0.2576178063257218,5.7236123717705825,-0.06787175008172866,-0.07304479138955834,-0.023512650511600716,-0.11648353305710893
12,0.6000000000000001,-0.0395102268245231,-0.3791297091550856,1.9259076992426278,0.0048718748140732515,-1.541363327854727,-0.034087072424772824,0.4619958022717993,0.15365734506096052,0.611058027632939,3.1216268298274006,-0.028638348849868763,1.5659704920100297,146.4983646306036,76.45725394507535,125.55397504096673,52.358693450209074,105.98295357662454,77.21884720646213,125.72407891207422,102.1096061191902,149.0,145.0,125.0,121.0,101.0,145.0,125.0,169.0,-4.50163536939641,-0.4246197820122351,-0.16569023099980473,-0.09528144518840882,5.022702530599438,-0.289520994374695,-0.2534721083339409,0.0034836702106107037
13,0.65,-0.04536357115611933,-0.3790796509186971,1.9243262053961416,0.004075281706741762,-1.5377736384591456,-0.0388084755990743,0.46310190864047984,0.15125976583610676,0.6122062515003637,3.1190120096758966,-0.032050831484356106,1.564982204685624,151.04580520803307,77.46347268162845,125.68924740975294,58.555182408970204,101.10273163763547,78.86436817725385,125.60191501494167,103.1791793643968,149.0,145.0,125.0,121.0,101.0,145.0,125.0,169.0,0.2421242264379809,-0.45472772736951644,0.14322230515042525,5.0321698566689514,0.2079947955302083,0.304368177253851,-0.313896073354009,0.09499045269248127
14,0.7000000000000001,-0.04472013742403025,-0.37668322738528337,1.9227975668938768,0.0025623215245111908,-1.5380834768002485,-0.03860771199935531,0.46444719810021917,0.15146735580511347,0.6123183223282217,3.1183874011366743,-0.03171273942293646,1.565441588020667,150.61593832886084,78.54213532595072,125.70324840000114,59.245704211239534,101.06917166968556,78.78716395668393,126.06702827859505,103.68857208818349,149.0,145.0,125.0,121.0,101.0,145.0,125.0,169.0,-0.18984679510612665,0.029738631735858757,0.1297189882364333,5.146964715441217,0.08583833635222851,-0.39825270998274925,0.16743811466063088,-0.04708364952142713
15,0.75,-0.04513833524200628,-0.3737967885413367,1.920423970314972,0.001721473763400816,-1.537702137915593,-0.03905665214011611,0.46619709965055833,0.1512379820976156,0.6127022516085326,3.1180360878423596,-0.03206499378458576,1.5654936849963668,151.0300302202842,79.02339576911321,125.86949352333833,50.1433621265715,100.92732069812692,79.90063479853177,125.5010178467893,104.38379238137246,149.0,145.0,125.0,121.0,101.0,145.0,125.0,169.0,0.22554956855306293,-0.11102378282161435,0.23978641036763068,-4.628604400625152,-0.03309596853973414,0.011051465198436543,-0.37552536308724316,0.042228595364219544
16,0.8,-0.04700556233103592,-0.37226867378257333,1.9162633833934626,0.0022395519182549783,-1.5359147713996189,-0.04052266957425665,0.46751500914269783,0.15048463444163854,0.6147848232716864,3.115795166637267,-0.03373446919856238,1.565204758907217,150.70181840770078,80.43557752141395,130.62102338289057,55.407993078599766,100.85782293413008,80.82865420105749,120.70828131099458,105.50212086052962,149.0,145.0,125.0,121.0,101.0,145.0,125.0,169.0,-0.11673829333013756,0.19227855234176913,4.938819993060053,-0.534803531569732,-0.29763925074387726,-0.19655588297613377,-5.268802022338768,0.11462086052960979
17,0.8500000000000001,-0.04340944490061949,-0.37123319100643126,1.9161604590658978,-0.0011337384898317815,-1.5381800374469288,-0.03656278350022557,0.46782074666793627,0.15193873488375326,0.6147526496883068,3.113569253218065,-0.031469095465660284,1.5648653804197654,150.80338432134667,80.82852895718437,125.65653874785228,51.73037989389425,101.1606512978913,80.95288633020043,126.29273015155702,111.10934956766548,149.0,145.0,125.0,121.0,101.0,145.0,125.0,169.0,-0.015172379684256995,-0.008584444877481938,-0.09929989333667245,-4.902316496763922,-0.003178489342728132,-0.5790285634166044,0.31742150958171533,5.16490512322103
18,0.9,-0.045841830803252215,-0.3701499643063286,1.910898713522747,7.24037831556501e-06,-1.5358169560643207,-0.038048159513915714,0.46903220776286303,0.15098528271039913,0.61772084944592,3.1103900273880165,-0.03367911133002663,1.564083835513436,145.83475997697542,86.78624861325085,125.4337194068124,58.22232294377676,101.2755211863547,82.90886615576557,125.74777677410597,106.80998111476558,149.0,145.0,125.0,121.0,101.0,145.0,125.0,169.0,-4.931419563734381,4.623409364816613,-0.392087044800509,0.0029681050670802623,-0.17726851321612247,0.033329675078868,-0.34350953294797576,-0.2501848603381491
19,0.9500000000000001,-0.049903915590542525,-0.36747853946808196,1.9067213688128293,0.00022509560133876505,-1.5330731443359857,-0.040238902949095046,0.4712579395853384,0.1492487168132061,0.619307050598792,3.1089265200144154,-0.03630869240265063,1.5623394777573283,150.75984378252048,83.41235699198432,125.61550180217952,59.1890642379661,101.32573187497866,84.26252537480153,125.6400536749296,108.31937160447353,149.0,145.0,125.0,121.0,101.0,145.0,125.0,169.0,0.1972110861298002,0.09813193890576447,-0.07213377265778716,-0.21223728047208332,-0.10905073371699922,0.0864384182797878,-0.4780897849860109,0.05987793358745241
20,1.0,-0.05022643835939,-0.36568729273681333,1.9042424820251451,-0.0007553049648918453,-1.532561963751287,-0.04062259619949771,0.4724840550391129,0.14909209903878803,0.6202745307857365,3.1072259160289732,-0.036729011738794066,1.562482058029235,150.19756004560634,84.31552910039758,126.28858821733319,60.12503199443988,100.8618316147486,85.00079776418653,126.24775527190876,108.72711942460197,149.0,145.0,125.0,121.0,101.0,145.0,125.0,169.0,-0.31416703328491913,0.18972952683681985,0.5805272151545379,-0.19305079423113766,-0.6664292548166251,0.035580372882172785,0.09712765684600334,-0.2875249268624758
21,1.05,-0.050667884773703875,-0.3631270624375351,1.901204259563122,-0.0013640327577113531,-1.531984319552632,-0.04095652551034146,0.47411168676692256,0.14886574422534765,0.6212236069389327,3.1061049408495522,-0.03724347515612562,1.5624370764923512,150.66736863391813,84.9377042304896,120.6176277730702,61.40255890564001,101.77280584868042,85.65875442540619,126.83837840067076,109.41302781862103,149.0,145.0,125.0,121.0,101.0,145.0,125.0,169.0,0.14396437859898217,-0.017614918446571832,-5.06588871044629,0.20915231223341163,0.20324063128912084,-0.1238542702459875,0.616156178448532,-0.3369721813789639
22,1.1,-0.05342690895343516,-0.3619532864933115,1.8980518331204363,-0.0016117733073146567,-1.5297418210804397,-0.04405924523016491,0.47536967252367207,0.14771098719585932,0.6228594697139452,3.1036594554137675,-0.03927697484412955,1.562946238015914,150.87764174438908,86.29679670084406,125.7303348427547,62.3144704808021,101.59634883920386,81.79383718708087,126.28813225842228,111.13347911220865,149.0,145.0,125.0,121.0,101.0,145.0,125.0,169.0,0.3497447486809298,0.26246193689556674,-0.12869599424970415,-0.04235771303049983,-0.11325814769569581,-5.011839668814334,-0.07530860179276991,0.38294147780005183
23,1.1500000000000001,-0.05673814185860282,-0.358735598971339,1.8926740496712595,-0.0011853315614578364,-1.5272748100828295,-0.045676285924502125,0.4778156346676498,0.14625813653242628,0.6249788743207465,3.101751901521509,-0.04160146730507987,1.5614155133704166,150.79161347622215,87.63187655505808,125.91418081736467,63.80562159021243,101.83448041742163,88.33398300355877,126.40251365893077,112.1546006055825,149.0,145.0,125.0,121.0,101.0,145.0,125.0,169.0,0.3305745151831964,0.2574176805992008,0.13763214479828545,0.03792247516818613,0.03138307228888294,0.037522826567624165,0.03262118581248654,0.03417049805561449
24,1.2000000000000002,-0.05741738899315596,-0.35652831720802336,1.889969679663472,-0.0021262133806296823,-1.5265921856880516,-0.046379375810839285,0.4793112742023695,0.14592215153619006,0.625893005790177,3.100254679966583,-0.04217896075836848,1.5615301629822915,150.4185818646817,88.18286495635884,125.81748381645995,64.82518032172665,101.98303180460354,88.98345394780554,126.54569570407678,107.24566312105284,149.0,145.0,125.0,121.0,101.0,145.0,125.0,169.0,-0.07492462882477637,-0.10501383151994594,0.016598860707738142,0.10172899429303076,0.1482103760321058,-0.21074248076588198,0.16174776481431327,-5.628523429923285
25,1.25,-0.05704701958078573,-0.35428196702971837,1.8892003438003107,-0.004070211037793481,-1.5269043225419914,-0.04657199494688591,0.48062540517331154,0.14599573749453926,0.6255740065494659,3.0997981762328144,-0.04182860046999161,1.5621031299762753,150.6546091457011,93.721224864253,125.3822275473264,65.66414174786101,101.47218588813723,89.21476395922548,126.79765910234664,113.36004806477354,149.0,145.0,125.0,121.0,101.0,145.0,125.0,169.0,0.22572983535626495,4.990621415977145,-0.4057188812450319,0.46994531928958194,-0.36595158414658413,-0.3528635352312752,0.5643977632537719,-0.0848763412739835
26,1.3,-0.06055766511663574,-0.35075108829540813,1.88370072271334,-0.0037365829644877557,-1.524345186897241,-0.048414805925764526,0.4832728170638046,0.14441648694512005,0.6276271407323882,3.0979624936236374,-0.044233236319406156,1.5606103658594621,146.08929240383623,90.27499794101982,125.80735970429492,66.49518976126252,101.72824765285118,90.7080902337504,126.42160074481097,119.92821770719354,149.0,145.0,125.0,121.0,101.0,145.0,125.0,169.0,-4.311579055858783,0.19656656847080045,0.10802785574259395,-0.18632471535217607,-0.18125460959226397,-0.3688328431726822,0.15420944046315033,5.232565533280486
27,1.35,-0.06392168267163223,-0.3476231069574305,1.8787954878691009,-0.003860150197727119,-1.5218299013089611,-0.050718050860266484,0.48569340659647103,0.14289737003360595,0.6295113921025676,3.095829435485071,-0.046547978309623254,1.5597457827447896,145.19744642794512,86.32389832492912,125.54017688647234,68.16405959467532,102.27885083844298,92.69341175642182,126.46770072869258,121.24677791619881,149.0,145.0,125.0,121.0,101.0,145.0,125.0,169.0,-4.996031832924448,-5.141319066375228,-0.10154646953672529,-0.021881448408580407,0.28785984745198906,0.24070905371911128,0.12853223853940265,5.268659754273206
28,1.4000000000000001,-0.06431835711710221,-0.3462823221284519,1.8772290333355945,-0.005234388934321821,-1.5212623413632826,-0.052212123839292524,0.48667302387012723,0.142698755807842,0.6301000199061086,3.0941248702753943,-0.04694945228922978,1.5609491272475506,149.94548150943692,92.3718912689114,125.81586174143163,69.13412019730629,101.97204083170644,93.14393401757847,121.52274188831997,116.87720855570056,149.0,145.0,125.0,121.0,101.0,145.0,125.0,169.0,-0.40539568354555144,0.2403123215429797,-0.005648556051199166,0.1936167648119995,-0.09938773972212736,0.044855676564644814,-4.774201343121082,0.1894356299363632
29,1.4500000000000002,-0.06249171825850297,-0.3462916041321691,1.8776595822358253,-0.00846759323991142,-1.5223511069291806,-0.05079404970156132,0.48668652409322105,0.14348190267290317,0.6301760285458221,3.0914299735177218,-0.045769562059175296,1.561441410156741,150.2813318057099,92.21978526687968,120.79121412226345,64.69792846678754,102.55068819070114,98.71336511251074,126.46923920581797,117.07025503431258,149.0,145.0,125.0,121.0,101.0,145.0,125.0,169.0,-0.03954731516921782,-0.5362586891642749,-5.027790402623422,-4.759085107873093,0.35838049839344505,5.0549940717867665,0.12501262629727442,-0.1650390833344738
30,1.5,-0.06404666315634744,-0.3468670429233742,1.8756028775803584,-0.01033145085675402,-1.5206239590049728,-0.05418215852370656,0.4869533879129072,0.1428673442247988,0.6320765307909189,3.086675364584173,-0.0470742881103673,1.563571180556887,150.5415745228497,99.12712982288741,131.0060909538421,70.71060339820343,102.48057423214776,94.9308492999254,126.54774713253127,118.31756832843485,149.0,145.0,125.0,121.0,101.0,145.0,125.0,169.0,0.11237098302666876,5.173589999878553,4.941870770355834,-0.14260761097088884,0.05591669790118563,0.0952328615692234,0.08283485182952341,0.03028762668045914
31,1.55,-0.06506429969766847,-0.3433173760072652,1.8721674493346105,-0.011486779647471579,-1.5200195052215522,-0.053700613085513105,0.48924483092673443,0.14229284668897935,0.6328523785304405,3.085640906032423,-0.04764778083944633,1.5621519094835523,149.95521084298952,89.77867442537563,121.04101459951204,76.68802498476634,102.6424150830673,95.37790117416141,121.01378834120058,119.72164739541894,149.0,145.0,125.0,121.0,101.0,145.0,125.0,169.0,-0.33590026812159873,-5.18132557462437,-4.922033899333223,4.775784800008835,0.29617362520854273,-0.45353390556523154,-5.362863641178285,0.38244034696079277
32,1.6,-0.06341039571177376,-0.3437404573643783,1.8739490742694027,-0.015179701870454476,-1.5210810561119574,-0.05381587701386126,0.4890306841344986,0.1429998440332229,0.6322517831229405,3.083359739412338,-0.04644133325050474,1.563974977868516,150.30479934126384,95.18466416191033,125.7673044024328,72.37830276321765,101.89259241206221,95.9308633512922,121.21512966754516,114.30203536741705,149.0,145.0,125.0,121.0,101.0,145.0,125.0,169.0,-0.02042189767420842,-0.19144203277993121,-0.2951955975672031,0.2810805409954171,-0.5170185719194755,-0.16066982948582625,-5.161522314833699,-5.358757584124804
33,1.6500000000000001,-0.058864777967904125,-0.3438479302884043,1.8771418909590105,-0.01968483621055883,-1.524233117562681,-0.050951036770442215,0.48852584491400275,0.1449270912376191,0.6306249210587341,3.0822382437606954,-0.04337556328830128,1.5655430487874882,150.8629030447531,95.45075682180556,125.96486127863348,77.30592941602299,102.32281128699877,96.30189064453548,126.3062810147109,119.76224536951575,149.0,145.0,125.0,121.0,101.0,145.0,125.0,169.0,0.4311849830790826,0.15560263678352332,-0.13421706238034745,5.2345008445944154,-0.04226807808059951,0.30869336562391403,-0.10599968704347223,0.1372453695157522
34,1.7000000000000002,-0.059871099244967585,-0.34143404889486284,1.875369840841162,-0.021417150401358942,-1.5236311579813249,-0.051812524332755405,0.4901830202333965,0.14439020572783504,0.6308727405169444,3.081087783044754,-0.043877365041281445,1.5654749571708229,151.03256183461394,96.31732484275703,126.24591854715248,72.80212035747735,102.42537945383947,97.08015534620407,131.4884366755552,120.11810196996363,149.0,145.0,125.0,121.0,101.0,145.0,125.0,169.0,0.65453985659196,0.24479737022955728,0.24591854715248626,-0.10088195199146537,0.09356127202128942,0.2710644371131577,5.169755356873882,-0.2753046234429684
35,1.75,-0.06389130766027717,-0.33746876146928173,1.8699069310478214,-0.02106075891561421,-1.5207716981237889,-0.0549928296161597,0.49312317902836145,0.14251601193292202,0.6326631681704572,3.0796537907743424,-0.046487398005572333,1.5648497597096658,150.42493900557574,97.69576835061758,125.85458517581603,74.4276013215116,102.26425792592057,97.99960510615095,131.13386014271282,121.4631533536147,149.0,145.0,125.0,121.0,101.0,145.0,125.0,169.0,0.194340335952692,0.2323537164712338,-0.1989031962769943,0.23922922848833414,0.0009784801931023988,-0.12510621024626797,4.804941820417027,-0.21896585168330227
36,1.8,-0.06988187567821402,-0.3324164267865757,1.8626573793998276,-0.02036134429123093,-1.5165931783437463,-0.05952959173197625,0.49697505826696375,0.13972697387868346,0.6351041179592987,3.0776953711237223,-0.05028731987781324,1.5637213289309329,150.14451847786276,98.89341975061849,125.98653874290146,76.28775779403036,107.47906808861475,99.99948406373255,126.16020772075046,128.74427313481507,149.0,145.0,125.0,121.0,101.0,145.0,125.0,169.0,0.20715829889183515,-0.3504281241018731,0.10831860238623102,0.23857746616150652,5.239533204893823,-0.09121361068605473,-0.05881882792210159,5.292945701186754
37,1.85,-0.0712034420313894,-0.33181552069274645,1.8612906933352429,-0.02432721400468818,-1.515739122186857,-0.060919209497792615,0.4979292207087146,0.13909862624398545,0.6362093970325479,3.072828673091846,-0.05073410901559733,1.564090084854151,149.56203465893927,105.61752652942265,126.06088899409286,83.00835429020438,106.94468248371456,106.12503363218939,126.43305451278906,129.798005881351,149.0,145.0,125.0,121.0,101.0,145.0,125.0,169.0,-0.23974707825450273,5.060733656371423,0.23624444432983177,5.287975143284956,4.66793829766804,4.741312701956829,0.29749895723349634,5.138005881351014
38,1.9000000000000001,-0.07653051177309989,-0.3306915110631068,1.8588942467417366,-0.0295701547792242,-1.5126315397160237,-0.06490324964504524,0.4998818735913549,0.1366336267404447,0.6379151855052286,3.0659010881920183,-0.053109659074169396,1.5633034286940137,149.1716935603106,102.64838524935959,125.72246466972251,80.1765639328242,102.2613840282775,99.03520872161917,125.9276590406345,126.99722194993323,149.0,145.0,125.0,121.0,101.0,145.0,125.0,169.0,-0.30234707174357905,-0.07396238043724691,0.25437956333954,0.23093745528283333,0.22382534283149214,-4.605636348803361,0.1561658279648134,0.19631697255766836
39,1.9500000000000002,-0.08556042716184908,-0.32494848354865447,1.8498148878133733,-0.034586675027594715,-1.5067126200077317,-0.07050234952829681,0.5051089719133715,0.13231158322453188,0.6419178900877444,3.056838930278668,-0.057964127053450325,1.5607908212297434,148.51420388450333,106.41242005327499,124.67919949032552,83.70608148194788,106.87217182509433,112.29821786006627,125.93837049710959,130.62042742734522,149.0,145.0,125.0,121.0,101.0,145.0,125.0,169.0,-0.3530730033685296,0.011962387371101469,-0.30644644268883536,-0.18865536015738635,4.968557367263007,4.874121474524102,0.4856677944068747,0.16772472464250235
40,2.0,-0.08288124778494854,-0.3257113741492872,1.8528577846376555,-0.037328209794708744,-1.5086607037049449,-0.06990451473643455,0.5044138188625563,0.13352211045486231,0.6405164240609021,3.0565477359589255,-0.05601098877064269,1.5627497458504187,149.13538670747627,101.09877908771688,125.3695253510911,78.53606704612749,101.75492085043555,107.15501646827616,125.51543568709387,130.07499147293368,149.0,145.0,125.0,121.0,101.0,145.0,125.0,169.0,0.13538670747626322,-4.998218602814309,0.3185544773046811,-4.9857776140666905,-0.12451177367792485,0.10537107820523134,0.04471496637314788,-0.1795130315708147
41,2.0500000000000003,-0.08005780689000552,-0.3242797219576796,1.8520944604012408,-0.039158843838622115,-1.5101083810365639,-0.06887164237810195,0.5049910878840522,0.13475114172904487,0.6405459232129542,3.0555455859879053,-0.05455446432772044,1.5644924561347346,149.4140122461497,106.8600123474106,124.94107914220255,89.08095063446865,101.95193632611804,106.86594639233067,125.42280989727637,130.95067388651168,149.0,145.0,125.0,121.0,101.0,145.0,125.0,169.0,0.1879848488894217,0.17279773553845038,-0.3305554731820573,5.112200634468651,-0.1053429101588171,-0.46102258141635016,-0.10078560834160398,0.39112332471391675
42,2.1,-0.08423165264490784,-0.3215748012979982,1.849351817693024,-0.04362246782191903,-1.5076340361207823,-0.07239355661294056,0.5075325106651117,0.13268219973096645,0.6416149731426978,3.0506792127000018,-0.056382025633628076,1.564290381938367,148.58985537465358,108.04044744366952,119.82063175275881,85.74401054944634,102.10683296190439,104.13405972080054,125.47461670985811,132.7597090686284,149.0,145.0,125.0,121.0,101.0,145.0,125.0,169.0,-0.1646900798918632,-0.4140980108759313,-5.203291692217259,-0.07656361323307342,0.255158320756061,-5.05254315001287,0.14956027644952896,0.3127564726916016
43,2.15,-0.09935128051806208,-0.316559714071992,1.839535481450561,-0.057247370242706985,-1.4978166567571218,-0.08604619719850026,0.5139529911042786,0.12539934509166983,0.6475041472319266,3.0306509618891027,-0.06322519855085744,1.5648437867820217,142.65699570096072,115.38437217975256,124.12261700553975,92.35099183686094,101.1736366567652,115.65320763309848,124.45212897684102,143.83379737709637,149.0,145.0,125.0,121.0,101.0,145.0,125.0,169.0,-5.221224439554498,0.4335525076214089,-0.14852727306721286,-0.25846089945746287,-0.12091779868034862,-0.052237911455978364,-0.06156965329596531,5.2516055962744534
44,2.2,-0.09579198124010091,-0.31586703463617116,1.841043888936082,-0.05631519342611835,-1.500092881142506,-0.08349368961522297,0.51367661843595,0.1270262444818219,0.6460000649117391,3.0341352209096892,-0.06148832193304212,1.5654382656392871,147.70678474196077,114.0892398451322,124.8697299987095,91.87741512347685,101.2233762442347,119.96204673873459,129.69526774138723,132.94844528932254,149.0,145.0,125.0,121.0,101.0,145.0,125.0,169.0,-0.3071687464113192,0.06598403117871803,0.4493319887592482,0.31025094437237094,-0.12136703204892316,5.138085858538986,5.034717282671649,-4.856600582237092
45,2.25,-0.09549481319308395,-0.31426241020544055,1.841166501463852,-0.055055556749999734,-1.5003384307206158,-0.0845259097914921,0.5143467412992728,0.12710278857800253,0.644960252741691,3.0370752183271454,-0.06138339601878179,1.5665643479245912,148.21520150706843,114.23636063537204,119.44244465324267,90.85095986842434,101.1646524098876,114.13227232034377,124.61935896399602,137.26058192548345,149.0,145.0,125.0,121.0,101.0,145.0,125.0,169.0,0.06438944210321808,0.5240636516133302,-5.072333671880475,-0.22785786556581494,-0.1654680720401067,-0.09905298086105284,0.011158508415143336,-0.13121761893569622
46,2.3000000000000003,-0.09862306903516815,-0.31215779168314484,1.8387673593396476,-0.06022779293215175,-1.4982056505110455,-0.0883067391227974,0.5164555066616114,0.12549808308550936,0.6461757935839136,3.0311907224129153,-0.06259650871540362,1.5677624487482011,147.9494201089998,120.78305313768787,119.4043042329062,93.50829816363705,101.72760635427038,116.00411953385758,124.63029713802851,139.12001606970375,149.0,145.0,125.0,121.0,101.0,145.0,125.0,169.0,0.0782257296086751,5.272514496001689,-4.9421331135311375,0.45915811449699734,0.49572229629936326,-0.09732974150473019,0.17554600680679192,-0.12659026513788815
47,2.35,-0.10354970780613648,-0.3097182002856984,1.8360575824898593,-0.06684864166925841,-1.495121568436189,-0.09314654878065598,0.5190982311123022,0.12300485240161724,0.6476109587594042,3.02371391980958,-0.06443275878458524,1.5684356735943195,147.46729707744413,117.99765204345881,118.70100238694758,100.42977295135543,106.0190462998656,118.37800790000014,123.52325783364486,141.62133250609844,149.0,145.0,125.0,121.0,101.0,145.0,125.0,169.0,-0.03270292255585997,0.08643709018778309,-5.323811508834055,4.943420594035328,5.019046299865591,-0.12199209999986053,-0.5155549517432726,-0.011087585225762257
48,2.4000000000000004,-0.10937701369730357,-0.30953236947577967,1.8374663821197137,-0.07738011992190685,-1.4921085467114183,-0.09968848015469911,0.5207481693992216,0.12012356670371144,0.6478101130343257,3.014068307154713,-0.06567792248164234,1.57006090663744,147.2347534633321,120.71344335711966,123.79017415882585,97.73327260460933,100.46940027746638,120.75705907870532,123.11513324802439,144.2090648197497,149.0,145.0,125.0,121.0,101.0,145.0,125.0,169.0,0.3174957801169832,0.3682896928170638,0.29391480720490254,-0.2392959739442919,0.05314411983090881,-0.19121678336363931,-0.33816971325123535,0.1452834985652022
49,2.45,-0.10984099025821514,-0.3079740727051621,1.836885560696424,-0.0807960744086591,-1.4918605995008711,-0.10052267703820705,0.5219457154313943,0.11978662698882689,0.6478313557237089,3.011557678504209,-0.0655334201076164,1.5706241446390834,152.30606769819752,121.32666202563857,123.53186330251657,99.18858204466726,99.96305288132687,121.74699993517194,123.31235736960647,144.84191349323007,149.0,145.0,125.0,121.0,101.0,145.0,125.0,169.0,5.41874375453553,0.12478409136626425,0.17996456833935956,0.4670630573254893,-0.301005798379736,-0.06962598169847437,0.07382525951473269,-0.05716907557726444
50,2.5,-0.11351623663735433,-0.30501895570122617,1.8336246797867846,-0.08830971585268044,-1.4894636813504896,-0.10429751753027805,0.5247810056735189,0.11780801256338091,0.649495501458378,3.003261422061797,-0.0665216784013744,1.5715306435902856,146.2936607940174,123.54926181323069,122.7828909881132,101.23479250371109,95.60057258779626,124.10498824795276,122.96855560756059,152.43094027440165,149.0,145.0,125.0,121.0,101.0,145.0,125.0,169.0,-0.02324061443332093,-0.3615363088350444,-0.31007383600740934,-0.2953582500577557,-4.347703274272705,-0.3112679096827149,0.057800458819174075,4.87258787165567
51,2.5500000000000003,-0.11158954761901807,-0.3032317171416654,1.831975224106781,-0.08737335498592325,-1.4902468124811685,-0.10296251158387992,0.5255037576783599,0.11865313802633104,0.6496104928976341,3.0045055801847154,-0.06604180530357777,1.5719598224664935,146.52785480111407,123.8592017053971,128.01315740003642,101.30027732419025,100.08390760268958,124.30926697440094,123.12594080991121,147.51808063362367,149.0,145.0,125.0,121.0,101.0,145.0,125.0,169.0,-0.016537722250415592,-0.059022593668310815,4.766306014645981,-0.2009821216535841,-0.05301171271383578,0.0011985147432368509,0.04831523913496807,0.011231318555174417
52,2.6,-0.10912583806338061,-0.3025752325665252,1.832982842094495,-0.08667240649902519,-1.4919565895473816,-0.1005607008608771,0.5254183582108838,0.11978227967869248,0.6484876867176096,3.0072040003535703,-0.06493170075039623,1.5716593234008922,146.42154451406788,123.51935575708089,123.42290067618964,100.97129261296213,99.81886775991593,128.50314732774422,122.92962802641136,146.7588335545832,149.0,145.0,125.0,121.0,101.0,145.0,125.0,169.0,-0.2770536167732677,0.25300061689396924,0.07100194201243286,0.24977362562036728,-0.3698577302801448,4.794813994410888,-0.16736966411981832,-0.24116644541680432
53,2.6500000000000004,-0.10801823689697931,-0.30173193666061504,1.8332767326525312,-0.08807556338267464,-1.4925702600177715,-0.10055508307557526,0.5258274503986768,0.12024204622550132,0.648020789675275,3.0070056353485026,-0.06430036918694426,1.5726955284480657,146.72862790727632,123.32303265722508,123.34103776539172,95.6649717297123,100.02603328752171,123.7194950744595,118.16366617893765,146.7122280940771,149.0,145.0,125.0,121.0,101.0,145.0,125.0,169.0,0.0339892126376309,-0.05925172505930129,-0.06998980353059572,-5.204702455751367,-0.18564554459507202,-0.10532244378868251,-4.937483246349713,-0.3015650093711827
54,2.7,-0.10454954579565712,-0.3008958761478482,1.833702399591652,-0.09190692053867044,-1.4945758549904422,-0.09803861830719862,0.526144066568254,0.121807931556914,0.6477539210538231,3.004817785196406,-0.062380113847880746,1.5735601981092626,141.4409857667126,124.31272093140305,123.16927190408155,101.5616633855657,100.62560170473782,124.24385971805175,127.98724875288224,147.50798332424526,149.0,145.0,125.0,121.0,101.0,145.0,125.0,169.0,-5.446338176949371,0.3361951098068054,-0.4418392070295589,0.157622981525295,0.3043456660904661,0.038545708389911344,4.677453764271753,-0.061492757759275735
55,2.75,-0.10326967657803365,-0.3005265528818497,1.835320081520769,-0.0899131788611971,-1.4955415903556153,-0.09755964028249764,0.525899873963949,0.12239499170268414,0.6462006673430629,3.008918262416987,-0.061918836931958036,1.5739869972277623,147.33676944107432,122.91890101940794,123.75824130141343,100.36350738522908,100.28318761097104,123.21368503102404,128.20034230919867,146.67527012130356,149.0,145.0,125.0,121.0,101.0,145.0,125.0,169.0,0.3367694410743169,-0.08109898059205867,0.06324130141344775,0.011007385229073088,0.005675649248565729,-0.06382693069843458,4.8089395942665405,0.04404840184652675
56,2.8000000000000003,-0.10398009165491429,-0.29843133930629495,1.8339090305945698,-0.09051005565541814,-1.4949983561061204,-0.09886969980584936,0.5272206890658016,0.12192831855465158,0.6461747639695807,3.0088728503958126,-0.06230129309504474,1.5746386632974467,141.7103857023846,123.10679732202583,123.44132720371987,101.17483964293031,100.12774292093633,123.39622598395064,128.57455009793986,147.11494363283447,149.0,145.0,125.0,121.0,101.0,145.0,125.0,169.0,-5.2426659408078855,-0.16785056529810494,-0.13683656799228494,0.43538554863749274,-0.04096123554289678,-0.2932605686165882,5.274550097939862,0.07176181465264811
57,2.85,-0.10273429802006939,-0.2973652348462963,1.8347916551083125,-0.08818445107906925,-1.4958631304746026,-0.09856028373404024,0.5273566011926373,0.12247125116845224,0.6447344201168066,3.0132439308175787,-0.06194409680235057,1.5752009599897456,147.14692572810776,122.53602009872158,123.68979361513618,99.43053017960975,104.83351805370417,123.23541691636285,123.88652259828254,146.2855032742643,149.0,145.0,125.0,121.0,101.0,145.0,125.0,169.0,0.015286005244002102,0.007151738444444322,-0.009472888531299234,-0.29807617735846526,4.627706915689645,0.40248713428051475,0.4793637615935104,0.07521244652380159
58,2.9000000000000004,-0.1011798551100016,-0.2970304008845819,1.83681587389209,-0.09093440794827368,-1.497107748993109,-0.09825676348861023,0.5274368740295755,0.12314388723750219,0.6434897921015865,3.01300115123076,-0.06070795801267062,1.5763213407204744,147.1484625950253,123.01174926148464,124.06110943676225,99.48781850444516,100.21326491160792,122.55282338626084,123.11627449577635,146.02228987839274,149.0,145.0,125.0,121.0,101.0,145.0,125.0,169.0,0.017728650071177337,0.4222997202002307,0.3391582172500621,-0.22437661750606033,0.08314442968022129,-0.2399476980765077,-0.20211115444785943,-0.2624634848359745
59,2.95,-0.10055752209460023,-0.2953488783526419,1.8365468066965667,-0.0928223930833556,-1.4975127138231636,-0.09813247641895506,0.5284080612723693,0.12332388633323707,0.6430361724604176,3.0125793715110607,-0.06027685678582728,1.5767955601419315,141.90655867814624,128.17734576843182,118.52036675215545,99.75123230279692,99.84351687564606,117.93359241169966,123.04384413611314,141.0368433921071,149.0,145.0,125.0,121.0,101.0,145.0,125.0,169.0,-5.107266206646384,5.2510784873258265,-5.187662444924836,-0.2536338772517485,-0.31161438927040985,-5.109367015507964,-0.23009795742807232,-5.568947253772613
60,3.0,-0.1055772303607787,-0.29297026608649457,1.8353743778643237,-0.09694325196057729,-1.494679134745815,-0.10198784834537289,0.5306874014297361,0.12073364974986114,0.6431216714971224,3.0091449630840823,-0.06227351061086321,1.576142190334397,146.7416710374523,124.31445920981402,122.61131733244778,101.38378653957828,100.03203337696524,124.5957203561945,123.41241063428276,153.25771825658157,149.0,145.0,125.0,121.0,101.0,145.0,125.0,169.0,0.1084136342632173,0.0023863168755208024,-0.5434738223433697,-0.17149601570427175,0.2579949154267717,0.004374202348346522,0.5139907697229577,5.156138121141385
61,3.0500000000000003,-0.10343330692153696,-0.29178826324922724,1.8356745614041357,-0.09763399850680177,-1.495934878139166,-0.10085506067283045,0.5310715340975742,0.12169403700311468,0.642383806511389,3.0101358130181315,-0.06125833205527067,1.5769537633620896,146.8794395648533,123.79782496741902,123.7515953666293,106.16932024868305,94.96990283755781,124.21294149081275,123.4347277710209,153.1320689707847,149.0,145.0,125.0,121.0,101.0,145.0,125.0,169.0,0.06937091496772525,-0.3280331561507752,0.4596245637095982,4.857884725568697,-4.891672341439808,-0.07584132541636865,0.4347277710209007,5.1594662310586745
62,3.1,-0.10194100213578627,-0.2896301862165629,1.8343362639781837,-0.09655628794428717,-1.496621530432499,-0.09962296161193018,0.5319958559310821,0.12232342667701485,0.6420619195396311,3.012174143120167,-0.06093840061034986,1.577021661678208,147.1187382118674,124.09773505472123,123.54177955757868,101.33863125188077,100.09048896022351,123.86173529386365,123.09052980208764,148.49821430805576,149.0,145.0,125.0,121.0,101.0,145.0,125.0,169.0,0.13256309666003027,0.02400233582722395,0.1090167213928688,0.2457217164284526,0.1189249791808677,-0.2757054644301853,0.036475748033599965,0.6693854792269383
63,3.1500000000000004,-0.10108262411060664,-0.2879132350252753,1.8341384988934832,-0.09825749035024511,-1.4971492857575486,-0.09935854130136068,0.5329345061655693,0.12262098293213997,0.6415099997430798,3.0120672159091133,-0.06043432519465115,1.577559319204005,147.10463478773423,123.99033527311747,124.01215664776358,101.36355193689421,94.87082367652332,124.39108274384999,123.03123173113958,148.3232374647381,149.0,145.0,125.0,121.0,101.0,145.0,125.0,169.0,0.13418024227967387,-0.35284654506435353,0.5783331183518097,-0.035957867027365815,-5.029413853167901,-0.08635193548492992,0.051456450240703985,0.1344734197942987
64,3.2,-0.10041437232046668,-0.28496948934291355,1.8317922297576343,-0.09842662201336516,-1.4972309962551984,-0.09895259485452357,0.5345495960253899,0.12279922808154965,0.6416215159746024,3.012530812815574,-0.06045461736863826,1.5777865409137848,147.1545875037002,124.79022074267492,123.31845894450771,101.90762960305415,100.43277823933715,125.00240172711926,123.05330696898038,148.38737037071354,149.0,145.0,125.0,121.0,101.0,145.0,125.0,169.0,0.15458750370020724,-0.11278156679390218,-0.2606164812830388,0.09741062495196424,0.5254148189095976,0.1330430572855306,0.006640302313711572,-0.13707407373090147
65,3.25,-0.09979804826827499,-0.28316740953377595,1.831552291845031,-0.10052521239219292,-1.497607841148067,-0.09899675125156993,0.5355986369808445,0.12297723835097,0.6410984202257834,3.012034443402134,-0.06001969273873602,1.5784304636611208,146.80124563596334,120.34151730897862,123.61699391645801,102.34257736081429,105.2232621602047,125.3340345922197,122.49739124087904,148.80495925522166,149.0,145.0,125.0,121.0,101.0,145.0,125.0,169.0,-0.19875436403666755,-4.755480381552558,0.1145667319919974,0.22607250644536117,5.258891613886401,0.17013910528381798,-0.5026087591209532,-0.19504074477834057
66,3.3000000000000003,-0.09696981190413245,-0.2829871600471465,1.834682422580233,-0.10325787372386852,-1.4997060622840044,-0.09786965811847281,0.5353418517426936,0.12428561235137994,0.6391612528137699,3.012894315945487,-0.05814684302435628,1.5798399640456142,147.18003056762188,124.9225309202168,123.5284622366189,101.63323126242646,99.81690241699177,125.19572354586076,122.93237865071123,153.83262784343663,149.0,145.0,125.0,121.0,101.0,145.0,125.0,169.0,0.07500773657165427,-0.029523874303743952,-0.14141728145338026,-0.08484102673016165,-0.004693827139693313,0.37412730172930164,-0.11607949906851085,5.169632248722969
67,3.35,-0.09413908183376307,-0.2810642634794891,1.8345286323488583,-0.10404973541902507,-1.5013164248964221,-0.09606563012918201,0.536050334887686,0.12555460388472994,0.638352663556892,3.0141399504831186,-0.05688717931825961,1.5806186190873077,146.94539201768941,125.14020306950455,123.99366317847871,101.58860140212855,100.32672621013158,124.93412835332443,123.0232149227864,144.21091684119546,149.0,145.0,125.0,121.0,101.0,145.0,125.0,169.0,-0.4006753980409329,0.27054014815624117,0.2148170246325503,-0.024379367102232014,0.41358067022547995,0.12896403407559606,-0.15920265963119012,-4.430841400562806
68,3.4000000000000004,-0.09473598017508955,-0.2789398813385171,1.834074951418823,-0.10723167871068773,-1.501028732373661,-0.097055881945173,0.5375230774443505,0.12511367147682495,0.6379344270210039,3.0125532042230523,-0.05689830503247246,1.5811224202905545,147.28991399315012,120.47614526259638,123.32585925452534,102.51491018787152,99.64852952070758,125.4010089948104,128.09216439719998,149.59401710555787,149.0,145.0,125.0,121.0,101.0,145.0,125.0,169.0,0.06669970743584905,-5.070729737403625,-0.3054660466794812,0.18719934449803255,-0.15612164208310642,-0.08038635402681955,5.052516820107484,0.11824618044773075
69,3.45,-0.09262451260254467,-0.2764767480749608,1.833897033521633,-0.10738183408080326,-1.502218083436647,-0.09673878234957511,0.538543179011507,0.12601193807125927,0.6367765937986053,3.0148257020385216,-0.05598538686087917,1.582648202981955,147.02764338192392,125.49887732116645,119.02835925071975,96.69672108358665,99.29788805627824,124.75145131567751,123.3518801154781,149.28147015734186,149.0,145.0,125.0,121.0,101.0,145.0,125.0,169.0,-0.3154059454303448,0.0840791148884241,-4.76877678746641,-5.329531899706903,-0.60211194372176,-0.4345951959503894,0.2514434342553886,-0.10499272475423864
70,3.5,-0.09217561816717179,-0.2732541421885708,1.8318209128341447,-0.11067086015989203,-1.502073854769617,-0.09788350918094935,0.5405857987270498,0.12606538927292812,0.636909304671058,3.0126153532280333,-0.055759051269146924,1.5843710970980958,147.3577378540076,126.50423655199172,123.91929941866988,102.8505395155176,105.02293976839817,126.03543532825576,123.0460670197055,145.39731531076666,149.0,145.0,125.0,121.0,101.0,145.0,125.0,169.0,-0.017817701547945087,-0.03131900356383915,0.016918466288934158,-0.24946048448239197,5.116179861638272,-0.1766858838654543,-0.00633472701939119,-5.006614820237705
71,3.5500000000000003,-0.09242954842855244,-0.2717534933615142,1.8331669156599775,-0.11548330713350996,-1.5023013407884331,-0.0989822268749112,0.5416895477291932,0.1257929637736846,0.6357621729969145,3.0106205147873695,-0.05518727416342533,1.5852861038986896,147.38131866864268,127.17784163679994,128.6302025773212,109.00799968262022,99.52048545995876,126.68230522871602,122.74550638676668,151.40166309840458,149.0,145.0,125.0,121.0,101.0,145.0,125.0,169.0,0.11851243256251134,-0.11169065718670311,4.934964482083095,5.238952063572592,-0.053588614115311024,-0.2575095860987887,0.029671245768849483,0.24331168842626832
72,3.6,-0.0906170812504401,-0.2701053675508214,1.8336739182861859,-0.11582252282416494,-1.5036411050307565,-0.09697347802307421,0.5422764153281597,0.12658430155391304,0.6345769151925252,3.012677499926718,-0.05431167214671581,1.5848342400870221,147.1985087819544,126.98800309862276,123.27624734754608,103.62964373589571,99.18306591483541,126.46678367901102,122.99532771093416,150.73494428639566,149.0,145.0,125.0,121.0,101.0,145.0,125.0,169.0,-0.10371344026783265,-0.01199690137724022,-0.3959224637746745,0.13200222646174548,-0.3467505989260619,-0.1914732017229216,0.2566668038067444,-0.11602763585057357
73,3.6500000000000004,-0.08960407160687867,-0.2674712506158916,1.8330894640421116,-0.11829524505005251,-1.5042295637122036,-0.09672636644219823,0.5437461862324827,0.1269332044857091,0.6338774883447653,3.012333578081913,-0.0537183204711273,1.5855490573076216,147.36292470022497,127.15178057221979,123.8189065758885,98.9386697125597,99.01671191065518,127.08508141197308,122.87915763557008,156.25488456851622,149.0,145.0,125.0,121.0,101.0,145.0,125.0,169.0,0.02442912500373659,-0.3460070383996711,0.12008304647673951,-4.971918522734408,-0.501636713198032,0.007099760596936379,0.05588177350110942,4.802298361619676
74,3.7,-0.08650568599319897,-0.26403257689499204,1.8315967884035897,-0.1209587947335824,-1.5057982259422067,-0.09510714124048247,0.545452685975948,0.1282924855210811,0.6333935306678468,3.01186904182723,-0.05230061174432757,1.5868774246830801,147.10316987703672,128.2782994153365,123.32438165040374,109.59828124540557,99.30150060540223,127.63867708541257,123.4251743788401,147.38025153974814,149.0,145.0,125.0,121.0,101.0,145.0,125.0,169.0,-0.4101044592464683,0.14334366312410435,-0.5703551917015252,5.060003733443849,-0.3421775555173116,-0.016495328380536665,0.4760218364672072,-4.7066128670315
75,3.75,-0.08728650720784747,-0.26192548446374175,1.831609893912554,-0.12302969948162978,-1.5055320882609804,-0.0959543103481657,0.5467927477842799,0.12777217188495626,0.6325087233626003,3.0118478083243057,-0.05246684529144388,1.5869657542433417,152.45545273711608,133.2798866255911,123.58592063017981,109.46664000219918,94.14283962608485,128.11463916083352,121.9809388626187,152.758410985013,149.0,145.0,125.0,121.0,101.0,145.0,125.0,169.0,5.045761107160125,4.7776839824192905,-0.13238922897511493,4.628611833185104,-5.3056729597275,0.059719252366699345,-0.7904286587488222,0.21567594227794254
76,3.8000000000000003,-0.08878732617414009,-0.2586145163150251,1.828130325835743,-0.12416172532836622,-1.5043869466790651,-0.09646758582418524,0.5490484955265473,0.12687024197933505,0.6332839456105043,3.0104079665162486,-0.0534057506118824,1.586187130884319,147.08019078853437,129.60020544139664,123.62844430065493,105.90862310838104,99.34511987831958,128.98008393179512,127.72701575313235,153.41675701253865,149.0,145.0,125.0,121.0,101.0,145.0,125.0,169.0,-0.21431470597112512,0.03976588095709089,0.07914852600704389,0.04712076096320294,-0.006604259611448701,-0.08888158544624211,5.053897473562454,-0.15958707348283532
77,3.85,-0.08858209653664595,-0.2553586895748614,1.8267217856961446,-0.12589300606302434,-1.504398159851334,-0.09729881142321073,0.5509411605942661,0.12680766915519254,0.6327134851023878,3.010485522553042,-0.053294281754225806,1.5872114147408376,147.48484577743073,134.81752788436097,123.55659853511635,101.18987748633452,98.5685463485633,129.7062307608911,122.31924131600847,154.12193292973302,149.0,145.0,125.0,121.0,101.0,145.0,125.0,169.0,0.17207044703426047,4.650127003303707,0.020467998985809914,-5.162103865646822,-0.6990273475818144,0.025958652047576983,-0.2701203861191847,-0.007854304309549849
78,3.9000000000000004,-0.08800762599362022,-0.25190671016912036,1.8249773675440002,-0.12973709263040867,-1.5046113571749844,-0.09724862741429696,0.5530972630997065,0.12691082725630784,0.6325177281561483,3.008385468473531,-0.05286247342688077,1.587823032228566,152.0496032510563,131.5816006176456,123.30792399326926,112.09284372826562,99.05227224422413,130.4699596300013,122.28606018850819,155.31098464240182,149.0,145.0,125.0,121.0,101.0,145.0,125.0,169.0,4.78702119416353,0.30151309029329687,-0.19440158812610317,4.646332100358644,-0.1846298058897685,-0.23846861601233454,-0.23623280512237793,0.04346871883493182
79,3.95,-0.0879628405964814,-0.24913760544997032,1.823638335079388,-0.13131440397710925,-1.5046370113007406,-0.09714344560489518,0.5547385702206789,0.12678820039799144,0.6321355248145336,3.008246597425376,-0.05283648380746499,1.5877675752476732,146.9226965802236,131.78263016172318,122.97167208187669,112.81635766590703,98.86178801536508,131.24526114968643,122.95278757343644,155.7014026558402,149.0,145.0,125.0,121.0,101.0,145.0,125.0,169.0,-0.28863239581126116,0.06585456259464523,-0.49576977858842347,4.853566968232608,-0.15871312358709203,0.028860238524698874,0.45704289258537295,-0.15178883352148623
80,4.0,-0.08766539522881622,-0.24686193803124068,1.823180822976747,-0.13251459150841782,-1.504855537732639,-0.096993600733279,0.5559882549273536,0.12681922156678135,0.6313607644137305,3.008892174708385,-0.05270494730102912,1.5878551793622053,147.44173397639364,132.0089580872913,123.2216547685488,107.93680604702607,99.05321680878092,131.41977454880006,122.70151176761348,156.02098692351214,149.0,145.0,125.0,121.0,101.0,145.0,125.0,169.0,0.16261309727274692,-0.07895400062080354,-0.19229871982328547,-0.17714744134602853,0.05321680878091528,-0.0802254511999272,0.26839074850519223,-0.09578590026704747
81,4.05,-0.0866873830035817,-0.2438094414357388,1.8222282327823445,-0.13500849407973936,-1.505388584032767,-0.09661682446758224,0.557701791458934,0.12715444375726526,0.6306543128622071,3.008577965530997,-0.05218544807197962,1.5884104269739765,146.87368923260928,132.93072463722888,128.13288696524234,108.4512716795391,99.16101294428158,132.20074035215703,122.31287801611954,156.94312398383366,149.0,145.0,125.0,121.0,101.0,145.0,125.0,169.0,-0.34708998816993614,0.35280255930680704,4.713905483760852,-0.24085795009053607,0.2110129442815782,0.13710398852065175,-0.10185882598570853,0.2125976680442017
82,4.1000000000000005,-0.08462885894344918,-0.24117599750419272,1.8217688022360052,-0.13660864849745336,-1.5066953353050891,-0.09463639198446794,0.5589390240475491,0.12806202889707974,0.6297223102492343,3.009385806467931,-0.05121241417016623,1.5883036841706515,142.4923599388138,132.82669249213055,123.4362608141365,108.53890276471404,98.70242480545929,132.04549144735887,122.620103603851,152.34156694010437,149.0,145.0,125.0,121.0,101.0,145.0,125.0,169.0,-4.856777992220672,0.016347664544339363,-0.044108700875048173,-0.31791016831137736,-0.27268831671266536,-0.2305266521886453,0.12010360385101258,-4.658433059895618
83,4.15,-0.08447932043787176,-0.238411900915815,1.8216067839828307,-0.1394182002390667,-1.5068790284839526,-0.09482902664871462,0.5605628859274239,0.12798343116213032,0.6286559408372174,3.009190963436608,-0.05098844697098097,1.588628812595962,142.0796422665932,127.9864889091587,118.5564576608253,109.54170658160773,99.04320445331449,137.4453089059038,122.56461111047882,152.4597480904369,149.0,145.0,125.0,121.0,101.0,145.0,125.0,169.0,-5.149971467312382,-5.40836087624903,-4.88032394837011,0.288833018389334,0.19309259649122618,4.738373782861295,0.13484171844527182,-5.135639750233956
84,4.2,-0.0833105342986511,-0.2358058528335638,1.8225131891143613,-0.1428703024474265,-1.5075553774514878,-0.09566498154814518,0.5619361206510891,0.12843612079055383,0.6270078106420665,3.0092813161825065,-0.05021643397098189,1.5905352951233995,152.71841728608362,133.68089525209047,123.32760270804334,110.00243405678773,99.25510287490866,133.23825933326452,117.60177285961733,157.86181681812454,149.0,145.0,125.0,121.0,101.0,145.0,125.0,169.0,5.40364212548405,-0.07285207124999757,-0.1335845065685257,0.413392960897328,0.5235592507475744,0.09060832655312319,-4.752393807049348,-0.18401651520877302
85,4.25,-0.0818402788079462,-0.23268483699935594,1.8215378657970271,-0.14606531725863992,-1.5084504271012493,-0.09417068647899995,0.5636710930967413,0.12902698146536792,0.6263453571066517,3.0084007302634364,-0.04942223845291297,1.5904576656107208,147.14336715161448,129.86592127722517,128.55801396765284,115.31487130641817,93.86027653342218,134.03221122722275,122.84495904934124,158.59189198656748,149.0,145.0,125.0,121.0,101.0,145.0,125.0,169.0,-0.2268456143429611,-4.670248935540802,5.103676068109465,5.079711489066569,-4.831353422524961,0.3339733417601828,0.4887090493412346,-0.18935801343252542
86,4.3,-0.07940942980857191,-0.22927140045434058,1.8201969949856007,-0.14515792231602864,-1.5097682315812806,-0.091762859592599,0.5651047033983153,0.13014555376025108,0.6252727947567043,3.0116199716414473,-0.04873237713451135,1.5901816193654956,147.30486707742423,134.18168006628264,123.89270964882058,109.86823157854359,98.9739041499666,133.28087387255562,127.99295253724576,158.42308948370956,149.0,145.0,125.0,121.0,101.0,145.0,125.0,169.0,-0.27385632683109434,-0.08427738052586789,0.2872674719498263,-0.14537386363327637,0.12115689721935446,-0.24659865491691285,5.444498928998325,-0.17691051629043583
87,4.3500000000000005,-0.07904458294618166,-0.2249714767862847,1.8180781087588107,-0.14754128347865558,-1.5098011686319852,-0.09236829063295415,0.567615744266436,0.13013718315610034,0.6246346251929829,3.0113990344323267,-0.04860656948695835,1.5911500441695472,147.5516802666225,135.16087913427012,123.56956849038974,111.23035667180316,93.75887916941062,133.72345689833676,122.5458419664782,154.39345655298348,149.0,145.0,125.0,121.0,101.0,145.0,125.0,169.0,0.001786423735010739,-0.00047967677022057607,0.026775697596943756,0.46909541054189535,-5.009173347000757,-0.6222761432387284,0.09223371905553183,-5.05808983876909
88,4.4,-0.07960031975172832,-0.21989384663028444,1.8148324288944746,-0.1493441651354832,-1.50918708857,-0.0928233458846841,0.5706914393443205,0.1296341832372408,0.6242616476744394,3.0113528830412046,-0.04916410342248345,1.5911200467240307,147.6484204842135,136.42966791851882,123.52279875517907,112.0635798879955,103.61501943847219,135.63414029274506,117.09961306972477,160.39639035406248,149.0,145.0,125.0,121.0,101.0,145.0,125.0,169.0,0.13358997573892678,0.2877187659764621,0.09006332917008829,0.31021665929594044,4.914146076026762,0.30007915737387325,-5.283892084914406,-0.10257871810249056
89,4.45,-0.07727202446849324,-0.21835083365113483,1.8161877444424706,-0.15252697510935587,-1.5108552294811481,-0.09066616741214739,0.5712861687516754,0.13074735145053715,0.6228440004972383,3.0113272087880127,-0.04776008452391631,1.591109947856558,147.34747208897704,135.91312173188976,123.4890543652479,111.51223567277903,98.62561700783458,135.23440596779574,122.31348998911545,160.8481858132392,149.0,145.0,125.0,121.0,101.0,145.0,125.0,169.0,-0.2664519616558626,-0.42021160144357894,0.002447222390758851,-0.31812147007810493,0.005529671590042413,-0.3048953422479231,-0.09019853547471345,0.08384155094411959
90,4.5,-0.07550753537251964,-0.21438917564800297,1.814929767461007,-0.15533130266281203,-1.5117998467399323,-0.08950480988366483,0.5733868986798253,0.13149598866979237,0.6218228522537881,3.0113755974458347,-0.04696520320203783,1.5916054384477702,147.68379848161305,132.26009518170324,128.31790912609372,112.17922668985844,99.35654037880015,136.23429714910873,122.51616709761905,161.15160001430985,149.0,145.0,125.0,121.0,101.0,145.0,125.0,169.0,-0.04536818505361173,-4.716988151630102,4.703209794245167,-0.21498266426182208,0.7761055961914504,0.049514540413072156,0.041625346091555944,-0.29646515880624186
91,4.55,-0.07148155561515779,-0.20939087155412928,1.8139509160673795,-0.15775372116370168,-1.5141588541407431,-0.08652334741951151,0.5756402663396217,0.13339294446097788,0.6199586911192282,3.0133373305467375,-0.045163903901616016,1.592297162972504,148.40755834300245,136.95508666118675,124.10265823235328,112.11878019295203,103.53661553114479,131.71308714353316,122.96578829447593,162.25240339994724,149.0,145.0,125.0,121.0,101.0,145.0,125.0,169.0,0.4054879496277187,-0.27058621666003324,0.2696911993862477,-0.44605497188312726,4.824787574155537,-4.734224684423833,0.24199797189529218,0.39151630317302544
92,4.6000000000000005,-0.07016886358710872,-0.20595667671907414,1.8135953717422773,-0.1615119337205413,-1.5151075254465844,-0.08545915362802603,0.5775173651123691,0.13391314923675898,0.6187099477188077,3.0127927080555295,-0.04430476761357901,1.592460511535648,147.95145283493997,137.68488552590654,123.37014785333885,113.12804885736425,98.58983333410752,136.85197822677898,127.51583950026013,162.81684026307926,149.0,145.0,125.0,121.0,101.0,145.0,125.0,169.0,-0.0793479864152698,-0.28431365273822795,-0.3324953184673247,-0.08340488712915524,0.018404762678955907,-0.2119876580824339,4.937210468002068,0.17369510178891756
93,4.65,-0.06933657782915459,-0.2014011987590978,1.8114416473432309,-0.16424893511263328,-1.5154031450736358,-0.08550353951812983,0.5801147895854442,0.134168365597877,0.617936360721521,3.01248537039355,-0.0439834523459606,1.5933102622323356,147.8207376163027,138.38690241058626,123.64461436270204,113.92913187693698,98.75363345479855,137.82124369751608,122.5434336629877,164.04277208501216,149.0,145.0,125.0,121.0,101.0,145.0,125.0,169.0,-0.2039537417219816,-0.5575420338581931,-0.05007590278467835,-0.15936369828426095,0.15150579522407756,-0.11492651524986144,-0.01793454626784277,0.4693314411489989
94,4.7,-0.06733674318897531,-0.19713416474092593,1.809996625315395,-0.16722490560380399,-1.516468976862586,-0.08414019279973095,0.5823565057541508,0.1350631301428434,0.6168511321996284,3.0124900022904373,-0.04308935643006742,1.593827801205272,148.29292574607243,139.6141552154827,123.93391124236673,114.47015024106508,98.6740256978982,138.52001462373946,122.5955347810241,164.83945010734175,149.0,145.0,125.0,121.0,101.0,145.0,125.0,169.0,0.09664475433690047,-0.018076189475965922,0.0637813722368667,-0.1856939147790682,0.07105329874745303,-0.12542062042187974,-0.10149492194620091,0.506776840015015
95,4.75,-0.06542461544489298,-0.19292715116783032,1.8083926980053944,-0.17005395819873748,-1.5174615407492196,-0.08276019884280217,0.5845807356157174,0.13592590117511,0.6158834149991007,3.012412540496022,-0.04226420544323188,1.594253274377506,153.31211043278364,140.34880985500507,129.06546454620252,115.48627353075268,98.69977934786814,139.16382068833548,117.62651657677681,160.29116607875181,149.0,145.0,125.0,121.0,101.0,145.0,125.0,169.0,4.957140858747126,-0.044699272783994624,5.037386792422826,0.08670549619545236,0.12895482355525398,-0.2399848084932817,-5.15678362203034,-4.8201659292004635
96,4.800000000000001,-0.06333237634215605,-0.1892138221396107,1.8072989956969794,-0.17227863091559126,-1.5188543535749597,-0.07985273880286092,0.5864190494171636,0.13689565590784158,0.6147652133980152,3.0130475918845274,-0.04129494972438771,1.5932650670796247,148.43392766688686,140.58328763269677,123.53170787195648,115.88418035123578,98.4754436995825,139.77310108794973,117.76686171979941,165.89848505755504,149.0,145.0,125.0,121.0,101.0,145.0,125.0,169.0,-0.05590973148714488,-0.2561432616121894,-0.46400028254994624,0.16744215381090202,-0.16741344327464278,-0.05463000448724985,-5.091961809612363,0.24554388108444147
97,4.8500000000000005,-0.060397330060749876,-0.1853603800179413,1.8063482616082878,-0.1752521204232691,-1.5205266800980022,-0.07704859212566229,0.5882605008499863,0.13833542917966998,0.6135474221080695,3.013231250730114,-0.03999145896623026,1.5932075864325406,153.68369960065436,141.34585868306186,124.48686881902623,115.97746452513557,99.01639975801523,140.8806012018956,122.84883063370965,166.04931921818877,149.0,145.0,125.0,121.0,101.0,145.0,125.0,169.0,4.940318745257228,0.0036998235914145585,0.2448987976129502,-0.328745324971487,0.273184726699981,0.4338371100375705,-0.1180954363292611,-0.3670231942625941
98,4.9,-0.05829550852833654,-0.18072545026870213,1.8039531517646124,-0.17792249228214985,-1.5216052178951838,-0.07507994712014776,0.5907340668550722,0.13931491474656055,0.61282778393172,3.0129707041887475,-0.03914385952484562,1.5932335162320534,148.75401278169414,142.13390460761687,124.24014494785843,111.92937125099407,98.93003064015619,141.23862769946894,123.01812652159921,167.2469004647642,149.0,145.0,125.0,121.0,101.0,145.0,125.0,169.0,-0.17542270217684008,-0.06972442464121321,-0.13244605856555938,-5.194825751147267,0.06676533403375251,0.06311749538729826,-0.05177639102214161,-0.06960438960474265
99,4.95,-0.054697788849229934,-0.1740996224560769,1.8009795167448148,-0.18261070181319194,-1.5234284783662178,-0.0724269886959017,0.5942134949934592,0.14105909933376148,0.6115640838312107,3.012195021820597,-0.03759659838044415,1.594004810737309,148.7090717059859,148.7851653150241,124.3981020055671,118.41256456620677,99.13248468295616,142.46569453117587,123.1472290415955,163.2361213867311,149.0,145.0,125.0,121.0,101.0,145.0,125.0,169.0,-0.4489282940140726,5.119165315024106,-0.19290441841578482,0.08922409511469388,0.16554253419583187,-0.12521455973320894,-0.10759721323076533,-5.404805254195549
100,5.0,-0.056707590559994525,-0.17463598691337046,1.8007534729666501,-0.18253622980649098,-1.522283825888576,-0.07349139752013434,0.5942397506143449,0.1399737788612082,0.6120465613136566,3.011353909272549,-0.038553774482170095,1.5932192546618749,143.72303233719884,143.56880487177565,124.50639102937771,118.578964269443,98.83614691800682,142.7437857345905,122.87878514061073,168.69219967607197,149.0,145.0,125.0,121.0,101.0,145.0,125.0,169.0,-5.220967662801137,-0.265195128224346,0.08972436271103464,0.09178478226351584,0.05928741387458599,-0.004148149707014883,-0.2435449564766497,-0.13498478994744303
101,5.050000000000001,-0.055751162899920104,-0.17326507782675815,1.8005646827266437,-0.18349480498520965,-1.5227844891794158,-0.07277432713694143,0.5948689434136558,0.14045206108468816,0.6114931327272674,3.011636203294269,-0.038168954941693437,1.593391551791706,149.29676577411755,143.97888761743775,124.23936136781535,118.67332016818773,93.96866250579639,142.88581311969182,123.54570080033609,169.46179733404648,149.0,145.0,125.0,121.0,101.0,145.0,125.0,169.0,0.20458140538008807,0.018967777758363478,-0.22332519934884143,0.08270183130073927,-4.930514448936125,-0.04422803257157245,0.36051561515089825,0.4150137083154983
102,5.1000000000000005,-0.05475455975772725,-0.1698102721660142,1.7978390738936003,-0.1841380896361251,-1.5230031183616521,-0.0716841872526719,0.5967887650322367,0.1409233999442587,0.6114151438660904,3.011791992345888,-0.038096035766032134,1.5932762011814627,149.00208304439286,139.77723653170327,124.31544324684555,119.18522374021062,104.04915575833564,143.48854838415102,128.29319998594414,169.48537971945143,149.0,145.0,125.0,121.0,101.0,145.0,125.0,169.0,-0.14275822544839753,-4.754509500042762,-0.2315653001629972,-0.0754600204731452,5.049155758335638,-0.03722481172526907,4.998969216713369,-0.1742356651639741
103,5.15,-0.0534496406355518,-0.16769033548045797,1.7974901402090229,-0.18589509705014695,-1.523769884993837,-0.07132396358540083,0.5978309206845066,0.14156318370450188,0.6106152219338846,3.0118805082487543,-0.03738338505145355,1.5941249291166095,149.29071021525775,139.85152792012497,124.36435860092115,119.51825327768223,98.44987128085882,138.8864277904155,123.58889785281988,169.97908319346394,149.0,145.0,125.0,121.0,101.0,145.0,125.0,169.0,0.00019638126564694024,-5.106970103590428,-0.31074688431090897,0.02036298232359166,-0.5542020388967885,-4.962859378627297,0.1862003576368412,-0.04596497609289626
104,5.2,-0.05123885914305548,-0.1634484260573399,1.7955511597555054,-0.18796920316404098,-1.5249008863041462,-0.06942400649308089,0.5999869085205546,0.14266134142581322,0.6096889897455099,3.0122724945720027,-0.0365234310263566,1.5942974008210586,149.3329035500272,145.18790576512652,124.52237823769107,119.80702343690467,99.05583506009091,144.37166840264783,123.30751217527532,165.70724677342858,149.0,145.0,125.0,121.0,101.0,145.0,125.0,169.0,-0.2659106792217937,-0.4109084641224846,-0.34456562925279766,-0.2698996400184119,-0.021874551361029365,-0.025059613712112367,-0.2343129197817182,-4.950547903377485
105,5.25,-0.05169159168723647,-0.16309294763318105,1.7952863022815668,-0.18810214384425805,-1.5246239723330142,-0.06955656435485169,0.6002602269889454,0.14239989128471903,0.6096870417149931,3.012192896313585,-0.0367849982394511,1.5940105831751719,149.90843257758655,146.04851731956765,124.92258837390479,120.26244964807874,99.12265159736405,144.50516439997068,123.51187604974795,170.96843900195134,149.0,145.0,125.0,121.0,101.0,145.0,125.0,169.0,0.3254286250173935,0.3528651456546281,0.08751530501126244,0.07247052490547622,0.04135078435592401,-0.08629901466347271,0.011876049747952068,0.06805586018888221
106,5.300000000000001,-0.05115107982617806,-0.16211530036344968,1.7944252802834066,-0.18829264004073476,-1.524821997181891,-0.06891116314525725,0.6007709282213726,0.14267657441324674,0.609730764677557,3.0121501341763977,-0.03666873254115932,1.5938876478142168,149.77635919820705,140.95765712825326,130.24267713865865,120.26630863160612,98.91556834898113,149.8890686866081,123.62668695077508,171.15428904034002,149.0,145.0,125.0,121.0,101.0,145.0,125.0,169.0,0.18696823553513656,-4.8812426752830875,5.388554517094163,-0.11212688636427803,-0.2096841762713982,5.111290908830334,0.1017827362156965,0.12363769934383494
107,5.3500000000000005,-0.04870718631747106,-0.16026815817660411,1.793814358581579,-0.18819506678608677,-1.526201954559384,-0.06678066694849694,0.6013839471831433,0.14398159035188368,0.6090384556195101,3.013663634106006,-0.0356655003236378,1.5939960498198107,144.9811738428836,146.4450956881118,124.66440790698466,120.19315238460945,99.45797236564057,149.59058091325102,123.55726867084606,170.76066600580708,149.0,145.0,125.0,121.0,101.0,145.0,125.0,169.0,-4.826746949195604,0.6708382623692144,-0.40657330387127727,-0.021878930630634,0.17918448685268945,4.915833438503526,-0.2757447648545218,-0.0781055872831193
108,5.4,-0.048618435782554315,-0.1613844725741309,1.7944896697589714,-0.1874095693329525,-1.526187983376734,-0.06693431783634152,0.6006795916901952,0.14406615249419363,0.6091489342515238,3.0139900958842105,-0.03568892054596018,1.5942254756201677,150.20012093808296,145.39048283874416,125.51290697646512,119.85656202998776,99.67977916111646,148.99383201419013,124.11149580989728,170.56282556019002,149.0,145.0,125.0,121.0,101.0,145.0,125.0,169.0,0.24521897729863568,-0.038928925961735056,0.4528655685976228,-0.09374852901845235,0.3075910220571502,4.709578435458012,0.2245226298206498,-0.023381336361701883
109,5.45,-0.04801577729090001,-0.16108689693939438,1.7941266098778934,-0.18719024750443714,-1.5264451096644773,-0.0664703894074532,0.6007607922907711,0.1443942292479738,0.6091981963412247,3.0141767495216385,-0.035507249611625075,1.5943283047714873,149.9409611432927,145.4615685446656,125.61080029142552,120.0130363021809,99.01719320334571,139.01655838235993,123.91580500679072,170.13495073469656,149.0,145.0,125.0,121.0,101.0,145.0,125.0,169.0,-0.02760467203145265,0.05292414387976142,0.47774415836938816,0.08995937910397481,-0.3803477802608531,-5.264179322558095,-0.009482349531131957,-0.44550903541837994
110,5.5,-0.0474085333852412,-0.15889031684545207,1.7926550081063004,-0.18808494871084092,-1.5266937263454112,-0.06555919283456602,0.6019957336986994,0.14467851974806445,0.6090076953912695,3.0140691068943197,-0.03536435672780612,1.5940048990535587,144.78765178784502,140.46720501377246,125.23906306004119,120.33418269212477,99.7480804365601,145.07655560777633,124.09239968383878,176.40287950685288,149.0,145.0,125.0,121.0,101.0,145.0,125.0,169.0,-5.212348212154975,-5.3842801347424105,0.011694638988556527,-0.017396255243659304,0.2694653652769976,0.274111615922963,0.10766685941130111,5.200589430516993
111,5.550000000000001,-0.04434268326466739,-0.15629174683068214,1.7918634220711835,-0.18919899261777307,-1.528274198284473,-0.06351421350222708,0.6030100621500795,0.1463220277105683,0.6081320425415081,3.014948925882661,-0.034098078935660414,1.5948208304452844,155.0038432958486,151.05694379421396,125.50348085009712,120.48533653387264,99.78234584243022,144.62115843590968,124.12574935869766,171.50930605688427,149.0,145.0,125.0,121.0,101.0,145.0,125.0,169.0,4.698123374744076,5.033275155160704,-0.019628393600356397,0.03155502126758809,0.05709331717769452,-0.2616698469186091,-0.06816699111222214,0.17850757779681875
112,5.6000000000000005,-0.044604448720256595,-0.1559985803619819,1.7906233557782558,-0.18884069260807612,-1.5279938651643503,-0.06323621442723315,0.6033053903588674,0.14617827446864,0.6087796431494912,3.014341159421777,-0.03437837062141691,1.594335895104826,150.36747272930538,146.62109437757246,125.70356871930382,120.38017051384736,99.91787706878985,140.27831721982935,129.25232710045736,176.5380733895688,149.0,145.0,125.0,121.0,101.0,145.0,125.0,169.0,0.11697963265842459,0.40413185291762393,0.14172385557216013,-0.2550496119388053,0.10979626070905185,-4.8307736892615365,5.057670611907741,5.038073389568807
113,5.65,-0.04332278204475104,-0.15306799953383132,1.7881959055877399,-0.18953969512798796,-1.5284409886130508,-0.062442588347642936,0.604895400022762,0.1468327283468932,0.6087847511813008,3.014209132018912,-0.03402430286227806,1.5947788908497416,150.6972611624237,152.15664223994804,125.6784004876882,121.53264010242812,105.20990595369568,145.7817886634077,124.19284998232658,171.85687817071553,149.0,145.0,125.0,121.0,101.0,145.0,125.0,169.0,0.22265178742370287,5.22109536494805,-0.03648420832856998,0.2139818215056838,5.280613024402761,0.008051289670321654,-0.2196975461905315,-0.27049825513997466
114,5.7,-0.044044833690910945,-0.15513923695769272,1.7891295548573174,-0.18893554614386687,-1.528135060951315,-0.06282819331638345,0.6038280710245373,0.14647278236864347,0.6093169598981241,3.0136280724918696,-0.03424637042143507,1.5944958142912955,150.55575234141,146.79655512608974,125.31589336887045,120.90731322310002,100.35604866073683,145.46420868048318,119.58426262111671,171.71361934136883,149.0,145.0,125.0,121.0,101.0,145.0,125.0,169.0,0.2557523414099943,0.15930022412898195,-0.2824329909621881,-0.12406753003806541,0.49314543493038954,0.07509577725737933,-4.77369192433784,-0.08941096166149698
115,5.75,-0.04290216745512021,-0.15489231582484075,1.7889526880659377,-0.1890883912855621,-1.5287744651663973,-0.06128919755994078,0.6038120387437784,0.14710531921935002,0.6093100532089244,3.0136386556126706,-0.03380090880302504,1.5940343036848175,150.62140293396826,141.05958696287348,125.50468424175735,126.52306484322246,99.64710697492643,140.2461563574808,124.073736663795,172.06389192974038,149.0,145.0,125.0,121.0,101.0,145.0,125.0,169.0,0.07809584735409941,-5.572302800906055,-0.24791451084141072,5.489800809958425,-0.2921642801343032,-5.199187772073842,-0.38063595977914344,0.2292911692840908
116,5.800000000000001,-0.04202941044741282,-0.15373750346560078,1.7882763793150689,-0.18847609137904087,-1.5292268457591236,-0.06030617311760711,0.6042765168241682,0.14757190861447916,0.6090055593956472,3.014800311115229,-0.03354666357059354,1.5938376872316036,150.60779799031965,146.4076811990335,125.5434714497275,121.02339757836783,100.11830452588433,139.97749460244844,124.56325112459318,171.5508300258835,149.0,145.0,125.0,121.0,101.0,145.0,125.0,169.0,-0.015476171416051326,-0.1860071638856313,-0.3486447328451085,0.04621915513132032,0.1243774003782519,-5.307930498766131,-0.03712766328560687,-0.15939724684376733
117,5.8500000000000005,-0.04136770859636485,-0.15205901663778354,1.7870139357610144,-0.18904231638457825,-1.529505753746201,-0.05949834868045967,0.6051969881645084,0.14790643170343687,0.6089370399704177,3.0147004868106326,-0.0333642117119205,1.5936663284270673,150.61682300156124,146.6925777698816,125.81151096072789,126.04277536422143,100.13153150288832,145.82743454390095,124.83365593542457,172.0989637290606,149.0,145.0,125.0,121.0,101.0,145.0,125.0,169.0,-0.0898699118245801,-0.13222537972470527,-0.08179447860266074,4.754072435351127,0.03696409846177063,0.018581425188663882,0.20557244396346935,-0.026273462590245707
118,5.9,-0.04175299783316033,-0.15324402822259975,1.7871484594004263,-0.18715028926582367,-1.529249872563745,-0.05958075736382984,0.6044941134552254,0.1477265990919795,0.6093361917925135,3.01550983770435,-0.03366577260987448,1.5933656066434365,150.5198702539253,146.8468998161773,130.93788584386024,125.87667693981601,99.72284316621462,145.80710407406266,125.03797320313619,171.7616048439152,149.0,145.0,125.0,121.0,101.0,145.0,125.0,169.0,-0.1871609960747203,0.43674356617732296,5.023124929099334,4.912019975159044,-0.34193416172060626,0.5560919283136608,0.3643489147111503,0.10695588755845045
119,5.95,-0.0417988662342732,-0.15437334518617485,1.7872814025192598,-0.1847032989753048,-1.5292736913805456,-0.058999348946140895,0.603717784848803,0.14773260205560973,0.6096319944440879,3.01697210775472,-0.033808465699028206,1.5926907439466287,150.44107603250012,140.861901121726,126.49558703714405,120.69265086133659,100.08040996899275,145.1393994317761,124.6225756704109,165.68412635445924,149.0,145.0,125.0,121.0,101.0,145.0,125.0,169.0,-0.241369726868726,-4.968473631725676,0.5565114068919395,0.30609623948784875,-0.07141189335542107,0.30741562610807566,-0.03200448226086092,-5.438011050120892
120,6.0,-0.04139078581274136,-0.15325443654707316,1.7870120384986317,-0.18505829390865225,-1.5295530734923162,-0.0585530960301317,0.6042663824883584,0.1479309686832035,0.609182465739707,3.017510291622661,-0.033615568337320774,1.5926047452652654,150.82862252573113,145.83606582651547,121.11255589766218,120.4203857074995,100.17522082231837,144.79188707153395,124.76938022605523,171.44679182077692,149.0,145.0,125.0,121.0,101.0,145.0,125.0,169.0,0.09000866434497844,-0.12631041110829733,-4.818116371245385,-0.04390000678620884,0.005180336488406169,-0.0866554385875203,0.03706665052943001,0.1924897175264615
121,6.050000000000001,-0.041236220464392126,-0.1525842565342117,1.7861731248064308,-0.1853736505909933,-1.529467630361549,-0.05861491091254223,0.6047023697670857,0.1480137719979547,0.6093967584031682,3.01702213964953,-0.03366230183816959,1.592847204720003,150.7602904383632,146.32726946044534,130.58657557811583,115.90588510620346,100.35718031042354,150.4489289556267,124.69646053847772,171.4895394441861,149.0,145.0,125.0,121.0,101.0,145.0,125.0,169.0,-0.06113813306538401,0.2022694604453459,4.643417683378974,-4.719378051691284,0.1624541440949417,5.3191115114076535,-0.1429276068377614,0.03256047669089051
122,6.1000000000000005,-0.03976519932144473,-0.15174111631838105,1.7856063361282057,-0.1856067286459635,-1.5303008701849192,-0.057143751984666924,0.6049832407560409,0.1488137153230923,0.6093109941620061,3.0171650767980407,-0.03301808299161702,1.592755080788001,150.4437235942648,145.8088204162835,126.18498890981347,120.48393415477136,99.99788605287912,139.76560468845437,124.57246495264818,171.74054048853492,149.0,145.0,125.0,121.0,101.0,145.0,125.0,169.0,-0.4989641527707442,-0.3868317576295304,0.1141555764801362,-0.24523251189531184,-0.2988619146005468,-5.394964417236669,-0.3159965858133607,0.24054048853490936
123,6.15,-0.03914637855537029,-0.15006849577155856,1.7842777141950084,-0.1859946466096023,-1.5305439526227849,-0.056370303823909396,0.6058984336937997,0.14913011481932764,0.6092685303344992,3.0171663398922894,-0.032870991119978835,1.5925766906936871,150.9434715603579,146.4622957182758,126.22158807667275,121.47676791634746,101.05566999739077,150.6963432344131,120.361717610221,171.40211654531893,149.0,145.0,125.0,121.0,101.0,145.0,125.0,169.0,-0.0388119042090388,-0.08297987227536716,0.1572727239756472,0.4560210283806498,0.7101415421062122,5.149595266933441,-4.622986022666185,-0.3359331678741867
124,6.2,-0.038235045299106485,-0.1509024738276814,1.784796485237699,-0.18534885378306765,-1.531110439815678,-0.055148463820998916,0.6052373576208089,0.14965386269698566,0.6093394322349703,3.0175611907691144,-0.032481524102045314,1.5921945800049704,151.32524625621622,146.24246448090133,126.55079343170297,120.33343793613327,100.66288555103402,145.19173864113694,129.66137407615756,171.52877351950437,149.0,145.0,125.0,121.0,101.0,145.0,125.0,169.0,0.265957718666808,-0.006547376806172856,0.3362100983696354,-0.3665620638667357,0.1588205103836141,-0.035903635285833346,4.571162943719937,0.016297511826821622
125,6.25,-0.038291860288672375,-0.15024528932189885,1.7837906653134397,-0.18499675131594406,-1.530956683996524,-0.055430164742621635,0.6056554880625966,0.14961456565316397,0.6095980619377603,3.0175468881285124,-0.03260236994857635,1.5924347155410064,150.94892364359816,146.75152906520287,125.9580821751481,121.14711552108427,101.05823298320887,145.83304500394436,124.75479146925532,171.72280734042312,149.0,145.0,125.0,121.0,101.0,145.0,125.0,169.0,-0.06879289183490934,0.2968046557540422,-0.24608449151855571,0.2137821877509355,0.4801396769208319,0.5206717787922416,-0.3350746875324373,0.07653582990688657
126,6.300000000000001,-0.037940014684112455,-0.15009191861359872,1.7833457949819609,-0.18465144471855188,-1.5311051039359462,-0.05499023769827227,0.6057032729794585,0.14981131497844952,0.6097711165506327,3.0176248112534596,-0.032513441425855875,1.592329323802705,146.5277142244258,146.9450413868166,125.9181778833907,120.88245635905426,100.3964908415107,145.3336029764214,125.20454711037091,171.45775078399217,149.0,145.0,125.0,121.0,101.0,145.0,125.0,169.0,-4.554800510348263,0.48335179939027084,-0.3114672105550213,-0.0465624300897886,-0.23179198677213483,0.022491865310296795,0.1068459609456181,-0.16485457999249678
127,6.3500000000000005,-0.0378678834903976,-0.15032331552860123,1.7833578024068828,-0.18419372963549563,-1.531095054018473,-0.05497784997515165,0.605538672015371,0.1498620848477968,0.6098483312195251,3.0178607296846187,-0.032539158950419325,1.5923827451357517,150.66537888874942,151.13939248425305,126.3428358686872,120.62851347414431,100.635261121674,140.3273491150159,130.3912805009067,171.7034111935148,149.0,145.0,125.0,121.0,101.0,145.0,125.0,169.0,-0.46333398253769537,4.893847929797591,0.027709818267042902,-0.1172848451834138,-0.017964684777613704,-4.930715401113128,5.26268165253818,0.18517702844761588
128,6.4,-0.038977095862822164,-0.1500792672996547,1.7821184078818924,-0.18354297982414236,-1.5303083348439053,-0.05596134404429831,0.6059147377874539,0.14924984368271044,0.6104808179174176,3.017438025639127,-0.03318166733937996,1.5923558504785569,150.98656157686145,146.96423852370765,130.90455224818447,120.88791751598657,100.98047604436192,145.7249021386682,125.20641431312272,166.67261310827237,149.0,145.0,125.0,121.0,101.0,145.0,125.0,169.0,-0.03108548196208285,0.42698362174686927,4.717052248184474,-0.15999915068009984,0.3812940402719363,0.22796962333078077,0.12212312538324854,-4.997884976018799
129,6.45,-0.03916871287445289,-0.15037074303327724,1.7823089937226353,-0.18278863512079413,-1.5303416196117174,-0.05559334735311516,0.6057097832579611,0.14914278495203712,0.6104335337990284,3.0181048795841474,-0.03323218317618453,1.5917736233053565,151.2120852147358,141.40777296383925,126.21992436100788,120.53891768537376,100.41293403834754,140.86618319166865,129.8199364424949,171.50189231158316,149.0,145.0,125.0,121.0,101.0,145.0,125.0,169.0,0.19624363057739191,-4.897177531210253,0.10557924666277363,-0.33842119196511655,-0.12175983920347283,-4.386878032821142,4.7197437642675615,-0.02026568456327482
130,6.5,-0.038413752834842274,-0.14792522214690695,1.7805782155832013,-0.18339462296331677,-1.5306212955139982,-0.0552460720461414,0.6070519201831913,0.1495233319535213,0.6102233448830008,3.0182534691224974,-0.03299890225645945,1.592147424532186,151.10781190215118,146.5367902549672,126.06448508878194,121.6581401319426,100.42423724106983,150.9742231645242,125.35882185527721,171.76868703148946,149.0,145.0,125.0,121.0,101.0,145.0,125.0,169.0,0.05049964918675775,-0.2675575711197695,-0.20288333227070388,0.33182434246891307,-0.18312472212035455,5.229846886405586,0.23382185527721533,-0.17938989158743557
131,6.550000000000001,-0.038255331034929174,-0.14877199252409623,1.780698762324099,-0.18226444419586052,-1.5306778250272464,-0.05510842092423518,0.6065033929672788,0.14963539440267482,0.61052054173384,3.0186558720675585,-0.03298436390568907,1.5921494700159893,150.9754961240745,146.3538134360584,126.31666915934757,120.97594845503453,100.31503910493892,145.5300583409285,125.10996934262897,171.12442649182208,149.0,145.0,125.0,121.0,101.0,145.0,125.0,169.0,-0.10701861069954409,-0.10787615136791139,0.0007695777576140144,-0.01986744454706237,-0.35569260237816147,0.12152175556264669,-0.042994328499137514,-0.5218450186941707
132,6.6000000000000005,-0.037908673388407976,-0.14840405687763614,1.780096741727168,-0.18188868199939323,-1.5308104307488897,-0.05465126554345101,0.6066673306862784,0.1498270992967522,0.610672141905517,3.018817753347996,-0.03291773552900577,1.5920213079504926,155.94558051488247,146.23027707937806,126.23710473657634,121.0075403171669,100.76670696237947,145.2006119017178,125.23009969631762,176.63428050820093,149.0,145.0,125.0,121.0,101.0,145.0,125.0,169.0,4.839281302284046,-0.2244473300707747,-0.18149991458645354,-0.07702627902760313,0.04751504318755902,-0.22565072454484816,0.029334877961988307,4.980360814128265
133,6.65,-0.03625205009762311,-0.14665386856109297,1.777986782981503,-0.18182096785087065,-1.5315309375082142,-0.05299610817312228,0.6075248756632583,0.15073564045910637,0.6110627734600688,3.0186282183553894,-0.032384910197786235,1.5919574900672175,151.77568169136416,146.78746476600088,126.47000009465036,121.65144583383855,100.66746060720408,145.75008131840025,125.37971356989216,171.8373596999008,149.0,145.0,125.0,121.0,101.0,145.0,125.0,169.0,0.46207222390853486,-0.16125318271708605,-0.11438809100364448,0.23583401949255853,-0.2799078138485596,-0.1142911512353892,-0.12028643010783285,-0.21264030009923435
134,6.7,-0.03596724744032587,-0.1464280549773993,1.7773220215579988,-0.1812145107278056,-1.5316209153756395,-0.05257333492980676,0.6076191938273072,0.1508967038070707,0.6113150267250774,3.0188123076548607,-0.03235930786309419,1.5918051129529505,151.80898031801465,147.00919170096742,126.6582815903237,121.3136813196843,100.84939456973477,150.7234106518743,130.83999592263584,172.03437176554164,149.0,145.0,125.0,121.0,101.0,145.0,125.0,169.0,0.4749882231529973,0.07440909227177575,0.042247835049438485,-0.13990517820599016,-0.1607474180948484,4.877568866884437,5.339995922635837,-0.015628234458382607
135,6.75,-0.03657378080785678,-0.1474630408124269,1.777230015711492,-0.17968963414689254,-1.5312136582097864,-0.053436461067788876,0.6070820850231124,0.15058043357929107,0.6118261518277996,3.019150619458727,-0.032685996652819176,1.5920902544722373,151.19915611754257,146.547728759614,126.49951262693011,116.42007888502768,100.96586899077083,145.90445334862846,125.05332702544891,166.85016594574367,149.0,145.0,125.0,121.0,101.0,145.0,125.0,169.0,-0.024606258695070233,-0.07405341860383562,-0.044978898493611814,-4.791785521751988,-0.03005768947356045,0.2629054871213363,-0.4178268207049289,-4.930603285025558
136,6.800000000000001,-0.036330360776282156,-0.14704072597245776,1.7770935625764173,-0.18027824711029483,-1.5314078524252208,-0.05301862114070399,0.6073193155951014,0.15070253421782473,0.6117328196606326,3.0188774979063444,-0.0325254962548114,1.59190530194015,151.49958402396402,147.00612663202284,131.2777620719071,116.40348927684875,100.56845688808968,145.87330556255716,125.53622259555667,171.81129072512545,149.0,145.0,125.0,121.0,101.0,145.0,125.0,169.0,0.2033613599481052,0.20493378908049592,4.691264181611729,-4.969928444670251,-0.4112179086582925,0.08468767637830567,0.036222595556670054,-0.1387092748745445
137,6.8500000000000005,-0.034939466450089274,-0.14569564761227127,1.7759742344684915,-0.18042669435800773,-1.5321743756158046,-0.05145397698263032,0.60791675814861,0.15145853207249912,0.6117074003374485,3.019055038423202,-0.031955728399712134,1.5916486141770552,151.54802536531082,146.38368222127454,126.65373716555122,121.77034875337854,100.69685696571196,146.33094976691712,125.397052133955,172.508712364476,149.0,145.0,125.0,121.0,101.0,145.0,125.0,169.0,0.09812359713794652,-0.557378682458283,-0.014330061339535093,0.31656724077348847,-0.38850888794656885,0.4142831002504521,-0.15381158965344668,0.424259389428025
138,6.9,-0.034516770220485604,-0.1454909271742184,1.775312980158927,-0.1797331115383063,-1.5323333501856533,-0.05096460087731369,0.6079714317154483,0.15169864045031536,0.6119602232194448,3.0193130720885812,-0.031872430920759975,1.591557985549101,151.78824610060948,146.79831245832833,126.36790757697833,121.36700672578256,95.42922419301489,146.14345164414928,125.45531751648807,167.1817168503108,149.0,145.0,125.0,121.0,101.0,145.0,125.0,169.0,0.19536072511543015,-0.08903932032780429,-0.4089345282848375,-0.06667748474374795,-5.720877226863408,0.24892831757726713,-0.18699017581962385,-4.877898534304606
139,6.95,-0.034985215842344264,-0.14525006379904548,1.774451291358262,-0.17846961381378357,-1.5319588856280255,-0.050940951715521265,0.6081480696490188,0.15144355775629154,0.6122611602043107,3.0199336652658655,-0.032287147726033166,1.5910884565614636,151.94351589913046,147.09716650973346,121.57728750445958,126.06834616007436,100.9067115694053,145.73508683966529,120.54024273875824,171.9247685689282,149.0,145.0,125.0,121.0,101.0,145.0,125.0,169.0,0.3633178793284903,0.2536021532978125,-5.153238811329895,4.653609317969093,-0.25758863343444843,-0.11886853558826135,-5.11867198992394,-0.02871980316484535
140,7.0,-0.035159427524049214,-0.14614887517019515,1.7745100242799694,-0.17762251285024666,-1.5317872035271076,-0.0508423414729946,0.607653284199122,0.151373132136136,0.61266519430423,3.0199290386610804,-0.032470591818319745,1.5908369326322,151.774490955778,146.341576538703,126.96201869953323,121.16179284553473,101.07214898027588,145.7345472785469,125.42890797598817,171.51551677150735,149.0,145.0,125.0,121.0,101.0,145.0,125.0,169.0,0.2050465113335288,-0.3270742549477822,0.18023903851627487,-0.20261393412628273,-0.10801296304394926,-0.010391992708142386,-0.3707066675571142,-0.24556222656586832
141,7.050000000000001,-0.034768155249228716,-0.14584096189692586,1.7738782752578963,-0.17713278126984422,-1.5319592621075868,-0.050328336054669354,0.6077773901205328,0.15159347451750693,0.6128553752398952,3.020123140675127,-0.032368713881400626,1.5906926247516475,151.66606152500773,141.7430914305935,126.72434841009544,121.76461112749712,100.99516377531297,145.426286411512,126.20567819755772,170.8719547575803,149.0,145.0,125.0,121.0,101.0,145.0,125.0,169.0,0.021926336140926664,-4.930864831831926,-0.10898492323788835,0.4017419291848855,-0.24923541002307964,-0.2967278451071492,0.4060635540124296,-0.8891242404929172
142,7.1000000000000005,-0.03396359872517918,-0.14486479864534063,1.773224724925968,-0.17701872495891147,-1.5323726517986822,-0.04971395005693324,0.6082044389930074,0.1520293103840746,0.6126990183136373,3.0206083860703803,-0.0320538075351339,1.5908238046829135,151.56716251010158,151.64301618794448,126.83825924921074,121.50190258799762,101.14649659670584,146.06618240623126,125.97077094464773,171.99023523479704,149.0,145.0,125.0,121.0,101.0,145.0,125.0,169.0,-0.1633764120540947,4.882537146028308,-0.083681679059309,0.1453625036094321,-0.1327641835816256,0.2838415438082747,0.0868251032550752,0.21073813615099518
143,7.15,-0.03451874827297452,-0.14565517722608634,1.7728081884516032,-0.17584019172117182,-1.5320032658363827,-0.04986391644121024,0.6078460325365398,0.1517398831884297,0.6133284083386492,3.020548272566858,-0.032404993064014224,1.590461446453106,151.44643067061878,146.45540902316034,131.71349369471326,121.40754939580046,101.0522997638873,145.7328541045724,130.84151447087766,176.86979605935815,149.0,145.0,125.0,121.0,101.0,145.0,125.0,169.0,-0.20297171981945947,-0.1939933672778982,4.799809484186953,0.11491781685309171,-0.3211696238677967,0.11244594130709006,4.914873544236731,5.2443134338755435
144,7.2,-0.03367904349746409,-0.14468294785683788,1.7711488135985984,-0.17454553900173186,-1.5323171280092733,-0.0491920616260737,0.6082784830054064,0.15220605776726487,0.6137318455765455,3.021195912635989,-0.03220520017104964,1.5905772905863267,146.96958112802088,146.56332537143595,127.25459329032489,126.0589065134847,96.66304045574353,150.42789473320929,126.31592468708155,171.66807130689963,149.0,145.0,125.0,121.0,101.0,145.0,125.0,169.0,-4.775438792297839,-0.09603717836484262,0.23767997108600233,4.731210953230994,-4.905141362438284,4.756407129903487,0.33913551880301385,0.04137885041993894
145,7.25,-0.03449009825416516,-0.14628032036408545,1.7714156213144756,-0.1716956470663744,-1.5317486781629652,-0.04986937626304666,0.6073366247960776,0.15179982573488057,0.6141757131519306,3.0226553724641687,-0.032772882115813244,1.5904562915885592,151.72507838275178,145.7721326764647,126.58503705885197,120.8371488243389,106.26689946379071,144.85964369428658,125.6108194005815,171.39584298419655,149.0,145.0,125.0,121.0,101.0,145.0,125.0,169.0,-0.006384543099915936,-0.15772704297415815,-0.3958546608932516,0.20232929143018843,4.749373690594842,-0.1589130067443457,-0.365697233469379,0.32343593918677843
146,7.300000000000001,-0.03405101666278654,-0.14626570646844472,1.7715454764976055,-0.17210366757183682,-1.5320863396705686,-0.04953775617513978,0.6072989386361006,0.15203477663526688,0.6141235540584699,3.02242347173463,-0.03246114411748617,1.5905352044118495,146.77207992556924,146.23944143562906,127.23687132428897,120.65883693992956,101.72071598562655,140.2158047077285,125.86398809742185,171.03129323615772,149.0,145.0,125.0,121.0,101.0,145.0,125.0,169.0,-4.982940154752055,0.2996823994844777,0.255979604543755,0.024017407020843578,0.210385407114153,-4.82758372202357,-0.10293797261705971,-0.0951659078111617
147,7.3500000000000005,-0.033788259610001425,-0.14535099782798522,1.7708684746366696,-0.17221497756342163,-1.5321728846386335,-0.04926550161054122,0.6078001578626615,0.15217135731105735,0.6140468827392495,3.0225713785908774,-0.032412538573986016,1.5905132813222764,152.0835461357996,146.22601504971217,127.09690710328815,121.00497234013253,101.80375560227816,150.01442170580484,125.99887499940434,171.51882836491578,149.0,145.0,125.0,121.0,101.0,145.0,125.0,169.0,0.28954613579957444,0.09001504971216615,0.07581005687463743,0.23282044139834304,0.25003659401369416,4.840867986796586,-0.004993472549245662,0.20935060862950666
148,7.4,-0.033545482537008287,-0.14593645570165403,1.770921991831715,-0.17136638146515493,-1.5323281565855735,-0.049010509255758006,0.6073958853835806,0.15231716711051954,0.6142653596329555,3.022899122793795,-0.03230624345058122,1.5904742554326319,146.53983238962124,146.3219830835509,126.98176332499231,125.5423530180546,101.56795934956935,145.16252289290125,125.96626864682159,170.70140900367335,149.0,145.0,125.0,121.0,101.0,145.0,125.0,169.0,-5.257356365398841,0.39427224017739393,-0.07556151577202015,4.924518623150128,-0.020155404529012298,0.1686704338848612,-0.1080953453506205,-0.3220743622757685
149,7.45,-0.03409497113164228,-0.14677141837218954,1.7713863766668068,-0.17035428022833665,-1.5320458373378907,-0.049548141083285646,0.6069236982242043,0.15202435160441646,0.6143302697250002,3.023503730569631,-0.03255984195007992,1.5904702970855593,151.81113021742556,145.630225801249,126.8447776419808,120.21797003719374,101.7328995392626,144.78491786816,120.87059481306679,170.38777567068726,149.0,145.0,125.0,121.0,101.0,145.0,125.0,169.0,0.0751302174255587,-0.10577419875100476,-0.18494634952662004,-0.18118070590604204,0.16471772108079055,0.11343026485421477,-5.129405186933211,-0.23044138357631613
150,7.5,-0.03308646616068289,-0.14615729951754508,1.7709295355082695,-0.17042701344344557,-1.532619618291478,-0.048215999846949575,0.6071336244704022,0.15257962026969238,0.6142802241815157,3.0236663795283,-0.03214786696610259,1.5900866082190597,151.81887538397072,146.00198646146674,127.4506757670452,120.43027131035595,101.53721405351938,144.96441548597923,126.23334948734232,166.44905917016064,149.0,145.0,125.0,121.0,101.0,145.0,125.0,169.0,0.013264161525818047,0.24847944743867129,0.33390294326600484,-0.0028497087523373667,-0.10814677122289439,0.18297218701016327,0.14985434171125536,-4.277154422072396
151,7.550000000000001,-0.033452147822963685,-0.14620763806069226,1.7709680738916314,-0.1701938625076873,-1.532506394461742,-0.04828916910005976,0.6071386110713856,0.15236911490813249,0.6142554407929516,3.0238805455906776,-0.03226506517669183,1.589798689465972,151.8247969228693,145.6117921581659,126.94239753357729,119.95044888439412,101.86496515401998,144.89102285830688,125.911762922719,170.54231459252907,149.0,145.0,125.0,121.0,101.0,145.0,125.0,169.0,0.06431788095313584,-0.1187467639897745,-0.12554301843969887,-0.46568699670991276,0.2500583217218475,0.1332588831516074,-0.14046144865431262,-0.09598327981136132
152,7.6000000000000005,-0.03308504067702778,-0.14570902477635528,1.770396432570407,-0.1700330820695619,-1.5326948376928424,-0.047856585928750306,0.6073801097470095,0.15256581738664768,0.6143301434108115,3.0239925716443894,-0.032133557434304884,1.5897109624738253,151.81454693804562,140.99764321283178,127.14101351143141,125.79389811547597,101.42868723379377,140.03812092504475,125.8656761717425,170.84739409205812,149.0,145.0,125.0,121.0,101.0,145.0,125.0,169.0,0.008935715600715328,-4.755863801196291,0.024240687652220688,5.360777096367677,-0.20505762217330745,-4.766405823926461,-0.24132771930807814,0.11393105703865057
153,7.65,-0.032635081676229305,-0.14449892959760335,1.7695488108461044,-0.16981194819671597,-1.5329103395563628,-0.047426611025305654,0.6079853887158057,0.1528001866535353,0.6141557189708396,3.0246055715670357,-0.031998515564732787,1.5896901329330333,156.76578277476224,145.81578385075923,131.94351267477572,120.50179070210818,101.66836289256821,144.91746328901337,126.12814265529059,171.34878165299364,149.0,145.0,125.0,121.0,101.0,145.0,125.0,169.0,4.911782774762241,-0.03821614924077398,4.818512674775722,-0.004565230095204666,-0.0058639115554894134,0.00612308282780691,-0.02390412833514912,0.47158867053749703
154,7.7,-0.03172473508131324,-0.1434337462206665,1.7681342227243686,-0.1689310637360073,-1.5334331779284236,-0.046018341557286124,0.6084561725297454,0.15329369035307575,0.6143844471541233,3.0252077193596394,-0.031669171293771385,1.5891240988216944,152.03640756504794,145.797862670675,127.07427423337606,120.46956767816738,106.93315034344192,144.64374173484921,126.65099718115451,166.09422493573172,149.0,145.0,125.0,121.0,101.0,145.0,125.0,169.0,0.13680917147362134,-0.03547066265836554,-0.10831600016959622,-0.08032616472008516,5.14216673688455,-0.3009303962983392,0.40785992625254247,-4.850873103483966
155,7.75,-0.032183005790036745,-0.14389849955531808,1.7689993362302259,-0.16954070610043548,-1.5334096176994034,-0.046406340648341704,0.6082465108767414,0.15302018375767454,0.6141438978027679,3.024980759512085,-0.031640499953357534,1.589059362548011,151.57325960515703,140.855047792242,122.30977203804386,125.34781882174805,101.42146992557747,144.87093426178615,126.43881624496802,171.13824698885253,149.0,145.0,125.0,121.0,101.0,145.0,125.0,169.0,-0.2807403948429823,-4.998952207758013,-4.815227961956141,4.8414628895446645,-0.2527568785462363,-0.04040594439943739,0.2724757361617671,0.21652487534958095
156,7.800000000000001,-0.0319899723988577,-0.14354401868242972,1.768693096714376,-0.1693033777221058,-1.533438177680269,-0.04658766894884403,0.6084064983822268,0.15312646166660232,0.6141131370377254,3.025262001993611,-0.03160579246618341,1.5894200532677212,151.38394359405393,145.76701856527575,127.29011080531754,120.85255054516767,101.79739699234607,149.5809268630371,126.66959985034147,171.1247719655458,149.0,145.0,125.0,121.0,101.0,145.0,125.0,169.0,-0.4938119169681016,-0.07867281748976128,0.1651108053175408,0.346194612964286,0.07368565213988042,4.659277378500992,0.5032593415352158,0.20304985204284437
157,7.8500000000000005,-0.031854881785867484,-0.14411464191950252,1.76884504570564,-0.16854952292128456,-1.5335475720326466,-0.04648203368765769,0.6080218588517783,0.15321082806643893,0.6142657323497955,3.0256018907505546,-0.03152582408134862,1.589427560627339,156.94604388512147,140.33632574332012,127.08114979277347,120.30936574407465,102.12731534044026,149.3935951590146,125.90680864119157,165.76051494665657,149.0,145.0,125.0,121.0,101.0,145.0,125.0,169.0,5.048043885121476,-5.3656742566798945,-0.11123921356902708,-0.05849894937143386,0.42155402356782945,4.68783384214216,-0.25566718085871554,-4.8797171616606265
158,7.9,-0.031439203125557924,-0.14386295740337118,1.7690420254342367,-0.16866589901719253,-1.5339445496684316,-0.045992511961689075,0.6080682613752264,0.15342452186020686,0.6139897157328128,3.025971476370616,-0.03120379742853119,1.5893008867733358,146.60868276011698,145.08322539179295,121.86982532343754,120.47925031658518,101.85954402013839,145.5524930649985,126.11786865720498,170.34668442698742,149.0,145.0,125.0,121.0,101.0,145.0,125.0,169.0,-5.309480912537708,-0.5515051471292004,-5.2975475579183975,0.16992828268686763,0.15378270326596033,0.8467317481260387,-0.02333056910063332,-0.24906025386364045
159,7.95,-0.03160257096757002,-0.14406050820244198,1.7692745978462634,-0.16887123103382962,-1.5337843852909083,-0.04655779318947939,0.6079897016875446,0.15333910894872113,0.6139729050421868,3.0257758458693655,-0.03129049805556349,1.5897222981188872,151.81187616024786,145.78216101653487,127.62901803461159,125.28153575435688,96.49693431864543,144.75096213065137,126.39923410464597,171.09072419395375,149.0,145.0,125.0,121.0,101.0,145.0,125.0,169.0,-0.1062875124068257,0.1474304776127119,0.43874319317395666,4.960182688817761,-5.167674734852508,0.06783455863488591,0.2580348783403498,0.4949795131026986
160,8.0,-0.03175162766157413,-0.14383538073240976,1.7682484461108219,-0.16720366976880197,-1.5335843646867184,-0.04634993305952495,0.6080940532688404,0.15326624555233692,0.6143482338727004,3.026637215584422,-0.03155827186994544,1.589361628971923,151.61453515195967,145.16513823198807,127.35581790866414,120.26285765340924,101.52111057985216,144.4719363794702,126.36966693528362,175.55803262240613,149.0,145.0,125.0,121.0,101.0,145.0,125.0,169.0,-0.28726845525475947,-0.2176272990740428,0.1718855619410893,0.07681114178132968,-0.19524552780830318,-0.09949219195837682,0.22180701310462664,5.058032622406135
161,8.05,-0.030699125259291637,-0.14276943298971467,1.7669364196261368,-0.16685855762655777,-1.5340369100578277,-0.04545679964724236,0.6085825810212694,0.1538508346807388,0.6145662565346397,3.0267900291357615,-0.031212267912850842,1.5894733047499972,157.30506978005988,140.4284998149198,127.90328412463522,120.3654061244115,102.07679636681938,144.54294780597027,126.15098028441918,170.75598560140932,149.0,145.0,125.0,121.0,101.0,145.0,125.0,169.0,5.3310178838522955,-5.184274636178006,0.5981993788725144,0.015829853225070734,0.18584986476176354,-0.16487112407089394,-0.1024046285401965,0.1563724486046864
162,8.1,-0.029436468813863748,-0.1411029019442993,1.7657866825782138,-0.16710834616434012,-1.5347678992928113,-0.0441862505760815,0.6093656465933615,0.15452957102947162,0.6143767982348306,3.02713785897287,-0.030641391502330948,1.589382566061569,152.5041861199721,145.73337303226887,132.0978065938334,120.24382412992043,101.87283324433346,150.45379159295538,131.26880411448008,170.7335805745492,149.0,145.0,125.0,121.0,101.0,145.0,125.0,169.0,0.4037845135464167,-0.0959442368074339,4.668931859226196,-0.2699762947080296,-0.13941165362570843,5.543587511322741,4.793075959140269,-0.12273010506247088
163,8.15,-0.029625963189726434,-0.1418042380669533,1.7659253585049344,-0.1658474130200398,-1.5347727286067068,-0.04437619104917534,0.6089207837004357,0.1544224341344711,0.6145618095424866,3.027822320712683,-0.030653334382455585,1.589358143854056,152.04221711228834,145.78597377735596,132.2982858731839,119.99267390535795,101.82290498136085,144.10864968433057,126.32750099870243,175.32698163865442,149.0,145.0,125.0,121.0,101.0,145.0,125.0,169.0,-0.039619215056963274,0.42070431627810917,4.861185659964252,-0.25252865327744645,-0.12967233822678847,-0.503721449690033,-0.02646418504998269,4.8086063968749135
