AI-SPARC/uncalibrated-visual-servoing/results/data/4_feat_mckf.csv
,t,q_1,q_2,q_3,q_4,q_5,q_6,camera_x,camera_y,camera_z,camera_roll,camera_pitch,camera_yaw,f_1,f_2,f_3,f_4,f_5,f_6,f_7,f_8,desired_f_1,desired_f_2,desired_f_3,desired_f_4,desired_f_5,desired_f_6,desired_f_7,desired_f_8
0,0.0,9.298324584960938e-06,-0.39263248443603516,1.963494062423706,7.200241088867188e-05,-1.5707952976226807,2.384185791015625e-07,0.4463264048099518,0.16906212270259857,0.5921618342399597,-3.141307778251266,0.00012221750102738726,1.5708379755145234,151.4127579737336,65.55722326454034,125.41947565543072,39.58052434456929,99.43609022556392,65.56390977443608,125.41275797373358,91.55722326454034,149.0,145.0,125.0,121.0,101.0,145.0,125.0,169.0
1,0.05,0.002869129180908203,-0.3851635456085205,1.9587910175323486,-0.0031218528747558594,-1.5735447406768799,0.0039014816284179688,0.4501406252384186,0.17010408639907837,0.5923497080802917,3.141462963419373,0.002877040618068654,1.5697973560157883,151.13167938931298,67.0,125.20380952380953,41.05904761904762,99.26095238095238,66.98095238095237,125.21904761904761,92.89714285714285,149.0,145.0,125.0,121.0,101.0,145.0,125.0,169.0
2,0.1,0.004243135452270508,-0.38240480422973633,1.9572937488555908,-0.004525899887084961,-1.574751615524292,0.005522012710571289,0.45149627327919006,0.17062042653560638,0.592278003692627,3.1413084807205016,0.004083161752998106,1.5695500418766086,151.0,67.5,125.01147227533461,41.521988527724666,99.06095238095239,67.47809523809524,125.06095238095239,93.47809523809524,149.0,145.0,125.0,121.0,101.0,145.0,125.0,169.0
3,0.15000000000000002,0.005454063415527344,-0.37999796867370605,1.956104040145874,-0.005799770355224609,-1.5757472515106201,0.006983518600463867,0.45266193151474,0.1710837334394455,0.5921419858932495,3.1412322277555025,0.005076742806200504,1.5692991146790514,150.96360153256705,67.8984674329502,124.96360153256705,41.89846743295019,99.04545454545455,67.80681818181819,125.10285714285715,93.78095238095239,149.0,145.0,125.0,121.0,101.0,145.0,125.0,169.0
4,0.2,0.006622791290283203,-0.3777339458465576,1.9549448490142822,-0.006947517395019531,-1.576683759689331,0.008391618728637695,0.45375609397888184,0.17153669893741608,0.5920292139053345,3.141174638719058,0.006011651483356,1.5690584639602536,150.9293893129771,68.3530534351145,124.9504761904762,42.36571428571428,98.97533206831119,68.32447817836812,125.0,94.32509505703422,149.0,145.0,125.0,121.0,101.0,145.0,125.0,169.0
5,0.25,0.0076694488525390625,-0.3756990432739258,1.9539854526519775,-0.008036375045776367,-1.577505350112915,0.009642839431762695,0.4547378420829773,0.17194652557373047,0.5918747186660767,3.141145998378008,0.006831915691567273,1.5688531513082131,150.92175572519085,68.57633587786259,124.9047619047619,42.59428571428571,98.9447619047619,68.56761904761905,125.0,94.54389312977099,149.0,145.0,125.0,121.0,101.0,145.0,125.0,169.0
6,0.30000000000000004,0.008719444274902344,-0.3737220764160156,1.9530389308929443,-0.009058952331542969,-1.578279733657837,0.01087498664855957,0.45568418502807617,0.17236444354057312,0.5917296409606934,3.1411369120822665,0.0076063790340824295,1.5686714870511045,150.8505747126437,68.88314176245211,124.83650190114068,42.91825095057034,98.84469696969697,68.87121212121212,124.95437262357414,94.8555133079848,149.0,145.0,125.0,121.0,101.0,145.0,125.0,169.0
7,0.35000000000000003,0.009716033935546875,-0.3718841075897217,1.9521925449371338,-0.010003805160522461,-1.5789978504180908,0.012035846710205078,0.4565564692020416,0.1727646142244339,0.5915684103965759,3.1411666345885796,0.008324056591605256,1.56850656293086,150.87262357414448,69.22053231939164,124.80492424242425,43.25,98.82230623818525,69.23251417769376,124.94117647058823,95.24098671726755,149.0,145.0,125.0,121.0,101.0,145.0,125.0,169.0
8,0.4,0.010655879974365234,-0.3701310157775879,1.9513962268829346,-0.01089167594909668,-1.579627275466919,0.013136625289916992,0.4573877155780792,0.17314857244491577,0.5914038419723511,3.1412182703885,0.00895410204360526,1.568346026766243,150.9390476190476,69.47809523809524,124.89753320683111,43.4573055028463,98.87310606060606,69.46022727272727,124.98852772466539,95.47801147227534,149.0,145.0,125.0,121.0,101.0,145.0,125.0,169.0
9,0.45,0.011553287506103516,-0.36838841438293457,1.9505689144134521,-0.011751174926757812,-1.5802218914031982,0.014207839965820312,0.4582211375236511,0.17351819574832916,0.5912600755691528,3.14125688245909,0.009548900244940603,1.5681728846061744,150.86285714285714,69.6704761904762,124.81404174573055,43.66982922201139,98.80225988700565,69.74011299435028,124.97533206831119,95.67552182163188,149.0,145.0,125.0,121.0,101.0,145.0,125.0,169.0
10,0.5,0.012524604797363281,-0.36670732498168945,1.949688196182251,-0.012447357177734375,-1.5807974338531494,0.015294551849365234,0.459002822637558,0.17392517626285553,0.5911619067192078,3.141342493190446,0.010125587329072134,1.5680585196280288,150.8854961832061,69.91793893129771,124.81593927893738,43.93168880455408,98.80681818181819,69.95454545454545,125.02285714285715,95.92,149.0,145.0,125.0,121.0,101.0,145.0,125.0,169.0
11,0.55,0.013437509536743164,-0.3650639057159424,1.9488050937652588,-0.013087272644042969,-1.5813367366790771,0.016336441040039062,0.4597715735435486,0.17430995404720306,0.5910744071006775,3.1414438564450227,0.010666214970963456,1.567929963703768,150.893536121673,70.24334600760456,124.80529300567107,44.194706994328925,98.82894736842105,70.25187969924812,125.02457466918715,96.29300567107751,149.0,145.0,125.0,121.0,101.0,145.0,125.0,169.0
12,0.6000000000000001,0.014260530471801758,-0.363480806350708,1.9479453563690186,-0.013679981231689453,-1.5818068981170654,0.017339706420898438,0.4605197310447693,0.17466074228286743,0.5909926891326904,3.1415563584244692,0.011138428112401538,1.5677511394132049,150.9885277246654,70.47801147227534,124.87878787878788,44.441287878787875,98.86603773584906,70.42264150943396,125.04942965779468,96.45627376425855,149.0,145.0,125.0,121.0,101.0,145.0,125.0,169.0
13,0.65,0.01503133773803711,-0.361922025680542,1.9471714496612549,-0.014376163482666016,-1.5822513103485107,0.018283367156982422,0.4612668454647064,0.1749909222126007,0.5908727645874023,-3.141558046482574,0.011584268010128577,1.5675791750270558,151.0,70.5919540229885,124.92775665399239,44.58555133079848,98.87005649717514,70.6421845574388,125.07575757575758,96.66666666666667,149.0,145.0,125.0,121.0,101.0,145.0,125.0,169.0
14,0.7000000000000001,0.015815019607543945,-0.3603549003601074,1.9463021755218506,-0.014946460723876953,-1.582688570022583,0.0192108154296875,0.46201324462890625,0.17532901465892792,0.5907993316650391,-3.141449221409011,0.012023832813996885,1.5674368365937745,150.97714285714287,70.82857142857142,124.88468809073724,44.8241965973535,98.86037735849057,70.82641509433962,125.17580340264651,96.88468809073724,149.0,145.0,125.0,121.0,101.0,145.0,125.0,169.0
15,0.75,0.016559600830078125,-0.35880470275878906,1.9453308582305908,-0.015345096588134766,-1.583099126815796,0.02013874053955078,0.4627518355846405,0.17565284669399261,0.5907833576202393,-3.141288048977244,0.012438159949286353,1.5672562908816026,151.05714285714285,71.16380952380952,124.87878787878788,45.08901515151515,98.88367729831144,71.18198874296435,125.17424242424242,97.20833333333333,149.0,145.0,125.0,121.0,101.0,145.0,125.0,169.0
16,0.8,0.017320632934570312,-0.3572812080383301,1.9443738460540771,-0.015747785568237305,-1.583425760269165,0.02106642723083496,0.463474303483963,0.1759938895702362,0.590768575668335,-3.1411421327714013,0.012768219297089496,1.5670912547137015,151.06309751434034,71.37667304015297,124.95643939393939,45.308712121212125,98.9566037735849,71.30943396226415,125.19128787878788,97.35416666666667,149.0,145.0,125.0,121.0,101.0,145.0,125.0,169.0
17,0.8500000000000001,0.017995595932006836,-0.3558158874511719,1.943493127822876,-0.01621246337890625,-1.5837795734405518,0.02192997932434082,0.46418246626853943,0.17629238963127136,0.5907342433929443,-3.141040138837407,0.01312488664335433,1.5669038470995589,151.0609523809524,71.52190476190476,125.0,45.5,99.0,71.54356060606061,125.17457305502846,97.58823529411765,149.0,145.0,125.0,121.0,101.0,145.0,125.0,169.0
18,0.9,0.018651962280273438,-0.3543875217437744,1.942620038986206,-0.016646385192871094,-1.5841424465179443,0.02274799346923828,0.4648730158805847,0.17658130824565887,0.5907077193260193,-3.1409371656508123,0.013490819320521024,1.5667440580969674,151.14421252371918,71.7134724857685,125.01897533206831,45.690702087286525,99.015065913371,71.72693032015066,125.2593984962406,97.7406015037594,149.0,145.0,125.0,121.0,101.0,145.0,125.0,169.0
19,0.9500000000000001,0.01932239532470703,-0.35292983055114746,1.9416730403900146,-0.017023801803588867,-1.5844643115997314,0.023571252822875977,0.46557706594467163,0.17688262462615967,0.590710461139679,-3.1408217270028023,0.01381597730428331,1.5665929338337503,151.2281368821293,71.92015209125475,125.02646502835539,45.816635160680526,99.08971962616822,72.0,125.30871212121212,98.04356060606061,149.0,145.0,125.0,121.0,101.0,145.0,125.0,169.0
20,1.0,0.020006418228149414,-0.3514266014099121,1.9405968189239502,-0.017297744750976562,-1.5847084522247314,0.024430513381958008,0.46630391478538513,0.17719975113868713,0.5907670855522156,-3.1406864849872314,0.01406501831183482,1.5664201330571843,151.19128787878788,72.21212121212122,125.09280303030303,46.18560606060606,99.11069418386492,72.26266416510319,125.31450094161958,98.29566854990584,149.0,145.0,125.0,121.0,101.0,145.0,125.0,169.0
21,1.05,0.020607948303222656,-0.3500344753265381,1.9396240711212158,-0.017581701278686523,-1.5849955081939697,0.025189876556396484,0.4669830799102783,0.17747314274311066,0.5908050537109375,-3.1405678190443296,0.014355688745205647,1.5662647694855938,151.20038167938932,72.42366412213741,125.07224334600761,46.41444866920152,99.12641509433962,72.46037735849056,125.37853107344633,98.47645951035781,149.0,145.0,125.0,121.0,101.0,145.0,125.0,169.0
22,1.1,0.021203041076660156,-0.34865880012512207,1.9386084079742432,-0.01778864860534668,-1.585268259048462,0.025944948196411133,0.4676527976989746,0.17774559557437897,0.5908710360527039,-3.1404329232680053,0.014633223886867837,1.5661070026981554,151.26285714285714,72.5904761904762,125.12121212121212,46.558712121212125,99.1842105263158,72.65413533834587,125.37476459510358,98.63653483992466,149.0,145.0,125.0,121.0,101.0,145.0,125.0,169.0
23,1.1500000000000001,0.021808862686157227,-0.3472864627838135,1.9376051425933838,-0.018035173416137695,-1.5855214595794678,0.026690959930419922,0.46832168102264404,0.1780260056257248,0.5909329056739807,-3.1403274063683324,0.014890865994194102,1.5659691177880921,151.30056710775048,72.77693761814744,125.1939736346516,46.75706214689266,99.24624060150376,72.78195488721805,125.43833017077799,98.93358633776091,149.0,145.0,125.0,121.0,101.0,145.0,125.0,169.0
24,1.2000000000000002,0.02225780487060547,-0.3459188938140869,1.9366037845611572,-0.018258094787597656,-1.5857579708099365,0.027364253997802734,0.4690132141113281,0.17823438346385956,0.5909921526908875,-3.1402001375683057,0.015131753100065216,1.5657469283339678,151.37142857142857,73.0247619047619,125.24905660377358,46.988679245283016,99.23076923076923,73.11632270168856,125.43833017077799,99.06641366223909,149.0,145.0,125.0,121.0,101.0,145.0,125.0,169.0
25,1.25,0.022835493087768555,-0.34456467628479004,1.9355785846710205,-0.018469810485839844,-1.585972547531128,0.028057098388671875,0.46967801451683044,0.17850664258003235,0.5910714864730835,-3.140098603814226,0.015350235354735158,1.5656340614338826,151.32386363636363,73.25568181818181,125.19774011299435,47.259887005649716,99.29643527204503,73.31144465290807,125.47645951035781,99.37853107344633,149.0,145.0,125.0,121.0,101.0,145.0,125.0,169.0
26,1.3,0.023303985595703125,-0.34326815605163574,1.9345762729644775,-0.018625259399414062,-1.586188554763794,0.028704404830932617,0.4703269898891449,0.17872679233551025,0.5911557078361511,-3.1399755180212643,0.015571058722968078,1.5654572250509373,151.37853107344634,73.47645951035781,125.28922495274102,47.46880907372401,99.36516853932584,73.50749063670412,125.50656660412758,99.5234521575985,149.0,145.0,125.0,121.0,101.0,145.0,125.0,169.0
27,1.35,0.02376246452331543,-0.3419921398162842,1.933589220046997,-0.01881241798400879,-1.5864098072052002,0.029326200485229492,0.47096961736679077,0.17894187569618225,0.5912420153617859,-3.1398891843858823,0.015796322829600473,1.5652958156419943,151.35283018867923,73.64716981132075,125.30754716981131,47.66415094339623,99.31954887218045,73.68045112781955,125.5,99.62781954887218,149.0,145.0,125.0,121.0,101.0,145.0,125.0,169.0
28,1.4000000000000001,0.02424144744873047,-0.3407552242279053,1.9326326847076416,-0.01898980140686035,-1.586646318435669,0.02993178367614746,0.47158658504486084,0.17916540801525116,0.5913240909576416,-3.139802648069915,0.01603642004870362,1.5651712511892921,151.37476099426385,73.8585086042065,125.29734848484848,47.80113636363637,99.33207547169812,73.89433962264151,125.54372623574145,99.95057034220532,149.0,145.0,125.0,121.0,101.0,145.0,125.0,169.0
29,1.4500000000000002,0.024677038192749023,-0.33949804306030273,1.9315931797027588,-0.019062519073486328,-1.5868232250213623,0.030549049377441406,0.47221896052360535,0.1793750673532486,0.5914400219917297,-3.139672352450758,0.016219039202878423,1.5649916537162043,151.40726577437857,74.02485659655832,125.32575757575758,48.04924242424242,99.3754716981132,74.14716981132075,125.56653992395437,100.1083650190114,149.0,145.0,125.0,121.0,101.0,145.0,125.0,169.0
30,1.5,0.025147676467895508,-0.33826470375061035,1.930548906326294,-0.019115447998046875,-1.5870134830474854,0.031142234802246094,0.47283318638801575,0.17960011959075928,0.5915677547454834,-3.1395512118918187,0.016414734063640562,1.5648721657151508,151.43726235741445,74.27566539923954,125.33333333333333,48.29943502824859,99.41947565543072,74.41947565543072,125.62523540489642,100.36346516007534,149.0,145.0,125.0,121.0,101.0,145.0,125.0,169.0
31,1.55,0.025617599487304688,-0.33704304695129395,1.929455041885376,-0.01909637451171875,-1.587184190750122,0.031731605529785156,0.4734405279159546,0.17982743680477142,0.591726541519165,-3.1394190451930974,0.01659145646485125,1.5647553507244787,151.47358490566037,74.42264150943396,125.37853107344633,48.47645951035781,99.44692737430168,74.52327746741155,125.62146892655367,100.52354048964219,149.0,145.0,125.0,121.0,101.0,145.0,125.0,169.0
32,1.6,0.026017427444458008,-0.3358442783355713,1.9284465312957764,-0.01915740966796875,-1.587352991104126,0.03226828575134277,0.4740484356880188,0.18002134561538696,0.5918459892272949,-3.139304202628476,0.01676510130832526,1.564620748286151,151.5,74.61509433962264,125.35283018867925,48.64716981132076,99.46992481203007,74.63533834586467,125.68045112781955,100.68045112781955,149.0,145.0,125.0,121.0,101.0,145.0,125.0,169.0
33,1.6500000000000001,0.026373863220214844,-0.33465027809143066,1.927436113357544,-0.01920771598815918,-1.5874969959259033,0.032801151275634766,0.47466063499450684,0.18019752204418182,0.5919663310050964,-3.1391834134437815,0.01691488809970439,1.564446698437613,151.51149425287358,74.84099616858238,125.41745730550285,48.87286527514232,99.50378787878788,74.92234848484848,125.68821292775665,100.88022813688212,149.0,145.0,125.0,121.0,101.0,145.0,125.0,169.0
34,1.7000000000000002,0.026767492294311523,-0.3334825038909912,1.9264023303985596,-0.019219398498535156,-1.5876505374908447,0.03332686424255371,0.47525307536125183,0.18039079010486603,0.5921101570129395,-3.139074556536489,0.01707305202187852,1.5643166921948237,151.5,75.0,125.43238095238095,49.055238095238096,99.53396226415094,75.1566037735849,125.712927756654,101.08745247148289,149.0,145.0,125.0,121.0,101.0,145.0,125.0,169.0
35,1.75,0.02717757225036621,-0.33232569694519043,1.9253132343292236,-0.01914811134338379,-1.5878078937530518,0.03385019302368164,0.4758357107639313,0.1805916726589203,0.5922881364822388,-3.1389493262204637,0.017236816057740675,1.5642067758269467,151.5640535372849,75.22179732313576,125.47457627118644,49.335216572504706,99.5570093457944,75.41308411214953,125.75378787878788,101.30871212121212,149.0,145.0,125.0,121.0,101.0,145.0,125.0,169.0
36,1.8,0.02758026123046875,-0.33118391036987305,1.9242384433746338,-0.019077301025390625,-1.5879547595977783,0.03433799743652344,0.4764111638069153,0.18079014122486115,0.5924618244171143,-3.1388244398196523,0.01738942429527556,1.5641241819861118,151.53383458646616,75.41917293233082,125.48405253283302,49.450281425891184,99.55327102803739,75.5233644859813,125.80571428571429,101.44761904761904,149.0,145.0,125.0,121.0,101.0,145.0,125.0,169.0
37,1.85,0.027961015701293945,-0.3300490379333496,1.923112154006958,-0.018933773040771484,-1.5880935192108154,0.03484392166137695,0.4769859313964844,0.18097937107086182,0.5926659107208252,-3.1386860723780683,0.017535193566765153,1.5640018749388234,151.56439393939394,75.56439393939394,125.50375939849624,49.607142857142854,99.6,75.63364485981309,125.88358778625954,101.60687022900764,149.0,145.0,125.0,121.0,101.0,145.0,125.0,169.0
38,1.9000000000000001,0.028293371200561523,-0.32890844345092773,1.9219458103179932,-0.018744468688964844,-1.588224172592163,0.03533220291137695,0.4775718152523041,0.18114665150642395,0.5928884148597717,-3.138534838604505,0.017673362077568384,1.5638492622532432,151.5640535372849,75.77820267686424,125.50284629981024,49.817836812144215,99.67863894139886,75.9054820415879,125.87262357414448,101.77946768060836,149.0,145.0,125.0,121.0,101.0,145.0,125.0,169.0
39,1.9500000000000002,0.028675079345703125,-0.3278036117553711,1.920785665512085,-0.01855611801147461,-1.5883657932281494,0.03583025932312012,0.4781321585178375,0.18133670091629028,0.5931236743927002,-3.1384151872735253,0.017820158298863145,1.5637351000244997,151.59195402298852,76.0,125.52290076335878,50.036259541984734,99.69187145557656,76.10018903591683,125.8984674329502,101.96360153256705,149.0,145.0,125.0,121.0,101.0,145.0,125.0,169.0
40,2.0,0.029040098190307617,-0.3267190456390381,1.9196522235870361,-0.018380403518676758,-1.5884959697723389,0.03631162643432617,0.47868412733078003,0.18151973187923431,0.5933508276939392,-3.1383016757867517,0.017956611309879588,1.5636216463400145,151.6007677543186,76.14587332053743,125.5904761904762,50.26285714285714,99.70943396226416,76.29056603773584,125.92175572519083,102.21946564885496,149.0,145.0,125.0,121.0,101.0,145.0,125.0,169.0
41,2.0500000000000003,0.029345035552978516,-0.3256497383117676,1.9185259342193604,-0.018175363540649414,-1.5886356830596924,0.03673577308654785,0.47923627495765686,0.18167251348495483,0.5935769081115723,-3.1381659129496984,0.018103502356475752,1.5635057239257477,151.6590476190476,76.3104761904762,125.58052434456928,50.41947565543071,99.7296786389414,76.46313799621929,125.98279158699809,102.39005736137668,149.0,145.0,125.0,121.0,101.0,145.0,125.0,169.0
42,2.1,0.029651641845703125,-0.32456493377685547,1.9173533916473389,-0.01792740821838379,-1.5887415409088135,0.03716564178466797,0.4797963500022888,0.18183031678199768,0.5938215255737305,-3.1380163930374465,0.018217233443373494,1.5633857746566024,151.74236641221373,76.46564885496183,125.56981132075472,50.56981132075472,99.81593927893738,76.62239089184061,126.0,102.5,149.0,145.0,125.0,121.0,101.0,145.0,125.0,169.0
43,2.15,0.029972314834594727,-0.32348179817199707,1.9162161350250244,-0.01775217056274414,-1.5888254642486572,0.03759622573852539,0.48035648465156555,0.1819976419210434,0.5940496921539307,-3.137905915614344,0.018307176418142047,1.56327828034342,151.67816091954023,76.6800766283525,125.63047619047619,50.84,99.81214421252372,76.81214421252372,126.01720841300191,102.60994263862332,149.0,145.0,125.0,121.0,101.0,145.0,125.0,169.0
44,2.2,0.030286788940429688,-0.322462797164917,1.9151313304901123,-0.017576932907104492,-1.5889699459075928,0.03799080848693848,0.4808824956417084,0.18215495347976685,0.5942735075950623,-3.1378085164298457,0.01845658672495318,1.5632003773302954,151.6551724137931,76.88505747126437,125.60994263862332,51.01720841300191,99.82954545454545,77.04734848484848,126.07115384615385,102.86346153846154,149.0,145.0,125.0,121.0,101.0,145.0,125.0,169.0
45,2.25,0.03060436248779297,-0.3214457035064697,1.9139540195465088,-0.01727294921875,-1.5890977382659912,0.03840231895446777,0.481404185295105,0.18231572210788727,0.5945463180541992,-3.1376775589467525,0.01859078196111442,1.5631091113419255,151.6801541425819,77.06165703275529,125.67300380228137,51.23384030418251,99.94117647058823,77.24098671726755,126.07115384615385,103.0,149.0,145.0,125.0,121.0,101.0,145.0,125.0,169.0
46,2.3000000000000003,0.03091263771057129,-0.3204641342163086,1.9128329753875732,-0.017035484313964844,-1.58925461769104,0.03878283500671387,0.4819117784500122,0.18246862292289734,0.594805121421814,-3.1375918995432577,0.018753467795343367,1.5630396923232353,151.67630057803467,77.22543352601156,125.69128787878788,51.36174242424242,99.95801526717557,77.38931297709924,126.11877394636015,103.23563218390805,149.0,145.0,125.0,121.0,101.0,145.0,125.0,169.0
47,2.35,0.03117823600769043,-0.3194758892059326,1.9116442203521729,-0.016707420349121094,-1.5893919467926025,0.03916049003601074,0.48242849111557007,0.182603120803833,0.5950961112976074,-3.1374766280857567,0.018897276977777457,1.562930798031408,151.78927203065135,77.39272030651341,125.75047619047619,51.523809523809526,100.01147227533461,77.52198852772466,126.08076923076923,103.4076923076923,149.0,145.0,125.0,121.0,101.0,145.0,125.0,169.0
48,2.4000000000000004,0.03139829635620117,-0.31849098205566406,1.910574197769165,-0.01653909683227539,-1.5894978046417236,0.039498329162597656,0.48295465111732483,0.1827189028263092,0.5953242182731628,-3.1374033769519465,0.019007546551894308,1.562814518606391,151.84423076923076,77.54615384615384,125.70610687022901,51.77290076335878,100.0,77.67490494296578,126.15576923076924,103.54615384615384,149.0,145.0,125.0,121.0,101.0,145.0,125.0,169.0
49,2.45,0.031604766845703125,-0.31751465797424316,1.9095427989959717,-0.016388416290283203,-1.5895922183990479,0.03980827331542969,0.4834766685962677,0.18282918632030487,0.5955317616462708,-3.1373165455638707,0.01910725271890699,1.5627135804149517,151.71373307543521,77.74468085106383,125.65576923076924,51.96923076923077,100.02485659655832,77.91013384321224,126.14587332053743,103.60076775431862,149.0,145.0,125.0,121.0,101.0,145.0,125.0,169.0
50,2.5,0.03189444541931152,-0.31659841537475586,1.9084961414337158,-0.016175508499145508,-1.589740514755249,0.04015517234802246,0.48395171761512756,0.1829739660024643,0.595772385597229,-3.1372466268553794,0.019260590543494095,1.5626585966804079,151.68278529980657,77.94197292069633,125.72030651340997,52.11302681992337,100.09177820267686,78.09177820267686,126.16763005780346,103.84778420038536,149.0,145.0,125.0,121.0,101.0,145.0,125.0,169.0
51,2.5500000000000003,0.03214573860168457,-0.31569457054138184,1.9073913097381592,-0.015886306762695312,-1.5898945331573486,0.040496110916137695,0.48442625999450684,0.18309926986694336,0.5960495471954346,-3.1371706950064113,0.019419060303258826,1.5625708598745598,151.65830115830116,78.07335907335907,125.7447619047619,52.33904761904762,100.07633587786259,78.32633587786259,126.1624758220503,104.01353965183752,149.0,145.0,125.0,121.0,101.0,145.0,125.0,169.0
52,2.6,0.032422780990600586,-0.31481242179870605,1.906285047531128,-0.015558242797851562,-1.5900704860687256,0.04081583023071289,0.4848827123641968,0.1832345575094223,0.5963346362113953,-3.137080040556233,0.019600588402014937,1.5625311242937816,151.6988416988417,78.23552123552123,125.79654510556622,52.45681381957773,100.11111111111111,78.43295019157088,126.22157996146436,104.1868978805395,149.0,145.0,125.0,121.0,101.0,145.0,125.0,169.0
53,2.6500000000000004,0.032653093338012695,-0.3139219284057617,1.9051449298858643,-0.015199422836303711,-1.5902283191680908,0.041123151779174805,0.48535239696502686,0.18334931135177612,0.5966342091560364,-3.13698331477563,0.01976438676975328,1.562456867813815,151.8030888030888,78.42857142857143,125.79423076923077,52.61153846153846,100.07824427480917,78.58778625954199,126.18111753371869,104.39113680154142,149.0,145.0,125.0,121.0,101.0,145.0,125.0,169.0
54,2.7,0.03286433219909668,-0.3130223751068115,1.9040977954864502,-0.014955759048461914,-1.5903255939483643,0.04142022132873535,0.48583081364631653,0.18346136808395386,0.5968776345252991,-3.1368964796936214,0.019866939986177175,1.5623733818573926,151.80077369439073,78.54932301740813,125.74615384615385,52.85769230769231,100.1526717557252,78.7385496183206,126.15057915057915,104.5,149.0,145.0,125.0,121.0,101.0,145.0,125.0,169.0
55,2.75,0.03306770324707031,-0.3121647834777832,1.9031670093536377,-0.01481771469116211,-1.5904529094696045,0.04168534278869629,0.486288458108902,0.1835656613111496,0.5970732569694519,-3.1368415496925834,0.019998165677551777,1.5623137162128686,151.7295719844358,78.73735408560312,125.73745173745174,52.988416988416986,100.20610687022901,78.91793893129771,126.16730769230769,104.58846153846154,149.0,145.0,125.0,121.0,101.0,145.0,125.0,169.0
56,2.8000000000000003,0.03330540657043457,-0.31133556365966797,1.9021975994110107,-0.01462411880493164,-1.590602159500122,0.041977882385253906,0.4867258071899414,0.18368452787399292,0.5973037481307983,-3.1368000794913664,0.020151222736869156,1.562260382386521,151.6770428015564,78.90466926070039,125.78544061302682,53.21455938697318,100.2183908045977,79.07662835249042,126.25531914893617,104.77949709864603,149.0,145.0,125.0,121.0,101.0,145.0,125.0,169.0
57,2.85,0.03349900245666504,-0.3105275630950928,1.9011847972869873,-0.014337778091430664,-1.5907795429229736,0.04223918914794922,0.48715630173683167,0.1837783306837082,0.5975635051727295,-3.1367310509969295,0.020333068771821165,1.5621951857386676,151.6621359223301,79.01165048543689,125.81381957773513,53.395393474088294,100.15134099616859,79.26053639846744,126.26162790697674,104.9437984496124,149.0,145.0,125.0,121.0,101.0,145.0,125.0,169.0
58,2.9000000000000004,0.03370165824890137,-0.3097226619720459,1.9001505374908447,-0.013994216918945312,-1.5909607410430908,0.04248166084289551,0.4875807464122772,0.18387611210346222,0.5978326797485352,-3.136628807085864,0.02052009941052439,1.5621588794396117,151.65891472868216,79.15697674418605,125.83815028901734,53.47784200385357,100.12884615384615,79.41730769230769,126.24561403508773,105.01364522417154,149.0,145.0,125.0,121.0,101.0,145.0,125.0,169.0
59,2.95,0.03395247459411621,-0.30892086029052734,1.8990910053253174,-0.013628482818603516,-1.5911362171173096,0.04274797439575195,0.48799562454223633,0.1839984506368637,0.5981178879737854,-3.136533392563321,0.020700944605436596,1.5621457805826535,151.69767441860466,79.35658914728683,125.83590733590734,53.59073359073359,100.16184971098266,79.52215799614643,126.26653696498055,105.16731517509727,149.0,145.0,125.0,121.0,101.0,145.0,125.0,169.0
60,3.0,0.03417229652404785,-0.3081209659576416,1.8980562686920166,-0.013300895690917969,-1.5912821292877197,0.04302096366882324,0.4884163737297058,0.18410876393318176,0.5983914136886597,-3.1364526318790293,0.020852298770145484,1.5620952189468504,151.76848249027236,79.53501945525292,125.75387596899225,53.81976744186046,100.21072796934865,79.60727969348659,126.18532818532819,105.36679536679537,149.0,145.0,125.0,121.0,101.0,145.0,125.0,169.0
61,3.0500000000000003,0.034325361251831055,-0.3073446750640869,1.897223711013794,-0.013191699981689453,-1.5914051532745361,0.043257713317871094,0.488837331533432,0.18418830633163452,0.5985615253448486,-3.1364092188337063,0.020979172492391306,1.5620134960159842,151.71484375,79.666015625,125.72533849129594,53.95744680851064,100.26819923371647,79.84865900383141,126.15057915057915,105.5,149.0,145.0,125.0,121.0,101.0,145.0,125.0,169.0
62,3.1,0.0345301628112793,-0.30658841133117676,1.8963634967803955,-0.01304173469543457,-1.591541051864624,0.043515682220458984,0.48923903703689575,0.184291809797287,0.5987558960914612,-3.1363737948875947,0.02111873520721603,1.5619624027986982,151.630859375,79.810546875,125.77281553398058,54.116504854368934,100.27413127413128,79.97490347490347,126.15637065637065,105.54633204633204,149.0,145.0,125.0,121.0,101.0,145.0,125.0,169.0
63,3.1500000000000004,0.03474259376525879,-0.3058657646179199,1.8955070972442627,-0.012868881225585938,-1.5917184352874756,0.043767452239990234,0.489620566368103,0.18439432978630066,0.5989620089530945,-3.13634798047496,0.021298986513593805,1.5619246562998021,151.63035019455253,79.91828793774319,125.79190751445087,54.30250481695568,100.27552986512524,80.08285163776493,126.2568093385214,105.7431906614786,149.0,145.0,125.0,121.0,101.0,145.0,125.0,169.0
64,3.2,0.03489995002746582,-0.3051414489746094,1.8946149349212646,-0.012626171112060547,-1.5918972492218018,0.04398512840270996,0.49000978469848633,0.18446949124336243,0.5991836786270142,-3.1362857176696224,0.021482016973686624,1.5618664760713283,151.5949119373777,80.05088062622309,125.82658959537572,54.435452793834294,100.22157996146436,80.25240847784201,126.244140625,105.900390625,149.0,145.0,125.0,121.0,101.0,145.0,125.0,169.0
65,3.25,0.035065650939941406,-0.30442309379577637,1.89369797706604,-0.012332677841186523,-1.5920774936676025,0.04420065879821777,0.4903922975063324,0.18454860150814056,0.5994194746017456,-3.1362029989280695,0.021666994805536688,1.561819707570002,151.57309941520467,80.09551656920078,125.83558994197293,54.520309477756285,100.15028901734104,80.42967244701349,126.224609375,106.0,149.0,145.0,125.0,121.0,101.0,145.0,125.0,169.0
66,3.3000000000000003,0.035283565521240234,-0.3036961555480957,1.8927257061004639,-0.011963605880737305,-1.592254877090454,0.04442477226257324,0.4907682240009308,0.1846538633108139,0.5996796488761902,-3.1360913774212693,0.021850764469741366,1.5618164867076305,151.583984375,80.23046875,125.76116504854369,54.67766990291262,100.18653846153846,80.525,126.23091976516633,106.04696673189824,149.0,145.0,125.0,121.0,101.0,145.0,125.0,169.0
67,3.35,0.035504817962646484,-0.30298757553100586,1.8918235301971436,-0.011671304702758789,-1.5924313068389893,0.04465293884277344,0.491134911775589,0.18476079404354095,0.5999097228050232,-3.136005461891982,0.022033395195593785,1.5618132757422587,151.64341085271317,80.4186046511628,125.71539961013646,54.84990253411306,100.21072796934865,80.60727969348659,126.22745098039216,106.22745098039216,149.0,145.0,125.0,121.0,101.0,145.0,125.0,169.0
68,3.4000000000000004,0.035674333572387695,-0.30228281021118164,1.8910086154937744,-0.011478662490844727,-1.5925800800323486,0.04486703872680664,0.49150943756103516,0.18484511971473694,0.6000922918319702,-3.1359341781820316,0.02218660050008471,1.5617713920740521,151.60707269155208,80.64047151277013,125.69844357976653,54.97276264591439,100.2725527831094,80.75431861804222,126.13450292397661,106.34502923976608,149.0,145.0,125.0,121.0,101.0,145.0,125.0,169.0
69,3.45,0.03585195541381836,-0.3016080856323242,1.8902580738067627,-0.011359930038452148,-1.59273362159729,0.045098066329956055,0.49186888337135315,0.1849326193332672,0.600254237651825,-3.1359024090317886,0.0223435520445701,1.5617192965276798,151.55968688845402,80.77495107632095,125.6873786407767,55.077669902912625,100.2915057915058,80.92857142857143,126.09514563106796,106.47572815533981,149.0,145.0,125.0,121.0,101.0,145.0,125.0,169.0
70,3.5,0.03605294227600098,-0.3009474277496338,1.8894975185394287,-0.011220932006835938,-1.5928919315338135,0.045343637466430664,0.49221646785736084,0.18503141403198242,0.6004271507263184,-3.135875319596346,0.022504280199215132,1.5616764375679648,151.544921875,80.892578125,125.72093023255815,55.213178294573645,100.31589147286822,81.0,126.09514563106796,106.52427184466019,149.0,145.0,125.0,121.0,101.0,145.0,125.0,169.0
71,3.5500000000000003,0.0362401008605957,-0.3003051280975342,1.8887741565704346,-0.011115312576293945,-1.593069314956665,0.04557514190673828,0.49255698919296265,0.18512088060379028,0.6005876064300537,-3.135864344954362,0.02268417770505654,1.5616339761430078,151.478515625,80.955078125,125.76595744680851,55.36750483558994,100.30754352030948,81.09864603481624,126.13450292397661,106.65497076023392,149.0,145.0,125.0,121.0,101.0,145.0,125.0,169.0
72,3.6,0.03639841079711914,-0.29967761039733887,1.8880283832550049,-0.010948419570922852,-1.5932753086090088,0.04577755928039551,0.4928922951221466,0.18519268929958344,0.6007642149925232,-3.1358289025433144,0.022893874019329612,1.5615923067419757,151.521484375,81.044921875,125.8062015503876,55.48062015503876,100.21165048543689,81.30485436893204,126.16798418972331,106.83201581027669,149.0,145.0,125.0,121.0,101.0,145.0,125.0,169.0
73,3.6500000000000004,0.03658699989318848,-0.2990238666534424,1.887211561203003,-0.010697364807128906,-1.5934522151947021,0.045981407165527344,0.4932340979576111,0.18528297543525696,0.600966215133667,-3.1357535257898195,0.02307566738752231,1.5615800448039636,151.455078125,81.107421875,125.77821011673151,55.659533073929964,100.16409266409266,81.40926640926641,126.12795275590551,106.93897637795276,149.0,145.0,125.0,121.0,101.0,145.0,125.0,169.0
74,3.7,0.03676652908325195,-0.2983896732330322,1.8864424228668213,-0.01046133041381836,-1.5936510562896729,0.04616284370422363,0.49356427788734436,0.18536622822284698,0.6011471152305603,-3.1356654953968155,0.023280081382203374,1.561581751310876,151.41764705882352,81.23529411764706,125.7279843444227,55.76320939334638,100.15057915057915,81.5,126.15324165029469,107.0,149.0,145.0,125.0,121.0,101.0,145.0,125.0,169.0
75,3.75,0.036954402923583984,-0.29776525497436523,1.8856689929962158,-0.010207653045654297,-1.5938489437103271,0.04635930061340332,0.4938872456550598,0.18545354902744293,0.6013339161872864,-3.13557445039091,0.02348384759917083,1.5615768244504473,151.39292730844792,81.35952848722987,125.65557729941291,55.86692759295499,100.17341040462428,81.5645472061657,126.12648221343873,107.0592885375494,149.0,145.0,125.0,121.0,101.0,145.0,125.0,169.0
76,3.8000000000000003,0.0371394157409668,-0.29715561866760254,1.8849446773529053,-0.010005474090576172,-1.5940463542938232,0.04656529426574707,0.4942035675048828,0.1855395883321762,0.6014999747276306,-3.1355005380356396,0.023686100142911302,1.5615587408823584,151.32741617357001,81.45562130177515,125.63883495145632,55.94174757281554,100.2007722007722,81.67374517374517,126.12648221343873,107.19367588932806,149.0,145.0,125.0,121.0,101.0,145.0,125.0,169.0
77,3.85,0.037320852279663086,-0.2965576648712158,1.884190320968628,-0.009751319885253906,-1.5942513942718506,0.04677915573120117,0.4945130944252014,0.18562276661396027,0.601686954498291,-3.1354177559535614,0.023896783591629365,1.5615295429025977,151.3208661417323,81.62992125984252,125.619140625,56.044921875,100.25387596899225,81.80426356589147,126.09411764705882,107.32156862745099,149.0,145.0,125.0,121.0,101.0,145.0,125.0,169.0
78,3.9000000000000004,0.03750348091125488,-0.2959721088409424,1.8834574222564697,-0.009526491165161133,-1.594449758529663,0.04700636863708496,0.49481698870658875,0.1857074350118637,0.6018677949905396,-3.135354678177308,0.02410004322042466,1.5614882293233527,151.32347140039448,81.76923076923077,125.59533073929961,56.10700389105058,100.19103313840156,81.95126705653021,126.1130604288499,107.4307992202729,149.0,145.0,125.0,121.0,101.0,145.0,125.0,169.0
79,3.95,0.037719011306762695,-0.29537510871887207,1.882676362991333,-0.009248495101928711,-1.594620943069458,0.04726266860961914,0.49512001872062683,0.18581163883209229,0.6020696759223938,-3.1352747371246203,0.024277396487949014,1.5614506762999967,151.31163708086785,81.83629191321499,125.64077669902913,56.21165048543689,100.24561403508773,82.01364522417154,126.08949416342412,107.5,149.0,145.0,125.0,121.0,101.0,145.0,125.0,169.0
80,4.0,0.03791546821594238,-0.29479384422302246,1.881927251815796,-0.009002447128295898,-1.5948145389556885,0.047498464584350586,0.49541914463043213,0.18590384721755981,0.6022613048553467,-3.135210885704857,0.02447595460750949,1.5614147453895895,151.2905138339921,81.93873517786561,125.63883495145632,56.394174757281554,100.23828125,82.111328125,126.0546875,107.5703125,149.0,145.0,125.0,121.0,101.0,145.0,125.0,169.0
81,4.05,0.038103580474853516,-0.2942321300506592,1.8812448978424072,-0.00881338119506836,-1.595027208328247,0.04771256446838379,0.4957091212272644,0.1859894096851349,0.6024234294891357,-3.135157458874026,0.024692910230319314,1.5613913883439134,151.3234126984127,81.98809523809524,125.673786407767,56.47766990291262,100.20547945205479,82.21526418786692,126.0589390962672,107.68958742632613,149.0,145.0,125.0,121.0,101.0,145.0,125.0,169.0
82,4.1000000000000005,0.038290977478027344,-0.2936575412750244,1.8805468082427979,-0.008606433868408203,-1.595228910446167,0.04791545867919922,0.4960053563117981,0.1860760897397995,0.6025875210762024,-3.135088918766342,0.024900009724673378,1.561379225312231,151.2306163021869,82.09741550695826,125.64187866927593,56.675146771037184,100.16959064327486,82.32163742690058,126.07722772277228,107.81980198019802,149.0,145.0,125.0,121.0,101.0,145.0,125.0,169.0
83,4.15,0.03845548629760742,-0.2931058406829834,1.8798630237579346,-0.008369922637939453,-1.5954539775848389,0.04810023307800293,0.4962899386882782,0.18614834547042847,0.602750301361084,-3.1349991455232793,0.025130979158160427,1.5613629475409623,151.2365805168986,82.17693836978131,125.61328125,56.783203125,100.10291262135922,82.43106796116506,126.0592885375494,107.87351778656127,149.0,145.0,125.0,121.0,101.0,145.0,125.0,169.0
84,4.2,0.038645267486572266,-0.29255056381225586,1.879194974899292,-0.00814676284790039,-1.5956699848175049,0.04829049110412598,0.4965715706348419,0.18623429536819458,0.6029016375541687,-3.134903733697234,0.025353114657150656,1.5613669735638158,151.22222222222223,82.28174603174604,125.55968688845401,56.87279843444227,100.09514563106796,82.52427184466019,126.0494071146245,107.9505928853755,149.0,145.0,125.0,121.0,101.0,145.0,125.0,169.0
85,4.25,0.03884458541870117,-0.29199886322021484,1.8785369396209717,-0.007931709289550781,-1.5958778858184814,0.048493146896362305,0.4968496859073639,0.18632599711418152,0.6030489206314087,-3.134809797025182,0.02556767964934464,1.5613678833041373,151.20553359683794,82.32411067193677,125.5,56.91050583657587,100.09514563106796,82.52427184466019,126.01771653543307,107.98228346456693,149.0,145.0,125.0,121.0,101.0,145.0,125.0,169.0
86,4.3,0.039034366607666016,-0.29144883155822754,1.8779127597808838,-0.0077555179595947266,-1.5960824489593506,0.048699378967285156,0.4971287250518799,0.18641331791877747,0.6031776666641235,-3.134723013597955,0.025778226374069714,1.5613547310230245,151.17485265225932,82.44007858546169,125.49122807017544,56.9766081871345,100.10097087378641,82.61941747572816,126.0,108.08316831683169,149.0,145.0,125.0,121.0,101.0,145.0,125.0,169.0
87,4.3500000000000005,0.03922677040100098,-0.290905237197876,1.8772833347320557,-0.007569074630737305,-1.5962846279144287,0.04891657829284668,0.4974035322666168,0.18650224804878235,0.6033122539520264,-3.1346376512178526,0.025986921650362965,1.561334522487162,151.12426035502958,82.54635108481263,125.521484375,57.044921875,100.111328125,82.720703125,125.98418972332016,108.16798418972331,149.0,145.0,125.0,121.0,101.0,145.0,125.0,169.0
88,4.4,0.03942441940307617,-0.2903757095336914,1.8766419887542725,-0.007357358932495117,-1.5964992046356201,0.049138784408569336,0.49766969680786133,0.18659260869026184,0.6034591197967529,-3.134553941397785,0.02620759686284739,1.5613136868346118,151.14455445544556,82.67920792079208,125.5,57.08949416342413,100.09001956947162,82.85127201565558,126.0,108.23913043478261,149.0,145.0,125.0,121.0,101.0,145.0,125.0,169.0
89,4.45,0.039656877517700195,-0.2898373603820801,1.8759644031524658,-0.007117509841918945,-1.5966908931732178,0.04939079284667969,0.49793481826782227,0.18670299649238586,0.6036227345466614,-3.1344691067176917,0.026405821327340723,1.561298081217945,151.12127236580517,82.75149105367794,125.458984375,57.171875,100.11960784313726,82.95098039215686,125.97233201581028,108.32213438735178,149.0,145.0,125.0,121.0,101.0,145.0,125.0,169.0
90,4.5,0.03989863395690918,-0.2893071174621582,1.875298261642456,-0.0068857669830322266,-1.5968849658966064,0.04964876174926758,0.49819421768188477,0.18681783974170685,0.6037835478782654,-3.134390036681168,0.026606210609537162,1.5612854735412403,151.117296222664,82.8469184890656,125.41764705882353,57.23529411764706,100.11154598825831,82.97455968688845,126.0,108.4507874015748,149.0,145.0,125.0,121.0,101.0,145.0,125.0,169.0
91,4.55,0.04010367393493652,-0.288769006729126,1.874629259109497,-0.00664830207824707,-1.597062349319458,0.04990506172180176,0.49846315383911133,0.18691623210906982,0.6039414405822754,-3.1342989644984676,0.026790436459208557,1.5612381033005904,151.1,82.9,125.41732283464567,57.354330708661415,100.14173228346456,83.04527559055119,126.0,108.5,149.0,145.0,125.0,121.0,101.0,145.0,125.0,169.0
92,4.6000000000000005,0.04030275344848633,-0.28824353218078613,1.87398362159729,-0.0064275264739990234,-1.5972564220428467,0.05014848709106445,0.4987267851829529,0.18700969219207764,0.6040914058685303,-3.134213490815862,0.026991319948052223,1.5611981743443166,151.11332007952285,82.96421471172962,125.44834307992203,57.51851851851852,100.1313725490196,83.15490196078431,126.0,108.5492125984252,149.0,145.0,125.0,121.0,101.0,145.0,125.0,169.0
93,4.65,0.040506839752197266,-0.28772616386413574,1.8733675479888916,-0.006230831146240234,-1.5974657535552979,0.05037045478820801,0.4989849925041199,0.1871039867401123,0.6042276620864868,-3.1341316940761925,0.027206902745717233,1.5611848191763127,151.0878243512974,83.05389221556887,125.451171875,57.630859375,100.12328767123287,83.26027397260275,125.98418972332016,108.59486166007905,149.0,145.0,125.0,121.0,101.0,145.0,125.0,169.0
94,4.7,0.040726661682128906,-0.28722167015075684,1.8727667331695557,-0.006039857864379883,-1.5976874828338623,0.05059218406677246,0.4992332458496094,0.18720464408397675,0.6043611764907837,-3.1340545285970607,0.02743470550513187,1.561186909244701,151.07615230460922,83.10821643286573,125.45098039215686,57.73529411764706,100.09375,83.322265625,125.94851485148514,108.74059405940594,149.0,145.0,125.0,121.0,101.0,145.0,125.0,169.0
95,4.75,0.04091811180114746,-0.2867147922515869,1.8721911907196045,-0.005866289138793945,-1.5979063510894775,0.05079364776611328,0.4994862675666809,0.18729133903980255,0.6044777035713196,-3.1339655424396557,0.027660427222000007,1.5611806582248309,151.07815631262525,83.17835671342685,125.42632612966601,57.82907662082515,100.10700389105058,83.40661478599222,125.89442231075697,108.82470119521912,149.0,145.0,125.0,121.0,101.0,145.0,125.0,169.0
96,4.800000000000001,0.041109561920166016,-0.2862114906311035,1.871654748916626,-0.005738496780395508,-1.5981228351593018,0.05099201202392578,0.4997386336326599,0.18737821280956268,0.6045742630958557,-3.133887528081989,0.027883410608094718,1.5611787444958007,151.06,83.196,125.42690058479532,57.90448343079922,100.08949416342412,83.5,125.86454183266932,108.86454183266932,149.0,145.0,125.0,121.0,101.0,145.0,125.0,169.0
97,4.8500000000000005,0.041321516036987305,-0.28571248054504395,1.8711254596710205,-0.005609989166259766,-1.5983498096466064,0.05118680000305176,0.4999842643737793,0.1874745637178421,0.6046682596206665,-3.133806572948536,0.028115683504613027,1.561200079557161,151.02988047808765,83.3207171314741,125.42941176470588,57.95490196078431,100.08949416342412,83.5,125.88118811881188,108.91683168316831,149.0,145.0,125.0,121.0,101.0,145.0,125.0,169.0
98,4.9,0.04150748252868652,-0.28522181510925293,1.8706028461456299,-0.00548553466796875,-1.5985782146453857,0.05138516426086426,0.5002301931381226,0.1875573843717575,0.6047617793083191,-3.1337304421524936,0.028350638608207503,1.561192063446999,151.0138067061144,83.42998027613412,125.40864440078586,57.96856581532416,100.05088062622309,83.59491193737769,125.90059642147118,109.0,149.0,145.0,125.0,121.0,101.0,145.0,125.0,169.0
99,4.95,0.04171442985534668,-0.28472304344177246,1.8700311183929443,-0.00530695915222168,-1.598787546157837,0.05161166191101074,0.5004761815071106,0.18765316903591156,0.6048790216445923,-3.1336420489375745,0.028566923990756332,1.5611765954206134,150.99607072691552,83.524557956778,125.3695652173913,58.047430830039524,100.05653021442495,83.64132553606238,125.87450199203187,109.05776892430279,149.0,145.0,125.0,121.0,101.0,145.0,125.0,169.0
100,5.0,0.041914939880371094,-0.28423118591308594,1.8694899082183838,-0.005161762237548828,-1.5989964008331299,0.05184173583984375,0.5007197856903076,0.1877458393573761,0.604982316493988,-3.1335633214833774,0.028782071469889522,1.5611515800585414,150.96245059288538,83.57707509881423,125.36811023622047,58.13582677165354,100.02554027504911,83.76817288801571,125.86454183266932,109.13545816733068,149.0,145.0,125.0,121.0,101.0,145.0,125.0,169.0
101,5.050000000000001,0.04213762283325195,-0.28374409675598145,1.868933916091919,-0.004984378814697266,-1.5992109775543213,0.05207467079162598,0.5009557604789734,0.18784913420677185,0.6050946116447449,-3.133472297375516,0.029003752430941627,1.56114608454784,150.94610778443115,83.68662674650699,125.31755424063117,58.18145956607495,100.05314960629921,83.83464566929133,125.88270377733599,109.1530815109344,149.0,145.0,125.0,121.0,101.0,145.0,125.0,169.0
102,5.1000000000000005,0.04237818717956543,-0.2832639217376709,1.86836838722229,-0.0048007965087890625,-1.5994222164154053,0.052332162857055664,0.5011851787567139,0.18796181678771973,0.6052157282829285,-3.1333925261489974,0.029222379064309485,1.5611338259111047,150.93013972055888,83.78043912175649,125.30118110236221,58.25,100.04901960784314,83.88039215686274,125.88822355289422,109.1996007984032,149.0,145.0,125.0,121.0,101.0,145.0,125.0,169.0
103,5.15,0.04261422157287598,-0.2827885150909424,1.8678104877471924,-0.0046231746673583984,-1.599632978439331,0.05259418487548828,0.5014129281044006,0.18807238340377808,0.6053344011306763,-3.13331600058238,0.02944015250004911,1.5611123067092196,150.92184368737475,83.82164328657315,125.29644268774703,58.29644268774704,100.01771653543307,83.98228346456693,125.86507936507937,109.26984126984127,149.0,145.0,125.0,121.0,101.0,145.0,125.0,169.0
104,5.2,0.04287457466125488,-0.28230929374694824,1.867236852645874,-0.0044248104095458984,-1.5998389720916748,0.052864789962768555,0.5016380548477173,0.1881958544254303,0.6054598689079285,-3.13323047414077,0.029653391397776875,1.5611068564025345,150.91983967935872,83.8496993987976,125.26968503937007,58.381889763779526,100.05294117647058,84.01764705882353,125.86111111111111,109.3452380952381,149.0,145.0,125.0,121.0,101.0,145.0,125.0,169.0
105,5.25,0.043111562728881836,-0.2818319797515869,1.8666884899139404,-0.004251956939697266,-1.6000497341156006,0.05311989784240723,0.5018661618232727,0.1883070021867752,0.6055718064308167,-3.1331473765336497,0.02987138146323448,1.5610932716576162,150.90160642570282,83.90361445783132,125.24557956777996,58.50294695481336,100.0098231827112,84.07662082514734,125.85940594059406,109.41386138613862,149.0,145.0,125.0,121.0,101.0,145.0,125.0,169.0
106,5.300000000000001,0.04333901405334473,-0.2813570499420166,1.8661630153656006,-0.00408935546875,-1.600264310836792,0.05336260795593262,0.5020937323570251,0.18841290473937988,0.605670690536499,-3.133053914246582,0.030093424079096518,1.5610828621174937,150.88176352705412,83.95791583166333,125.21456692913385,58.5492125984252,100.03550295857988,84.11834319526628,125.80670611439842,109.51479289940828,149.0,145.0,125.0,121.0,101.0,145.0,125.0,169.0
107,5.3500000000000005,0.043549299240112305,-0.2808837890625,1.8656647205352783,-0.003958940505981445,-1.6004745960235596,0.0536036491394043,0.5023236870765686,0.18851064145565033,0.6057550311088562,-3.132967012101609,0.030311491922070864,1.5610573652867128,150.85170340681364,84.04609218436873,125.23274161735701,58.61932938856016,99.99803536345776,84.1984282907662,125.81854043392505,109.60749506903353,149.0,145.0,125.0,121.0,101.0,145.0,125.0,169.0
108,5.4,0.043758392333984375,-0.2804121971130371,1.8651444911956787,-0.0037910938262939453,-1.6006858348846436,0.05384635925292969,0.5025516152381897,0.18860775232315063,0.6058507561683655,-3.1328665603904406,0.030530939585050633,1.5610288511323152,150.87775551102203,84.08817635270542,125.23274161735701,58.74161735700197,100.02352941176471,84.26666666666667,125.8015873015873,109.6765873015873,149.0,145.0,125.0,121.0,101.0,145.0,125.0,169.0
109,5.45,0.04395580291748047,-0.27994251251220703,1.8646624088287354,-0.0036695003509521484,-1.6009018421173096,0.05406904220581055,0.5027815699577332,0.18869847059249878,0.605925977230072,-3.1327744276141463,0.030754740129323256,1.561008866304679,150.85341365461846,84.09437751004016,125.1920792079208,58.825742574257426,99.990234375,84.34765625,125.7988047808765,109.75697211155378,149.0,145.0,125.0,121.0,101.0,145.0,125.0,169.0
110,5.5,0.044157981872558594,-0.27946925163269043,1.8641760349273682,-0.003528118133544922,-1.6011173725128174,0.054286956787109375,0.5030104517936707,0.18879157304763794,0.6060007810592651,-3.132664817364305,0.03097873880851441,1.5609988470111202,150.84569138276552,84.18837675350701,125.20436507936508,58.916666666666664,99.94911937377691,84.40508806262231,125.79,109.79,149.0,145.0,125.0,121.0,101.0,145.0,125.0,169.0
111,5.550000000000001,0.04436469078063965,-0.27900195121765137,1.8637068271636963,-0.0033998489379882812,-1.6013381481170654,0.05450296401977539,0.5032355189323425,0.1888865828514099,0.6060678362846375,-3.132557144220865,0.031207571192078794,1.560994979702862,150.84569138276552,84.18837675350701,125.19565217391305,58.94268774703557,99.955078125,84.478515625,125.7944111776447,109.86027944111777,149.0,145.0,125.0,121.0,101.0,145.0,125.0,169.0
112,5.6000000000000005,0.04458022117614746,-0.27852654457092285,1.8632113933563232,-0.00324249267578125,-1.601553201675415,0.054721832275390625,0.5034627318382263,0.18898677825927734,0.6061457991600037,-3.1324377249878292,0.031432412746046134,1.5609983743687978,150.82,84.29,125.18019801980198,58.962376237623765,100.0,84.5,125.8003992015968,109.88822355289422,149.0,145.0,125.0,121.0,101.0,145.0,125.0,169.0
113,5.65,0.04479098320007324,-0.2780611515045166,1.8627150058746338,-0.003087759017944336,-1.601771593093872,0.05495619773864746,0.5036864876747131,0.18908429145812988,0.6062296032905579,-3.1323332663371066,0.03165927898126199,1.560980589923639,150.81037924151696,84.36127744510978,125.17063492063492,59.01190476190476,99.99608610567515,84.52446183953033,125.792,109.912,149.0,145.0,125.0,121.0,101.0,145.0,125.0,169.0
114,5.7,0.044999122619628906,-0.2775998115539551,1.8622334003448486,-0.0029497146606445312,-1.6019923686981201,0.055193424224853516,0.5039083957672119,0.18918035924434662,0.6063064932823181,-3.1322353984915368,0.031888017842045556,1.560957059119629,150.798,84.472,125.16302186878728,59.083499005964214,99.99215686274509,84.61960784313726,125.728,109.98,149.0,145.0,125.0,121.0,101.0,145.0,125.0,169.0
115,5.75,0.04522061347961426,-0.2771456241607666,1.8617832660675049,-0.002850770950317383,-1.602210283279419,0.055438995361328125,0.5041254162788391,0.1892833411693573,0.6063702702522278,-3.132152148448044,0.032113826578987884,1.5609379163050554,150.746,84.586,125.14541832669323,59.101593625498005,99.95284872298625,84.72495088408644,125.7125748502994,110.0,149.0,145.0,125.0,121.0,101.0,145.0,125.0,169.0
116,5.800000000000001,0.045487165451049805,-0.2767012119293213,1.8613049983978271,-0.0027136802673339844,-1.6024267673492432,0.05572152137756348,0.5043282508850098,0.18940949440002441,0.6064535975456238,-3.1320694238406714,0.03233851432265091,1.5609278444964987,150.7245508982036,84.64471057884232,125.1686507936508,59.16865079365079,99.97047244094489,84.76968503937007,125.74051896207585,110.04191616766467,149.0,145.0,125.0,121.0,101.0,145.0,125.0,169.0
117,5.8500000000000005,0.045746803283691406,-0.27626681327819824,1.8608176708221436,-0.0025556087493896484,-1.6026585102081299,0.05599856376647949,0.5045267939567566,0.18953053653240204,0.6065466403961182,-3.1319859475142113,0.0325777748599773,1.5609152911921271,150.7008032128514,84.70080321285141,125.17063492063492,59.21230158730159,99.95472440944881,84.85826771653544,125.77689243027888,110.12151394422311,149.0,145.0,125.0,121.0,101.0,145.0,125.0,169.0
118,5.9,0.046018123626708984,-0.2758302688598633,1.8602769374847412,-0.0023255348205566406,-1.602888822555542,0.05628609657287598,0.5047224164009094,0.1896575689315796,0.6066667437553406,-3.1318829073319443,0.03281741580922947,1.560905056023196,150.7314629258517,84.75951903807615,125.19169960474308,59.25098814229249,99.96449704142012,84.88165680473372,125.77045908183632,110.14570858283433,149.0,145.0,125.0,121.0,101.0,145.0,125.0,169.0
119,5.95,0.04628419876098633,-0.2753894329071045,1.859752893447876,-0.0021293163299560547,-1.6031148433685303,0.056571245193481445,0.5049229860305786,0.18978266417980194,0.606776773929596,-3.1317920202387954,0.03305250530092028,1.5608920068608754,150.789156626506,84.80522088353413,125.17588932806323,59.34189723320158,99.96449704142012,84.88165680473372,125.77844311377245,110.187624750499,149.0,145.0,125.0,121.0,101.0,145.0,125.0,169.0
120,6.0,0.04651975631713867,-0.2749359607696533,1.8592736721038818,-0.0019998550415039062,-1.6033294200897217,0.05683469772338867,0.5051374435424805,0.1898936778306961,0.6068565249443054,-3.131708675368494,0.03327558940764917,1.560869700181898,150.7871485943775,84.85140562248996,125.1163708086785,59.43195266272189,99.92337917485266,84.9901768172888,125.70858283433134,110.25748502994011,149.0,145.0,125.0,121.0,101.0,145.0,125.0,169.0
121,6.050000000000001,0.04678058624267578,-0.27447962760925293,1.8588287830352783,-0.0019087791442871094,-1.603534460067749,0.05710339546203613,0.5053483247756958,0.19001899659633636,0.6069154739379883,-3.1316261242049284,0.03348899147416839,1.560867344074998,150.77263581488933,84.9215291750503,125.10216110019647,59.479371316306484,99.9505928853755,85.0494071146245,125.72055888223552,110.30538922155688,149.0,145.0,125.0,121.0,101.0,145.0,125.0,169.0
122,6.1000000000000005,0.04704475402832031,-0.27402806282043457,1.8583743572235107,-0.001806020736694336,-1.6037418842315674,0.05738019943237305,0.505556046962738,0.19014562666416168,0.6069820523262024,-3.131547448050281,0.03370438663372026,1.5608596231392178,150.7550200803213,84.93975903614458,125.08267716535433,59.54330708661417,99.9505928853755,85.0494071146245,125.72455089820359,110.35528942115768,149.0,145.0,125.0,121.0,101.0,145.0,125.0,169.0
123,6.15,0.04728341102600098,-0.2735779285430908,1.8579366207122803,-0.0017132759094238281,-1.6039555072784424,0.057643890380859375,0.5057675242424011,0.1902586668729782,0.607039213180542,-3.1314632767250417,0.03392630403657257,1.5608404645193057,150.74749498997997,84.96392785571142,125.07450980392157,59.588235294117645,99.94685039370079,85.16535433070867,125.6993987975952,110.4749498997996,149.0,145.0,125.0,121.0,101.0,145.0,125.0,169.0
124,6.2,0.04753422737121582,-0.2731196880340576,1.8574755191802979,-0.0015931129455566406,-1.6041600704193115,0.05791044235229492,0.5059798359870911,0.19037921726703644,0.6071046590805054,-3.1313661524601173,0.03414015053211859,1.5608308572600125,150.7434869739479,85.0,125.07509881422925,59.69367588932806,99.94268774703558,85.19565217391305,125.692,110.528,149.0,145.0,125.0,121.0,101.0,145.0,125.0,169.0
125,6.25,0.04776573181152344,-0.27266621589660645,1.8570477962493896,-0.0015010833740234375,-1.6043751239776611,0.05815720558166504,0.506192684173584,0.19048865139484406,0.6071532368659973,-3.1312695142127063,0.03436413725026162,1.5608216792864555,150.70967741935485,85.07862903225806,125.10714285714286,59.77777777777778,99.95275590551181,85.24409448818898,125.72455089820359,110.64471057884232,149.0,145.0,125.0,121.0,101.0,145.0,125.0,169.0
126,6.300000000000001,0.047965288162231445,-0.272219181060791,1.8566033840179443,-0.0013744831085205078,-1.6045992374420166,0.05839037895202637,0.506406843662262,0.1905806064605713,0.6072124242782593,-3.13116072839701,0.03459782788084576,1.5607945881533842,150.7010101010101,85.14545454545454,125.10119047619048,59.82738095238095,99.94871794871794,85.31360946745562,125.699203187251,110.64541832669323,149.0,145.0,125.0,121.0,101.0,145.0,125.0,169.0
127,6.3500000000000005,0.04819035530090332,-0.27178025245666504,1.856172800064087,-0.0012636184692382812,-1.6048295497894287,0.05863451957702637,0.5066128373146057,0.19068504869937897,0.6072680354118347,-3.131063689272315,0.034836832912288014,1.5607815013095196,150.68686868686868,85.17979797979798,125.0996015936255,59.9003984063745,99.94911937377691,85.40508806262231,125.67,110.726,149.0,145.0,125.0,121.0,101.0,145.0,125.0,169.0
128,6.4,0.04842185974121094,-0.2713429927825928,1.8557484149932861,-0.0011539459228515625,-1.6050617694854736,0.058875083923339844,0.5068157315254211,0.1907924860715866,0.6073205471038818,-3.1309629208364087,0.035078975565310866,1.5607795309992083,150.62753036437246,85.24493927125506,125.0996015936255,59.9003984063745,99.94911937377691,85.40508806262231,125.65868263473054,110.74850299401197,149.0,145.0,125.0,121.0,101.0,145.0,125.0,169.0
129,6.45,0.048647403717041016,-0.2709181308746338,1.8553211688995361,-0.0010304450988769531,-1.6053049564361572,0.0591273307800293,0.5070128440856934,0.19089564681053162,0.6073798537254333,-3.130865121816773,0.03533148995939884,1.5607589982406496,150.5506072874494,85.30161943319838,125.10735586481114,59.92445328031809,99.91050583657588,85.5,125.65606361829026,110.78727634194831,149.0,145.0,125.0,121.0,101.0,145.0,125.0,169.0
130,6.5,0.04890704154968262,-0.2705070972442627,1.8548500537872314,-0.0008311271667480469,-1.6055614948272705,0.059403181076049805,0.5071943998336792,0.19101473689079285,0.6074680089950562,-3.1307507988081507,0.03559874310315512,1.560750992705982,150.5508130081301,85.34756097560975,125.07753479125249,59.964214711729625,99.89668615984405,85.52046783625731,125.65338645418326,110.83067729083665,149.0,145.0,125.0,121.0,101.0,145.0,125.0,169.0
131,6.550000000000001,0.04915952682495117,-0.27009010314941406,1.8543870449066162,-0.0006449222564697266,-1.6058099269866943,0.05968117713928223,0.507380485534668,0.19113123416900635,0.6075488924980164,-3.130635385304162,0.03585771738790903,1.5607326589194785,150.54674796747966,85.39837398373983,125.01590457256461,60.03180914512922,99.892578125,85.544921875,125.6127744510978,110.89221556886227,149.0,145.0,125.0,121.0,101.0,145.0,125.0,169.0
132,6.6000000000000005,0.049396514892578125,-0.2696695327758789,1.8539698123931885,-0.0005168914794921875,-1.606048345565796,0.05995512008666992,0.5075721144676208,0.19124114513397217,0.6076024770736694,-3.1305273650587027,0.03610649077940936,1.5607029114975925,150.5508130081301,85.44918699186992,125.05776892430279,60.09362549800797,99.8664047151277,85.60707269155206,125.6170634920635,110.94047619047619,149.0,145.0,125.0,121.0,101.0,145.0,125.0,169.0
133,6.65,0.049637556076049805,-0.26924848556518555,1.853545904159546,-0.0003757476806640625,-1.6062915325164795,0.06022334098815918,0.5077621936798096,0.19135242700576782,0.607659101486206,-3.130413436194411,0.03636028763028148,1.5606832145853196,150.5,85.4493927125506,125.06573705179282,60.13147410358566,99.83464566929133,85.66338582677166,125.52079207920792,110.98613861386139,149.0,145.0,125.0,121.0,101.0,145.0,125.0,169.0
134,6.7,0.049887657165527344,-0.26883363723754883,1.853163480758667,-0.000270843505859375,-1.6065433025360107,0.06048727035522461,0.5079473853111267,0.1914675235748291,0.6076945662498474,-3.1303005923634966,0.03662314036569051,1.5606771951362635,150.4491869918699,85.55081300813008,125.02589641434263,60.16135458167331,99.8248031496063,85.70669291338582,125.52079207920792,110.98613861386139,149.0,145.0,125.0,121.0,101.0,145.0,125.0,169.0
135,6.75,0.05016183853149414,-0.2684361934661865,1.852778673171997,-0.0001513957977294922,-1.6068027019500732,0.060781240463256836,0.5081184506416321,0.19159382581710815,0.6077394485473633,-3.13019519296152,0.0368936973359222,1.5606652119957831,150.4491869918699,85.55081300813008,125.00198807157058,60.16898608349901,99.82642998027613,85.73175542406311,125.5,111.0,149.0,145.0,125.0,121.0,101.0,145.0,125.0,169.0
136,6.800000000000001,0.05044746398925781,-0.2680325508117676,1.8523976802825928,-4.482269287109375e-05,-1.6070587635040283,0.061081647872924805,0.5082908868789673,0.19172684848308563,0.6077793836593628,-3.1300919884498346,0.037160174865619934,1.5606571727395053,150.45417515274949,85.62729124236253,125.00198807157058,60.16898608349901,99.79644268774703,85.79644268774703,125.47920792079208,111.01386138613861,149.0,145.0,125.0,121.0,101.0,145.0,125.0,169.0
137,6.8500000000000005,0.05076909065246582,-0.2676217555999756,1.852001428604126,6.461143493652344e-05,-1.6072990894317627,0.06141090393066406,0.5084613561630249,0.19188028573989868,0.6078255772590637,-3.1299953946274477,0.03741142525562761,1.5606573935792545,150.4491869918699,85.65243902439025,125.0079207920792,60.25940594059406,99.79644268774703,85.79644268774703,125.5,111.02777777777777,149.0,145.0,125.0,121.0,101.0,145.0,125.0,169.0
138,6.9,0.0510716438293457,-0.2672233581542969,1.8516356945037842,0.00015664100646972656,-1.6075642108917236,0.06171870231628418,0.5086283087730408,0.19202108681201935,0.6078593730926514,-3.1298985120226974,0.037687127379692376,1.5606594546820975,150.4604462474645,85.67545638945234,125.00198412698413,60.28373015873016,99.77909270216962,85.8145956607495,125.48502994011976,111.09580838323353,149.0,145.0,125.0,121.0,101.0,145.0,125.0,169.0
139,6.95,0.05135488510131836,-0.26680803298950195,1.8512699604034424,0.00023698806762695312,-1.6078121662139893,0.06201958656311035,0.5088083148002625,0.1921541541814804,0.6078854203224182,-3.129794608614491,0.037946533257603964,1.5606497817897036,150.40529531568228,85.75763747454175,124.99802761341223,60.34516765285996,99.78895463510848,85.88165680473372,125.462,111.106,149.0,145.0,125.0,121.0,101.0,145.0,125.0,169.0
140,7.0,0.05166172981262207,-0.2664194107055664,1.850926160812378,0.0003113746643066406,-1.608083963394165,0.06233716011047363,0.5089687705039978,0.1922963559627533,0.607911229133606,-3.1297043135120686,0.03822912737609554,1.5606466171721758,150.3882113821138,85.77642276422765,124.99212598425197,60.41732283464567,99.75936883629191,85.9171597633136,125.46812749003983,111.19322709163346,149.0,145.0,125.0,121.0,101.0,145.0,125.0,169.0
141,7.050000000000001,0.05194282531738281,-0.2660243511199951,1.8505785465240479,0.00040531158447265625,-1.6083557605743408,0.06263566017150879,0.5091360807418823,0.1924254298210144,0.6079340577125549,-3.129591343481673,0.038512731901029634,1.5606372418115666,150.33805668016194,85.82388663967612,124.97838899803536,60.43811394891945,99.74015748031496,85.93307086614173,125.40836653386454,111.2390438247012,149.0,145.0,125.0,121.0,101.0,145.0,125.0,169.0
142,7.1000000000000005,0.05221223831176758,-0.26563334465026855,1.8502614498138428,0.0004677772521972656,-1.608626127243042,0.06293940544128418,0.509303092956543,0.192548930644989,0.607941210269928,-3.129483048333162,0.03879473194947734,1.560611511643243,150.34685598377283,85.84787018255578,124.98235294117647,60.462745098039214,99.73175542406311,85.95660749506904,125.39121756487026,111.25748502994011,149.0,145.0,125.0,121.0,101.0,145.0,125.0,169.0
143,7.15,0.05248522758483887,-0.26523709297180176,1.8499562740325928,0.0005087852478027344,-1.6088941097259521,0.06324338912963867,0.5094729661941528,0.1926746815443039,0.6079400181770325,-3.129379367587041,0.039073965197554114,1.5605888565232795,150.3367139959432,85.88032454361054,124.96470588235294,60.5078431372549,99.68958742632613,86.03143418467583,125.35528942115768,111.27544910179641,149.0,145.0,125.0,121.0,101.0,145.0,125.0,169.0
144,7.2,0.05279397964477539,-0.26483893394470215,1.8496644496917725,0.0005373954772949219,-1.6091587543487549,0.06356024742126465,0.509637176990509,0.1928192377090454,0.6079301834106445,-3.1292739425205016,0.039350716389421406,1.56058873373694,150.3151515151515,85.92525252525253,124.9171597633136,60.55424063116371,99.71176470588236,86.04313725490196,125.35528942115768,111.27544910179641,149.0,145.0,125.0,121.0,101.0,145.0,125.0,169.0
145,7.25,0.05310964584350586,-0.26445817947387695,1.8494021892547607,0.0005419254302978516,-1.6094410419464111,0.0638878345489502,0.509790301322937,0.1929655373096466,0.6079117655754089,-3.1291809618930357,0.03964397433600497,1.5605852636953699,150.25506072874495,85.9574898785425,124.9171597633136,60.55424063116371,99.68688845401174,86.04109589041096,125.34738955823293,111.30923694779116,149.0,145.0,125.0,121.0,101.0,145.0,125.0,169.0
146,7.300000000000001,0.05341076850891113,-0.2640814781188965,1.8491241931915283,0.0005805492401123047,-1.6097285747528076,0.0642244815826416,0.5099425315856934,0.19310346245765686,0.6079025268554688,-3.1290755614951267,0.039944011295815755,1.56055838337676,150.261569416499,86.01207243460765,124.91089108910892,60.6019801980198,99.662109375,86.04296875,125.348,111.36,149.0,145.0,125.0,121.0,101.0,145.0,125.0,169.0
147,7.3500000000000005,0.05368471145629883,-0.26369595527648926,1.848858118057251,0.0005998611450195312,-1.61000657081604,0.06455039978027344,0.5101050138473511,0.19322876632213593,0.6078822016716003,-3.128967402932923,0.04023453338396546,1.5605149671005543,150.22937625754528,86.04024144869216,124.87128712871286,60.611881188118815,99.6171875,86.0625,125.35483870967742,111.4274193548387,149.0,145.0,125.0,121.0,101.0,145.0,125.0,169.0
148,7.4,0.05395054817199707,-0.26329636573791504,1.8485548496246338,0.0006663799285888672,-1.6102678775787354,0.06488585472106934,0.5102747082710266,0.19335219264030457,0.6078747510910034,-3.128834643121146,0.04050997701402325,1.5604547771071449,150.22937625754528,86.04024144869216,124.84752475247525,60.64950495049505,99.60818713450293,86.08576998050683,125.32997987927565,111.43259557344065,149.0,145.0,125.0,121.0,101.0,145.0,125.0,169.0
149,7.45,0.054227590560913086,-0.2628970146179199,1.8482801914215088,0.0007021427154541016,-1.610534906387329,0.06522178649902344,0.5104421973228455,0.19348104298114777,0.6078512668609619,-3.1287049461155645,0.04079090572727494,1.5604058069891833,150.22736418511067,86.0784708249497,124.80670611439842,60.72386587771203,99.59533073929961,86.10700389105058,125.34607645875252,111.4748490945674,149.0,145.0,125.0,121.0,101.0,145.0,125.0,169.0
150,7.5,0.05449318885803223,-0.2624986171722412,1.848020315170288,0.0007312297821044922,-1.6108057498931885,0.0655508041381836,0.5106101632118225,0.19360360503196716,0.6078192591667175,-3.128568659750958,0.04107595036927736,1.5603525129469,150.22736418511067,86.0784708249497,124.80830039525692,60.74901185770751,99.54651162790698,86.10658914728683,125.34607645875252,111.5251509054326,149.0,145.0,125.0,121.0,101.0,145.0,125.0,169.0
151,7.550000000000001,0.054738521575927734,-0.2620823383331299,1.8477504253387451,0.0007710456848144531,-1.6110656261444092,0.06586623191833496,0.5107908844947815,0.1937173455953598,0.6077827215194702,-3.128412193036752,0.0413519069255359,1.5602932363144817,150.22736418511067,86.0784708249497,124.78613861386138,60.76039603960396,99.51750972762646,86.11867704280155,125.32595573440643,111.56136820925553,149.0,145.0,125.0,121.0,101.0,145.0,125.0,169.0
152,7.6000000000000005,0.05498218536376953,-0.26165127754211426,1.8474805355072021,0.0008037090301513672,-1.6113131046295166,0.06618189811706543,0.5109795928001404,0.1938319057226181,0.607739269733429,-3.128247499903896,0.04161576399534662,1.5602321071595937,150.22736418511067,86.0784708249497,124.78571428571429,60.785714285714285,99.52529182879377,86.16731517509727,125.286,111.622,149.0,145.0,125.0,121.0,101.0,145.0,125.0,169.0
153,7.65,0.05522656440734863,-0.26120996475219727,1.8472168445587158,0.0008187294006347656,-1.6115524768829346,0.06649374961853027,0.5111742615699768,0.19394823908805847,0.6076882481575012,-3.1280836369612137,0.0418714827333212,1.5601760230208446,150.20321931589538,86.12273641851107,124.78571428571429,60.785714285714285,99.48927875243665,86.22612085769981,125.274,111.67,149.0,145.0,125.0,121.0,101.0,145.0,125.0,169.0
154,7.7,0.055490970611572266,-0.2607588768005371,1.8469164371490479,0.0008728504180908203,-1.6117780208587646,0.06682634353637695,0.5113695859909058,0.19407673180103302,0.6076530814170837,-3.1279080228876497,0.042114309330154386,1.5601189893672054,150.17102615694165,86.15492957746478,124.77425742574258,60.80792079207921,99.51167315175097,86.23735408560312,125.27944111776448,111.69461077844312,149.0,145.0,125.0,121.0,101.0,145.0,125.0,169.0
155,7.75,0.05574798583984375,-0.2603168487548828,1.846614122390747,0.0009386539459228516,-1.6120154857635498,0.06716489791870117,0.5115609765052795,0.19420009851455688,0.6076223254203796,-3.127732775523782,0.04236973574738923,1.5600489721287891,150.17741935483872,86.17943548387096,124.77425742574258,60.80792079207921,99.51167315175097,86.23735408560312,125.25851703406813,111.73346693386773,149.0,145.0,125.0,121.0,101.0,145.0,125.0,169.0
156,7.800000000000001,0.05599069595336914,-0.25986218452453613,1.846313714981079,0.0009829998016357422,-1.6122400760650635,0.06750321388244629,0.5117628574371338,0.19431792199611664,0.6075852513313293,-3.127563074063463,0.04261142127841344,1.5599647559103624,150.17741935483872,86.17943548387096,124.77425742574258,60.80792079207921,99.55038759689923,86.31782945736434,125.20080321285141,111.77911646586345,149.0,145.0,125.0,121.0,101.0,145.0,125.0,169.0
157,7.8500000000000005,0.05626416206359863,-0.2593986988067627,1.846010446548462,0.0010077953338623047,-1.612452745437622,0.06785702705383301,0.5119657516479492,0.19445355236530304,0.6075481176376343,-3.1274076207197656,0.04284111613025346,1.5598949717184154,150.15555555555557,86.1919191919192,124.75691699604744,60.82608695652174,99.54069767441861,86.34302325581395,125.18637274549098,111.79959919839679,149.0,145.0,125.0,121.0,101.0,145.0,125.0,169.0
158,7.9,0.05654597282409668,-0.25893402099609375,1.8457067012786865,0.001035928726196289,-1.612666368484497,0.06821942329406738,0.5121669769287109,0.19459322094917297,0.6075094938278198,-3.127248192265905,0.043072697378999256,1.5598252665421557,150.13508064516128,86.24596774193549,124.77029702970297,60.847524752475245,99.5,86.45136186770428,125.18837675350701,111.84569138276554,149.0,145.0,125.0,121.0,101.0,145.0,125.0,169.0
159,7.95,0.056871652603149414,-0.25846314430236816,1.8453505039215088,0.0011277198791503906,-1.6128714084625244,0.06860804557800293,0.5123620629310608,0.1947571039199829,0.6074965596199036,-3.1270724441278386,0.04329667710446031,1.5597741684028188,150.13508064516128,86.24596774193549,124.78458498023716,60.91699604743083,99.50485436893204,86.47572815533981,125.18837675350701,111.84569138276554,149.0,145.0,125.0,121.0,101.0,145.0,125.0,169.0
160,8.0,0.057201385498046875,-0.25800156593322754,1.8450276851654053,0.00119781494140625,-1.6131021976470947,0.06898379325866699,0.5125510692596436,0.19492003321647644,0.6074686646461487,-3.126895836928332,0.04354663559644859,1.5597400215117037,150.16935483870967,86.28225806451613,124.77623762376237,60.94059405940594,99.50485436893204,86.47572815533981,125.18837675350701,111.84569138276554,149.0,145.0,125.0,121.0,101.0,145.0,125.0,169.0
161,8.05,0.05753350257873535,-0.2575337886810303,1.8447248935699463,0.0012295246124267578,-1.6133301258087158,0.06936049461364746,0.5127441883087158,0.19508486986160278,0.6074273586273193,-3.1267310491802216,0.04379285328972535,1.5597071892498908,150.18383838383838,86.3030303030303,124.77623762376237,60.94059405940594,99.49514563106796,86.52427184466019,125.224,111.894,149.0,145.0,125.0,121.0,101.0,145.0,125.0,169.0
162,8.1,0.05787920951843262,-0.2570481300354004,1.8443562984466553,0.0013260841369628906,-1.6135427951812744,0.06974935531616211,0.5129437446594238,0.19525885581970215,0.6074144840240479,-3.126549208810046,0.04402551711095677,1.5596760561219296,150.1834677419355,86.32862903225806,124.7936507936508,61.0,99.49514563106796,86.52427184466019,125.224,111.894,149.0,145.0,125.0,121.0,101.0,145.0,125.0,169.0
163,8.15,0.05821490287780762,-0.25657057762145996,1.844024896621704,0.001390218734741211,-1.6137773990631104,0.07012534141540527,0.5131405591964722,0.19542543590068817,0.607384204864502,-3.1263721957864457,0.04427970204072657,1.5596485181564765,150.1851106639839,86.35412474849095,124.7936507936508,61.0,99.55145631067961,86.64660194174758,125.252,111.934,149.0,145.0,125.0,121.0,101.0,145.0,125.0,169.0
164,8.200000000000001,0.05861020088195801,-0.256091833114624,1.8436110019683838,0.001538991928100586,-1.6140110492706299,0.07053828239440918,0.5133272409439087,0.19562315940856934,0.6073999404907227,-3.126193158028956,0.0445341990588961,1.559643108101906,150.18951612903226,86.37903225806451,124.83928571428571,61.0218253968254,99.57587548638132,86.69260700389106,125.272,111.98,149.0,145.0,125.0,121.0,101.0,145.0,125.0,169.0
165,8.25,0.05900001525878906,-0.25560855865478516,1.8431599140167236,0.0017244815826416016,-1.6142504215240479,0.07094693183898926,0.5135170221328735,0.19581787288188934,0.6074346899986267,-3.1260108922242114,0.04479485232616318,1.5596374027504414,150.27991886409737,86.49087221095334,124.83928571428571,61.0218253968254,99.57587548638132,86.69260700389106,125.2874251497006,112.0,149.0,145.0,125.0,121.0,101.0,145.0,125.0,169.0
166,8.3,0.05938577651977539,-0.25510191917419434,1.8427050113677979,0.0018582344055175781,-1.6144497394561768,0.07136726379394531,0.5137248039245605,0.19601567089557648,0.6074642539024353,-3.125857989130814,0.04501346633450003,1.5596140443576598,150.35091277890467,86.54766734279919,124.8224852071006,61.07495069033531,99.62549019607843,86.74313725490197,125.31274900398407,112.0,149.0,145.0,125.0,121.0,101.0,145.0,125.0,169.0
167,8.35,0.05979299545288086,-0.2545921802520752,1.84226393699646,0.0019483566284179688,-1.6146466732025146,0.0717933177947998,0.5139325857162476,0.19622527062892914,0.6074874401092529,-3.1257325364973196,0.045227584536145594,1.5596048713130373,150.35365853658536,86.57317073170732,124.83794466403162,61.094861660079054,99.61328125,86.783203125,125.3207171314741,112.02988047808765,149.0,145.0,125.0,121.0,101.0,145.0,125.0,169.0
168,8.4,0.0602116584777832,-0.2540738582611084,1.841796636581421,0.002062559127807617,-1.6148407459259033,0.07222557067871094,0.5141429901123047,0.19644182920455933,0.6075212359428406,-3.125600349468365,0.04543999377477588,1.5596017803097915,150.35294117647058,86.64908722109533,124.88118811881188,61.154455445544556,99.63796477495107,86.83953033268102,125.33466135458167,112.06772908366534,149.0,145.0,125.0,121.0,101.0,145.0,125.0,169.0
169,8.450000000000001,0.06062793731689453,-0.2535665035247803,1.8413283824920654,0.0021796226501464844,-1.6150496006011963,0.07265591621398926,0.5143483877182007,0.1966553032398224,0.6075616478919983,-3.1254786053422583,0.045666572553081576,1.5595978540110653,150.32926829268294,86.71951219512195,124.9251968503937,61.20275590551181,99.63796477495107,86.83953033268102,125.38047808764941,112.08366533864542,149.0,145.0,125.0,121.0,101.0,145.0,125.0,169.0
170,8.5,0.06101250648498535,-0.25307250022888184,1.8408515453338623,0.002324819564819336,-1.615281343460083,0.07307744026184082,0.5145515203475952,0.19684956967830658,0.6076115965843201,-3.1253530284035316,0.04591608175075183,1.559571338261782,150.34888438133873,86.76470588235294,124.95275590551181,61.24409448818898,99.65557729941291,86.866927592955,125.424,112.13,149.0,145.0,125.0,121.0,101.0,145.0,125.0,169.0
171,8.55,0.06137537956237793,-0.25257372856140137,1.8403489589691162,0.0024945735931396484,-1.6155149936676025,0.07348752021789551,0.5147614479064941,0.19703294336795807,0.6076739430427551,-3.1252228203782235,0.04616756843373796,1.5595350405601391,150.33943089430895,86.78861788617886,124.95294117647059,61.33725490196078,99.66796875,86.888671875,125.45816733067728,112.23306772908367,149.0,145.0,125.0,121.0,101.0,145.0,125.0,169.0
172,8.6,0.061689138412475586,-0.2520749568939209,1.8398430347442627,0.0026884078979492188,-1.6157591342926025,0.07386445999145508,0.5149787664413452,0.1971895694732666,0.6077355742454529,-3.125070869770233,0.046430422236873256,1.5594842589447282,150.32048681541582,86.8052738336714,124.94911937377691,61.40508806262231,99.65234375,86.962890625,125.456,112.246,149.0,145.0,125.0,121.0,101.0,145.0,125.0,169.0
173,8.65,0.062035560607910156,-0.2515830993652344,1.8393352031707764,0.0029022693634033203,-1.6160237789154053,0.07424807548522949,0.5151845812797546,0.1973610520362854,0.6078001856803894,-3.124910868578373,0.04671557161582955,1.559460337053012,150.34685598377283,86.84787018255578,124.953125,61.4296875,99.67446393762184,87.0214424951267,125.43887775551102,112.26452905811624,149.0,145.0,125.0,121.0,101.0,145.0,125.0,169.0
174,8.700000000000001,0.0624079704284668,-0.251086950302124,1.8388326168060303,0.0030875205993652344,-1.616283655166626,0.07464385032653809,0.5153898000717163,0.19754695892333984,0.6078622341156006,-3.1247695511289524,0.04699442915802763,1.5594494712396791,150.3367139959432,86.88032454361054,124.955078125,61.478515625,99.662109375,87.04296875,125.44668008048289,112.30382293762575,149.0,145.0,125.0,121.0,101.0,145.0,125.0,169.0
175,8.75,0.06276750564575195,-0.25058960914611816,1.838331937789917,0.003278493881225586,-1.616548776626587,0.07503223419189453,0.5155974626541138,0.19772574305534363,0.6079211831092834,-3.1246201052896407,0.04727941776691828,1.5594331116140712,150.31919191919192,86.96161616161616,124.91764705882353,61.50588235294118,99.662109375,87.04296875,125.4758064516129,112.37096774193549,149.0,145.0,125.0,121.0,101.0,145.0,125.0,169.0
176,8.8,0.06309008598327637,-0.2500903606414795,1.8378145694732666,0.0034880638122558594,-1.6167991161346436,0.07542634010314941,0.515812873840332,0.19788704812526703,0.6079879403114319,-3.1244647055948342,0.0475498404785271,1.5593749924374105,150.3070707070707,87.0020202020202,124.89370078740157,61.54527559055118,99.68031189083821,87.06042884990254,125.47474747474747,112.44646464646465,149.0,145.0,125.0,121.0,101.0,145.0,125.0,169.0
177,8.85,0.06338858604431152,-0.2495889663696289,1.8372995853424072,0.003696918487548828,-1.61704421043396,0.07581543922424316,0.5160334706306458,0.1980368047952652,0.6080522537231445,-3.12430758325506,0.047815534981118825,1.5592969160086547,150.29435483870967,87.06048387096774,124.90711462450592,61.57707509881423,99.6504854368932,87.09708737864078,125.47474747474747,112.44646464646465,149.0,145.0,125.0,121.0,101.0,145.0,125.0,169.0
178,8.9,0.06370043754577637,-0.24909019470214844,1.8367831707000732,0.003909587860107422,-1.6172945499420166,0.0762166976928711,0.5162501931190491,0.19819313287734985,0.6081185936927795,-3.124150405023016,0.04808681869384526,1.559220962797808,150.2767676767677,87.07878787878788,124.9009900990099,61.64554455445545,99.65825242718446,87.13203883495146,125.44668008048289,112.5251509054326,149.0,145.0,125.0,121.0,101.0,145.0,125.0,169.0
179,8.950000000000001,0.0639955997467041,-0.24859309196472168,1.8362929821014404,0.004102230072021484,-1.6175520420074463,0.07660222053527832,0.5164682269096375,0.1983400136232376,0.6081696152687073,-3.123988528789987,0.04836520342861,1.5591443128513685,150.2767676767677,87.07878787878788,124.8930693069307,61.72079207920792,99.6420233463035,87.18677042801556,125.44959677419355,112.55040322580645,149.0,145.0,125.0,121.0,101.0,145.0,125.0,169.0
180,9.0,0.06430482864379883,-0.24809479713439941,1.8358113765716553,0.00429844856262207,-1.6178243160247803,0.07697916030883789,0.5166832208633423,0.19849266111850739,0.6082143783569336,-3.1238149624667386,0.048659346763264694,1.559091130850195,150.2767676767677,87.07878787878788,124.87673956262425,61.763419483101394,99.66666666666667,87.24951267056531,125.44959677419355,112.55040322580645,149.0,145.0,125.0,121.0,101.0,145.0,125.0,169.0
181,9.05,0.0646524429321289,-0.24760150909423828,1.8353259563446045,0.0045015811920166016,-1.6181161403656006,0.07736873626708984,0.5168882608413696,0.19866342842578888,0.6082630157470703,-3.123645365332691,0.04897364195670195,1.5590644116312493,150.29268292682926,87.14024390243902,124.85288270377734,61.79721669980119,99.66796116504854,87.2990291262136,125.44959677419355,112.65120967741936,149.0,145.0,125.0,121.0,101.0,145.0,125.0,169.0
182,9.1,0.06498241424560547,-0.24708914756774902,1.8348205089569092,0.004706621170043945,-1.6183726787567139,0.0777580738067627,0.5171075463294983,0.19882932305335999,0.6083146929740906,-3.1234719634068298,0.04925302938289502,1.5590193338714697,150.27125506072875,87.18623481781377,124.86507936507937,61.81944444444444,99.7009708737864,87.33203883495146,125.44959677419355,112.65120967741936,149.0,145.0,125.0,121.0,101.0,145.0,125.0,169.0
183,9.15,0.06532621383666992,-0.24659204483032227,1.8343136310577393,0.004918575286865234,-1.618652582168579,0.07816362380981445,0.5173166990280151,0.19899989664554596,0.6083749532699585,-3.1233121933135513,0.049554307028329705,1.5589721236183671,150.24646464646466,87.18989898989899,124.84493041749504,61.87475149105368,99.68349514563107,87.40582524271845,125.43286573146293,112.71543086172345,149.0,145.0,125.0,121.0,101.0,145.0,125.0,169.0
184,9.200000000000001,0.06569218635559082,-0.24608898162841797,1.833791971206665,0.005158901214599609,-1.6189343929290771,0.07857370376586914,0.5175226330757141,0.19918212294578552,0.6084390878677368,-3.123132539515184,0.04985990366436314,1.5589444493970477,150.24137931034483,87.26774847870182,124.87673956262425,61.910536779324055,99.72093023255815,87.46705426356588,125.4311377245509,112.750499001996,149.0,145.0,125.0,121.0,101.0,145.0,125.0,169.0
185,9.25,0.06606841087341309,-0.24559926986694336,1.8332617282867432,0.005403757095336914,-1.6192295551300049,0.07899713516235352,0.5177206993103027,0.19936814904212952,0.6085154414176941,-3.1229719528672586,0.05017844487934218,1.5589124852825074,150.25506072874495,87.28947368421052,124.87673956262425,61.910536779324055,99.7378640776699,87.48543689320388,125.39520958083833,112.78243512974052,149.0,145.0,125.0,121.0,101.0,145.0,125.0,169.0
186,9.3,0.06644487380981445,-0.24509692192077637,1.8327505588531494,0.005598306655883789,-1.6195080280303955,0.07942438125610352,0.5179281830787659,0.19955681264400482,0.6085770130157471,-3.1228296742927655,0.05047831972516993,1.558875677931463,150.2560975609756,87.3130081300813,124.86904761904762,61.982142857142854,99.74902723735408,87.50778210116732,125.38877755511022,112.84769539078157,149.0,145.0,125.0,121.0,101.0,145.0,125.0,169.0
187,9.35,0.06678986549377441,-0.24459218978881836,1.8322727680206299,0.005758047103881836,-1.619788408279419,0.07982683181762695,0.5181427001953125,0.19972901046276093,0.6086180806159973,-3.122685538451666,0.050780004191602876,1.5588320544565202,150.260162601626,87.36382113821138,124.83928571428571,62.0218253968254,99.71819960861056,87.62230919765166,125.40160642570281,112.86947791164658,149.0,145.0,125.0,121.0,101.0,145.0,125.0,169.0
188,9.4,0.06720495223999023,-0.2440800666809082,1.831740140914917,0.005977153778076172,-1.6200621128082275,0.08026814460754395,0.5183469653129578,0.19993898272514343,0.6086863279342651,-3.122531150666805,0.05107674621962149,1.5588209007735754,150.30470347648262,87.47443762781187,124.85742574257426,62.039603960396036,99.7421875,87.62890625,125.40562248995984,112.92771084337349,149.0,145.0,125.0,121.0,101.0,145.0,125.0,169.0
189,9.450000000000001,0.06757807731628418,-0.2435595989227295,1.831221342086792,0.0061457157135009766,-1.620307207107544,0.08070254325866699,0.5185668468475342,0.20013068616390228,0.6087456941604614,-3.1224026513798946,0.051343133548186835,1.5587725082954402,150.3265306122449,87.53877551020408,124.87301587301587,62.05952380952381,99.75638506876228,87.7229862475442,125.42914171656686,112.98602794411178,149.0,145.0,125.0,121.0,101.0,145.0,125.0,169.0
190,9.5,0.06797671318054199,-0.2430281639099121,1.8306400775909424,0.006365537643432617,-1.6205370426177979,0.08115625381469727,0.5187885761260986,0.20033803582191467,0.6088358759880066,-3.1222744690291075,0.05159463247575435,1.558730029150029,150.35234215885947,87.59877800407332,124.90873015873017,62.095238095238095,99.74509803921569,87.74509803921569,125.47912524850895,112.98608349900596,149.0,145.0,125.0,121.0,101.0,145.0,125.0,169.0
191,9.55,0.06836986541748047,-0.2424929141998291,1.830031156539917,0.006611347198486328,-1.6207730770111084,0.08160853385925293,0.5190135836601257,0.20054225623607635,0.6089396476745605,-3.122144904159146,0.05185207110973752,1.5586836900827628,150.33469387755102,87.67142857142858,124.90079365079364,62.138888888888886,99.72888015717092,87.81335952848723,125.52087475149105,113.01391650099404,149.0,145.0,125.0,121.0,101.0,145.0,125.0,169.0
192,9.600000000000001,0.06878185272216797,-0.2419602870941162,1.8293707370758057,0.0069239139556884766,-1.6210119724273682,0.08208370208740234,0.5192318558692932,0.20075611770153046,0.6090730428695679,-3.1220040983137984,0.052114888188211195,1.558634668958754,150.35582822085888,87.7239263803681,124.95275590551181,62.24409448818898,99.75393700787401,87.81496062992126,125.53892215568862,113.03992015968063,149.0,145.0,125.0,121.0,101.0,145.0,125.0,169.0
193,9.65,0.06913542747497559,-0.24144220352172852,1.8287889957427979,0.0071582794189453125,-1.6212818622589111,0.08250737190246582,0.5194551944732666,0.20093585550785065,0.6091688275337219,-3.121877797603174,0.05240533732298593,1.5585781506149103,150.32790224032587,87.76578411405295,124.95294117647059,62.33725490196078,99.74409448818898,87.8484251968504,125.54819277108433,113.1285140562249,149.0,145.0,125.0,121.0,101.0,145.0,125.0,169.0
194,9.700000000000001,0.06945538520812988,-0.24093008041381836,1.8282177448272705,0.007408618927001953,-1.6215646266937256,0.08290743827819824,0.5196788907051086,0.20109620690345764,0.6092591285705566,-3.1217305540027924,0.05271086333594607,1.5585127969702905,150.2839756592292,87.7789046653144,124.93909626719056,62.3909626719057,99.76227897838899,87.94499017681729,125.5251509054326,113.13883299798793,149.0,145.0,125.0,121.0,101.0,145.0,125.0,169.0
195,9.75,0.0698397159576416,-0.24043750762939453,1.8276302814483643,0.007696866989135742,-1.6218860149383545,0.08333921432495117,0.5198787450790405,0.20128606259822845,0.609366774559021,-3.121586328907153,0.0530556327486181,1.5584817034750658,150.23732251521298,87.84787018255578,124.91568627450981,62.456862745098036,99.76227897838899,87.99214145383104,125.49395161290323,113.17943548387096,149.0,145.0,125.0,121.0,101.0,145.0,125.0,169.0
196,9.8,0.07023429870605469,-0.23996877670288086,1.8270838260650635,0.007962703704833984,-1.6222283840179443,0.08378720283508301,0.5200628638267517,0.20147834718227386,0.6094620227813721,-3.121451114594478,0.053421209176409294,1.5584446234705824,150.2459349593496,87.8719512195122,124.89783889980353,62.520628683693516,99.74705882352941,88.01176470588236,125.48289738430583,113.28370221327968,149.0,145.0,125.0,121.0,101.0,145.0,125.0,169.0
197,9.850000000000001,0.07058310508728027,-0.23947715759277344,1.826554536819458,0.00820302963256836,-1.6225416660308838,0.08420228958129883,0.5202676057815552,0.201650470495224,0.6095353364944458,-3.1212962386186436,0.05375865008138959,1.5583947892237648,150.2439024390244,87.91463414634147,124.89783889980353,62.520628683693516,99.71176470588236,88.04313725490196,125.47177419354838,113.30645161290323,149.0,145.0,125.0,121.0,101.0,145.0,125.0,169.0
198,9.9,0.07094812393188477,-0.23897266387939453,1.8260014057159424,0.008459329605102539,-1.6228396892547607,0.08463597297668457,0.5204762816429138,0.2018333524465561,0.609616219997406,-3.121137118120187,0.05408186529385793,1.5583428674156548,150.19878296146044,87.97160243407708,124.86758893280633,62.58695652173913,99.71176470588236,88.04313725490196,125.4888888888889,113.32525252525252,149.0,145.0,125.0,121.0,101.0,145.0,125.0,169.0
199,9.950000000000001,0.0712897777557373,-0.23849058151245117,1.8254797458648682,0.008712530136108398,-1.6231658458709717,0.08507037162780762,0.5206754803657532,0.20200036466121674,0.6096881628036499,-3.1209741241099964,0.054433872374790596,1.5582676455843452,150.14227642276424,88.00813008130082,124.84950495049505,62.603960396039604,99.68031189083821,88.06042884990254,125.44421906693712,113.36916835699797,149.0,145.0,125.0,121.0,101.0,145.0,125.0,169.0
200,10.0,0.07163715362548828,-0.23801255226135254,1.8249685764312744,0.008969783782958984,-1.6234939098358154,0.0855245590209961,0.520869791507721,0.20217035710811615,0.6097545027732849,-3.1208025870589653,0.05478875174557065,1.5581792472286011,150.14227642276424,88.00813008130082,124.82936507936508,62.666666666666664,99.65953307392996,88.07392996108949,125.44918699186992,113.39430894308943,149.0,145.0,125.0,121.0,101.0,145.0,125.0,169.0
201,10.05,0.0719759464263916,-0.23752856254577637,1.824481725692749,0.00921177864074707,-1.6238319873809814,0.08596277236938477,0.5210680961608887,0.20233513414859772,0.6098030805587769,-3.120616578818431,0.05515446148261648,1.5580996530119968,150.11812627291243,88.0,124.76039603960396,62.72871287128713,99.64717348927876,88.11695906432749,125.39959432048681,113.4239350912779,149.0,145.0,125.0,121.0,101.0,145.0,125.0,169.0
202,10.100000000000001,0.07234811782836914,-0.23704171180725098,1.8240506649017334,0.00939488410949707,-1.6241686344146729,0.0864107608795166,0.5212607979774475,0.20251770317554474,0.6098179817199707,-3.1204312587186998,0.055519596442295274,1.55804311844913,150.09183673469389,88.05918367346939,124.76039603960396,62.72871287128713,99.63424124513618,88.13813229571984,125.39878542510121,113.4493927125506,149.0,145.0,125.0,121.0,101.0,145.0,125.0,169.0
203,10.15,0.07272624969482422,-0.2365577220916748,1.823591947555542,0.009614229202270508,-1.624507188796997,0.08688592910766602,0.5214505791664124,0.20270337164402008,0.6098495721817017,-3.120242180930204,0.05588787592469591,1.5579667302789622,150.10997963340122,88.07739307535641,124.76190476190476,62.75396825396825,99.63547758284601,88.21052631578948,125.39553752535497,113.47464503042596,149.0,145.0,125.0,121.0,101.0,145.0,125.0,169.0
204,10.200000000000001,0.07314753532409668,-0.23606038093566895,1.8231003284454346,0.009852409362792969,-1.6248409748077393,0.08737850189208984,0.521639347076416,0.2029130756855011,0.6098942160606384,-3.1200547847979454,0.05625198860532939,1.5579155705786318,150.10997963340122,88.07739307535641,124.76143141153082,62.779324055666,99.63547758284601,88.21052631578948,125.39837398373983,113.5,149.0,145.0,125.0,121.0,101.0,145.0,125.0,169.0
205,10.25,0.07355499267578125,-0.23555350303649902,1.8226120471954346,0.010085582733154297,-1.6251795291900635,0.08786129951477051,0.5218353867530823,0.2031153440475464,0.6099313497543335,-3.1198596590781,0.05662162301158168,1.5578608884401224,150.10997963340122,88.07739307535641,124.76143141153082,62.779324055666,99.63547758284601,88.21052631578948,125.39553752535497,113.52535496957404,149.0,145.0,125.0,121.0,101.0,145.0,125.0,169.0
206,10.3,0.07395601272583008,-0.2350316047668457,1.822108507156372,0.010323524475097656,-1.625511884689331,0.08834528923034668,0.5220415592193604,0.20331589877605438,0.6099709272384644,-3.119659531743473,0.05698544269364995,1.5577991341453346,150.09756097560975,88.09959349593495,124.72564612326043,62.807157057654074,99.59143968871595,88.29182879377431,125.39756592292089,113.5760649087221,149.0,145.0,125.0,121.0,101.0,145.0,125.0,169.0
207,10.350000000000001,0.07440686225891113,-0.23448872566223145,1.8215382099151611,0.010638952255249023,-1.6258251667022705,0.08886051177978516,0.5222475528717041,0.20354539155960083,0.6100351810455322,-3.1194291266487437,0.05733409989343526,1.5577569010190067,150.09552845528455,88.14837398373983,124.72564612326043,62.807157057654074,99.63352826510722,88.33333333333333,125.39756592292089,113.5760649087221,149.0,145.0,125.0,121.0,101.0,145.0,125.0,169.0
208,10.4,0.07489299774169922,-0.23395466804504395,1.8209469318389893,0.010960817337036133,-1.6261513233184814,0.0894155502319336,0.5224434733390808,0.2037927657365799,0.6101184487342834,-3.119225338576504,0.057694619566432036,1.557710058061093,150.08961303462323,88.17311608961303,124.75,62.81349206349206,99.64396887159533,88.35603112840467,125.39837398373983,113.60162601626017,149.0,145.0,125.0,121.0,101.0,145.0,125.0,169.0
209,10.450000000000001,0.07538509368896484,-0.23341631889343262,1.8203237056732178,0.011312723159790039,-1.6264870166778564,0.08998227119445801,0.5226407647132874,0.20404230058193207,0.6102173328399658,-3.1190209963164084,0.058065538095980126,1.557657612416715,150.08961303462323,88.17311608961303,124.76237623762377,62.83564356435644,99.66342412451363,88.39105058365759,125.39837398373983,113.60162601626017,149.0,145.0,125.0,121.0,101.0,145.0,125.0,169.0
210,10.5,0.07591533660888672,-0.23287677764892578,1.8196842670440674,0.011679649353027344,-1.62685227394104,0.09056711196899414,0.5228316187858582,0.20430974662303925,0.6103255748748779,-3.118821677271247,0.05846583164970432,1.5576255758078867,150.10569105691056,88.1930894308943,124.79840319361277,62.91816367265469,99.68349514563107,88.40582524271845,125.39350912778905,113.62677484787018,149.0,145.0,125.0,121.0,101.0,145.0,125.0,169.0
211,10.55,0.07640886306762695,-0.2323472499847412,1.8191282749176025,0.011959552764892578,-1.6272542476654053,0.09110260009765625,0.5230250954627991,0.20455333590507507,0.6103909611701965,-3.1186350448587454,0.058901182500346407,1.557606848566304,150.10569105691056,88.1930894308943,124.7609561752988,62.98207171314741,99.72093023255815,88.46705426356588,125.39878542510121,113.65182186234817,149.0,145.0,125.0,121.0,101.0,145.0,125.0,169.0
212,10.600000000000001,0.07693004608154297,-0.23181509971618652,1.8185937404632568,0.012205362319946289,-1.6276671886444092,0.09164142608642578,0.5232151746749878,0.2048107534646988,0.6104443073272705,-3.1184608735556925,0.059346786652130556,1.557612511094098,150.10162601626016,88.21341463414635,124.7609561752988,62.98207171314741,99.72762645914396,88.50778210116732,125.33603238866397,113.72874493927125,149.0,145.0,125.0,121.0,101.0,145.0,125.0,169.0
213,10.65,0.07742691040039062,-0.23125219345092773,1.8180763721466064,0.012377738952636719,-1.628007173538208,0.09217119216918945,0.5234301686286926,0.2050648331642151,0.6104766130447388,-3.1183050380836814,0.05971709631942056,1.5575997668749695,150.1361788617886,88.25,124.79282868525897,63.01593625498008,99.71819960861056,88.573385518591,125.3630831643002,113.7789046653144,149.0,145.0,125.0,121.0,101.0,145.0,125.0,169.0
214,10.700000000000001,0.07794570922851562,-0.23067021369934082,1.817490816116333,0.012614965438842773,-1.6283462047576904,0.09270215034484863,0.523651123046875,0.20533135533332825,0.610538125038147,-3.1181346690873775,0.060088425525541285,1.557608411909704,150.17073170731706,88.33130081300813,124.79282868525897,63.01593625498008,99.70530451866405,88.61493123772102,125.3529411764706,113.81947261663286,149.0,145.0,125.0,121.0,101.0,145.0,125.0,169.0
215,10.75,0.07847476005554199,-0.2300734519958496,1.816878080368042,0.012845754623413086,-1.6286475658416748,0.09325337409973145,0.5238798260688782,0.20560860633850098,0.6106095910072327,-3.117980007371041,0.06042096866713011,1.5576055490429679,150.20570264765783,88.41751527494908,124.81510934393638,63.02783300198807,99.74901960784314,88.64901960784314,125.43407707910751,113.8580121703854,149.0,145.0,125.0,121.0,101.0,145.0,125.0,169.0
216,10.8,0.07898664474487305,-0.2294776439666748,1.8161742687225342,0.013169527053833008,-1.6289560794830322,0.09381771087646484,0.5241125226020813,0.20587626099586487,0.610734224319458,-3.1178279672626426,0.060761320218653526,1.557572532437964,150.24279835390948,88.54938271604938,124.86852589641434,63.081673306772906,99.75638506876228,88.7229862475442,125.45344129554655,113.8744939271255,149.0,145.0,125.0,121.0,101.0,145.0,125.0,169.0
217,10.850000000000001,0.07950091361999512,-0.2288970947265625,1.815471887588501,0.013475418090820312,-1.629272699356079,0.09438824653625488,0.52433842420578,0.20614421367645264,0.6108672022819519,-3.1177080765701493,0.06110705678647139,1.5575339787164082,150.2360248447205,88.64596273291926,124.87051792828686,63.169322709163346,99.78303747534517,88.74950690335305,125.49392712550608,113.89676113360323,149.0,145.0,125.0,121.0,101.0,145.0,125.0,169.0
218,10.9,0.07997393608093262,-0.2283468246459961,1.814819574356079,0.013750553131103516,-1.6296241283416748,0.09494423866271973,0.5245559215545654,0.206385999917984,0.6109862327575684,-3.117601742410215,0.061485944562649206,1.557469055567789,150.22360248447205,88.69151138716356,124.86878727634195,63.2286282306163,99.77120315581854,88.79684418145956,125.51509054325956,113.97987927565393,149.0,145.0,125.0,121.0,101.0,145.0,125.0,169.0
219,10.950000000000001,0.08042764663696289,-0.22779011726379395,1.8141310214996338,0.014082908630371094,-1.629974126815796,0.09549212455749512,0.5247785449028015,0.20661786198616028,0.61111980676651,-3.117467968100079,0.06186599031405598,1.5573949239896037,150.14959016393442,88.78688524590164,124.83730158730158,63.33531746031746,99.74409448818898,88.8484251968504,125.47773279352226,114.06477732793522,149.0,145.0,125.0,121.0,101.0,145.0,125.0,169.0
220,11.0,0.0808708667755127,-0.2272634506225586,1.813504934310913,0.014397382736206055,-1.6303455829620361,0.09604716300964355,0.5249839425086975,0.20684078335762024,0.6112298369407654,-3.117322805405617,0.06226940240278295,1.5573039903364145,150.10655737704917,88.80942622950819,124.85375494071147,63.41897233201581,99.75739644970415,88.8698224852071,125.48478701825557,114.0892494929006,149.0,145.0,125.0,121.0,101.0,145.0,125.0,169.0
221,11.05,0.08130764961242676,-0.22676491737365723,1.8129122257232666,0.014723777770996094,-1.630789041519165,0.09659600257873535,0.5251720547676086,0.2070518583059311,0.6113311648368835,-3.1171671275519333,0.06274598301116929,1.5572164890216451,150.10655737704917,88.80942622950819,124.86785009861933,63.43984220907298,99.75936883629191,88.9171597633136,125.45528455284553,114.1280487804878,149.0,145.0,125.0,121.0,101.0,145.0,125.0,169.0
222,11.100000000000001,0.08177852630615234,-0.22624731063842773,1.8123009204864502,0.015047788619995117,-1.631227731704712,0.09715390205383301,0.5253650546073914,0.20728273689746857,0.6114351153373718,-3.1170142017051643,0.06321780382307418,1.5571538165635188,150.05510204081634,88.88163265306123,124.8019801980198,63.55841584158416,99.70669291338582,88.95472440944881,125.38336713995943,114.13995943204868,149.0,145.0,125.0,121.0,101.0,145.0,125.0,169.0
223,11.15,0.0822763442993164,-0.22576141357421875,1.8118703365325928,0.015207290649414062,-1.6316864490509033,0.09772229194641113,0.5255343914031982,0.20752444863319397,0.6114506721496582,-3.1168795889969414,0.06370924504469702,1.557107300213357,150.02244897959184,88.9,124.80318091451292,63.60834990059642,99.66470588235295,89.02941176470588,125.36585365853658,114.15853658536585,149.0,145.0,125.0,121.0,101.0,145.0,125.0,169.0
224,11.200000000000001,0.08286428451538086,-0.22527694702148438,1.8114221096038818,0.015415191650390625,-1.632188081741333,0.09833574295043945,0.5256823897361755,0.20780962705612183,0.6114745140075684,-3.1167233188782326,0.06424799130041829,1.5571085753315044,150.03067484662577,88.92433537832311,124.7797619047619,63.617063492063494,99.6399217221135,89.03131115459882,125.36585365853658,114.15853658536585,149.0,145.0,125.0,121.0,101.0,145.0,125.0,169.0
225,11.25,0.08345508575439453,-0.22477197647094727,1.8109757900238037,0.015601158142089844,-1.6326706409454346,0.09896492958068848,0.5258409976959229,0.20809946954250336,0.611487865447998,-3.116566563048627,0.0647674683094395,1.5570970283392604,150.03067484662577,88.92433537832311,124.75841584158415,63.62970297029703,99.6399217221135,89.03131115459882,125.35437881873727,114.18126272912424,149.0,145.0,125.0,121.0,101.0,145.0,125.0,169.0
226,11.3,0.08404541015625,-0.22424745559692383,1.810532808303833,0.01576542854309082,-1.6331422328948975,0.09959864616394043,0.5260108709335327,0.2083914577960968,0.61149001121521,-3.1164077114559348,0.06527645018611053,1.557080140975869,150.01226993865032,88.97137014314929,124.75841584158415,63.62970297029703,99.6156862745098,89.03725490196078,125.35437881873727,114.18126272912424,149.0,145.0,125.0,121.0,101.0,145.0,125.0,169.0
