AI-SPARC/uncalibrated-visual-servoing/results/data/4_feat_mckf_tr.csv
,t,q_1,q_2,q_3,q_4,q_5,q_6,camera_x,camera_y,camera_z,camera_roll,camera_pitch,camera_yaw,f_1,f_2,f_3,f_4,f_5,f_6,f_7,f_8,desired_f_1,desired_f_2,desired_f_3,desired_f_4,desired_f_5,desired_f_6,desired_f_7,desired_f_8,noise_1,noise_2,noise_3,noise_4,noise_5,noise_6,noise_7,noise_8
0,0.0,9.361875081825843e-06,-0.3926333301083327,1.9634954084936185,7.252088425691028e-05,-1.5707955582218611,2.220446049250313e-15,0.4463258536086648,0.16906234102687412,0.592161801541222,-3.141307158888575,0.00012241039484984628,1.5708380808617421,151.05680171461992,65.33125101459177,130.46644834300866,44.09022942430376,99.61686642657749,65.28622076991928,130.1131175287212,96.15853308262624,149.0,145.0,125.0,121.0,101.0,145.0,125.0,169.0,-0.3559562591136578,-0.22597224994857068,5.046972687577952,4.509705079734469,0.18077620101356612,-0.2776890045168014,4.700359554987641,4.6013098180858965
1,0.05,-0.00012812959471997232,-0.3930843863292668,1.962806406048978,-0.0001985693489050533,-1.5706347336244972,-3.1807145997486685e-05,0.446234168107407,0.1690166280728354,0.5928624752729739,3.140463510785485,-3.946542470495891e-05,1.5707324102218092,151.68374820648629,65.9530759677361,130.43881999306006,39.776718177490864,104.6140204641673,65.71152848273947,125.59044531429973,92.04123942180776,149.0,145.0,125.0,121.0,101.0,145.0,125.0,169.0,0.3159321145322776,0.039282864287828435,4.938819993060053,-0.22328182250913808,5.114020464167295,-0.28847151726053366,0.16707366679014607,0.19258041797634876
2,0.1,0.001797779966004498,-0.394681753350405,1.9649190300002717,-0.0034215574865328335,-1.5719314894339123,0.0017453938028353377,0.4452873843224442,0.1697607654200612,0.5924924312316014,3.137748246970037,0.0012557269247435612,1.57087928493279,156.81797600021693,66.37027631720373,125.8866036326132,45.02972850713402,104.71961829296306,66.32041606925988,125.06088582007837,92.0412959164302,149.0,145.0,125.0,121.0,101.0,145.0,125.0,169.0,5.41874375453553,0.2244029966662954,0.45065716989808824,4.807931183998263,5.219618292963062,0.22463062864685188,-0.3931371684273667,0.024054537119847216
3,0.15000000000000002,0.0024913619529591813,-0.3930252113012105,1.9626029697622966,-0.002689672280533184,-1.5722691783785594,0.002407894443452907,0.44610569335288897,0.17004222485189585,0.5932471672094138,3.137826751448372,0.0015899897645400213,1.5709081795253885,151.1672402258876,66.30945111463843,130.4314737949305,46.360663411468124,99.73145165373283,66.91449309713148,125.50401602700265,92.312352307938,149.0,145.0,125.0,121.0,101.0,145.0,125.0,169.0,-0.21766543448977144,-0.19054888536156117,4.941870770355834,5.7236123717705825,0.16326983555102592,0.4144930971314795,0.004016027002655349,-0.07255335243935433
4,0.2,0.004507742985746077,-0.3910186937949489,1.9605070624279133,-0.002521357215166553,-1.5734593549219849,0.004318546317806593,0.44690513834888423,0.1708407287197841,0.5937583328437067,3.1379040604432213,0.0027745865511725697,1.5710098041676546,151.34674515280486,66.7886284168732,130.2902983371028,41.41495511946224,99.96880124639816,66.56840157415014,125.85288975201483,97.80195616291857,149.0,145.0,125.0,121.0,101.0,145.0,125.0,169.0,-0.0647933087335994,-0.044063890819120134,4.766306014645981,0.42071327685187887,0.3615215529115737,-0.2208704565012044,0.3424927765894925,5.16490512322103
5,0.25,0.006360463437284913,-0.3925284429380964,1.9610825322371808,-0.00425694482398864,-1.5745531847429168,0.006087256949657949,0.44600760015904567,0.17156946570738088,0.5942400845203017,3.1352113025875026,0.003846948499864741,1.5710812895795423,151.4097356018188,71.73123915815576,125.20850995875901,41.03970496407866,104.51716042022846,66.86461860780577,130.13941455168876,92.74802922812756,149.0,145.0,125.0,121.0,101.0,145.0,125.0,169.0,-0.018835826752630243,4.605756532673142,-0.3834440642294892,-0.31470116618954014,4.885682493165124,-0.19680173768366974,4.6067222439964555,-0.22312461802627048
6,0.30000000000000004,0.0028538131758462093,-0.3954422146346692,1.9634444075709325,-0.006358969894012745,-1.5724697774910075,0.0040901647141367015,0.4451985091189783,0.1701882503159934,0.5941579158060081,3.13256829479488,0.0017541976339962146,1.5695757721431849,150.97114949334926,67.46692588389053,125.50318319147893,46.82753665203575,99.8088555603603,67.53836933585326,130.62360151072005,93.1236194378297,149.0,145.0,125.0,121.0,101.0,145.0,125.0,169.0,-0.18522116302140226,0.013257930222565594,0.11901330730904609,5.0321698566689514,0.274635028040903,0.07258986817266058,5.169755356873882,-0.03214979293952913
7,0.35000000000000003,0.000870650169960463,-0.39468447199393797,1.9617658354159122,-0.005456774998877645,-1.5711307929268914,0.0023132525279083715,0.44595725349644255,0.16942360092442751,0.5948553621618333,3.1325653095350194,0.00042828986366971706,1.5693793978942232,150.83987000637245,67.25053016170439,125.27882862208965,47.23611200226292,99.85575251626283,67.61660878192572,125.394662076298,93.85037459361084,149.0,145.0,125.0,121.0,101.0,145.0,125.0,169.0,-0.34194817544573586,-0.40711007040393277,-0.17272176550724552,5.146964715441217,0.284323944834254,-0.2579085925916612,-0.07111739138259347,0.31615406129144924
8,0.4,0.001031505307305558,-0.39350065094020126,1.9601337527835705,-0.0051455602121937005,-1.5711348451180944,0.002437869268352877,0.4466167728370973,0.16950093542416217,0.595400487264852,3.132433379628342,0.0004364630262976697,1.5694177432519572,151.38984965969223,67.98674507182112,130.30419525131387,42.30467930697791,104.63005262731123,68.48680468599508,125.44704306386464,94.04964603721437,149.0,145.0,125.0,121.0,101.0,145.0,125.0,169.0,0.16222320054825998,-0.04438333284814378,4.934964482083095,-0.06455146225286111,5.022702530599438,0.4036325389931436,-0.052956936135354626,0.20022518779351572
9,0.45,0.003204242625431064,-0.39496612782292306,1.9622795000847857,-0.00842210732750548,-1.5725861098949983,0.004231292264202491,0.44569072381641145,0.17034292950490265,0.5949583645692841,3.1298218413416268,0.0018683283507397608,1.5697835682791736,151.3042723103649,68.77105652255682,125.21700607249302,42.79503055424924,99.64634314225887,67.9577866298734,125.66727308671653,99.23256553328048,149.0,145.0,125.0,121.0,101.0,145.0,125.0,169.0,0.09026452826372375,0.4909008805334712,-0.22571237410891898,0.03774900085118083,-0.049981809385235915,-0.32461182273782785,0.21535000979345786,5.232565533280486
10,0.5,0.003128926018717948,-0.3968693778220227,1.9627407301226798,-0.009530905149463198,-1.5724273272207787,0.004284983561631428,0.44487465259748515,0.170322188660051,0.5956178125775652,3.127263791307447,0.0016947068354178996,1.5696515779777747,150.64628715822357,69.03985560417843,130.2051335539363,47.842061603127746,105.06865941848605,68.58013041003055,130.304941820417,94.0050003043096,149.0,145.0,125.0,121.0,101.0,145.0,125.0,169.0,-0.4882157657530475,0.44531369384703445,4.713905483760852,4.775784800008835,5.239533204893823,-0.03540357055197213,4.804941820417027,-0.14557884626953685
11,0.55,0.0027521125956404546,-0.3976540105873001,1.964405524408531,-0.011901022893456403,-1.572333180983068,0.004072447616258579,0.4446476540287416,0.17015874677055537,0.5950884865551753,3.1257799037806424,0.001595286418083329,1.5694848877320866,151.69294278687568,68.59735884125203,125.18269530522026,48.41062608921281,99.57220607092994,68.81216921639253,125.68576146773877,94.3835164669429,149.0,145.0,125.0,121.0,101.0,145.0,125.0,169.0,0.586852413594713,-0.219929960319682,-0.2576178063257218,5.2345008445944154,-0.06787175008172866,-0.07304479138955834,0.18576146773877178,-0.11648353305710893
12,0.6000000000000001,0.0027235564013734503,-0.39589385077144756,1.961914497935255,-0.010822155559885971,-1.572182833365975,0.004098875855093276,0.4456150774928312,0.17016332143322419,0.5958784811328515,3.1261376821887055,0.0014454395205007167,1.5694318653898576,156.14615480794754,73.74151960103708,125.30984792946987,43.38103614030647,104.42087947413863,68.89675351542922,125.4764873494884,100.16788456047475,149.0,145.0,125.0,121.0,101.0,145.0,125.0,169.0,5.045761107160125,4.623409364816613,-0.16569023099980473,-0.35868988709079286,4.66793829766804,-0.289520994374695,-0.023512650511600716,5.268659754273206
13,0.65,0.001534660113140962,-0.39813365841739845,1.9624358526232166,-0.01177038513331441,-1.5714098096121827,0.004231918702529924,0.44479798659758507,0.16971004388728475,0.5966281715173289,3.1234640909975715,0.0006561795454674539,1.568119891590596,151.2636506452247,69.08810037454354,125.48113979041565,49.390136243481415,99.99468755482572,69.94233295220492,125.22225604700587,95.09862930127858,149.0,145.0,125.0,121.0,101.0,145.0,125.0,169.0,0.2421242264379809,-0.4246197820122351,0.14322230515042525,5.287975143284956,0.2079947955302083,0.304368177253851,-0.2534721083339409,0.0034836702106107037
14,0.7000000000000001,0.0020084734771850243,-0.39645066503933535,1.9603643079313624,-0.011160345657397208,-1.5715951321928587,0.004524540618782158,0.4456485030935113,0.16990763126442074,0.5972206133088516,3.12369062534597,0.0008398158717563085,1.568298660125963,150.84565616347376,69.36184031996777,125.4834739289479,49.47978956727497,99.90564031655025,69.52451956724498,125.18610392664598,95.41016554996875,149.0,145.0,125.0,121.0,101.0,145.0,125.0,169.0,-0.18984679510612665,-0.45472772736951644,0.1297189882364333,5.112200634468651,0.08583833635222851,-0.39825270998274925,-0.313896073354009,0.09499045269248127
15,0.75,0.002222890849350012,-0.3950450018952223,1.9585890969103499,-0.010743586972620456,-1.5716382006503933,0.00477916311092752,0.44640580235302,0.1700038368366909,0.5977539442369144,3.123743878522444,0.0008800994134593111,1.5682579527000577,151.26105252713293,70.14808182700213,125.6078966465881,49.75641272001958,99.8736500632063,70.17176575091273,125.68205799770156,101.04733166609903,149.0,145.0,125.0,121.0,101.0,145.0,125.0,169.0,0.22554956855306293,0.029738631735858757,0.23978641036763068,4.943420594035328,-0.03309596853973414,0.011051465198436543,0.16743811466063088,5.292945701186754
16,0.8,0.0024096039765035826,-0.39531597682485753,1.9579357618845101,-0.01107152200980277,-1.5716519462621044,0.004948598061047527,0.4463399415943799,0.170087338618758,0.5983595101586956,3.122485839262982,0.0008843902915731425,1.5682743988123178,150.89706841278425,70.3189564933125,130.518358607792,44.996312776347054,99.65726271004044,70.374032352318,130.54743743922742,95.93138993169188,149.0,145.0,125.0,121.0,101.0,145.0,125.0,169.0,-0.11673829333013756,-0.11102378282161435,5.103676068109465,-0.08503643000215422,-0.29763925074387726,-0.19655588297613377,5.034717282671649,-0.04708364952142713
17,0.8500000000000001,0.002338070919169155,-0.3956319307339111,1.95738228152842,-0.011473071774432686,-1.5715471445182256,0.004981018169734064,0.44629259579621083,0.17006605782990097,0.5989235244769289,3.1212122687484114,0.0007721142044979089,1.5681716112643918,151.03641492190303,70.95021506027828,125.35049930345048,50.357884725568695,104.93277207899263,70.30765135706054,125.16939651191275,101.29425588135102,149.0,145.0,125.0,121.0,101.0,145.0,125.0,169.0,-0.015172379684256995,0.19227855234176913,-0.09929989333667245,4.857884725568697,4.968557367263007,-0.5790285634166044,-0.37552536308724316,5.138005881351014
18,0.9,0.0024094525902329522,-0.39767393826844755,1.9598395081534976,-0.01442534305730403,-1.5716790023877056,0.005063512834805106,0.4453800000470166,0.17008391821877458,0.5984855275319698,3.118670327753831,0.0008905379412793698,1.5681565772430155,155.78702119416354,75.90745309914546,124.9883910428489,45.631810188277726,99.97896436780013,71.09880586555506,125.88297923952301,96.3788235073016,149.0,145.0,125.0,121.0,101.0,145.0,125.0,169.0,4.78702119416353,4.990621415977145,-0.392087044800509,-0.09528144518840882,-0.003178489342728132,0.033329675078868,0.31742150958171533,0.042228595364219544
19,0.9500000000000001,0.0007163574568789244,-0.3965813043709976,1.956363552745981,-0.012045548403909478,-1.5704417109275761,0.004990620172118376,0.446258611731251,0.1694516160884307,0.6001014289914232,3.1186783529124873,-0.0003500029029822725,1.5665620484935754,151.1216643664479,71.26576943186208,125.21043135760273,45.699665406306025,99.82273148678388,76.69586708765978,125.1770384122575,96.96393592902277,149.0,145.0,125.0,121.0,101.0,145.0,125.0,169.0,0.1972110861298002,-0.008584444877481938,-0.07213377265778716,-0.534803531569732,-0.17726851321612247,5.0549940717867665,-0.34350953294797576,0.11462086052960979
20,1.0,0.0029723993165924334,-0.39612195922695825,1.9554267304336506,-0.012528083897231479,-1.571676113116367,0.005452037777696539,0.4462460005083959,0.17034138166614401,0.6005911877950199,3.117712845395299,0.0008748138021892034,1.5683306920280802,156.40364212548405,71.81070678920517,126.13134022328461,46.55378111319717,100.020949266283,71.90443841827978,125.16222642054758,96.75772027800177,149.0,145.0,125.0,121.0,101.0,145.0,125.0,169.0,5.40364212548405,0.09813193890576447,0.5805272151545379,0.0029681050670802623,-0.10905073371699922,0.0864384182797878,-0.4780897849860109,-0.2501848603381491
21,1.05,0.003798238237072482,-0.3939128348226655,1.9512315900507735,-0.010082496264804064,-1.571940627165266,0.006298498498965799,0.44729918866150903,0.17069585047275035,0.602194579419114,3.118173954950582,0.0011227300042307752,1.568304586424779,150.7100265151022,72.24214888167552,130.42956794313852,46.81190758874321,99.5540116269469,72.17586093400442,125.88440399879431,97.4038143152972,149.0,145.0,125.0,121.0,101.0,145.0,125.0,169.0,-0.31416703328491913,0.18972952683681985,4.703209794245167,-0.21223728047208332,-0.6664292548166251,0.035580372882172785,0.09712765684600334,0.05987793358745241
22,1.1,0.005506580864789612,-0.3935947355526048,1.9504551470517848,-0.010767216962350723,-1.572952029981452,0.008045217119876824,0.44730545174145864,0.17137310485368776,0.6026610764794703,3.1170194608206914,0.00208518349259028,1.5682414691414945,151.18003652288755,72.23489009157348,125.54747508518003,47.16947466401733,100.55009661506195,77.21595773238279,126.39902470434495,97.43159857911363,149.0,145.0,125.0,121.0,101.0,145.0,125.0,169.0,0.14396437859898217,-0.017614918446571832,-0.12869599424970415,-0.19305079423113766,0.20324063128912084,4.741312701956829,0.616156178448532,-0.2875249268624758
23,1.1500000000000001,0.007207767324822978,-0.3932070304200903,1.949728158498952,-0.011310731074359204,-1.5738692150456917,0.008116922873261156,0.44733086095222746,0.1720448744158076,0.6030470003150955,3.116127578532016,0.0029948110063698955,1.5698467456567469,151.4704690947574,73.00290459283117,125.98661173663503,47.8418053734579,100.41199437755682,72.48018613379442,125.80493091916532,97.54725935554718,149.0,145.0,125.0,121.0,101.0,145.0,125.0,169.0,0.3497447486809298,0.26246193689556674,0.13763214479828545,0.20915231223341163,-0.11325814769569581,-0.1238542702459875,-0.07530860179276991,-0.3369721813789639
24,1.2000000000000002,0.007250920630779145,-0.3930225080686629,1.9488098654028052,-0.011452243926088013,-1.573813562371,0.008338166003080794,0.4475082568804119,0.1720701585854895,0.6036064117622498,3.1152528503380346,0.0029226231069446455,1.5696660106709557,151.44774623235492,73.2574176805992,125.90503699458199,47.91098914295328,100.69538307228889,72.99352282656763,125.94444483310707,103.37385008525241,149.0,145.0,125.0,121.0,101.0,145.0,125.0,169.0,0.3305745151831964,0.2574176805992008,0.016598860707738142,-0.04235771303049983,0.03138307228888294,0.037522826567624165,0.03262118581248654,5.2516055962744534
25,1.25,0.007496385655548998,-0.39484490955166596,1.949555647914158,-0.012835853891767446,-1.573890639595155,0.008528083578641432,0.4466666561140457,0.1721664954761754,0.6040716883487387,3.1127842132565733,0.0029719611771359183,1.5697123869499967,150.98985269911043,78.35375194319839,125.45670411670157,48.358251017262646,100.86336189118363,73.01956054953715,126.1077477648143,98.67094147780004,149.0,145.0,125.0,121.0,101.0,145.0,125.0,169.0,-0.07492462882477637,5.173589999878553,-0.4057188812450319,0.03792247516818613,0.1482103760321058,-0.21074248076588198,0.16174776481431327,0.38294147780005183
26,1.3,0.005441936215182075,-0.3958254046901448,1.9495769880485563,-0.01332003183452457,-1.5726143038501812,0.008200192416351282,0.4465809854962291,0.17136979852143328,0.6045451188576945,3.111353493546074,0.0016889084663175345,1.5680178543749332,155.90622436180212,73.48561753304217,125.80555871994012,53.920022022420326,100.23282641992674,73.29479430590925,126.41580338574373,103.65973646603318,149.0,145.0,125.0,121.0,101.0,145.0,125.0,169.0,4.957140858747126,-0.10501383151994594,0.10802785574259395,5.238952063572592,-0.36595158414658413,-0.3528635352312752,0.5643977632537719,4.87258787165567
27,1.35,0.005523784515451879,-0.3939714706391255,1.9457746346288651,-0.010965519445749639,-1.5724393414887308,0.008424600981238761,0.4475585142474861,0.17143141671070147,0.6060451820048156,3.1117687146441613,0.0015116820836644743,1.5678811741867833,155.90555391908137,78.97688907559433,125.70787975997146,49.20828637134221,100.62159091886302,73.64945983975414,126.03703772329143,104.15613812114138,149.0,145.0,125.0,121.0,101.0,145.0,125.0,169.0,4.940318745257228,5.060733656371423,-0.10154646953672529,0.10172899429303076,-0.18125460959226397,-0.3688328431726822,0.15420944046315033,5.156138121141385
28,1.4000000000000001,0.003951012225900552,-0.39448943648315327,1.9437346315401056,-0.009654098263009114,-1.5713123532871522,0.008540870875598294,0.44761180001268386,0.17084162256043556,0.6075234506583601,3.1105282235559377,0.00036924209350541385,1.5662249131695671,151.08199266903185,74.46761379639688,125.64226811061546,50.07827865262291,100.95934745075778,74.80889087190093,130.5598067054482,99.33843013294405,149.0,145.0,125.0,121.0,101.0,145.0,125.0,169.0,0.22572983535626495,0.19656656847080045,-0.005648556051199166,0.46994531928958194,0.28785984745198906,0.24070905371911128,4.677453764271753,0.03417049805561449
29,1.4500000000000002,0.002277155935886288,-0.39497332367928006,1.9433886394859208,-0.009775879445725444,-1.5702005635093181,0.00686169471941378,0.447696755804123,0.17019076703110755,0.6079865480416711,3.1095845735055265,-0.0006969833694932587,1.5662643209457079,150.41934658449568,74.7928896411306,130.7656025600577,55.035107467883684,100.67679295842981,79.70163687493478,125.99032085642558,99.59601796766911,149.0,145.0,125.0,121.0,101.0,145.0,125.0,169.0,-0.40539568354555144,0.2403123215429797,5.037386792422826,5.060003733443849,-0.09938773972212736,4.874121474524102,0.12853223853940265,-0.0848763412739835
30,1.5,0.005712817901935896,-0.3925668408515395,1.9416938056356488,-0.01011209232962118,-1.5722778968633113,0.008800591100014632,0.4484705231101854,0.1715483825307204,0.6081018033859003,3.109951562341372,0.0013325451589824508,1.5677007549404867,150.92568785865492,80.1886699152246,131.27675327485812,49.935828493757555,101.25797066232786,75.02026551263023,126.11688254499646,100.04715920717214,149.0,145.0,125.0,121.0,101.0,145.0,125.0,169.0,-0.03954731516921782,5.272514496001689,5.388554517094163,-0.18632471535217607,0.35838049839344505,0.044855676564644814,0.12501262629727442,0.1894356299363632
31,1.55,0.005677421873882871,-0.3931490209176953,1.9418820110757444,-0.01127090739539538,-1.5723291438592701,0.010487642519806162,0.4482878666470581,0.1715403022655323,0.6083657164452663,3.108391993467269,0.0013126660255751888,1.565975337251867,151.01791513087062,80.30035980149421,130.7559015470534,55.104603482454415,100.85179298656098,75.37976894404346,130.74580313805473,99.88180409385494,149.0,145.0,125.0,121.0,101.0,145.0,125.0,169.0,0.11237098302666876,5.2510784873258265,5.023124929099334,4.628611833185104,0.05591669790118563,0.0952328615692234,4.8089395942665405,-0.1650390833344738
32,1.6,0.003613101047986511,-0.3923348459866087,1.9405426903933245,-0.010733229787995402,-1.5710873515207124,0.010281731519726556,0.449077167941732,0.1707337419589758,0.6088503480350898,3.10842051248824,7.031503471841921e-05,1.5641541047881744,150.32869600517031,74.7784411037964,125.2048044024328,50.758709268890996,100.92065495300938,75.18961962140571,131.10072596706053,105.51529445191757,149.0,145.0,125.0,121.0,101.0,145.0,125.0,169.0,-0.33590026812159873,-0.5362586891642749,-0.2951955975672031,-0.021881448408580407,0.29617362520854273,-0.45353390556523154,5.274550097939862,5.1594662310586745
33,1.6500000000000001,0.0017335693849918066,-0.3951147114448359,1.942191780281843,-0.012272903901620946,-1.5698675025487532,0.008268194086613168,0.4480580684655975,0.16999326763637757,0.6091450843718919,3.105750402552039,-0.0011066254259345775,1.5643303052942572,150.64972424011285,75.40354752880671,125.36578293761966,55.832772778324745,100.24744423799788,75.77941281514228,125.89226108133771,100.65528762668046,149.0,145.0,125.0,121.0,101.0,145.0,125.0,169.0,-0.02042189767420842,-0.19144203277993121,-0.13421706238034745,4.646332100358644,-0.5170185719194755,-0.16066982948582625,0.08283485182952341,0.03028762668045914
34,1.7000000000000002,0.0016937240450505264,-0.39354224595173193,1.9404079461488033,-0.011729562329677368,-1.5697633312682155,0.008216552819001688,0.44891996803629813,0.1699902334383398,0.6095930166356018,3.106089924949077,-0.0012017529567954692,1.5643467705996958,151.137796553327,76.01923900041989,125.79328696820512,51.610458870075156,100.76597934459981,76.48395109758268,130.9463943711279,101.2967260612465,149.0,145.0,125.0,121.0,101.0,145.0,125.0,169.0,0.4311849830790826,0.15560263678352332,0.24591854715248626,0.1936167648119995,-0.04226807808059951,0.30869336562391403,5.052516820107484,0.38244034696079277
35,1.75,-1.756672061592468e-05,-0.39411574005709493,1.940038392692614,-0.011774514709466999,-1.5686187676524685,0.006451310567365809,0.4489628353857428,0.16932343378981815,0.6101043955016212,3.105107900105825,-0.0022908993951220825,1.5644417942462892,151.3316231899253,76.42188070356289,125.34118119190865,51.555704625316025,100.83522793868795,76.77106443711315,130.94142303593463,101.18428013434193,149.0,145.0,125.0,121.0,101.0,145.0,125.0,169.0,0.65453985659196,0.24479737022955728,-0.1989031962769943,-0.14260761097088884,0.09356127202128942,0.2710644371131577,5.053897473562454,0.1372453695157522
36,1.8,-0.0019151533860566339,-0.3946577482752862,1.9395675603561253,-0.011688055280838938,-1.5673513946455113,0.004533131839165705,0.44904113339806995,0.16858360757521304,0.610657933231936,3.1041800021452537,-0.0034937757603645827,1.5645098912310837,150.79225700261935,76.61777038313791,125.60831860238623,52.28108054099542,105.82657768061873,76.60920341318469,125.75642331090313,106.48996079081743,149.0,145.0,125.0,121.0,101.0,145.0,125.0,169.0,0.194340335952692,0.2323537164712338,0.10831860238623102,0.2810805409954171,5.019046299865591,-0.12510621024626797,-0.10599968704347223,5.169632248722969
37,1.85,-0.0017302566472765513,-0.3983488166295901,1.9437210431682965,-0.015906473538516597,-1.5675956790110517,0.004455247653109229,0.44729415312657383,0.16864895622675669,0.6099484798542342,3.1004114255151034,-0.0032573968676390566,1.5647793806238834,150.8752255257826,81.32390246981424,125.75641429570987,57.1083440382963,105.48692016620724,82.0531997301746,125.75691616172594,106.2909111980586,149.0,145.0,125.0,121.0,101.0,145.0,125.0,169.0,0.20715829889183515,4.7776839824192905,0.23624444432983177,4.853566968232608,4.627706915689645,5.138085858538986,-0.05881882792210159,4.802298361619676
38,1.9000000000000001,-0.00133667018518846,-0.400006712569803,1.9461686724756886,-0.018832261953461327,-1.567940884025501,0.004441309264628934,0.44651382606196643,0.1687939915664242,0.6093425733570478,3.098274154130964,-0.002917637680217109,1.5651806173695706,150.3590055204981,76.28990451623078,125.86289020163741,52.31826698417874,100.87234777479891,81.81763557117438,126.12706774573452,101.36535246074595,149.0,145.0,125.0,121.0,101.0,145.0,125.0,169.0,-0.23974707825450273,-0.3504281241018731,0.25437956333954,-0.10088195199146537,0.0009784801931023988,4.794813994410888,0.29749895723349634,-0.2753046234429684
39,1.9500000000000002,0.00066084945990319,-0.399542249442681,1.9457974093078017,-0.0197151703688756,-1.5690737163647732,0.004614084605513824,0.4465366917880986,0.16957377915508468,0.6094875598022204,3.097486771562139,-0.0017940218218656125,1.5669588318104608,150.500965557656,76.89291132556689,125.39694338781963,57.66233860771064,106.17193509214728,81.87087895884474,126.10913106313863,101.66855971068888,149.0,145.0,125.0,121.0,101.0,145.0,125.0,169.0,-0.30234707174357905,-0.07396238043724691,-0.30644644268883536,5.079711489066569,5.258891613886401,4.738373782861295,0.1561658279648134,-0.21896585168330227
40,2.0,0.002232787196500663,-0.39937380644161546,1.9473404340164775,-0.022250487873562985,-1.5701288187649638,0.00444558542253759,0.4464858994837578,0.1701681634166019,0.6086415050287776,3.0966626029129762,-0.0007345229670436829,1.5686536276411207,150.57653362189026,81.69567565754801,126.21452050702868,58.084280640107046,101.21347337595779,82.23758490468956,126.46312681080032,102.1348415627216,149.0,145.0,125.0,121.0,101.0,145.0,125.0,169.0,-0.3530730033685296,4.650127003303707,0.3185544773046811,5.489800809958425,0.22382534283149214,5.111290908830334,0.4856677944068747,0.19631697255766836
41,2.0500000000000003,0.0022867691604497864,-0.3977968918087136,1.9459057588064885,-0.021993279387529707,-1.570122109571197,0.0044175283343999006,0.447333921614677,0.17019100877580665,0.6088867741064046,3.0970673377229403,-0.0007425393645506024,1.5687333221810753,150.99342428576438,77.29797491346713,125.57028840867449,57.553650494422854,100.86081317391117,77.3175914207605,126.00995014019728,102.2515693054196,149.0,145.0,125.0,121.0,101.0,145.0,125.0,169.0,0.13538670747626322,0.011962387371101469,-0.3305554731820573,4.754072435351127,-0.12451177367792485,-0.09121361068605473,0.04471496637314788,0.16772472464250235
42,2.1,0.002182700033339202,-0.3962417618320728,1.9441924601515188,-0.021482498606094413,-1.569994324134516,0.004397722308980612,0.44819474637839296,0.17015626871987022,0.6093036500154566,3.0974228356822873,-0.0008706948039825801,1.5686529871256045,151.07733766726102,77.68427999023574,130.54677902791678,53.398893094034555,100.9009596108496,82.53137965699092,125.85609324176106,102.15313583906573,149.0,145.0,125.0,121.0,101.0,145.0,125.0,169.0,0.1879848488894217,0.17279773553845038,4.643417683378974,0.23922922848833414,-0.1053429101588171,4.915833438503526,-0.10078560834160398,-0.1795130315708147
43,2.15,0.005645020251237476,-0.3950403912943412,1.9432606222547246,-0.022316737663070185,-1.5720746077009684,0.006307902821924838,0.44836201622775146,0.17152058244568136,0.6095032263563889,3.096843287463505,0.001127172987159689,1.5701182957668929,155.69812337474409,77.38130908724516,125.89615357799661,53.598151934246616,101.37524113649106,77.93559882147646,126.27146110289581,107.73364728175667,149.0,145.0,125.0,121.0,101.0,145.0,125.0,169.0,4.698123374744076,-0.4140980108759313,-0.14852727306721286,0.23857746616150652,0.255158320756061,0.10537107820523134,0.14956027644952896,5.200589430516993
44,2.2,0.006207286428306702,-0.39498931120058467,1.9413375346870678,-0.02147039151842023,-1.5722320978456024,0.006616312237321509,0.4483680167452961,0.17175868965692606,0.6107057959374305,3.0958099310815728,0.0012606607950482887,1.5703633919174422,150.82699391179213,78.54166061572953,126.56685335628062,53.899740874086255,106.3991987295628,82.89825768074103,131.54326436109707,107.93313511796387,149.0,145.0,125.0,121.0,101.0,145.0,125.0,169.0,-0.1646900798918632,0.4335525076214089,0.4493319887592482,0.23093745528283333,5.116179861638272,4.709578435458012,5.444498928998325,5.038073389568807
45,2.25,0.0060583190434226886,-0.39888682302739387,1.9457524517947231,-0.02564568339305362,-1.5722322762006398,0.00486300414186891,0.4465517492163323,0.17166389536816043,0.6099080997706312,3.0921431041604173,0.0013199186717685408,1.5719607686968071,150.72854553930296,78.40842100596863,130.94831563148213,53.5907878946606,101.20261161308436,77.77847321690298,126.0328861988601,103.34184201054553,149.0,145.0,125.0,121.0,101.0,145.0,125.0,169.0,-0.3071687464113192,0.06598403117871803,4.717052248184474,-0.18865536015738635,-0.12091779868034862,-0.46102258141635016,-0.06156965329596531,0.39112332471391675
46,2.3000000000000003,0.007556680096054258,-0.39903748928153293,1.945861109794321,-0.02698208697797222,-1.5731853607608004,0.006600698335422983,0.44634949254719525,0.17225174421486925,0.6100520304546435,3.090760224244873,0.0021795071748843798,1.5716744705808672,151.10640624882592,83.62546783603251,130.94877491122546,54.14661235243216,101.20352748271901,78.40556799571702,126.13436179383609,103.4256928176608,149.0,145.0,125.0,121.0,101.0,145.0,125.0,169.0,0.06438944210321808,5.119165315024106,4.691264181611729,-0.07656361323307342,-0.12136703204892316,-0.052237911455978364,0.011158508415143336,0.3127564726916016
47,2.35,0.007327763673945498,-0.3993908798696646,1.9457799198025132,-0.02783811631071398,-1.573111490383794,0.008156309613364332,0.4463040970647734,0.1721668301739934,0.6103594730032949,3.0894718653938638,0.002013396551459432,1.5698917252139493,151.05290927391246,79.24769234359646,130.87507830139126,59.35503072784722,106.18783028655308,78.62515754545474,126.30417671220098,103.30446702836721,149.0,145.0,125.0,121.0,101.0,145.0,125.0,169.0,0.0782257296086751,0.5240636516133302,4.799809484186953,4.912019975159044,4.914146076026762,-0.09905298086105284,0.17554600680679192,-0.13121761893569622
48,2.4000000000000004,0.008582170343987894,-0.3992910196779733,1.9472346220559045,-0.030402814498554864,-1.5740812846529622,0.009600911340919893,0.446271573285567,0.17264187838267178,0.6096085528904115,3.0884533287459477,0.0028992064987056936,1.5696508983021837,150.91740102754807,83.98337910526466,126.34327103038086,54.303770860199194,100.96369859462655,78.80058692516192,125.59003511036853,103.426204765918,149.0,145.0,125.0,121.0,101.0,145.0,125.0,169.0,-0.03270292255585997,5.033275155160704,0.29391480720490254,-0.25846089945746287,-0.1654680720401067,-0.09732974150473019,-0.5155549517432726,-0.12659026513788815
49,2.45,0.0070267162690256235,-0.39985800004857186,1.9470599282579117,-0.03081122409698267,-1.57313213277415,0.009767486586177654,0.4463056805087894,0.17204043329356025,0.6100262108866693,3.087310905223051,0.0019258848081140894,1.5679751885005473,155.64940788456252,79.2974075543228,126.10090473927953,55.12435350847493,101.63737134492516,79.18244764630036,130.93721046800206,103.93963110060585,149.0,145.0,125.0,121.0,101.0,145.0,125.0,169.0,4.839281302284046,0.08643709018778309,0.17996456833935956,0.31025094437237094,0.49572229629936326,-0.12199209999986053,4.937210468002068,-0.011087585225762257
50,2.5,0.0054942608222483535,-0.3986160255069642,1.9440350518116132,-0.02866524808752846,-1.5720005979112788,0.008378635063909456,0.44720170168148266,0.17145968644883908,0.6112953175898196,3.087689269894629,0.0008698481424565385,1.5678890492693218,151.03901476745875,79.8577411696103,130.74324385757143,55.11622815593956,105.99851638771486,79.38717304714483,125.68652164477346,109.03591636968382,149.0,145.0,125.0,121.0,101.0,145.0,125.0,169.0,0.3174957801169832,0.3682896928170638,4.818512674775722,-0.22785786556581494,4.824787574155537,-0.19121678336363931,-0.33816971325123535,4.980360814128265
51,2.5500000000000003,0.007184853072278674,-0.401965487790811,1.9481843615351684,-0.03327912060346572,-1.5732438992325193,0.010005301086103646,0.445402192395421,0.17209811779311268,0.6104822767926156,3.0838490191554038,0.001993725551167944,1.567885793686594,150.71515601003927,79.73448873271647,130.60413704281152,55.93647992875186,101.19056483864698,79.6259342720013,126.12341203637423,104.37462234154042,149.0,145.0,125.0,121.0,101.0,145.0,125.0,169.0,-0.02324061443332093,0.12478409136626425,4.668931859226196,0.45915811449699734,0.05314411983090881,-0.06962598169847437,0.07382525951473269,0.1452834985652022
52,2.6,0.008680807733378426,-0.40165227159529326,1.947929350358323,-0.034310517603475255,-1.5741844288603906,0.011610613149744431,0.44542195340987184,0.17268707853069548,0.6106351117415721,3.082864460948382,0.0028317629718592023,1.5677234382198681,150.70957692743113,79.4282726083624,130.8118294367883,55.42164823206429,100.85057314898869,85.2980588798287,126.09545736258487,109.74431343387555,149.0,145.0,125.0,121.0,101.0,145.0,125.0,169.0,-0.016537722250415592,-0.3615363088350444,4.861185659964252,-0.2392959739442919,-0.301005798379736,5.3191115114076535,0.057800458819174075,5.2443134338755435
53,2.6500000000000004,0.012536464306673434,-0.4025685369190417,1.9488098992476361,-0.03650846128437246,-1.576511656454331,0.013460597780414307,0.4444781813204447,0.1741808952576387,0.6106990850030539,3.080592482368686,0.00502020554424305,1.569587022574236,150.59003499082166,80.13717993797725,125.89862181616651,60.52752236144735,101.36524731064073,79.82461319435126,131.19063588338003,104.54283092442273,149.0,145.0,125.0,121.0,101.0,145.0,125.0,169.0,-0.2770536167732677,-0.059022593668310815,-0.31007383600740934,4.653609317969093,-0.05301171271383578,-0.3112679096827149,4.998969216713369,-0.05716907557726444
54,2.7,0.010480743714922358,-0.4018576984041955,1.947852588998395,-0.03609615510068398,-1.5752011674465178,0.011634342136562559,0.4452082799580661,0.17338165933474853,0.6109835121877202,3.0807912478002493,0.003815261623975862,1.569429456085292,155.7798678811452,80.59342614880886,126.20361063766461,56.69749783993419,100.95141886546453,80.37566659984962,131.16510862843668,104.91412388053865,149.0,145.0,125.0,121.0,101.0,145.0,125.0,169.0,4.911782774762241,0.25300061689396924,0.07100194201243286,0.4670630573254893,-0.3698577302801448,0.0011985147432368509,5.057670611907741,0.011231318555174417
55,2.75,0.008914073951470591,-0.4000977160507557,1.9441194212377466,-0.03334604033799371,-1.5740202806068764,0.01027948223316022,0.446363434950217,0.1727942807572607,0.6124368020557084,3.0815922670008,0.0027201143360834246,1.5692854273478944,150.87833889280822,80.53349880798974,126.04112130758053,56.22969621617318,101.22334803142205,80.57133708511924,130.69124575945492,104.92860581131197,149.0,145.0,125.0,121.0,101.0,145.0,125.0,169.0,0.0339892126376309,-0.05925172505930129,-0.06998980353059572,-0.2953582500577557,-0.18564554459507202,-0.10532244378868251,4.571162943719937,-0.24116644541680432
56,2.8000000000000003,0.007314566950095802,-0.40083415387853405,1.944235975724852,-0.0338078391269816,-1.5729896406240886,0.00869794176506522,0.4463058305407464,0.17217067893729673,0.6127381779125215,3.0805190530974706,0.0017772009107546913,1.569325172690444,155.81727465435225,81.14175066536237,125.67145055331902,56.550651865274524,101.77961448329476,80.97833065462648,131.4429751535864,105.12610794660365,149.0,145.0,125.0,121.0,101.0,145.0,125.0,169.0,5.048043885121476,0.3361951098068054,-0.4418392070295589,-0.2009821216535841,0.3043456660904661,0.038545708389911344,5.26268165253818,-0.3015650093711827
57,2.85,0.0055128377271027595,-0.39959465652135595,1.941147618081228,-0.031516660001527086,-1.5716847437138242,0.007032979479500767,0.44723162525056,0.17148915189906522,0.6140350780196702,3.0809755247274007,0.0005788211776164034,1.5692647153016612,151.12691933400794,86.50375061120073,126.21422598412678,57.4773447415941,106.60184393037865,86.43776730994419,126.22515734439813,105.59955987381967,149.0,145.0,125.0,121.0,101.0,145.0,125.0,169.0,0.3367694410743169,5.22109536494805,0.06324130141344775,0.24977362562036728,5.049155758335638,5.149595266933441,0.04831523913496807,-0.061492757759275735
58,2.9000000000000004,0.005676997963444119,-0.4014971155218672,1.9441933785461032,-0.03490302693985825,-1.5719512925238641,0.0069527832060187755,0.44636237737262185,0.17153466082025837,0.613186183862964,3.078725310960627,0.000839937961157036,1.5694940101484203,150.7743478389327,81.28777095544206,125.9677385954064,57.543243896557975,101.46903771821408,81.34996617274983,125.95346366921352,105.84821506851318,149.0,145.0,125.0,121.0,101.0,145.0,125.0,169.0,0.015286005244002102,-0.08109898059205867,-0.13683656799228494,0.157622981525295,0.005675649248565729,-0.06382693069843458,-0.16736966411981832,0.04404840184652675
59,2.95,0.0058185065837008665,-0.40156124863350096,1.9440963725278344,-0.035663793300205526,-1.572013638114849,0.0070537529712693114,0.44638647177619745,0.17159525254158273,0.6133680803860333,3.0778025053575426,0.0008915717531058181,1.5695311671605026,156.1271552229081,86.40028569803793,131.1290399052977,57.536061851460005,101.432157044027,86.8599544132873,126.52905320258729,111.05803262240613,149.0,145.0,125.0,121.0,101.0,145.0,125.0,169.0,5.3310178838522955,4.893847929797591,5.017928794186598,0.011007385229073088,-0.04096123554289678,5.229846886405586,0.4793637615935104,5.058032622406135
60,3.0,0.00791741101041854,-0.40050590193964464,1.9413978365927589,-0.034539967951713546,-1.5731587357904688,0.009041110693698506,0.44665413599384773,0.17243809612779967,0.6146216657722365,3.0772721063849406,0.0019054309243662119,1.5695740848258233,150.6902177330406,86.72533190585364,126.2644692050099,58.375251918347956,101.63292797946377,86.77367276298833,126.0405048793074,111.12717179771879,149.0,145.0,125.0,121.0,101.0,145.0,125.0,169.0,0.017728650071177337,4.882537146028308,-0.009472888531299234,0.43538554863749274,0.08314442968022129,4.877568866884437,-0.20211115444785943,4.8086063968749135
61,3.0500000000000003,0.008228368369330497,-0.402265444386376,1.9427739580232375,-0.03638617244474407,-1.5733460368119863,0.009191352215769388,0.4458121740038962,0.17255251917850756,0.6146795550782299,3.0750348423694445,0.0020609775168750227,1.5697186876369666,150.808844668746,81.98085633125362,126.63693599502784,62.864544286564325,106.86756954614188,81.84586986616603,126.06526069236095,111.08503458218449,149.0,145.0,125.0,121.0,101.0,145.0,125.0,169.0,0.1084136342632173,-0.16785056529810494,0.3391582172500621,4.731210953230994,5.280613024402761,-0.2932605686165882,-0.23009795742807232,4.667313063197154
62,3.1,0.00840445715579552,-0.4048130347683587,1.9466497738516857,-0.0404610746915024,-1.5736578349158092,0.009208832576671266,0.4446285880454485,0.1725890828783793,0.6136258795291719,3.0722821082863625,0.0023448769338861196,1.5698503773171535,150.795664018416,82.25284139361686,125.74699180958568,57.979085685169245,101.25981418215817,82.62543085722425,126.74459873617998,106.6315102423256,149.0,145.0,125.0,121.0,101.0,145.0,125.0,169.0,0.06937091496772525,0.007151738444444322,-0.5434738223433697,-0.29807617735846526,-0.31161438927040985,0.40248713428051475,0.5139907697229577,0.07176181465264811
63,3.1500000000000004,0.008309341944253035,-0.40500148204172914,1.9465450867006124,-0.041116377925281,-1.5735587243475777,0.008969632135323202,0.44462576432932777,0.172553281756887,0.6138542734669105,3.071339794724471,0.0022522004624126054,1.5699976609136614,150.96445964838415,82.84471351330367,126.6754835945466,58.27562338249394,106.35412531046525,82.16609981812219,126.65111432564275,111.61366386761901,149.0,145.0,125.0,121.0,101.0,145.0,125.0,169.0,0.13256309666003027,0.4222997202002307,0.4596245637095982,-0.22437661750606033,4.749373690594842,-0.2399476980765077,0.4347277710209007,4.909882355013962
64,3.2,0.008295966910924157,-0.40915130096058006,1.951431495490552,-0.04585764722518171,-1.5737427907622399,0.008851801251710256,0.4426790355032177,0.17251177765190734,0.6128954022361327,3.067324331831246,0.0024080812533953462,1.5700804151986665,150.87548459010577,82.54151675165812,126.30989972360037,58.35784515144582,106.67880466791902,82.59058109890007,126.12814241470026,106.96479577985714,149.0,145.0,125.0,121.0,101.0,145.0,125.0,169.0,0.13418024227967387,0.0023863168755208024,0.1090167213928688,-0.2536338772517485,5.14216673688455,0.004374202348346522,0.036475748033599965,0.07521244652380159
65,3.25,0.008531303205793872,-0.41153015853587416,1.9550136929403257,-0.04971281880235834,-1.5740686291034596,0.008809820205348817,0.4415707068250856,0.17257423947626369,0.6119342817301245,3.0646687099802037,0.0027133620539273253,1.5703270499159683,150.90566975478245,87.45253667920177,126.81994385660684,58.6517702035351,106.46905503094078,82.54969980012476,126.1011458912345,106.73753651516402,149.0,145.0,125.0,121.0,101.0,145.0,125.0,169.0,0.15458750370020724,4.803186029851115,0.5783331183518097,-0.17149601570427175,4.930093991979739,-0.07584132541636865,0.051456450240703985,-0.2624634848359745
66,3.3000000000000003,0.0071855770044702005,-0.41426033164831777,1.9586636162957207,-0.05336039573439422,-1.5734785940317737,0.00881775770598825,0.44052983444802196,0.17202806413510274,0.6110512670940119,3.0619479353193193,0.0020965438588629657,1.5690116403155612,150.37298476639813,82.50022771341443,125.66572280443125,59.205543144999886,101.686255784992,82.55255540513502,126.00664030231371,112.55154830078814,149.0,145.0,125.0,121.0,101.0,145.0,125.0,169.0,-0.19875436403666755,-0.3280331561507752,-0.2606164812830388,0.2457217164284526,0.2579949154267717,-0.2757054644301853,0.006640302313711572,5.397702146941983
67,3.35,0.007250169404585449,-0.41675877381182946,1.9608301997262094,-0.05580887641409271,-1.5735403976418896,0.008747971061477067,0.43937091586888855,0.17204133655796608,0.6109491084588814,3.0591634954054436,0.0021389437048280496,1.5691356329943416,150.6492435444319,83.03710277250845,126.08778101770629,64.07630433743584,101.54594022972552,82.95286375078959,125.52054913561588,112.20661851387544,149.0,145.0,125.0,121.0,101.0,145.0,125.0,169.0,0.07500773657165427,0.02400233582722395,0.1145667319919974,4.924518623150128,0.1189249791808677,-0.08635193548492992,-0.5026087591209532,4.8024079875596515
68,3.4000000000000004,0.007438314505024302,-0.4170675614029924,1.9610780187087915,-0.056828222086453106,-1.5736558423275806,0.009008609708566429,0.4392679298968175,0.1721144697398705,0.6110301663139833,3.058086689213403,0.002223566811116914,1.5690523418856803,150.20802025413298,88.54523274630365,125.85858271854661,59.46404213297264,101.8963475737903,83.42805390327251,130.76176057099025,108.19879724393282,149.0,145.0,125.0,121.0,101.0,145.0,125.0,169.0,-0.4006753980409329,5.2669718767384435,-0.14141728145338026,-0.035957867027365815,0.5254148189095976,0.1330430572855306,4.7197437642675615,0.6693854792269383
69,3.45,0.003895998303599768,-0.41930159593070826,1.9627730710519948,-0.05820820775668789,-1.5715518491865819,0.00714097516848522,0.4387709701645336,0.1707464938810793,0.6110009090711692,3.0561878080126075,0.00026116993914968706,1.5675428010903332,155.51507933837976,83.05062417077079,130.66954061679544,65.08113503820212,101.22741029433537,83.71026925712764,125.80215949464218,107.90386545333727,149.0,145.0,125.0,121.0,101.0,145.0,125.0,169.0,5.076901464193217,-0.35284654506435353,4.976028312544877,5.360777096367677,-0.004693827139693313,0.17013910528381798,-0.11607949906851085,0.1344734197942987
70,3.5,0.005975728275495307,-0.41417522422011066,1.956830921326521,-0.05469918007871444,-1.572657803488303,0.009329118814015658,0.4410417912368462,0.17158229377647707,0.6124162732927835,3.0588864676481182,0.0012078557564175428,1.567352558381894,150.53626492482715,83.55243582451045,126.0376869797895,60.07947340522102,106.04262282582229,84.21072860891884,125.84079734036881,113.08517788424906,149.0,145.0,125.0,121.0,101.0,145.0,125.0,169.0,0.06669970743584905,-0.11278156679390218,0.2148170246325503,0.09741062495196424,4.639572716889828,0.37412730172930164,-0.15920265963119012,5.085177884249063
71,3.5500000000000003,0.00616900761458794,-0.41922758664052395,1.9629474301996037,-0.06045113343843811,-1.573010816254019,0.008984747965946838,0.43862519066748734,0.17161944716543226,0.6111130778318783,3.0541774721587855,0.0015496805236511718,1.5678562246974848,150.23262898906748,83.75213551434254,131.00567521785396,64.95182324990502,101.81620649079441,84.01736665989617,126.20561010092206,107.96500925960244,149.0,145.0,125.0,121.0,101.0,145.0,125.0,169.0,-0.3154059454303448,-0.029523874303743952,5.2151346773134115,4.8414628895446645,0.41358067022547995,0.12896403407559606,0.2514434342553886,-0.13707407373090147
72,3.6,0.007498200623721196,-0.4179960884152685,1.9626437397123615,-0.061485933510934565,-1.5739169657628453,0.010507934718495537,0.4391153657434487,0.172128153698692,0.6109007478011657,3.054062502692124,0.0023193063100650363,1.567588848685053,150.4810929738333,84.24439635730657,125.44903845782503,60.388234668607524,101.24780848892127,83.97201539269808,125.96412940800171,108.1551702256858,149.0,145.0,125.0,121.0,101.0,145.0,125.0,169.0,-0.017817701547945087,0.27054014815624117,-0.3054660466794812,0.22607250644536117,-0.15612164208310642,-0.08038635402681955,-0.00633472701939119,-0.19504074477834057
73,3.6500000000000004,0.007271230369187531,-0.418212013855185,1.9627036759195562,-0.06226173001768043,-1.5737607202627375,0.010342359911558852,0.43912004972612156,0.17204022133183725,0.6110424875257681,3.0531369753455335,0.002165175411540809,1.5675369374155448,150.54677330212772,84.25581824532321,125.78136291073338,65.46018268881777,106.02748306208471,83.87059960924441,126.02967124576885,112.85015888651,149.0,145.0,125.0,121.0,101.0,145.0,125.0,169.0,0.11851243256251134,0.0840791148884241,0.016918466288934158,4.960182688817761,4.681162715764377,-0.4345951959503894,0.029671245768849483,4.350158886509997
74,3.7,0.006900532783665536,-0.4212241101321208,1.9669554465106485,-0.06648054924943425,-1.5737455972476857,0.009881141653117265,0.4377851043483474,0.1718648286077007,0.6099357063896942,3.050150133045178,0.0021598137366504,1.567621034982727,150.35380289960145,84.21268971103311,125.33053493532846,65.4034230848367,100.598319090761,84.2134003230311,126.19771943538568,113.61616562385018,149.0,145.0,125.0,121.0,101.0,145.0,125.0,169.0,-0.10371344026783265,-0.03131900356383915,-0.3959224637746745,4.818221291114737,-0.60211194372176,-0.1766858838654543,0.2566668038067444,5.0182708870080734
75,3.75,0.00648772189928204,-0.4223374932128259,1.9679026804507025,-0.06787440952483204,-1.5734962079711057,0.009517973486903752,0.43737072827436657,0.17170285894288695,0.6099341080395517,3.0485926740460307,0.0019284949308284096,1.5675894557555041,155.21417570733496,89.22634013016197,125.86107403746773,65.4378216478886,106.63107821226171,84.3033599791186,125.95964746387769,108.90904115952722,149.0,145.0,125.0,121.0,101.0,145.0,125.0,169.0,4.783740924726265,4.798079260596757,0.12008304647673951,4.563947774014724,5.383252125305193,-0.2575095860987887,0.05588177350110942,0.11824618044773075
76,3.8000000000000003,0.005299874619571376,-0.41973505292746704,1.9650272217463707,-0.0662180005652151,-1.5727622755850312,0.009906699951576226,0.43889473151142694,0.17126509185696356,0.610568454854781,3.049997029415992,0.0011727572336152562,1.5660819316826102,155.2340033253908,84.5831145376185,125.08065151970787,60.973324521368276,101.1810605086917,84.66817592108409,131.27568056993874,108.91575416321257,149.0,145.0,125.0,121.0,101.0,145.0,125.0,169.0,4.887682979070473,-0.11169065718670311,-0.5703551917015252,-0.08484102673016165,-0.053588614115311024,-0.1914732017229216,5.339995922635837,-0.10499272475423864
77,3.85,0.003637433012815272,-0.4176099037204719,1.9609671828205455,-0.0631183391289798,-1.5715000342530097,0.008328140974147136,0.440226349356154,0.17065232005666334,0.6120613973183973,3.051178697491994,6.684859377961166e-05,1.5661052233027812,150.41344011401472,90.2280088645394,125.49598914940326,66.43679474740443,100.97645981322144,85.29994140918696,126.35525912460281,109.62890490876526,149.0,145.0,125.0,121.0,101.0,145.0,125.0,169.0,0.02442912500373659,5.206030842561382,-0.13238922897511493,5.112470423080113,-0.3467505989260619,0.007099760596936379,0.4760218364672072,0.24331168842626832
78,3.9000000000000004,0.0015914103927117118,-0.416204976505822,1.9593189711763515,-0.0622432669160462,-1.5702486188724007,0.008105097349305979,0.4412827445028254,0.16987760451364045,0.6124698445681711,3.0518209574042543,-0.0011547174941101976,1.5643931982057282,155.64523615871667,85.18098555476311,130.19913418284702,66.74934884717341,100.64586870979545,85.47374328333312,130.69592617581569,109.47344604835996,149.0,145.0,125.0,121.0,101.0,145.0,125.0,169.0,5.355762474506156,-0.01199690137724022,4.654291133519663,5.0722188023303625,-0.501636713198032,-0.016495328380536665,4.914873544236731,-0.11602763585057357
79,3.95,0.0017225484523422097,-0.4108076109568475,1.9524965722663046,-0.057482970972649206,-1.5700951816040147,0.008694922014455653,0.4439610472691834,0.16996283746952492,0.6142146904226392,3.0551686749431166,-0.001328450404537582,1.563946562609768,149.76380858423178,85.16268861377424,125.57914852600705,67.0556949712255,100.97349573366591,85.91843889916582,125.11103884649226,110.08150403452113,149.0,145.0,125.0,121.0,101.0,145.0,125.0,169.0,-0.4101044592464683,-0.3460070383996711,0.07914852600704389,5.0556949712255,-0.3421775555173116,0.059719252366699345,-0.7904286587488222,0.21567594227794254
80,4.0,0.002157031071181148,-0.40877744731770616,1.9508393112074867,-0.05708990426191907,-1.5703282861447256,0.009056137249840113,0.4449658667001908,0.1701410697729805,0.6144069205837381,3.0559313072569485,-0.0011161964469098592,1.5640020908083374,150.00742442446364,85.77160453268932,125.60473766190715,62.1216880486281,106.61753093628266,85.86486290794582,125.64428462431923,109.92600791607875,149.0,145.0,125.0,121.0,101.0,145.0,125.0,169.0,-0.21431470597112512,0.14334366312410435,0.020467998985809914,-0.024379367102232014,5.238676310732001,-0.08888158544624211,-0.2701203861191847,-0.15958707348283532
81,4.05,0.002205340840846226,-0.41195520615276404,1.955615709270262,-0.0618491092455038,-1.5705945568924173,0.008598325489565184,0.44348178363644536,0.17013153591028443,0.6130961734024512,3.052749554790109,-0.000836483460230008,1.5644889964888027,150.42207044703426,85.72454848965275,130.53334666523097,62.401163308461996,101.24066051062925,86.11786237196004,125.65916468441736,110.15114151159004,149.0,145.0,125.0,121.0,101.0,145.0,125.0,169.0,0.17207044703426047,0.03976588095709089,4.988301620185928,0.18719934449803255,-0.006604259611448701,0.025958652047576983,-0.23623280512237793,-0.007854304309549849
82,4.1000000000000005,0.0035688926650960795,-0.4129373257047533,1.9571842488563291,-0.0642768781096903,-1.5715397619556297,0.009934689885100045,0.44287911351275555,0.17065131704181474,0.6127398803767943,3.0508951849227954,-2.973459711736916e-05,1.5644392264744704,154.8982637521355,86.25096363974384,125.38893174520723,62.10414311912121,100.55097265241818,86.076748775292,126.26465388624288,115.35771408293566,149.0,145.0,125.0,121.0,101.0,145.0,125.0,169.0,4.562000015871776,0.30151309029329687,-0.19440158812610317,-0.24946048448239197,-0.6990273475818144,-0.23846861601233454,0.45704289258537295,4.989849389489566
83,4.15,0.0037552163882019762,-0.4122390264796687,1.9543907083562155,-0.06254122886139779,-1.5714332244232212,0.010140673249072307,0.443241353368104,0.1707451479950273,0.6141497129352269,3.0505403128322865,-0.00016190121197117983,1.5644284508437962,155.39111706068826,91.23170941899674,131.0910324044944,62.90575788257034,101.13484502999644,91.34284039029737,126.17728905358994,115.31822480362604,149.0,145.0,125.0,121.0,101.0,145.0,125.0,169.0,5.084273793580075,4.995506328489011,5.4598106850373895,0.13200222646174548,-0.1846298058897685,4.756407129903487,0.26839074850519223,4.746190905320964
84,4.2,0.005745398083472075,-0.41059491989697783,1.9511244273557775,-0.060899370775795436,-1.5724991247293243,0.012207621515269107,0.4438062378294255,0.17154077572099216,0.6154776009466927,3.0505513536597673,0.0007134821515351039,1.5642638902228874,155.24787748041814,86.6119071941736,125.20877567595703,63.15621167005411,101.25356757816729,86.892895326244,130.79307595914028,110.82266192477972,149.0,145.0,125.0,121.0,101.0,145.0,125.0,169.0,5.02419326989182,0.06585456259464523,-0.49576977858842347,0.04712076096320294,-0.15871312358709203,0.028860238524698874,4.793075959140269,0.04346871883493182
85,4.25,0.004484956293684839,-0.40795364937517276,1.9464991254682387,-0.057404250855416006,-1.571460825180691,0.010991332165958934,0.44532925970116916,0.1710794311241576,0.617070986700876,3.052083219751891,-0.00019804680174625772,1.5643058116550976,150.0469231597443,92.1424230439083,130.8319983007032,68.23235638317686,106.50176982505016,87.09234092048149,131.2267740310112,111.06901796053373,149.0,145.0,125.0,121.0,101.0,145.0,125.0,169.0,-0.28863239581126116,5.240200821686068,5.185879579242001,4.809981953953116,5.001769825050166,-0.0802254511999272,5.2267740310111765,-0.15178883352148623
86,4.3,0.0016527656999301144,-0.412144369165532,1.953017468360037,-0.06316646688347971,-1.570192109042698,0.0098595818936551,0.44379112381023644,0.1699310374566075,0.6151214986425615,3.0486509669695465,-0.0013973561916385611,1.5627182998043856,150.24832738298704,86.80236468069788,125.30770128017672,63.32285255865397,101.31304213629183,87.47334853000537,130.76960342725573,111.18871516130407,149.0,145.0,125.0,121.0,101.0,145.0,125.0,169.0,0.16261309727274692,-0.07895400062080354,-0.19229871982328547,-0.17714744134602853,0.05321680878091528,0.13710398852065175,4.943701091799247,-0.09578590026704747
87,4.3500000000000005,-0.00032262659964654716,-0.41471056056278366,1.9558666144428072,-0.06574177817820726,-1.5690685453137645,0.0077039128206433105,0.44288628295519644,0.16915243366650762,0.6145986658379826,3.0463570231875607,-0.002332859253259347,1.562999781138327,149.69503861493428,87.3616717389077,129.95004656266028,63.46073658293908,106.20151405792261,87.22342071623241,125.65397981520324,116.51053865493729,149.0,145.0,125.0,121.0,101.0,145.0,125.0,169.0,-0.34708998816993614,0.35280255930680704,4.512688931680769,-0.24085795009053607,4.977829847396299,-0.2305266521886453,-0.10185882598570853,5.1432350455954605
88,4.4,-0.00018828757129796259,-0.4223053042967466,1.966040612450647,-0.07496390274078735,-1.5696781888644153,0.007806003479624124,0.4392513175124792,0.1691572306022629,0.61202788940972,3.03969258277049,-0.0017798858675419427,1.5629911232348583,149.7045703148606,87.01192288578328,125.29680039003405,63.37299892259771,105.69937299542825,87.53505277099757,130.73679121704984,116.63706979320277,149.0,145.0,125.0,121.0,101.0,145.0,125.0,169.0,-0.2268456143429611,0.016347664544339363,-0.044108700875048173,-0.31791016831137736,4.673229204578581,0.09060832655312319,5.050350539083725,5.245120640660398
89,4.45,-0.0021957376746066792,-0.430820949684823,1.976744738441389,-0.08404639804730785,-1.5689422217304223,0.005528766484083292,0.43547887603239976,0.16834059307463764,0.6094421681691644,3.0327861749439857,-0.002318798337027169,1.5633407336047964,154.62151805463108,86.90723642432522,125.1021134339349,64.03711677124974,105.85025336063171,87.7847392060928,125.59599458917596,111.58366685043413,149.0,145.0,125.0,121.0,101.0,145.0,125.0,169.0,4.873730444011613,-0.07285207124999757,-0.1335845065685257,0.288833018389334,5.049378087108733,0.3339733417601828,0.12010360385101258,0.2125976680442017
90,4.5,-0.0017720713663935683,-0.43094750479950905,1.9770500424440396,-0.08513154352534258,-1.5692265172398558,0.00546842032464534,0.4354336017778915,0.1684944506437509,0.6094061992758278,3.031895393439284,-0.0020341548670526396,1.5637943052211631,149.57297080664813,92.53123848204696,130.2822899898401,64.28782218464163,101.06286479613343,87.31331419911359,125.58823154895374,111.33928856953699,149.0,145.0,125.0,121.0,101.0,145.0,125.0,169.0,-0.27385632683109434,5.294914630843452,5.083659852853815,0.413392960897328,0.2110129442815782,-0.24659865491691285,0.13484171844527182,-0.18401651520877302
91,4.55,-0.002610197240759504,-0.43310004032060245,1.9800197023093267,-0.08838224533517547,-1.5689847843785003,0.006631077164552579,0.4346020245063847,0.16816470268384076,0.6086721582773537,3.0294717574430505,-0.0024182886576807803,1.5618322055006966,149.69392616172627,87.25851737929946,125.25961770236458,63.90301323314092,105.27894676693936,92.63647238240098,125.82626179195728,111.46465042538604,149.0,145.0,125.0,121.0,101.0,145.0,125.0,169.0,0.001786423735010739,-0.08427738052586789,0.2872674719498263,-0.14537386363327637,4.6833423713349625,4.840867986796586,0.4887090493412346,-0.18935801343252542
92,4.6000000000000005,-0.001529417907492281,-0.43686422169236616,1.9860639345379019,-0.09434553974399407,-1.5699368624476655,0.005827222282028366,0.43269551018704877,0.16853668448370854,0.6068425728891432,3.0257739701319863,-0.0013991673150714641,1.5636131265541737,149.97306936836364,87.39648344687403,125.09558303704648,64.4920311903584,100.33383342241777,87.06902820458737,130.66191840078073,111.49814189461104,149.0,145.0,125.0,121.0,101.0,145.0,125.0,169.0,0.13358997573892678,-0.00047967677022057607,0.026775697596943756,0.46909541054189535,-0.27268831671266536,-0.6222761432387284,5.303427834743002,-0.17691051629043583
93,4.65,-0.003727952118283362,-0.43919484275821885,1.9886129972047284,-0.09667893243582393,-1.5686901874664416,0.00381395225038883,0.43195174672942244,0.16769592126476493,0.6063625706323471,3.023661637562942,-0.0024181149838899377,1.5635612058082042,149.41982254814806,87.77355754593289,125.03743175022272,64.4703997256575,100.67987673746039,88.2031628578144,125.28973891656072,111.75189113636736,149.0,145.0,125.0,121.0,101.0,145.0,125.0,169.0,-0.2664519616558626,0.2877187659764621,0.09006332917008829,0.31021665929594044,0.19309259649122618,0.30007915737387325,0.09223371905553183,-0.10257871810249056
94,4.7,-0.003770284646220645,-0.440088632575522,1.9899104596403472,-0.09851187518103055,-1.5687232580039918,0.0036498188468141457,0.4315978905996057,0.1676731744060558,0.6060676743654219,3.0222356520092557,-0.0023708883311255743,1.5636812370951285,149.61617027648487,87.24572246449048,124.93653813148167,63.8909694390128,101.09592767180021,87.76308711389244,125.07957372125406,112.10661587806626,149.0,145.0,125.0,121.0,101.0,145.0,125.0,169.0,-0.04536818505361173,-0.42021160144357894,0.002447222390758851,-0.31812147007810493,0.5235592507475744,-0.3048953422479231,-0.09019853547471345,0.08384155094411959
95,4.75,-0.003850305490814776,-0.44205454360640806,1.992512942320806,-0.10141320251544705,-1.5687965252691036,0.003422363705436471,0.43072959384853704,0.16763464541871384,0.6054620597342492,3.0199679428484436,-0.0022762345824843782,1.5638247691614944,154.35740698711274,87.55760761593908,130.02308329283656,64.28501733573817,100.68352013573138,88.1939346717041,130.18328288767088,117.39913292412604,149.0,145.0,125.0,121.0,101.0,145.0,125.0,169.0,4.731856326319788,-0.27058621666003324,5.146370964069439,-0.21498266426182208,0.12115689721935446,0.049514540413072156,5.014180591219944,5.200803070263824
96,4.800000000000001,-0.004074272415275804,-0.44487336949351786,1.994568312920741,-0.10362586935805584,-1.5687267116834773,0.003194063058433283,0.4294550747136177,0.16754863079115148,0.6055194797753695,3.0169844327508613,-0.0023274003067155656,1.5638433406890717,150.02663332407704,87.66943084065383,125.18941597002845,64.39568814738293,100.5143016014146,88.15862637700529,130.3645952660306,112.09219030337863,149.0,145.0,125.0,121.0,101.0,145.0,125.0,169.0,0.4054879496277187,-0.28431365273822795,0.2696911993862477,-0.44605497188312726,0.005529671590042413,-0.2119876580824339,5.154511232417147,-0.29646515880624186
97,4.8500000000000005,-0.005815282485442719,-0.44726552965095445,1.9971991537203762,-0.10610011819595977,-1.567757272804724,0.0013198974344290626,0.4286156330990723,0.16688845325091278,0.6050178092118919,3.014746444437702,-0.0030614318091251695,1.5640881331561227,154.98922875385279,87.57520132897366,124.51578054360164,64.89360660712373,101.2134682335541,88.43232623200288,125.17551655948067,112.89151630317302,149.0,145.0,125.0,121.0,101.0,145.0,125.0,169.0,5.414007514914729,-0.5575420338581931,-0.3324953184673247,-0.08340488712915524,0.7761055961914504,-0.11492651524986144,0.041625346091555944,0.39151630317302544
98,4.9,-0.004844112198648887,-0.44271624047180236,1.9904017570632986,-0.10127327959182919,-1.5679472168982898,0.0018992403620359255,0.4307285366129509,0.16727875902038689,0.607182975308603,3.0173438221116604,-0.0029415781641807855,1.5644520015519605,149.580739732883,88.51262556491,125.01904852117845,70.32885732386157,100.60729365156784,88.79013493513368,125.50360134742272,112.9205305448269,149.0,145.0,125.0,121.0,101.0,145.0,125.0,169.0,-0.0793479864152698,-0.018076189475965922,-0.05007590278467835,5.1468296740919826,0.018404762678955907,-0.12542062042187974,0.24199797189529218,0.17369510178891756
99,4.95,-0.0046387799808695895,-0.439555109307153,1.987011132362107,-0.09930442012310259,-1.5679197043103485,0.002070615017252031,0.4322970238539089,0.16736487881446668,0.6079252760315778,3.0190930801207907,-0.0029856383654865764,1.5644852374898144,149.46049070272247,93.49640989374863,125.2169136228169,65.40212122050923,105.45695372214894,88.84187359858637,125.30701304283069,117.90182359278812,149.0,145.0,125.0,121.0,101.0,145.0,125.0,169.0,-0.2039537417219816,4.740854338193077,0.0637813722368667,-0.15936369828426095,4.797661686750722,-0.2399848084932817,-0.01793454626784277,4.826351894674916
100,5.0,-0.009079225838921623,-0.4576414302838683,2.0108250557077136,-0.11912215648420776,-1.566595457802567,8.352322946070245e-05,0.42429552105360885,0.16564074165265,0.6015753139382215,3.004943022532294,-0.004053669612085295,1.5622399256845525,154.15405998508385,88.45093391498892,123.99682921053761,65.10923696079698,100.16027772504864,88.89493139902152,124.7595009286762,113.33862604695813,149.0,145.0,125.0,121.0,101.0,145.0,125.0,169.0,4.8593001597563505,-0.044699272783994624,-0.46400028254994624,-0.1856939147790682,0.15150579522407756,-0.05463000448724985,-0.10149492194620091,0.4693314411489989
101,5.050000000000001,-0.010790735464475176,-0.4633400128623242,2.017850522283669,-0.12547033974988553,-1.5660368161601639,-0.0005829927680562896,0.421877786659253,0.1649963675165225,0.5998742311846257,2.9999148247284726,-0.004508661350323954,1.5612885673557522,149.17925344998906,88.28081326012693,124.61612849598882,65.5136196493277,104.54158668812715,89.50196897816944,124.6101203313056,113.48188057445485,149.0,145.0,125.0,121.0,101.0,145.0,125.0,169.0,0.09664475433690047,-0.2561432616121894,0.2448987976129502,0.08670549619545236,4.803125149665614,0.4338371100375705,-0.1180954363292611,0.506776840015015
102,5.1000000000000005,-0.007198681811951602,-0.45453386713514554,2.0068793228646458,-0.11760745564906161,-1.567440931068667,0.0005885904415947607,0.4256562937517723,0.16634626650788614,0.6027884119292286,3.0056633629654885,-0.0032805433409931026,1.56350177920163,149.41870395504708,93.86095177154395,124.479048194308,65.87548813082239,105.06540476051391,89.3618187940886,129.95450223291786,113.47887721441778,149.0,145.0,125.0,121.0,101.0,145.0,125.0,169.0,-0.05590973148714488,4.944836981256986,-0.13244605856555938,0.16744215381090202,4.848954544063695,0.06311749538729826,5.012835566251189,0.24554388108444147
103,5.15,-0.004192968800571517,-0.44172995251299474,1.9900935958365666,-0.10462005535160035,-1.5680536737510975,0.0014176512608021774,0.43143535648790654,0.16754185065944494,0.6073577874141015,3.0147045663712206,-0.0027769709775785447,1.5655748180390092,149.608420092583,94.6714875679722,125.01446885347362,65.74498739392251,105.24108645823338,94.22382880082046,125.2801563820871,113.17919529313235,149.0,145.0,125.0,121.0,101.0,145.0,125.0,169.0,-0.17542270217684008,5.2653740308542964,-0.19290441841578482,-0.328745324971487,4.483974860859213,4.659277378500992,-0.05177639102214161,-0.3670231942625941
104,5.2,0.00021590842660001996,-0.4273356343241219,1.9713502312101276,-0.0901596249681682,-1.5692781138707899,0.0029638276004106956,0.437778198027891,0.16933210982820213,0.6123337900116994,3.0248345767342264,-0.0017287433298775966,1.568275897502448,149.87401157235564,89.86338801958252,130.4712340106978,66.63806130441701,101.5554977431919,89.85922988471124,125.79576413130705,118.90477705238195,149.0,145.0,125.0,121.0,101.0,145.0,125.0,169.0,-0.4489282940140726,0.0036998235914145585,4.799140987442,0.08922409511469388,0.07105329874745303,-0.12521455973320894,-0.10759721323076533,5.064440917928166
105,5.25,0.004265539552701814,-0.41613803865596033,1.9565704155911918,-0.07895464855305434,-1.5705144083953666,0.004786503114609264,0.44263593656914935,0.1710194746871146,0.6162791654043623,3.0324562498797154,-0.000673432768538348,1.5703665537958924,150.75347029426896,90.04583113091435,126.41842806641475,66.96678478226352,102.1199660595103,90.18236870422557,126.12849805427604,114.13254614802966,149.0,145.0,125.0,121.0,101.0,145.0,125.0,169.0,0.20458140538008807,-0.06972442464121321,0.08972436271103464,0.09178478226351584,0.12895482355525398,-0.004148149707014883,-0.2435449564766497,-0.06960438960474265
106,5.300000000000001,0.004771669203540441,-0.4148702682346306,1.9550938562928728,-0.07854720996251174,-1.5707389308482869,0.005088980006815458,0.4432283352715021,0.17122728945354454,0.6166990447689157,3.03263100537769,-0.0004825803124900048,1.5705483385760366,155.86267053938076,95.16094476868584,131.4659245950319,67.14736695832153,101.92950285628483,95.13497040601881,126.74463578682472,114.21480061777788,149.0,145.0,125.0,121.0,101.0,145.0,125.0,169.0,5.287726467792382,4.809714343629901,5.107956927595419,0.08270183130073927,-0.16741344327464278,4.68783384214216,0.36051561515089825,-0.13498478994744303
107,5.3500000000000005,0.004972195632780174,-0.41706713516706984,1.9576956533661374,-0.08162978199284066,-1.5712244402312434,0.006345268209505317,0.4421922873431842,0.1712717102836374,0.616255035796924,3.0299289515111827,-0.00015452982342434304,1.5694488636682284,155.29029797239332,90.30303753396805,126.02898961546597,67.14213257211945,106.73892040424656,96.13338795478172,126.44266587487822,114.95811715659136,149.0,145.0,125.0,121.0,101.0,145.0,125.0,169.0,4.764570903042073,-0.265195128224346,-0.22332519934884143,-0.0754600204731452,4.730051224645661,5.543587511322741,0.1862003576368412,0.4150137083154983
108,5.4,0.0021247857459196773,-0.43308233047303224,1.9792022730119605,-0.10037019669767977,-1.571465743984625,0.0052148191364715935,0.43495866392938376,0.1699611826068917,0.610683502791298,3.0166355413606945,0.0001392311008348211,1.567699238781144,155.64290486759666,90.49473870286849,125.29511683440776,67.28718432803124,101.57318472669998,95.75494961842813,125.44789047004879,114.36178128398856,149.0,145.0,125.0,121.0,101.0,145.0,125.0,169.0,5.601054647332343,0.018967777758363478,-0.2315653001629972,0.02036298232359166,0.273184726699981,5.0860607295392395,-0.2343129197817182,-0.1742356651639741
109,5.45,-0.00010934006874485647,-0.44669282426224344,1.997802513097457,-0.11689653696169433,-1.5719501970261396,0.003984489395717716,0.4288361824112347,0.16893090882262463,0.6056851924327364,3.005079750051135,0.000726264805896834,1.5666192456370385,149.44002323150525,90.03059263963027,124.74493757044546,66.82986834142011,100.62843934284432,95.6874578545924,125.2093550413446,114.52546359533568,149.0,145.0,125.0,121.0,101.0,145.0,125.0,169.0,-0.14275822544839753,-0.4109084641224846,-0.31074688431090897,-0.2698996400184119,0.06676533403375251,5.1125679867509835,0.011876049747952068,-0.04596497609289626
110,5.5,0.0030368790424062375,-0.44253802123787533,1.9927685159948743,-0.11365687045683703,-1.5732276480213505,0.004064475964166814,0.43043317536164627,0.17015726727802968,0.6069777625444313,3.007474699073983,0.001994626231591515,1.5695156804594363,154.9244961012897,95.36496135339135,125.12862784394068,67.39181784425278,101.145891879174,90.58022611590005,125.56169834803005,119.86857949329283,149.0,145.0,125.0,121.0,101.0,145.0,125.0,169.0,5.045110136377407,4.750926265672053,-0.34456562925279766,0.07247052490547622,0.16554253419583187,-0.04422803257157245,0.1017827362156965,5.170267257005899
111,5.550000000000001,0.008694466083988495,-0.4240754306535264,1.96707295820676,-0.09266014224149455,-1.5739081463677467,0.0057875574552994635,0.4384978368407085,0.1726084039065382,0.614175303837104,3.021289479748795,0.0025201315473821857,1.5734033968591905,155.86090602761155,96.00370416594241,126.58751530501127,67.61345450898456,102.22969100131853,90.91344783401465,126.10222499756449,115.01622000705713,149.0,145.0,125.0,121.0,101.0,145.0,125.0,169.0,5.261353454904635,4.94106434491333,0.08751530501126244,-0.11212688636427803,0.05928741387458599,-0.03722481172526907,-0.2757447648545218,0.06805586018888221
112,5.6000000000000005,0.012405942594263308,-0.41138534991327536,1.9484357431208688,-0.07737852248966792,-1.5740448262427185,0.007351650444471947,0.4440604612174507,0.17431050353180505,0.6196026580017454,3.030632730489745,0.002540451611377208,1.5755672268182022,151.27435368463645,91.74162919059846,132.46231052927845,68.0907971257074,102.23991560816204,96.40326244738011,131.95823032055245,120.17158508288924,149.0,145.0,125.0,121.0,101.0,145.0,125.0,169.0,0.00019638126564694024,0.3528651456546281,5.300338698292545,-0.021878930630634,-0.5542020388967885,5.2132171985113285,5.0530579067593235,4.854774738061647
113,5.65,0.01713656286298848,-0.3978219094335116,1.928614270883524,-0.06110209094173591,-1.5745390684624878,0.009067204473629964,0.4498652555036637,0.17648806515822668,0.6252584823259008,3.040645388492168,0.0029383789890264655,1.5785667541445392,156.62819850515584,96.65397152020182,127.59342669612872,68.37854062760805,108.96805394776405,91.30525712836933,127.8662808715789,115.48187945758559,149.0,145.0,125.0,121.0,101.0,145.0,125.0,169.0,4.82320984302432,4.819504400020428,-0.40657330387127727,-0.09374852901845235,5.21466028260568,-0.025059613712112367,0.2245226298206498,0.12363769934383494
114,5.7,0.021956958978291308,-0.38412274401945945,1.9085494579046207,-0.044554125063948735,-1.5749715962421602,0.010940835446451302,0.45571588474595737,0.1787750158604542,0.630888715915432,3.0508258506851647,0.003297919766493317,1.581512007332836,152.1894668951489,92.73491148891384,129.3383070960439,68.77969684927103,104.67697602335161,91.46542512326756,133.2739198167597,115.36732871115787,149.0,145.0,125.0,121.0,101.0,145.0,125.0,169.0,-0.2659106792217937,0.6708382623692144,0.4528655685976228,0.08995937910397481,-0.021874551361029365,-0.08629901466347271,4.879710462639412,-0.0781055872831193
115,5.75,0.0264500175398501,-0.3713406235584844,1.8897790477570409,-0.02904237675338539,-1.575286574394049,0.012692760975418604,0.46116743309765557,0.18096971475370857,0.6360793430536491,3.060345297117455,0.0035791198771706837,1.5842645579562298,153.35112955959684,97.8602447238911,130.18587812966123,73.7653451655279,110.92525215171379,96.769924984565,129.1118659650756,115.47774225914391,149.0,145.0,125.0,121.0,101.0,145.0,125.0,169.0,0.3254286250173935,5.673328836040633,0.47774415836938816,4.861038945432211,5.301695569727652,5.141749464934499,-0.009482349531131957,-0.023381336361701883
116,5.800000000000001,0.03155667318497324,-0.3578420657414103,1.8701548959528536,-0.01282122770724392,-1.575782722557614,0.014873374583793009,0.46685864553117384,0.1834997658021535,0.6413495977478284,3.0704335836851895,0.004053089236338842,1.5871971074707796,153.90827971094498,92.42242938785559,130.59203037040342,69.04255578312565,106.6147773577825,96.16138002900853,134.80111512357544,115.05449096458162,149.0,145.0,125.0,121.0,101.0,145.0,125.0,169.0,0.18696823553513656,-0.038928925961735056,0.011694638988556527,-0.017396255243659304,0.04135078435592401,4.480727348355839,5.022834580589005,-0.44550903541837994
117,5.8500000000000005,0.03576546946110115,-0.34702017682170494,1.8544676316084514,7.303687901316636e-05,-1.5761820891717653,0.016338389605739412,0.47140198729312455,0.18562595037018687,0.6454888111877141,3.078451379519946,0.0044834996956063505,1.5899512594386658,154.51773082563986,92.75671561307408,131.25681391409196,74.01753159548285,107.10413315393937,91.98371348945926,130.5546714677062,115.67850757779682,149.0,145.0,125.0,121.0,101.0,145.0,125.0,169.0,0.24521897729863568,0.05292414387976142,-0.019628393600356397,4.8973392877905395,-0.2096841762713982,0.274111615922963,0.10766685941130111,0.17850757779681875
118,5.9,0.04103112827424349,-0.33324797441677223,1.8344910030915935,0.0166370641042497,-1.5766122765068902,0.01901923725454635,0.4771774721692399,0.18836094666859865,0.6506537986971068,3.0888008225686208,0.004945841836798155,1.5925634617519262,154.9866133374472,93.1363593410693,137.21020407072172,74.12166878742204,108.44221766220814,91.42079460805769,131.11874889673823,115.0916512775703,149.0,145.0,125.0,121.0,101.0,145.0,125.0,169.0,-0.02760467203145265,0.40413185291762393,5.065276534489854,4.855968304330254,0.17918448685268945,-0.2616698469186091,-0.06816699111222214,-0.27049825513997466
119,5.95,0.04574091872060393,-0.32137722787138,1.8176072164060795,0.030474129280763318,-1.5771052131715164,0.021728178962228117,0.4821388517700068,0.19084686601052667,0.6548461309555631,3.0976066363992016,0.005492164166116087,1.594589055371414,155.75399886342765,97.49409066844302,133.05391897752338,69.35838428956028,109.41576409898023,91.64987821274724,131.6472858267311,120.0384312737547,149.0,145.0,125.0,121.0,101.0,145.0,125.0,169.0,0.11697963265842459,4.669571437673796,0.14172385557216013,0.03155502126758809,0.3075910220571502,0.008051289670321654,-0.2196975461905315,4.798526285631177
120,6.0,0.051416511913182195,-0.3067522352050096,1.7959728383401812,0.048620870435581054,-1.577379577291813,0.024674014830804225,0.4881975868932509,0.1939436621541686,0.6603518557799176,3.108730079616089,0.005916315800893115,1.597372837042894,156.53907690819665,92.97330988596474,138.8937526253096,69.11259744688473,109.7220912441294,91.57509577725737,132.35507832593515,115.0558271335766,149.0,145.0,125.0,121.0,101.0,145.0,125.0,169.0,0.22265178742370287,0.15930022412898195,5.0040467429566675,-0.2550496119388053,-0.3803477802608531,0.07509577725737933,-0.38063595977914344,-0.08941096166149698
121,6.050000000000001,0.05501604304951124,-0.2984866106537898,1.7842310517188933,0.05794985929725982,-1.5779349198842816,0.027269930358273964,0.4915993309642351,0.1958902816449893,0.6631915455351416,3.114545726917695,0.0065477545672230335,1.5983968737015335,156.97662612781775,92.65137147689107,139.27884691002532,74.10109627316481,111.11260262017896,96.69405052959536,133.04200902736187,115.35159332755748,149.0,145.0,125.0,121.0,101.0,145.0,125.0,169.0,0.2557523414099943,-0.1860071638856313,4.9874888853339545,4.713441952177165,0.2694653652769976,5.194050529595366,-0.03712766328560687,0.2292911692840908
122,6.1000000000000005,0.059647366471237806,-0.2901750389738176,1.773388532472894,0.06637532344685093,-1.5791074661157367,0.029539459002496216,0.49487391983702894,0.1983143649858716,0.6654600577163734,3.1203869701295117,0.007836640380952074,1.600773963555894,157.26590072540287,92.75801852271432,134.94877377692941,69.64641425393812,115.92623869495726,96.02296090894232,133.77004932960824,114.91846163393483,149.0,145.0,125.0,121.0,101.0,145.0,125.0,169.0,0.07809584735409941,-0.13222537972470527,-0.03648420832856998,0.2139818215056838,4.742415165545496,4.571980516785456,0.20557244396346935,-0.15939724684376733
123,6.15,0.06372684594907874,-0.2823871246269789,1.7631420616634061,0.07443143353499648,-1.5799778689445123,0.03091976538507213,0.49797976784981074,0.20050380488073893,0.6675897450904156,3.1259480655749488,0.008852987798445136,1.6035036684140707,157.58205469278147,93.36020035630078,135.21881389183085,69.19264069938838,111.95440383062513,96.36570831244009,139.0823369020394,114.94974572206203,149.0,145.0,125.0,121.0,101.0,145.0,125.0,169.0,-0.015476171416051326,0.43674356617732296,-0.2824329909621881,-0.12406753003806541,0.05709331717769452,4.979400243980433,5.000802129857121,-0.026273462590245707
124,6.2,0.06723435950436141,-0.2727599980253297,1.7490721655481671,0.08623309865222817,-1.5798759144200583,0.03163997456887513,0.5019873390342506,0.20257842152858563,0.6709231016344874,3.1333091301538003,0.008970613215943996,1.6063551221823518,158.16445107582973,92.78726983580529,135.94373168080477,69.39019949911167,112.64181596514254,91.163901622233,139.3194390645527,119.33201298592743,149.0,145.0,125.0,121.0,101.0,145.0,125.0,169.0,-0.0898699118245801,-0.12631041110829733,-0.24791451084141072,0.04621915513132032,0.10979626070905185,0.018581425188663882,4.767714926621677,4.450239586912666
125,6.25,0.07188305943330109,-0.25938439261903756,1.7287906770888881,0.10358111883498244,-1.579462962899175,0.03337625464330696,0.5075166982823361,0.2054295226806909,0.6758595734976478,-3.1394231188032196,0.008893026916401765,1.6093600394258436,158.69343601885066,92.93858786840555,136.78286891479758,69.54430963899156,113.99314543493038,91.55609192831366,135.8237397776553,114.6475650246143,149.0,145.0,125.0,121.0,101.0,145.0,125.0,169.0,-0.1871609960747203,0.2022694604453459,-0.3486447328451085,0.30609623948784875,0.49314543493038954,0.5560919283136608,0.3643489147111503,0.10695588755845045
126,6.300000000000001,0.07035497966328341,-0.2615806364738238,1.732667022768041,0.09937663674373676,-1.5791637111239352,0.03322575130919114,0.506858130220376,0.20460860323645025,0.6748470862723417,3.1412210397985403,0.008498922423117627,1.60795726516773,163.298435893267,92.66762368791501,136.83919317571832,69.44251974630022,113.1137763139251,91.5673166162071,135.22789650783812,115.07862833138785,149.0,145.0,125.0,121.0,101.0,145.0,125.0,169.0,4.6226933190095885,-0.3868317576295304,-0.08179447860266074,-0.04390000678620884,-0.2921642801343032,0.30741562610807566,-0.03200448226086092,0.1924897175264615
127,6.3500000000000005,0.07064701238925553,-0.2599356313724126,1.7307447286024988,0.10021806564821434,-1.579392386346548,0.03403158286463048,0.5076854897865858,0.20479944081342882,0.6752103883975489,-3.1414256113901273,0.008743621465014853,1.6074476565023654,158.41698438784448,97.77768885317857,137.45229304460906,69.31804292234787,113.42861680187451,96.67171528199107,140.0703246689343,115.00546688063177,149.0,145.0,125.0,121.0,101.0,145.0,125.0,169.0,-0.241369726868726,4.675444464151143,0.5565114068919395,-0.24523251189531184,0.1243774003782519,5.215356179746684,4.787073437407214,0.03256047669089051
128,6.4,0.0679195581767491,-0.26295113094179934,1.7352640639156922,0.09577464317218043,-1.5784110429822178,0.03265391784509042,0.50681823132079,0.20340244331867938,0.6741983697567909,3.1388572757266338,0.007659313104216554,1.60607291978467,158.60134367693945,93.30996723099919,141.6394295423077,70.35180266609777,113.0890732796032,91.56098724131323,135.06416024658853,120.0421848115795,149.0,145.0,125.0,121.0,101.0,145.0,125.0,169.0,0.09000866434497844,-0.08297987227536716,5.076154108064531,0.4560210283806498,0.03696409846177063,-0.0866554385875203,0.03706665052943001,4.758933580052416
129,6.45,0.06847415992966877,-0.2647281402677155,1.737827148926498,0.09234065390614798,-1.5792054373905229,0.034571214150922014,0.5059658902973517,0.20357139273251953,0.6737616933600772,3.1361603318577433,0.008362115537894463,1.6046891223530728,163.28897588582973,98.67044217826243,136.60425458638113,69.72749734207386,112.63826385808137,96.99558922791849,139.94613280123076,115.74671332804108,149.0,145.0,125.0,121.0,101.0,145.0,125.0,169.0,4.848169840489666,5.0709459565999735,0.1141555764801362,-0.3665620638667357,-0.34193416172060626,4.975787247720466,4.9732932950579105,0.24054048853490936
130,6.5,0.06575170517566598,-0.2658488783063855,1.7388576034424608,0.09112328241553946,-1.5779277674239758,0.033458339334988985,0.5059590278211117,0.20227500919601543,0.6737693166872445,3.134908951214267,0.007041195136383284,1.6030745042920864,158.1690598867366,93.83503678160967,136.39110356974678,70.63915532207929,112.7113041560273,97.13067341367386,134.6842328869894,115.40974584447149,149.0,145.0,125.0,121.0,101.0,145.0,125.0,169.0,-0.06113813306538401,-0.006547376806172856,0.1572727239756472,0.2137821877509355,-0.07141189335542107,4.812154895155346,-0.1429276068377614,-0.3359331678741867
131,6.550000000000001,0.0667296309337071,-0.26630930826733756,1.7408322513582721,0.08837309519283032,-1.5787966743037298,0.03366235194415346,0.505714697284107,0.2026836747619374,0.672966620172095,3.133646932913915,0.007874185575913673,1.603835923229182,157.79733214352555,94.2449528039022,136.62299314076364,70.43722809360098,112.79530379327853,92.41100994496108,134.38770711789033,115.96444565997497,149.0,145.0,125.0,121.0,101.0,145.0,125.0,169.0,-0.4989641527707442,0.2968046557540422,0.3362100983696354,-0.0465624300897886,0.005180336488406169,-0.035903635285833346,-0.3159965858133607,0.016297511826821622
132,6.6000000000000005,0.0656514608623242,-0.2682135868391522,1.7441991088156907,0.08452134044422133,-1.5787203263299627,0.034126341780579494,0.5051187740475832,0.20209841754226457,0.6720880393186747,3.1312546830231667,0.007712405840971803,1.6022763381147602,163.24644273032348,99.09111983194538,135.808370954026,70.55845772907401,112.71195909458999,93.28304801641602,134.2229500038256,121.18071729869126,149.0,145.0,125.0,121.0,101.0,145.0,125.0,169.0,5.197060014274075,4.824453165278707,-0.24608449151855571,-0.1172848451834138,0.1624541440949417,0.5206717787922416,-0.3350746875324373,5.025161743135719
133,6.65,0.0627490661118486,-0.27078867658698735,1.7462965313728978,0.08215103721891959,-1.5775093013973427,0.03474249797911089,0.5044072493044498,0.20067093674268252,0.6722542937857757,3.1284376487137955,0.006385350934413228,1.598748161539445,157.73481993658697,94.9485259287435,135.27808502825096,70.93452821250399,112.00311828341925,93.10169978610237,134.47368013179988,116.57653582990689,149.0,145.0,125.0,121.0,101.0,145.0,125.0,169.0,-0.0388119042090388,0.48335179939027084,-0.3114672105550213,-0.15999915068009984,-0.2988619146005468,0.022491865310296795,0.1068459609456181,0.07653582990688657
134,6.7,0.061268334652292644,-0.2726503213354512,1.7493342426790166,0.07871663184086763,-1.5771503305123735,0.034829451980567416,0.5038824962336208,0.1999119443670197,0.6715236510676752,3.1261935864996624,0.005948430524663118,1.5971725996567738,157.85345771866682,95.09198362174688,135.490021376056,71.04348835577358,112.78687421537354,98.39322896816743,139.055627600181,116.6366160082428,149.0,145.0,125.0,121.0,101.0,145.0,125.0,169.0,0.265957718666808,0.42698362174686927,0.027709818267042902,-0.33842119196511655,0.7101415421062122,4.962535898860508,4.7860197570437375,-0.16485457999249678
135,6.75,0.06019870670133365,-0.27497584346363,1.7532201532389333,0.07471023544958078,-1.576938451570113,0.03323901813349872,0.5030515233081745,0.1993234110099454,0.6705172760391295,3.1237652656938786,0.005684119004738732,1.5976846957545339,157.4312071081651,94.62899415301817,140.22927693929603,76.33147584830088,112.1342504858136,93.7414831368443,134.30017190587105,122.19677690076148,149.0,145.0,125.0,121.0,101.0,145.0,125.0,169.0,-0.06879289183490934,-0.2675575711197695,4.89093107463437,4.832728981132961,0.1588205103836141,0.22796962333078077,0.12212312538324854,5.223606169054171
136,6.800000000000001,0.06210306503543128,-0.2741256155068741,1.7533038184734453,0.07340944273696959,-1.5782848204167461,0.03515871154965389,0.5032779531101418,0.2002043057851523,0.6701649454059538,3.1233470569017845,0.006992644424327003,1.597647030474056,157.0366660174623,94.89212384863208,140.6124763391698,76.10918692211868,112.42568423137628,93.79726432982008,134.35851623180534,117.32209634385103,149.0,145.0,125.0,121.0,101.0,145.0,125.0,169.0,-0.46333398253769537,-0.10787615136791139,5.246561552202393,4.455051583772812,0.4801396769208319,0.12152175556264669,0.23382185527721533,0.18517702844761588
137,6.8500000000000005,0.06399227793729212,-0.2719399706843313,1.7527922083399154,0.07256186279821542,-1.5796724050514728,0.03716478186543615,0.5042154825379719,0.20111748968530357,0.6694765054458225,3.124119542278097,0.008379036218738815,1.5975134683561596,157.4824947649515,94.85456501560824,135.47686637537566,72.08677483751842,111.69730336775109,93.55185538792459,134.07192009692875,117.29269275064455,149.0,145.0,125.0,121.0,101.0,145.0,125.0,169.0,-0.03108548196208285,-0.2244473300707747,0.10557924666277363,0.33182434246891307,-0.23179198677213483,-0.22565072454484816,-0.042994328499137514,-0.02026568456327482
138,6.9,0.06316196266494156,-0.2731316597709905,1.7551518558804702,0.06965188255991617,-1.5796207525325237,0.03749371455489703,0.5039038562619464,0.20067018960875974,0.6688117544988981,3.1223704718582326,0.008247308277214278,1.5963377943359283,157.63048680675604,95.0992927229901,134.99613386674648,71.89413746945786,116.59546682208946,93.93963041739205,134.07835448580514,122.6687807066864,149.0,145.0,125.0,121.0,101.0,145.0,125.0,169.0,0.19624363057739191,-0.16125318271708605,-0.20288333227070388,-0.01986744454706237,4.877329567187499,-0.1142911512353892,0.029334877961988307,5.168780706686407
139,6.95,0.05991296895606801,-0.2810900097422979,1.7656567470214997,0.059662648234728444,-1.5788506252705945,0.03700345963720153,0.5006925763121349,0.198866387716888,0.6668697274502031,3.1149346437621444,0.007196938814992236,1.5935366346853483,157.06524166392876,95.64197665983934,139.41112982602743,77.40160899209522,116.68174068748996,94.78624701046286,138.492151759172,123.50949898332712,149.0,145.0,125.0,121.0,101.0,145.0,125.0,169.0,0.05049964918675775,0.07440909227177575,4.671675731734631,4.9673658159165655,5.509750515499783,0.2629054871213363,4.853802244608895,5.514353352259163
140,7.0,0.05626945240409942,-0.2894468795583256,1.7771452384088295,0.048790999386263856,-1.5780091065930613,0.036318595370314455,0.4973801516366245,0.1968912778207142,0.6645144642820031,3.1072189630904,0.006086507485870047,1.590551727605592,156.5036869854075,95.92594658139616,134.18146264706454,72.68534995859616,110.80398653473459,95.111516944671,133.10544172523197,123.26378002158177,149.0,145.0,125.0,121.0,101.0,145.0,125.0,169.0,-0.10701861069954409,-0.07405341860383562,0.0007695777576140144,-0.07702627902760313,-0.017964684777613704,0.08468767637830567,-0.12028643010783285,4.906983905076914
141,7.050000000000001,0.05496211384883409,-0.29322931779788286,1.7817829962233658,0.043931882610305006,-1.5777845624469853,0.03638194541019013,0.4958446385625759,0.1961703679563207,0.663803182713032,3.103232259231159,0.005719268285810022,1.5891679418711493,156.95838672022302,100.95992587264033,133.7318664220472,73.3323686729579,111.0512447791882,95.73448014458543,132.74044656059004,118.49447101968354,149.0,145.0,125.0,121.0,101.0,145.0,125.0,169.0,0.46207222390853486,4.775650688365145,-0.18149991458645354,0.23583401949255853,0.3812940402719363,0.4142831002504521,-0.4178268207049289,-0.17938989158743557
142,7.1000000000000005,0.05122394345648029,-0.2973750885769779,1.787499270899744,0.03827656793943168,-1.5764829987303015,0.03643215361410235,0.49458753886256845,0.19434481914484847,0.6626191585755814,3.0992042863480775,0.004263840349349754,1.585409827101646,156.55078284417988,101.33074181325885,133.31852330140143,73.30819608761679,110.00688093749555,96.00863705544134,132.91392043728328,118.55729167195332,149.0,145.0,125.0,121.0,101.0,145.0,125.0,169.0,0.4749882231529973,4.822184356046141,-0.11438809100364448,-0.13990517820599016,-0.12175983920347283,0.24892831757726713,0.036222595556670054,-0.5218450186941707
143,7.15,0.04734814195406312,-0.30134739622287743,1.7928492100613793,0.0329990495765613,-1.5750670369955024,0.036369549200351514,0.4934188502215911,0.19247672603037802,0.6615508641726596,3.095359445225207,0.0027061357639884594,1.5816442044797299,160.49422220439988,96.92688500859269,137.8744418998449,73.97088822842781,109.57599936547089,96.08794411647986,137.14721527912783,124.33670545254824,149.0,145.0,125.0,121.0,101.0,145.0,125.0,169.0,4.7186124483023155,0.20493378908049592,4.874441899844886,0.31656724077348847,-0.18312472212035455,-0.11886853558826135,4.569277629247763,4.953012406984703
144,7.2,0.04755209264627602,-0.3008739362953623,1.7911812760527548,0.0338037381323697,-1.575146853709799,0.0369547964389767,0.49364199428846844,0.19259457567938934,0.6623562027776047,3.0949716855220974,0.002754526916224308,1.5812628066686603,160.88269318347113,96.3914018053466,137.66904313529747,78.95350858823849,114.72440640839062,101.52083828200415,132.4124534705875,119.44519102520196,149.0,145.0,125.0,121.0,101.0,145.0,125.0,169.0,5.160741963958941,-0.557378682458283,4.688845115495506,4.933706608040467,4.896396580380788,5.044179805345684,-0.15381158965344668,-0.21264030009923435
145,7.25,0.053269372966207484,-0.29452069481824683,1.7855828958969928,0.03736546042301736,-1.5780516741577584,0.03878553690579167,0.4959359193115377,0.19532946739015328,0.6625691051772215,3.0991938820598754,0.005760647601592551,1.5850477628127941,156.08650485241606,96.79984956856109,133.53234684495044,73.8268868716919,115.18442287323418,96.17452284914101,132.71082004315846,119.45639123026181,149.0,145.0,125.0,121.0,101.0,145.0,125.0,169.0,-0.024606258695070233,-0.08903932032780429,0.042247835049438485,-0.06667748474374795,5.072500732114966,-0.010391992708142386,-0.18699017581962385,-0.015628234458382607
146,7.300000000000001,0.04581142607135469,-0.30733047042655226,1.8032351138081175,0.021204869494231282,-1.575750615249638,0.03728155970999314,0.49111679141509784,0.19154416340819092,0.6587854191500436,3.087936663818063,0.0030733960726531027,1.579144652129666,160.2056135898295,97.53233075965477,132.4550211015064,74.19437099049684,108.85253984314242,102.19938742202692,131.76500761815717,119.98033834417308,149.0,145.0,125.0,121.0,101.0,145.0,125.0,169.0,4.875540240196275,0.2536021532978125,-0.044978898493611814,-0.20261393412628273,-0.35569260237816147,5.269605339702471,-0.3707066675571142,-0.1387092748745445
147,7.3500000000000005,0.040323393971606336,-0.3157406017493729,1.8145703398345754,0.010589481334404738,-1.5740116302344997,0.03641687383831016,0.4880519016352497,0.18883933139405412,0.6564230458474241,3.080296574354079,0.0010901351250591693,1.5746002816720277,159.8878689431817,97.31855681301337,131.78566993866048,75.26100118844414,108.70368937732799,102.21514339230373,132.09089767723518,121.10198450791144,149.0,145.0,125.0,121.0,101.0,145.0,125.0,169.0,4.989810690754528,-0.3270742549477822,-0.014330061339535093,0.4017419291848855,0.04751504318755902,4.716354046056754,0.4060635540124296,0.424259389428025
148,7.4,0.03497138679071243,-0.32389489381314895,1.8255467310784281,0.000312532896682427,-1.5723149683758013,0.035386091698779154,0.4850918545933865,0.18625333462004479,0.6540921043806152,3.072907691928603,-0.0008014755034366436,1.5703872967247734,159.27410297375178,97.78677586349133,130.64304566973496,80.17295963783987,107.72009218615145,97.75577812147996,131.20860496273986,121.020460524704,149.0,145.0,125.0,121.0,101.0,145.0,125.0,169.0,5.009679896828725,-0.1939933672778982,-0.4089345282848375,4.7942467665527255,-0.2799078138485596,-0.2967278451071492,0.0868251032550752,-0.02871980316484535
149,7.45,0.025837514316286114,-0.3374897909382151,1.8437385175979424,-0.016281714173114192,-1.5693587942174778,0.03376769247629374,0.480113746514734,0.18192473587338817,0.6501569592678007,3.0609979363287994,-0.004052036767134342,1.5631145543753338,153.5045661792252,98.42926402645443,130.06259197969274,76.12575466047218,106.67896550056544,99.15226259643985,135.6345646538487,121.5854236889271,149.0,145.0,125.0,121.0,101.0,145.0,125.0,169.0,0.2033613599481052,-0.09603717836484262,0.18023903851627487,0.1453625036094321,-0.1607474180948484,0.2838415438082747,5.437381555257176,-0.24556222656586832
150,7.5,0.02203972913565888,-0.3417267414536349,1.849886449267852,-0.022133077315647398,-1.5679895281979777,0.03203063687536467,0.47876628620638423,0.18018909887099877,0.6486461856626317,3.0571082598116286,-0.005389998276866341,1.5611831413912887,153.18145693047128,98.52322533797822,129.3910150767621,76.3277891039818,111.60807587864846,99.32398440284555,130.339135518803,127.07627106858595,149.0,145.0,125.0,121.0,101.0,145.0,125.0,169.0,0.09812359713794652,-0.15772704297415815,-0.10898492323788835,0.11491781685309171,5.25471049403308,0.11244594130709006,0.33913551880301385,4.931748924063804
151,7.550000000000001,0.025454628800941848,-0.33978848782945725,1.8476871055039759,-0.020988796079563166,-1.5694454785141723,0.03162750864538744,0.47922347442644414,0.18171783297603072,0.6490762905141174,3.057964695693296,-0.003853920335632576,1.5648821679854394,153.4991884763116,99.07719436120696,129.88915782711354,76.56776139019563,106.74931880932739,98.932214091577,129.79747292970077,121.1365167851481,149.0,145.0,125.0,121.0,101.0,145.0,125.0,169.0,0.19536072511543015,0.2996823994844777,-0.083681679059309,0.20232929143018843,-0.03005768947356045,-0.1589130067443457,-0.365697233469379,-0.8891242404929172
152,7.6000000000000005,0.02528619038785962,-0.339451158165069,1.8482142445703955,-0.022196937027997965,-1.5695251117835136,0.031687869511006994,0.4795165366398062,0.18163890101874267,0.6486867238958696,3.057625984436504,-0.0037890667462851264,1.564648284662124,153.63365280755815,104.23684311828684,130.11974385314988,81.2643407509379,106.38254707935131,104.4589225119386,135.58995665961754,122.37270996713691,149.0,145.0,125.0,121.0,101.0,145.0,125.0,169.0,0.3633178793284903,5.3062211087174616,0.23767997108600233,4.83927932587647,-0.4112179086582925,5.23829901073955,5.446764171354626,0.21073813615099518
153,7.65,0.01969247995189738,-0.3438452888809449,1.8556352102283151,-0.029038698383027306,-1.5674814773188697,0.0298348726006763,0.47840078442825607,0.17909133547201095,0.6465032487762817,3.0538591709697394,-0.005798959449946296,1.5610875730374383,157.9081986643884,99.1539960923662,134.4811849273175,76.57929996230341,105.66209352169199,99.77348971099329,129.57292409634846,122.61839034467282,149.0,145.0,125.0,121.0,101.0,145.0,125.0,169.0,5.052748427421583,0.09001504971216615,5.326393772526351,0.024017407020843578,-0.38850888794656885,0.1686704338848612,-0.10293797261705971,0.04137885041993894
154,7.7,0.0260055046668608,-0.33611666693944553,1.8445956427877315,-0.02033706900581267,-1.5698167329632051,0.03244469530158911,0.4811641884700903,0.18200455664537005,0.6493367756597996,3.059203566050008,-0.0035100769339301663,1.5645833754771115,153.52562067401297,99.49714305357453,129.51301233418062,76.81656428376287,111.69626468732314,99.60004826972039,130.28270954369205,127.2405524977232,149.0,145.0,125.0,121.0,101.0,145.0,125.0,169.0,0.2050465113335288,0.39427224017739393,-0.3958546608932516,0.23282044139834304,4.774123568101734,0.11343026485421477,-0.004993472549245662,4.767234632293966
155,7.75,0.0377130977509319,-0.32302063164620076,1.826047397181382,-0.005095937365145353,-1.5739539626524097,0.03505319173936838,0.4855873008065143,0.18749224310481338,0.6539032678431288,3.0688769324449203,0.0007657147103024843,1.5733647166519096,154.49394580086113,103.52036005078578,136.38623459728325,81.17758912077416,107.930817163667,99.13224754932901,131.118319748989,122.38711518446979,149.0,145.0,125.0,121.0,101.0,145.0,125.0,169.0,0.021926336140926664,4.474131340323497,5.144941064944927,4.794504543659724,-0.25758863343444843,0.18297218701016327,-0.1080953453506205,0.32343593918677843
156,7.800000000000001,0.04170562302426939,-0.3176751037953571,1.819657527479877,-0.000487757148419643,-1.57558358909343,0.03705044066334251,0.48759820457604053,0.18939193529801462,0.6551228160521416,3.0723755779094595,0.0023732142933702766,1.5752521972782965,154.61360200521207,99.02851836719624,132.0569746294194,76.18200337369595,108.41393825646824,103.8902033088526,131.83705813318045,121.9498577888713,149.0,145.0,125.0,121.0,101.0,145.0,125.0,169.0,-0.1633764120540947,-0.10577419875100476,0.255979604543755,-0.18118070590604204,-0.10801296304394926,4.968252089340405,0.14985434171125536,-0.0951659078111617
157,7.8500000000000005,0.04770755899205792,-0.31368778453159507,1.8139005132518706,0.00368681630565737,-1.577833452820574,0.03698534516675833,0.48852745037718587,0.192178528343928,0.6566289430187966,3.0746835821169816,0.004707558034752723,1.581173872625425,160.2272669307925,104.29385303009674,137.27682030918504,76.2728395143053,108.87455099774391,103.89709985328872,131.88323523381013,126.93909838009853,149.0,145.0,125.0,121.0,101.0,145.0,125.0,169.0,4.83458400396321,5.1231213227796735,4.800629832994551,-0.0028497087523373667,-0.24923541002307964,5.258750338725625,-0.14046144865431262,4.953316389577189
158,7.9,0.05354702320471505,-0.308671644042827,1.805481882363388,0.010164520748920491,-1.5799259621546238,0.03868260054404704,0.48993626033305393,0.19496365964856477,0.6591660927828161,3.0776649005343764,0.006801844238697795,1.585200997929697,161.1438423092427,99.57852870852241,137.91495486137302,75.89840277885118,109.76479679202812,98.63325888315161,137.2137188880035,122.10117753170643,149.0,145.0,125.0,121.0,101.0,145.0,125.0,169.0,5.215270880671283,0.24847944743867129,4.840141893791986,-0.46568699670991276,-0.1327641835816256,0.1332588831516074,4.571891964926589,0.20935060862950666
159,7.95,0.058780675679078964,-0.3032451270549097,1.7968786839086883,0.016963020444296983,-1.581593186294624,0.039237302100140425,0.49164601390845303,0.19751648401007843,0.661567073457967,3.081220012194292,0.008571833942433282,1.5898038039332012,156.07563524535468,99.2941885593933,133.9705468989799,81.79202647322717,115.06902139027068,98.48503127141342,132.82630513093346,121.53782901936674,149.0,145.0,125.0,121.0,101.0,145.0,125.0,169.0,-0.20297171981945947,-0.1187467639897745,0.07581005687463743,5.355936247663253,4.5876318121069115,0.00612308282780691,-0.24132771930807814,-0.3220743622757685
160,8.0,0.06159664452962499,-0.30067017481836267,1.7957847776101499,0.016911507804256765,-1.583058636656408,0.03942134045237511,0.4925558134920274,0.19883745438731998,0.6610294794076645,3.082594164069876,0.010076612707784642,1.592359743164573,156.63789406386525,99.43939579105773,139.23235111766334,76.35952454546589,110.477356174658,103.97394788520711,133.16030639798063,126.34617340037833,149.0,145.0,125.0,121.0,101.0,145.0,125.0,169.0,-0.006384543099915936,-0.03821614924077398,5.1575381500823045,-0.004565230095204666,-0.3211696238677967,5.543972455231676,-0.02390412833514912,4.530383926694122
161,8.05,0.07067384544769961,-0.295398408024361,1.7869748496000453,0.023459129714592297,-1.5865190784305483,0.040718840677278934,0.4934583650237251,0.20315608943482427,0.6636677028867062,3.085441010114566,0.013589034267066315,1.5999836085710073,162.16271204687547,104.02630464262484,135.0447392361077,76.26804476259821,111.85816865834569,97.80251787956372,134.32048128547584,121.44917026690912,149.0,145.0,125.0,121.0,101.0,145.0,125.0,169.0,4.755212046875467,4.486304642624827,-0.07556151577202015,-0.08032616472008516,0.210385407114153,-0.3009303962983392,0.40785992625254247,-0.23044138357631613
162,8.1,0.0796407838122688,-0.28795879334326724,1.7745480292627578,0.033361686292518566,-1.5894707821430218,0.04183722344519136,0.49535840717039337,0.20758102790329677,0.6672721289641197,3.0902162532873243,0.016688101237797497,1.6077518049817834,158.51260377990985,99.64623359799326,141.73268363223616,76.73139869459693,112.94805639599389,103.08750237194393,139.93208928790654,121.42735824353016,149.0,145.0,125.0,121.0,101.0,145.0,125.0,169.0,0.28954613579957444,-0.03547066265836554,5.327071387338218,0.346194612964286,0.25003659401369416,5.166710292735998,5.104079459896701,-0.09598327981136132
163,8.15,0.0913682912878131,-0.2791516199588595,1.7597579569718054,0.04514345630350913,-1.593353377793158,0.04286675132131057,0.4973252039812605,0.21339236095639724,0.6715474069774439,3.0958316016935705,0.02077238730509072,1.6183734110075898,159.43785062044824,99.79034481475205,142.38414031515623,76.33690921389386,114.07484459547099,97.54959405560056,136.00267375596374,126.24499655364916,149.0,145.0,125.0,121.0,101.0,145.0,125.0,169.0,0.0751302174255587,-0.07867281748976128,4.659650519237845,-0.05849894937143386,-0.020155404529012298,-0.04040594439943739,0.2724757361617671,4.886085662560047
