AI-SPARC/uncalibrated-visual-servoing/results/data/4_feat_mckf_tr.csv
,t,q_1,q_2,q_3,q_4,q_5,q_6,camera_x,camera_y,camera_z,camera_roll,camera_pitch,camera_yaw,f_1,f_2,f_3,f_4,f_5,f_6,f_7,f_8,desired_f_1,desired_f_2,desired_f_3,desired_f_4,desired_f_5,desired_f_6,desired_f_7,desired_f_8,noise_1,noise_2,noise_3,noise_4,noise_5,noise_6,noise_7,noise_8
0,0.0,9.361875081825843e-06,-0.3926333301083327,1.9634954084936185,7.252088425691028e-05,-1.5707955582218611,2.220446049250313e-15,0.4463258536086648,0.16906234102687412,0.592161801541222,-3.141307158888575,0.00012241039484984628,1.5708380808617421,151.05680171461992,65.33125101459177,130.46644834300866,44.09022942430376,99.61686642657749,65.28622076991928,130.1131175287212,96.15853308262624,149.0,145.0,125.0,121.0,101.0,145.0,125.0,169.0,-0.3559562591136578,-0.22597224994857068,5.046972687577952,4.509705079734469,0.18077620101356612,-0.2776890045168014,4.700359554987641,4.6013098180858965
1,0.05,-0.005069116866971424,-0.39347308741624953,1.9605539698746561,0.0009456050140084216,-1.567220590263359,-0.004118182167635709,0.44696563546666374,0.16711624996759553,0.5944355277465248,3.1389520354097873,-0.003455404748258636,1.569881432533988,151.55111375889174,66.64348936524385,130.35500496415833,40.6726719347163,104.69417313592302,66.47107046747229,125.59889184860833,92.69258041797634,149.0,145.0,125.0,121.0,101.0,145.0,125.0,169.0,0.3159321145322776,0.039282864287828435,4.938819993060053,-0.22328182250913808,5.114020464167295,-0.28847151726053366,0.16707366679014607,0.19258041797634876
2,0.1,-0.007021453446404813,-0.40054398910219646,1.964514504469089,-0.004002277588192715,-1.566106946941063,-0.006098893358201796,0.44407959405802927,0.16636399449170727,0.5954307953615515,3.1308540361171353,-0.00451364984846198,1.5699525388194813,156.50823791795966,67.7244029966663,125.86813289805343,42.397412305978094,104.89273241288569,67.86486273696407,125.04231562540693,93.19746494174413,149.0,145.0,125.0,121.0,101.0,145.0,125.0,169.0,5.41874375453553,0.2244029966662954,0.45065716989808824,0.42071327685187887,5.219618292963062,0.22463062864685188,-0.3931371684273667,0.024054537119847216
3,0.15000000000000002,-0.003945970616709538,-0.39624100474493895,1.960922525483558,-0.004883880606421531,-1.5676543549626638,-0.003559110017061773,0.4460403515104764,0.16759331792518395,0.5960502904064834,3.130724930163467,-0.0029773175914451643,1.5704773554730769,151.04498047990714,68.07987913020264,130.46716259914962,47.640616008900984,100.05995599539507,68.7965593739346,125.56965309263971,93.92744664756064,149.0,145.0,125.0,121.0,101.0,145.0,125.0,169.0,-0.21766543448977144,-0.19054888536156117,4.941870770355834,4.807931183998263,0.16326983555102592,0.4144930971314795,0.004016027002655349,-0.07255335243935433
4,0.2,-0.0019236091467957905,-0.3960019461625146,1.9608544784131663,-0.008134806274166628,-1.5688656260893072,-0.0017459386092109064,0.4461652149803471,0.16838986514774595,0.5963433313027348,3.1276595238359257,-0.0017755612663988476,1.5706809102345571,151.26074275364456,69.00466905265067,130.44145278568317,43.256727405239026,100.30061782010213,68.85575036864614,125.93708737118409,99.9293838876998,149.0,145.0,125.0,121.0,101.0,145.0,125.0,169.0,-0.0647933087335994,-0.044063890819120134,4.766306014645981,-0.31470116618954014,0.3615215529115737,-0.2208704565012044,0.3424927765894925,5.16490512322103
5,0.25,-0.002512185710789705,-0.40022034609530444,1.9613571851013454,-0.010804954415393642,-1.5681091796268847,-0.0023222268259237566,0.44448858713910827,0.16819961910990727,0.5981821640874128,3.1212472257800687,-0.002516935661653123,1.5706942289906716,151.2331483002315,74.68115335806996,125.35759179234421,44.75815770109376,105.03876400409952,69.92049448498034,130.37625349399644,95.36085975697372,149.0,145.0,125.0,121.0,101.0,145.0,125.0,169.0,-0.018835826752630243,4.605756532673142,-0.3834440642294892,-0.06455146225286111,4.885682493165124,-0.19680173768366974,4.6067222439964555,-0.22312461802627048
6,0.30000000000000004,-0.012558036709910958,-0.3987448088852994,1.9562864601983945,-0.007378054370040132,-1.5616730753553352,-0.01009443096469953,0.4469375075877371,0.16428987863647365,0.6005828454559614,3.1210142955298763,-0.008815287395398934,1.5685394626469191,150.77899354870823,71.12657800974543,125.54899358344316,51.709805665656184,100.29654737863851,71.34749026657903,125.54745968371621,96.63583439678378,149.0,145.0,125.0,121.0,101.0,145.0,125.0,169.0,-0.18522116302140226,0.013257930222565594,0.11901330730904609,5.7236123717705825,0.274635028040903,0.07258986817266058,-0.07111739138259347,-0.03214979293952913
7,0.35000000000000003,-0.013608827085867858,-0.39437644022226914,1.9521478303932467,-0.006973821250663814,-1.5607923493859452,-0.010409693849107171,0.44952280044448867,0.1638779082231623,0.6013959630692743,3.1216560950952705,-0.009686704460141098,1.5678181234083899,150.58020751317702,71.50506557829867,125.17458362371431,46.92796856172942,100.37870145487442,71.88867775278986,125.56562013896345,97.64816987156813,149.0,145.0,125.0,121.0,101.0,145.0,125.0,169.0,-0.34194817544573586,-0.40711007040393277,-0.17272176550724552,0.03774900085118083,0.284323944834254,-0.2579085925916612,-0.052956936135354626,0.31615406129144924
8,0.4,-0.01593040033596882,-0.39296426966658693,1.9487121917849812,-0.006570350605292763,-1.5588776290736215,-0.012354506717886071,0.4508335087707769,0.163006739336275,0.6030596493221494,3.1199873051736122,-0.011534984396253922,1.5675017739526609,151.07404684784285,72.8333721781739,130.4329564499546,47.52886031371242,105.19940935790866,73.58033936630238,125.94497227619505,98.44475799097444,149.0,145.0,125.0,121.0,101.0,145.0,125.0,169.0,0.16222320054825998,-0.04438333284814378,4.934964482083095,-0.35868988709079286,5.022702530599438,0.4036325389931436,0.21535000979345786,0.20022518779351572
9,0.45,-0.01691193628460086,-0.39597874376659936,1.9503451965901126,-0.010173180310726782,-1.5583592625407165,-0.013699262243521027,0.44975638920618516,0.16263052373454834,0.6037016946553019,3.1149597030325182,-0.01195135883775055,1.5679393263031003,151.00391914673762,74.23387276808367,125.25697601692977,48.676674364295195,100.15405859465517,73.64104474291874,125.84977737231134,104.24250589113336,149.0,145.0,125.0,121.0,101.0,145.0,125.0,169.0,0.09026452826372375,0.4909008805334712,-0.22571237410891898,-0.08503643000215422,-0.049981809385235915,-0.32461182273782785,0.18576146773877178,5.232565533280486
10,0.5,-0.021910717443013983,-0.39621032407447654,1.9460316968352895,-0.008556052187996599,-1.5545571426342084,-0.017666812033612533,0.4506494662970076,0.1607279845940912,0.6065649181975926,3.111915678469743,-0.015601898580685657,1.5670506240702475,150.36341025050712,75.34978523856249,130.24295112691436,55.335074420984306,105.74366543629877,75.2559187434976,130.95157353869206,99.93724943655874,149.0,145.0,125.0,121.0,101.0,145.0,125.0,169.0,-0.4882157657530475,0.44531369384703445,4.713905483760852,5.0321698566689514,5.239533204893823,-0.03540357055197213,5.169755356873882,-0.14557884626953685
11,0.55,-0.030616131825417003,-0.3994244710999677,1.9457354396739044,-0.009539697852710916,-1.5493655149478895,-0.025281246043046934,0.4505819425067385,0.1572993422927491,0.6083046594729719,3.1071699271936026,-0.020459985033763332,1.5661988663395487,151.08685241359473,75.78007003968033,125.04846185824451,56.69623096282067,100.38610314531576,76.40394265630918,125.51322204336594,101.02841442612657,149.0,145.0,125.0,121.0,101.0,145.0,125.0,169.0,0.586852413594713,-0.219929960319682,-0.2576178063257218,5.146964715441217,-0.06787175008172866,-0.07304479138955834,-0.023512650511600716,-0.11648353305710893
12,0.6000000000000001,-0.029764679502777724,-0.3951635270722229,1.942810140995289,-0.010145799889720308,-1.549776894886282,-0.024394431953188356,0.4528124179817854,0.15759109685782702,0.6084518606460092,3.10794785997345,-0.020078068049375324,1.5661416614443395,155.59421471540756,76.12177197056509,125.14537448716304,52.05920707255689,105.13012317161763,76.79241177873455,125.31972376795473,101.71070016505597,149.0,145.0,125.0,121.0,101.0,145.0,125.0,169.0,5.045761107160125,-0.4246197820122351,-0.16569023099980473,-0.09528144518840882,4.66793829766804,-0.289520994374695,-0.2534721083339409,0.0034836702106107037
13,0.65,-0.02585872683025059,-0.3909730508305431,1.9404576952854509,-0.011542135671699594,-1.5520333781324789,-0.02140597097690211,0.45456979170360323,0.15910811082611448,0.6083255597487313,3.1085110750007257,-0.0179149636171373,1.5669839579642033,151.042124226438,76.6064967624264,125.62020975284918,57.32180990461135,100.78001984772227,77.8262888453123,125.40358360144273,102.25962459903396,149.0,145.0,125.0,121.0,101.0,145.0,125.0,169.0,0.2421242264379809,-0.45472772736951644,0.14322230515042525,4.775784800008835,0.2079947955302083,0.304368177253851,-0.313896073354009,0.09499045269248127
14,0.7000000000000001,-0.024439112028113108,-0.38733340033356667,1.9381165720441382,-0.0126806926563523,-1.552793476049846,-0.020257427608241674,0.45641271989151655,0.1596352918998648,0.6084085470994174,3.1087085683798086,-0.017197448480940833,1.567227254978795,150.5076840690914,77.62850406383461,125.60971898823644,58.386079791962835,100.70409559776301,77.63286762196746,125.92808720188172,102.74601979875443,149.0,145.0,125.0,121.0,101.0,145.0,125.0,169.0,-0.18984679510612665,0.029738631735858757,0.1297189882364333,5.2345008445944154,0.08583833635222851,-0.39825270998274925,0.16743811466063088,-0.04708364952142713
15,0.75,-0.024943762122478397,-0.3835851287324674,1.9350115810654644,-0.013055067352059968,-1.5523720609527798,-0.020359428597013896,0.458599760812895,0.15938831259644318,0.6088695483375889,3.108969747039593,-0.01762800855735738,1.5668302725743204,150.87430989913156,78.22368696098003,125.75666404749843,59.11075995341154,100.6072366717929,78.78859824274521,125.27478138537901,103.49826131520062,149.0,145.0,125.0,121.0,101.0,145.0,125.0,169.0,0.22554956855306293,-0.11102378282161435,0.23978641036763068,5.287975143284956,-0.03309596853973414,0.011051465198436543,-0.37552536308724316,0.042228595364219544
16,0.8,-0.02374544883694396,-0.3796070482629692,1.9323603643433298,-0.014020243615519234,-1.553017704192043,-0.019156951313305193,0.4606541956931902,0.15982874478458278,0.6089738373588404,3.1093682298263854,-0.01702765947015027,1.5667998481228478,150.70162905360863,79.13105406254586,130.62668862041073,53.91917136382776,100.34671221369128,79.21139390781885,130.62608003179915,104.17966151093611,149.0,145.0,125.0,121.0,101.0,145.0,125.0,169.0,-0.11673829333013756,0.19227855234176913,5.103676068109465,-0.534803531569732,-0.29763925074387726,-0.19655588297613377,4.804941820417027,0.11462086052960979
17,0.8500000000000001,-0.031751962200649686,-0.382322265173753,1.929399992773547,-0.01323879567334707,-1.5475965718379179,-0.025998120696872462,0.460748411371914,0.15665396273710777,0.6121573023882999,3.1041916139350736,-0.022115467611223998,1.5659086078984141,150.4629069522573,80.38598758017471,125.36551886998954,61.23160361954328,100.7837413418809,80.23953683742728,125.9868601790204,110.62209010770356,149.0,145.0,125.0,121.0,101.0,145.0,125.0,169.0,-0.015172379684256995,-0.008584444877481938,-0.09929989333667245,5.112200634468651,-0.003178489342728132,-0.5790285634166044,0.31742150958171533,5.268659754273206
18,0.9,-0.03352690781500023,-0.38014458832797304,1.925889738719862,-0.01315096028847984,-1.5461172438648836,-0.027492378281202434,0.4623584668236616,0.15593065950090854,0.6135481163034371,3.1028752300335323,-0.02349700518971688,1.565713699937082,155.2398513828428,85.89804248850633,125.10255963614168,57.080055899499634,100.66628328382404,81.76483073216133,125.45401112820905,105.94816224709986,149.0,145.0,125.0,121.0,101.0,145.0,125.0,169.0,4.78702119416353,4.623409364816613,-0.392087044800509,0.0029681050670802623,-0.17726851321612247,0.033329675078868,-0.34350953294797576,-0.2501848603381491
19,0.9500000000000001,-0.03252433792698506,-0.3728789548054383,1.9188943169005022,-0.01116886629102476,-1.5463417216748718,-0.025034241272086533,0.46613626265611663,0.15627458326464774,0.6147556603405431,3.1052185900671336,-0.023412258845012336,1.5642015677130203,150.67924068443847,82.21441100867321,125.42786622734221,57.73626057360517,100.83124777374569,82.74102264002819,125.44355969955006,107.09699133564932,149.0,145.0,125.0,121.0,101.0,145.0,125.0,169.0,0.1972110861298002,0.09813193890576447,-0.07213377265778716,-0.21223728047208332,-0.10905073371699922,0.0864384182797878,-0.4780897849860109,0.05987793358745241
20,1.0,-0.032328532282279276,-0.3706155981527579,1.9160759083158112,-0.011860711727914364,-1.5461087572671888,-0.025073573702184326,0.46751341969174964,0.156347753018206,0.6157155203806891,3.10395985177206,-0.023608068374918828,1.564476586769861,150.20380336840643,83.07345045706937,126.20284481172105,58.57948139461006,100.42993048822406,83.52166174333186,125.99961728340202,107.5547987245898,149.0,145.0,125.0,121.0,101.0,145.0,125.0,169.0,-0.31416703328491913,0.18972952683681985,0.5805272151545379,-0.19305079423113766,-0.6664292548166251,0.035580372882172785,0.09712765684600334,-0.2875249268624758
21,1.05,-0.03324693919487531,-0.36882530522290313,1.913114463885111,-0.012425607102296787,-1.5451675434491463,-0.025999991068534012,0.4688226565944904,0.15596621901656774,0.616978386623544,3.1021679121350565,-0.024469715697427286,1.5645618199314093,150.66515081927696,83.7535715222314,130.36843657610262,59.99748924527877,101.45324063128912,84.30071469527125,126.58029119954558,108.27273245997124,149.0,145.0,125.0,121.0,101.0,145.0,125.0,169.0,0.14396437859898217,-0.017614918446571832,4.703209794245167,0.20915231223341163,0.20324063128912084,-0.1238542702459875,0.616156178448532,-0.3369721813789639
22,1.1,-0.033779518632522265,-0.369601207972853,1.9125075392246744,-0.014806017587584819,-1.5446896366142342,-0.02669065233795731,0.46880105536204925,0.15576327345259416,0.618024972030554,3.098364282089272,-0.02481564409261442,1.5648332920638044,150.84974474868093,84.9912754962176,125.52347791879377,60.67503359131733,101.22440418996663,90.3839984007911,125.90153350347039,109.87136253043163,149.0,145.0,125.0,121.0,101.0,145.0,125.0,169.0,0.3497447486809298,0.26246193689556674,-0.12869599424970415,-0.04235771303049983,-0.11325814769569581,5.0549940717867665,-0.07530860179276991,0.38294147780005183
23,1.1500000000000001,-0.03148343652866403,-0.369189783790695,1.912045571389962,-0.016976001112032346,-1.5457392552170708,-0.026363012139918762,0.4689047890048037,0.15672761712141278,0.6183942500047136,3.0961796459159605,-0.023712266846960255,1.5668133937181699,150.9965319619917,85.56805597847155,126.09424819685903,61.40885523004888,101.56283643454485,85.75769636235938,126.11786027105157,109.99882746271258,149.0,145.0,125.0,121.0,101.0,145.0,125.0,169.0,0.3305745151831964,0.2574176805992008,0.13763214479828545,0.03792247516818613,0.03138307228888294,0.037522826567624165,0.03262118581248654,0.03417049805561449
24,1.2000000000000002,-0.03177582916063049,-0.36663142235635693,1.9089414772622204,-0.01763094996331338,-1.5452652208946915,-0.026615760637654695,0.4705256330766608,0.15658501197598418,0.6193962400091246,3.0949711119089836,-0.024143826623994967,1.5668219548184676,150.55890834762062,86.02774848111389,125.97520452519576,62.39584664135186,101.73568337819194,86.37673052139394,126.38959586608013,115.97859970962557,149.0,145.0,125.0,121.0,101.0,145.0,125.0,169.0,-0.07492462882477637,-0.10501383151994594,0.016598860707738142,0.10172899429303076,0.1482103760321058,-0.21074248076588198,0.16174776481431327,5.292945701186754
25,1.25,-0.03231060850076606,-0.364825125233585,1.9053543164135736,-0.017966611210884498,-1.5444006074422516,-0.027415639330855335,0.47181949191622385,0.15637181665093539,0.6210460887995314,3.0928122380938174,-0.024913987218776388,1.5671776472478012,150.903149190195,92.1798687278051,125.79340584523199,63.83974838274691,101.45796145933167,87.21235385607307,126.88277383162983,111.56255955616191,149.0,145.0,125.0,121.0,101.0,145.0,125.0,169.0,0.22572983535626495,4.990621415977145,-0.4057188812450319,0.46994531928958194,-0.36595158414658413,-0.3528635352312752,0.5643977632537719,-0.0848763412739835
26,1.3,-0.037134938027904685,-0.3598980904514337,1.8984095368328129,-0.0159912138723155,-1.5410890484371809,-0.02971814179220278,0.47534210410073857,0.15429980112351432,0.6232611836905784,3.0926247418770494,-0.028118126254481415,1.5648103785415546,155.92416048401537,88.58965512138657,126.05924736793772,64.53873071702033,101.53049705337892,88.73981460693818,126.51472446192237,118.15731918607204,149.0,145.0,125.0,121.0,101.0,145.0,125.0,169.0,5.40364212548405,0.19656656847080045,0.10802785574259395,-0.18632471535217607,-0.18125460959226397,-0.3688328431726822,0.15420944046315033,5.138005881351014
27,1.35,-0.03465190756263237,-0.3547814988324274,1.8925006892012632,-0.015025909016614047,-1.5419662241882062,-0.027348478911046747,0.47787406499992974,0.1553164725135115,0.6247822955555056,3.0928955605886252,-0.027350979813899348,1.5648830283835067,155.6151495167558,94.48744281373138,126.12216717699572,65.66044517351536,102.43964556173769,90.09785191086198,126.54448051440147,119.05979525144687,149.0,145.0,125.0,121.0,101.0,145.0,125.0,169.0,4.957140858747126,5.173589999878553,-0.10154646953672529,-0.021881448408580407,0.28785984745198906,0.24070905371911128,0.12853223853940265,5.2516055962744534
28,1.4000000000000001,-0.033881698174335284,-0.3462517747440561,1.8827360820317507,-0.012153754216774892,-1.5417474755670995,-0.024718898051192983,0.48248048884373884,0.15557356385210697,0.6270825907504621,3.094613650387865,-0.027735249504816126,1.562991857043419,150.311379915583,90.78933192938611,126.23596218220383,67.17348253662409,102.2273230770549,91.37156649334169,131.62995537790974,115.24138368188441,149.0,145.0,125.0,121.0,101.0,145.0,125.0,169.0,-0.40539568354555144,0.2403123215429797,-0.005648556051199166,0.1936167648119995,-0.09938773972212736,0.044855676564644814,5.034717282671649,0.1894356299363632
29,1.4500000000000002,-0.03953902354588257,-0.3412813261414738,1.8741944415610767,-0.009611778950664007,-1.5374864255241887,-0.029561183566828575,0.48622949879623834,0.1531085005614849,0.6302618132979879,3.093319945248185,-0.03174870617522214,1.5623987546997515,150.52998910867186,91.69994440134346,131.2709468831258,73.79149315639361,102.77542085713785,97.7009539575622,126.74343367892885,116.4643468815778,149.0,145.0,125.0,121.0,101.0,145.0,125.0,169.0,-0.03954731516921782,-0.5362586891642749,5.037386792422826,4.943420594035328,0.35838049839344505,4.741312701956829,0.12501262629727442,-0.1650390833344738
30,1.5,-0.03560078493897878,-0.3449609409266907,1.8805547312942066,-0.014960167142363368,-1.5403925161393603,-0.028267836027714655,0.48381653658797913,0.15481755752909784,0.6282906338690729,3.090748195633481,-0.028808021931868266,1.5649942094300717,150.75852482918052,96.95523915087692,131.76972043637667,68.29012781503809,102.47555955504404,92.58630429014066,126.66201055681867,116.3101140908887,149.0,145.0,125.0,121.0,101.0,145.0,125.0,169.0,0.11237098302666876,5.060733656371423,5.388554517094163,-0.14260761097088884,0.05591669790118563,0.0952328615692234,0.08283485182952341,0.03028762668045914
31,1.55,-0.03769300523047292,-0.3432830299662073,1.876801901660369,-0.01659484582589643,-1.5389599510769596,-0.028680676109694492,0.48540414228032025,0.15389974874697834,0.6302418998641579,3.0869822915846203,-0.03010920152686699,1.5634978358792582,150.23238167020438,98.56766868102372,131.25828474645093,74.86930025068285,102.70608353511845,93.51043005839873,131.23300931982732,118.05564296133987,149.0,145.0,125.0,121.0,101.0,145.0,125.0,169.0,-0.33590026812159873,5.272514496001689,5.023124929099334,4.857884725568697,0.29617362520854273,-0.45353390556523154,4.677453764271753,0.38244034696079277
32,1.6,-0.04281153342645139,-0.34094065056881284,1.8723962676393633,-0.017722792929648623,-1.535814134315368,-0.03211845045192563,0.4877863472557139,0.1516206102452001,0.632256055607548,3.0835951422261725,-0.03297041215934349,1.5620822877377079,150.26782643935462,94.6999105171092,125.71402099229455,72.0783155640369,101.78027872537781,95.50599683718085,131.2604814444868,124.09285218883629,149.0,145.0,125.0,121.0,101.0,145.0,125.0,169.0,-0.02042189767420842,-0.19144203277993121,-0.2951955975672031,0.2810805409954171,-0.5170185719194755,-0.16066982948582625,4.8089395942665405,4.87258787165567
33,1.6500000000000001,-0.04522422707577656,-0.33858121556211573,1.8674950611491576,-0.017885475756581393,-1.533681922751855,-0.035464789699240384,0.48971219551919803,0.15056353780594328,0.6344946768295154,3.0807025954544653,-0.03479996383563733,1.5632313027271392,150.76228117994708,96.43077042201843,125.92159689110802,78.38546369147957,102.4577319219194,97.30869336562391,126.39400031295652,120.59946759173798,149.0,145.0,125.0,121.0,101.0,145.0,125.0,169.0,0.4311849830790826,0.15560263678352332,-0.13421706238034745,5.238952063572592,-0.04226807808059951,0.30869336562391403,-0.10599968704347223,0.1372453695157522
34,1.7000000000000002,-0.04328906601354454,-0.3364440582900077,1.8678060852423117,-0.020004955563981408,-1.535110237229369,-0.0342959612451148,0.49068863777858407,0.15133535185232577,0.6334832395193607,3.0811293612967843,-0.033439382552336985,1.5639088684111935,151.03009541214752,96.709241814674,126.34591854715248,73.06655990847365,102.55947036293038,97.34606443711316,131.7116361906551,120.40460707633629,149.0,145.0,125.0,121.0,101.0,145.0,125.0,169.0,0.65453985659196,0.24479737022955728,0.24591854715248626,-0.10088195199146537,0.09356127202128942,0.2710644371131577,5.274550097939862,-0.2753046234429684
35,1.75,-0.046703497809545524,-0.3321165778210404,1.8614151186493748,-0.019663244326936002,-1.5324931173119607,-0.03767294285448042,0.4938191533336809,0.1497710167905421,0.6357214704065053,3.0791994694906992,-0.03578633843987739,1.564082741737194,150.46115647945044,98.20320573440846,125.92287666320777,75.19004890061949,102.514739948083,98.51021489067116,131.56249464715847,121.90298536782889,149.0,145.0,125.0,121.0,101.0,145.0,125.0,169.0,0.194340335952692,0.2323537164712338,-0.1989031962769943,0.23922922848833414,0.0009784801931023988,-0.12510621024626797,5.052516820107484,-0.21896585168330227
36,1.8,-0.05067185793429729,-0.3272755555275282,1.8545784038509323,-0.019292492187290566,-1.529540653293644,-0.04163441253394673,0.497315785621922,0.1479213965477174,0.6380013073600754,3.0773112377887823,-0.03842223467881657,1.5643126908658997,150.48643757817112,99.28245475878101,126.21655389650388,76.91387158380856,107.63137491922605,100.19285105444096,126.40426842040006,128.80490769608545,149.0,145.0,125.0,121.0,101.0,145.0,125.0,169.0,0.20715829889183515,-0.3504281241018731,0.10831860238623102,0.23857746616150652,4.968557367263007,-0.09121361068605473,-0.05881882792210159,5.156138121141385
37,1.85,-0.04624073689551933,-0.32923782748469677,1.8590448055208864,-0.023379763672795928,-1.5325867091720786,-0.03960185156807938,0.4957363237086542,0.14989422777087016,0.6363720398409212,3.0759145742764358,-0.03542210773375739,1.566588546665934,150.09508438241966,104.61062904912357,126.50790720779587,81.24735736342043,107.75222495415794,104.78131404993013,126.7974989572335,128.52391067550312,149.0,145.0,125.0,121.0,101.0,145.0,125.0,169.0,-0.23974707825450273,5.2510784873258265,0.23624444432983177,5.060003733443849,5.019046299865591,4.874121474524102,0.29749895723349634,5.1594662310586745
38,1.9000000000000001,-0.04442603279517465,-0.3290623729783406,1.861241597927891,-0.026621347780861004,-1.5341134965854275,-0.038937611744836786,0.4957040634566233,0.15064151682295432,0.6351500808033002,3.0751289489104643,-0.03390048910686453,1.5676727926953538,150.06169787207665,99.35749829372006,126.55110853530216,76.42953558612395,102.8142143588498,105.04655267776096,126.56767025274357,123.69631697255767,149.0,145.0,125.0,121.0,101.0,145.0,125.0,169.0,-0.30234707174357905,-0.07396238043724691,0.25437956333954,0.23093745528283333,0.22382534283149214,5.138085858538986,0.1561658279648134,0.19631697255766836
39,1.9500000000000002,-0.04322353275868274,-0.3290160197426628,1.8617026602684508,-0.03014164227994387,-1.5348150747534461,-0.03951173972057198,0.4958560437903316,0.151141633666124,0.635214842570398,3.072126737069347,-0.03304327628858117,1.5694992874386822,150.08288205281124,100.1490410390565,126.14110600486362,76.75540058389856,107.2102757230291,105.25582316872281,126.99564562145788,124.2896759441547,149.0,145.0,125.0,121.0,101.0,145.0,125.0,169.0,-0.3530730033685296,0.011962387371101469,-0.30644644268883536,-0.18865536015738635,4.627706915689645,4.794813994410888,0.4856677944068747,0.16772472464250235
40,2.0,-0.04107061947319712,-0.3289129187155675,1.863996652835306,-0.034001596169543014,-1.536470491591789,-0.03932322319426129,0.49579002965260777,0.1520322384847456,0.634031266695335,3.0707409949696634,-0.0313433460490764,1.5713960609760595,150.56684738163358,105.13948173522827,126.80698040323061,81.70963035170362,102.4404084996706,100.71357153378611,126.42136694875201,124.15969401688733,149.0,145.0,125.0,121.0,101.0,145.0,125.0,169.0,0.13538670747626322,4.7776839824192905,0.3185544773046811,4.628611833185104,-0.12451177367792485,0.10537107820523134,0.04471496637314788,-0.1795130315708147
41,2.0500000000000003,-0.04350428466929479,-0.3231972171927695,1.8584321816019838,-0.03349701675218375,-1.5349351421345707,-0.04009500308816616,0.49941468622707613,0.1508225615543744,0.6349739517347527,3.0713304968937845,-0.0328601546365293,1.5698118738641897,150.49291758431542,101.60553316154743,125.90897941053888,82.78354140268424,102.39236351185954,101.30503246445521,126.23034021947296,125.79288932912893,149.0,145.0,125.0,121.0,101.0,145.0,125.0,169.0,0.1879848488894217,0.17279773553845038,-0.3305554731820573,4.646332100358644,-0.1053429101588171,-0.46102258141635016,-0.10078560834160398,0.39112332471391675
42,2.1,-0.04296579517850718,-0.319793523383332,1.856588190828269,-0.03518426111847006,-1.5353707604632252,-0.03983170395731328,0.5013603489542072,0.1509609256463871,0.6347492179061619,3.071234961831898,-0.03243793961346902,1.570061302817397,150.07692065836315,101.60603621731198,130.89863810101238,78.74942246565324,102.76200763582456,107.11736921665124,126.47185608218905,126.33924653891677,149.0,145.0,125.0,121.0,101.0,145.0,125.0,169.0,-0.1646900798918632,-0.4140980108759313,4.643417683378974,-0.07656361323307342,0.255158320756061,4.738373782861295,0.14956027644952896,0.3127564726916016
43,2.15,-0.0418356842480434,-0.32198898765662776,1.8590439089066617,-0.04129024052611463,-1.536276266086289,-0.040628481541777894,0.5004620864579813,0.15146694867038885,0.6348661648298989,3.0653771014941347,-0.031221113832219687,1.5721125298351448,155.164533991894,103.43355250762141,126.15916503462509,79.55272791173135,102.3813757793013,103.18170704267247,126.2452736138122,132.05484196174726,149.0,145.0,125.0,121.0,101.0,145.0,125.0,169.0,4.940318745257228,0.4335525076214089,-0.14852727306721286,-0.25846089945746287,-0.12091779868034862,-0.052237911455978364,-0.06156965329596531,5.169632248722969
44,2.2,-0.03859266129922423,-0.3169996146996801,1.8545261390923082,-0.04206068726514722,-1.5378980678042815,-0.038129807217738065,0.5029196097950932,0.1528349102185585,0.6355792852970992,3.0652345047269516,-0.029777644946808766,1.5727501149634016,150.0644528752103,103.94436240955709,126.97601412333002,80.92277994669256,102.58897779553729,109.16186562147402,131.46187973520324,132.52070190929152,149.0,145.0,125.0,121.0,101.0,145.0,125.0,169.0,-0.3071687464113192,0.06598403117871803,0.4493319887592482,0.31025094437237094,-0.12136703204892316,5.111290908830334,5.053897473562454,4.802298361619676
45,2.25,-0.03799976109155345,-0.3147547459057263,1.8516482392649545,-0.0449901806426376,-1.5378455113814749,-0.040185771809684745,0.504473238719817,0.1530568543604591,0.6367756486758737,3.0616144879318754,-0.02952627414118447,1.5755013374574818,150.5384300741574,105.6978785500332,131.49063715384486,81.70138741745306,102.74404468898076,105.06568019779324,126.51115850841515,128.8687823810643,149.0,145.0,125.0,121.0,101.0,145.0,125.0,169.0,0.06438944210321808,0.5240636516133302,4.717052248184474,-0.22785786556581494,-0.1654680720401067,-0.09905298086105284,0.011158508415143336,-0.13121761893569622
46,2.3000000000000003,-0.03728793263636154,-0.31163849886348505,1.8484407649055257,-0.04945117322396442,-1.5382883311960898,-0.03980412567343938,0.5066024951201383,0.15328694300075102,0.6379405462535539,3.0570950161616413,-0.028926324954889122,1.5759283709576268,150.46284111422406,111.56641659606389,131.44364513399267,84.1543962097351,103.43322229629936,106.80544803627303,126.59965314966394,130.48501687771926,149.0,145.0,125.0,121.0,101.0,145.0,125.0,169.0,0.0782257296086751,4.650127003303707,4.691264181611729,0.45915811449699734,0.49572229629936326,-0.09732974150473019,0.17554600680679192,-0.12659026513788815
47,2.35,-0.039597351002504055,-0.30610178560616097,1.8421045495718937,-0.05245375244635486,-1.5369237945097236,-0.04042321671282556,0.5105149512813343,0.1521016089347334,0.6398575250708481,3.0532328336398074,-0.03007816248298155,1.5744608699765215,150.04315914640964,109.02896582581997,131.28674535117034,90.68017029364829,108.13711175440163,108.927188227869,125.7902486196853,132.6496267004885,149.0,145.0,125.0,121.0,101.0,145.0,125.0,169.0,-0.03270292255585997,0.08643709018778309,4.799809484186953,4.853566968232608,5.258891613886401,-0.12199209999986053,-0.5155549517432726,-0.011087585225762257
48,2.4000000000000004,-0.037576084648094366,-0.306056142856141,1.8453802456164654,-0.05728158320969445,-1.5389813102805476,-0.03894319925115486,0.510437972630622,0.15293468110284925,0.6381446353970768,3.051850370961336,-0.028086379013740354,1.5748741045718029,150.34514554970224,109.46506388636544,126.60820052149062,85.73451354986523,102.62622996669866,109.01759992197279,125.8187809593945,133.01748080798222,149.0,145.0,125.0,121.0,101.0,145.0,125.0,169.0,0.3174957801169832,0.3682896928170638,0.29391480720490254,-0.2392959739442919,0.05314411983090881,-0.19121678336363931,-0.33816971325123535,0.1452834985652022
49,2.45,-0.03664104753909925,-0.30201972322833637,1.8425577493471694,-0.06093630133788919,-1.5396724354886073,-0.03841255600916149,0.5129019474290325,0.15325455609249625,0.6384692066376891,3.0494579095155414,-0.027342776436980198,1.5752868325841223,154.73884735664453,110.59310988322147,126.4323455207203,87.68372972399216,102.25198959332533,110.35894544687295,126.20162795009769,134.09978159706847,149.0,145.0,125.0,121.0,101.0,145.0,125.0,169.0,4.698123374744076,0.12478409136626425,0.17996456833935956,0.4670630573254893,-0.301005798379736,-0.06962598169847437,0.07382525951473269,-0.05716907557726444
50,2.5,-0.03523981589079028,-0.29617662977349246,1.8376782962317106,-0.06297526186385616,-1.540475977136028,-0.03718596817886688,0.5162328249039616,0.1537740316288134,0.639085709536304,3.048461931530575,-0.0266149760927581,1.5754194250953713,149.99985407378838,111.4998955618347,126.02721832551279,88.1892023200135,107.70455195466153,111.44454604380566,126.21147529178131,140.67497695835664,149.0,145.0,125.0,121.0,101.0,145.0,125.0,169.0,-0.02324061443332093,-0.3615363088350444,-0.31007383600740934,-0.2953582500577557,5.116179861638272,-0.3112679096827149,0.057800458819174075,5.200589430516993
51,2.5500000000000003,-0.031575258989251065,-0.29404219685407984,1.8382927407052865,-0.06694821269020057,-1.5429916791409708,-0.03544135886753619,0.5170877928859758,0.15538561292118194,0.6380387740124265,3.047374313881918,-0.024218334424419966,1.5771472003639424,150.10218373893682,112.0893792328157,131.30907871251156,88.71882919910114,102.61288690479768,112.07493123363724,126.2052659117807,135.8834286279722,149.0,145.0,125.0,121.0,101.0,145.0,125.0,169.0,-0.016537722250415592,-0.059022593668310815,4.818512674775722,-0.2009821216535841,-0.05301171271383578,0.0011985147432368509,0.04831523913496807,0.011231318555174417
52,2.6,-0.029138614693860365,-0.28929742102917855,1.8351595750926153,-0.07485968083140726,-1.5448638017493623,-0.03371308374831461,0.5200969245918735,0.15636999579240898,0.6386875431075358,3.0411878158204484,-0.022291237258405625,1.5778286653200202,149.85416810268376,114.71453907843244,126.47858488040106,91.4132807346251,102.21309157847561,119.1946352818215,125.94896143207706,137.94004160827447,149.0,145.0,125.0,121.0,101.0,145.0,125.0,169.0,-0.2770536167732677,0.25300061689396924,0.07100194201243286,0.24977362562036728,-0.3698577302801448,4.915833438503526,-0.16736966411981832,-0.24116644541680432
53,2.6500000000000004,-0.02676105473255852,-0.28452804197455617,1.8320230646729216,-0.08149906137284768,-1.5464236866069703,-0.03323817037822829,0.5230188376760224,0.15736031686256902,0.6391635827535465,3.036255258225668,-0.02061239642264598,1.5796801462267414,150.20027622858296,116.33254781935983,126.4574564971854,98.15608380410237,102.44483944385757,116.0147699349642,131.57230161958128,139.85538566327455,149.0,145.0,125.0,121.0,101.0,145.0,125.0,169.0,0.0339892126376309,-0.05925172505930129,-0.06998980353059572,5.079711489066569,-0.18564554459507202,-0.10532244378868251,5.444498928998325,-0.3015650093711827
54,2.7,-0.02958784320146801,-0.2820014613429609,1.8304959377805785,-0.08116542389937598,-1.5449371070401332,-0.0356256002654618,0.5248300199776499,0.1559608761928062,0.6388646242103473,3.037484057871445,-0.0219042335273497,1.5793482802525673,154.7639388365306,117.13756497282051,125.83435126916092,93.50048012438243,102.7273341718376,116.55118938655083,130.79151510376366,140.36234830184335,149.0,145.0,125.0,121.0,101.0,145.0,125.0,169.0,4.839281302284046,0.3361951098068054,-0.4418392070295589,0.157622981525295,0.3043456660904661,0.038545708389911344,4.937210468002068,-0.061492757759275735
55,2.75,-0.03032333189446934,-0.2755728614905295,1.8247253186693415,-0.08197294459116344,-1.544422500663293,-0.03669093645611765,0.528755246312866,0.15549854490869572,0.6395764296808997,3.037303666428298,-0.02230245420311798,1.5797270959185246,150.26090737210882,117.97637228377576,126.26707823186908,94.74482033486936,102.40337679867385,117.69939146010616,130.78879222556293,141.7055528266253,149.0,145.0,125.0,121.0,101.0,145.0,125.0,169.0,0.3367694410743169,-0.08109898059205867,0.06324130141344775,0.011007385229073088,0.005675649248565729,-0.06382693069843458,4.998969216713369,0.04404840184652675
56,2.8000000000000003,-0.031923519200163675,-0.2701301030859682,1.8202760027198908,-0.085023497301977,-1.5435692981579292,-0.03906029241943276,0.5324122573352674,0.15461183585333374,0.6401397296798765,3.035166631429852,-0.02281812608725522,1.5806196105835106,154.5913282293077,119.50487670742916,125.9985553559982,96.69666820897004,102.09721206656484,118.94561530960355,130.6810186295289,143.4109688631108,149.0,145.0,125.0,121.0,101.0,145.0,125.0,169.0,4.911782774762241,-0.16785056529810494,-0.13683656799228494,0.43538554863749274,-0.04096123554289678,-0.2932605686165882,5.057670611907741,0.07176181465264811
57,2.85,-0.03337900928637216,-0.2619437086173235,1.8128264493804664,-0.08599942700105201,-1.5426080708672085,-0.04087237943982247,0.5375054911152629,0.15375639386114806,0.6410491077946388,3.0348582167059583,-0.023571300069017143,1.5810727548097887,149.54243532651097,121.36914268867069,126.03318113990471,97.65216078946618,106.97664607602677,121.44878343057681,125.9804626626924,145.10158607289745,149.0,145.0,125.0,121.0,101.0,145.0,125.0,169.0,0.015286005244002102,0.007151738444444322,-0.009472888531299234,-0.29807617735846526,4.914146076026762,0.40248713428051475,0.4793637615935104,0.07521244652380159
58,2.9000000000000004,-0.03126759876156182,-0.259251904042769,1.8127928390389778,-0.09105832581352447,-1.5443303839033744,-0.04028518823999816,0.5390221101594131,0.1546738207894256,0.6402413966953922,3.032534993228941,-0.02180642035268209,1.5824767234463017,149.51772865007118,122.7450269929275,126.38666415549234,98.65448323997612,102.07157035560614,121.68134859821978,125.29678994445324,145.7111628887904,149.0,145.0,125.0,121.0,101.0,145.0,125.0,169.0,0.017728650071177337,0.4222997202002307,0.3391582172500621,-0.22437661750606033,0.08314442968022129,-0.2399476980765077,-0.20211115444785943,-0.2624634848359745
59,2.95,-0.03040124613453976,-0.25290490513017705,1.8086685070326993,-0.09666984806763246,-1.5451586200970349,-0.040312108271086,0.5429761425043474,0.15493554264146364,0.6403477486410721,3.029188414177513,-0.020833148979147117,1.5833518848723236,154.49499648105828,129.39004567619793,130.63128480040268,100.5110720051012,101.63966171281777,128.58892878348584,125.10832999017018,152.9376367083461,149.0,145.0,125.0,121.0,101.0,145.0,125.0,169.0,5.048043885121476,5.119165315024106,4.668931859226196,-0.2536338772517485,-0.31161438927040985,4.709578435458012,-0.23009795742807232,5.038073389568807
60,3.0,-0.024711839556298187,-0.2344178588642727,1.7926557343594913,-0.1137244981429757,-1.5488891183689555,-0.03735236077559678,0.5544364188220919,0.15736453436814962,0.6433588300709866,3.0148767286154614,-0.016871681774884434,1.5859354676309996,149.53568636153597,130.93193177142098,125.45652617765663,107.30079314092222,102.27878013482632,130.2630347104315,125.77276269954751,159.51106256851423,149.0,145.0,125.0,121.0,101.0,145.0,125.0,169.0,0.1084136342632173,0.0023863168755208024,-0.5434738223433697,-0.17149601570427175,0.2579949154267717,0.004374202348346522,0.5139907697229577,4.980360814128265
61,3.0500000000000003,-0.023574680082663058,-0.23173455958597788,1.791539391050276,-0.11530391427056674,-1.5497298933774823,-0.03680444286389539,0.5558669297915313,0.15787839924573394,0.6428551306604275,3.0148825624028097,-0.016110807587598235,1.5864233391869318,149.51381535941218,131.06425709328232,126.52391027799531,113.34694366710129,106.78312090748886,130.6834179338429,125.78255385797742,160.24431343387553,149.0,145.0,125.0,121.0,101.0,145.0,125.0,169.0,0.06937091496772525,-0.3280331561507752,0.4596245637095982,5.489800809958425,4.824787574155537,-0.07584132541636865,0.4347277710209007,5.2443134338755435
62,3.1,-0.023849266102498046,-0.23693160165961213,1.798152416672754,-0.11109701165733554,-1.5499574877791247,-0.03609775155577388,0.5522896699310932,0.1577880440768641,0.6406743621145684,3.0204694324649735,-0.016198433054488454,1.5853278365646923,149.57076534385104,129.02400233582722,126.1114205675467,105.69043325488998,101.97508936274251,128.13068722963374,125.27830581339308,153.37091053369318,149.0,145.0,125.0,121.0,101.0,145.0,125.0,169.0,0.13256309666003027,0.02400233582722395,0.1090167213928688,0.2457217164284526,0.1189249791808677,-0.2757054644301853,0.036475748033599965,0.6693854792269383
63,3.1500000000000004,-0.023032176585352282,-0.2329916804329617,1.796130582116887,-0.1139304357304547,-1.5507251885005022,-0.03565520221045171,0.5546041353162036,0.15810695438185152,0.6402354083958238,3.019605954055143,-0.015455934304012632,1.5856259137508955,149.5576036657031,129.59985615763836,126.5523897221254,106.19517420844433,106.80597394015382,129.19319351906051,125.227927038476,153.75974575094898,149.0,145.0,125.0,121.0,101.0,145.0,125.0,169.0,0.13418024227967387,-0.35284654506435353,0.5783331183518097,-0.035957867027365815,5.049155758335638,-0.08635193548492992,0.051456450240703985,0.1344734197942987
64,3.2,-0.020759603079710587,-0.23124703089082965,1.7970781889610477,-0.11791946590276314,-1.5526018599850255,-0.03435640189864353,0.5554269540870393,0.1591664511877008,0.6390900427470868,3.018406920912906,-0.01369900573749526,1.586401305668262,149.65907180863294,130.30874309688323,125.71815710362263,106.84033515325385,102.2634558211875,129.81869226001902,125.25339354906696,154.0858696492128,149.0,145.0,125.0,121.0,101.0,145.0,125.0,169.0,0.15458750370020724,-0.11278156679390218,-0.2606164812830388,0.09741062495196424,0.5254148189095976,0.1330430572855306,0.006640302313711572,-0.13707407373090147
65,3.25,-0.019609009897464613,-0.2271851273376373,1.7951110139706623,-0.12128535605030866,-1.5535954505174239,-0.03381775921081687,0.557791461456564,0.15965779393588336,0.6386028334300753,3.0171856281158655,-0.012735740301846153,1.5869106770104964,149.27999283954276,136.4471454012457,126.06218577961104,107.87131060168346,106.8452388747429,130.80959488759675,124.69954177851346,155.0630237713507,149.0,145.0,125.0,121.0,101.0,145.0,125.0,169.0,-0.19875436403666755,5.033275155160704,0.1145667319919974,0.22607250644536117,5.280613024402761,0.17013910528381798,-0.5026087591209532,-0.19504074477834057
66,3.3000000000000003,-0.018270653421039285,-0.22545059080687224,1.795783937769432,-0.12465054470093628,-1.5549587234878155,-0.03249745907241275,0.5587034913445788,0.16025378774344623,0.6375806462152467,3.016289369155305,-0.011515807073017059,1.5867807469980577,149.52611884768277,131.8038094590296,125.74590666220858,107.9386331516736,101.56287374042788,131.5340372116392,124.90983842749738,160.65630476063507,149.0,145.0,125.0,121.0,101.0,145.0,125.0,169.0,0.07500773657165427,-0.029523874303743952,-0.14141728145338026,-0.08484102673016165,-0.004693827139693313,0.37412730172930164,-0.11607949906851085,5.058032622406135
67,3.35,-0.016689155512117804,-0.2219397074813605,1.7942913479081133,-0.1269233178964151,-1.556127971230537,-0.03159031660371969,0.5605765119637182,0.1609903617446855,0.636930394448348,3.016087125060881,-0.0104604387637381,1.5873191001271125,149.08599126862575,132.73942903704514,126.12003029477474,108.65334575138118,101.88009852736835,131.8477140340756,124.84079734036881,161.21377881066803,149.0,145.0,125.0,121.0,101.0,145.0,125.0,169.0,-0.4006753980409329,0.27054014815624117,0.2148170246325503,-0.024379367102232014,0.41358067022547995,0.12896403407559606,-0.15920265963119012,4.8086063968749135
68,3.4000000000000004,-0.015302205740925334,-0.2188675496859931,1.7932654681609774,-0.12900610999523776,-1.5572243448264071,-0.03067769275893717,0.5621982743273586,0.16163458617935186,0.6361725838558991,3.01609847984252,-0.00948661211303129,1.5876634708029442,149.58111212428727,138.19892241594582,125.58185789698248,109.21067352290179,101.38062668753827,132.1490123096703,129.60063662793047,156.9666672330793,149.0,145.0,125.0,121.0,101.0,145.0,125.0,169.0,0.06669970743584905,5.22109536494805,-0.3054660466794812,0.18719934449803255,-0.15612164208310642,-0.08038635402681955,4.571162943719937,0.11824618044773075
69,3.45,-0.017648945503715652,-0.2161604481370265,1.7909734764003717,-0.12899582657577202,-1.555978479970313,-0.03230274947283496,0.5641453613373035,0.16038961297158705,0.636239108823103,3.0164668395051786,-0.010546619427649409,1.5870741722013038,149.01571988238422,133.55648529590388,130.50619726089232,114.35964088082676,100.66797734199253,132.3042440897639,125.03255931408371,157.31775405636165,149.0,145.0,125.0,121.0,101.0,145.0,125.0,169.0,-0.3154059454303448,0.0840791148884241,4.861185659964252,4.754072435351127,-0.60211194372176,-0.4345951959503894,0.2514434342553886,-0.10499272475423864
70,3.5,-0.017662391691801282,-0.21374571322776337,1.7904110901970167,-0.13127932492786387,-1.556459846403162,-0.03160659774818653,0.5656214969674627,0.16031156227099475,0.635544657077727,3.0160593045327957,-0.010140641014205691,1.586314971222695,149.27043063548086,134.077328446547,125.52735930155575,109.81550471273339,105.87241619618767,133.212575861101,124.65183937064515,162.69279077020352,149.0,145.0,125.0,121.0,101.0,145.0,125.0,169.0,-0.017817701547945087,-0.03131900356383915,0.016918466288934158,-0.24946048448239197,4.749373690594842,-0.1766858838654543,-0.00633472701939119,4.667313063197154
71,3.5500000000000003,-0.016019767656127115,-0.2129548465372051,1.7917632202934355,-0.13230840022388568,-1.5577567114841955,-0.030636600326728658,0.5657293624291517,0.16112005184358663,0.6342925152314299,3.0172177307620736,-0.009001243508925096,1.5868281768540338,149.48334759739768,133.5981994527034,130.56965293211763,114.69592802113606,101.01367595987571,132.78060700582947,124.66180655232276,158.05092268208378,149.0,145.0,125.0,121.0,101.0,145.0,125.0,169.0,0.11851243256251134,-0.11169065718670311,5.017928794186598,4.912019975159044,-0.053588614115311024,-0.2575095860987887,0.029671245768849483,0.24331168842626832
72,3.6,-0.015464901729878022,-0.20978174078428857,1.790731627396041,-0.1354557353568766,-1.5586141612221756,-0.029574513718318762,0.5676194233980416,0.16132433928616188,0.6335898964727262,3.0162547586006037,-0.008251996672962274,1.5862306311978727,149.14136314616545,134.54380178571247,125.08005007627108,110.64458803881872,100.55970819840132,133.65262479382275,124.8392939224508,158.53651473703079,149.0,145.0,125.0,121.0,101.0,145.0,125.0,169.0,-0.10371344026783265,-0.01199690137724022,-0.3959224637746745,0.13200222646174548,-0.3467505989260619,-0.1914732017229216,0.2566668038067444,-0.11602763585057357
73,3.6500000000000004,-0.014839412255036155,-0.20587008246526217,1.7887931814043716,-0.13766059915384732,-1.5592591540841712,-0.02914995374989049,0.5698792571749057,0.16157932365492902,0.6329749435551228,3.0160554455845836,-0.007660483691203995,1.5863545522088287,149.269505711437,134.9712796136791,125.54898212904554,115.85085702439112,100.3053808306616,134.56192432200044,124.61167124718533,164.31830340764554,149.0,145.0,125.0,121.0,101.0,145.0,125.0,169.0,0.02442912500373659,-0.3460070383996711,0.12008304647673951,4.653609317969093,-0.501636713198032,0.007099760596936379,0.05588177350110942,4.909882355013962
74,3.7,-0.014757244170733319,-0.20488333154677418,1.7892918151864317,-0.13661815445740277,-1.5595326012241975,-0.028407436811375586,0.57021917062142,0.16159777308472267,0.6319507632625814,3.0185885420388643,-0.007558672766230874,1.5856463159491996,148.8740603997557,134.93076231822172,124.8057915972893,115.481210953231,100.38629926567474,134.1888026848645,125.0054336011731,164.43971895366468,149.0,145.0,125.0,121.0,101.0,145.0,125.0,169.0,-0.4101044592464683,0.14334366312410435,-0.5703551917015252,4.731210953230994,-0.3421775555173116,-0.016495328380536665,0.4760218364672072,5.397702146941983
75,3.75,-0.015271314108114886,-0.20463867890845355,1.7905155772079695,-0.13418056770103348,-1.5594351203691854,-0.02796272574098646,0.5700816436754703,0.1613190548044926,0.6306795237048148,3.0224865840963475,-0.007826319179110178,1.5846712764309856,154.62796111529335,138.88511430534345,125.12788474362763,114.7829661117346,105.79643369530906,133.42952231582404,123.70957134125118,158.47400927561128,149.0,145.0,125.0,121.0,101.0,145.0,125.0,169.0,5.3310178838522955,4.893847929797591,-0.13238922897511493,4.924518623150128,5.14216673688455,0.059719252366699345,-0.7904286587488222,0.21567594227794254
76,3.8000000000000003,-0.012315838174350446,-0.19945651599169123,1.7882901536327633,-0.13872675181802707,-1.5617023173197087,-0.02557819365411529,0.5728452907380228,0.16275876092294617,0.6298026196716007,3.020992928227414,-0.00580667213944142,1.585003215095145,149.10812538117483,135.28813189402896,125.42233034418886,110.96075712459955,100.60693285829248,134.41766863289436,129.84636366090638,159.30484807296068,149.0,145.0,125.0,121.0,101.0,145.0,125.0,169.0,-0.21431470597112512,0.03976588095709089,0.07914852600704389,0.04712076096320294,-0.006604259611448701,-0.08888158544624211,5.26268165253818,-0.15958707348283532
77,3.85,-0.013956343090103296,-0.19719853257667408,1.7872254347730365,-0.13782408900545828,-1.5609521591022082,-0.026650963455417287,0.5742640811067998,0.16186391282833923,0.6291388799874187,3.023063029882646,-0.006489560623684138,1.584499495572268,149.38775672154406,140.17883344232462,125.13637708989489,116.32441346000405,99.76518089536829,134.5248740533491,124.13821294721414,159.49214569569045,149.0,145.0,125.0,121.0,101.0,145.0,125.0,169.0,0.17207044703426047,4.882537146028308,0.020467998985809914,5.360777096367677,-0.6990273475818144,0.025958652047576983,-0.2701203861191847,-0.007854304309549849
78,3.9000000000000004,-0.014054485820364615,-0.19307470590042852,1.7850750807493059,-0.13958419402402322,-1.5612836331820539,-0.02576850659366725,0.5767127216276107,0.16174178552701596,0.6284688406740744,3.0232950437514376,-0.006273809671218196,1.5834827952987058,154.2200638573556,136.07074385952407,124.7988568388402,116.43921569853342,100.1675441071537,135.1463139926833,124.09224952335994,160.3075019828682,149.0,145.0,125.0,121.0,101.0,145.0,125.0,169.0,5.076901464193217,0.30151309029329687,-0.19440158812610317,4.8414628895446645,-0.1846298058897685,-0.23846861601233454,-0.23623280512237793,0.04346871883493182
79,3.95,-0.012126872820362511,-0.1851406926430763,1.7808132571111388,-0.14181381300263274,-1.5629510231735306,-0.023345528949093808,0.5810138683836803,0.1626541002329795,0.6270892823105153,3.024816377762354,-0.004929197613471546,1.5828035888387326,148.8723845533413,136.93449863039126,124.45113287627883,117.51106764456998,100.06542480744739,136.40817058335227,124.80072819279242,161.2747122016752,149.0,145.0,125.0,121.0,101.0,145.0,125.0,169.0,-0.28863239581126116,0.06585456259464523,-0.49576977858842347,4.960182688817761,-0.15871312358709203,0.028860238524698874,0.45704289258537295,-0.15178883352148623
80,4.0,-0.011962361939275912,-0.18210871460971934,1.780253774944267,-0.14232314009011304,-1.5634841111213467,-0.022287738442927196,0.5825977367641734,0.1626845893072428,0.625783949761938,3.0267893539630055,-0.004569829227681546,1.5818460981022013,149.20873469056417,136.9021780748509,124.6638959704422,112.40913574449469,100.11531530985158,136.42512786785787,124.56202524542512,161.52844407919906,149.0,145.0,125.0,121.0,101.0,145.0,125.0,169.0,0.16261309727274692,-0.07895400062080354,-0.19229871982328547,-0.17714744134602853,0.05321680878091528,-0.0802254511999272,0.26839074850519223,-0.09578590026704747
81,4.05,-0.011668804393068832,-0.1773611238186561,1.77828345314271,-0.14342911834114735,-1.5640626610139208,-0.021498733884977028,0.5852125269040982,0.1627688544734781,0.6245152167790811,3.0284759087293898,-0.004125247585417708,1.5812814074464656,148.7102348525944,137.8347558501773,129.68491720143376,112.79914204990948,100.12259189165,137.09078819904698,123.99570214962404,162.31219116397915,149.0,145.0,125.0,121.0,101.0,145.0,125.0,169.0,-0.34708998816993614,0.35280255930680704,4.976028312544877,-0.24085795009053607,0.2110129442815782,0.13710398852065175,-0.10185882598570853,0.2125976680442017
82,4.1000000000000005,-0.012011742864444841,-0.1739153667254607,1.7775473655785197,-0.1446687997103071,-1.5644565211522892,-0.020594689583494308,0.5871609021280058,0.16251038449683136,0.6231575126385344,3.0299583630003553,-0.0038692650484126677,1.5799889199407797,153.75858369202186,137.766871773559,124.48116602439968,112.91505686465567,99.29722693752463,137.19955809357407,124.14022432819708,167.31749853081922,149.0,145.0,125.0,121.0,101.0,145.0,125.0,169.0,4.783740924726265,0.016347664544339363,-0.044108700875048173,-0.31791016831137736,-0.27268831671266536,-0.2305266521886453,0.12010360385101258,4.8024079875596515
83,4.15,-0.009571241405117004,-0.1615601648530407,1.7720081004862998,-0.14521921933811743,-1.566854812432105,-0.016392513106622708,0.5935448765396111,0.16367260240529855,0.6197448707366069,3.036325973101475,-0.002048653926615184,1.5779748120100228,153.92743193304537,143.31155423068793,129.66751562969435,114.16329189284822,99.63753704093567,143.47215134369276,124.15851035749853,168.52896486649757,149.0,145.0,125.0,121.0,101.0,145.0,125.0,169.0,4.887682979070473,4.803186029851115,5.2151346773134115,0.288833018389334,0.19309259649122618,5.3191115114076535,0.13484171844527182,5.085177884249063
84,4.2,-0.009330087637259954,-0.15953277035130942,1.7697386478295742,-0.1472982461272192,-1.5669041358324787,-0.017154427566976604,0.5949407140772153,0.1637904434176394,0.6203764673461372,3.033973598614458,-0.0018843302711241414,1.578973254992504,154.37882327115184,139.41561753042714,124.37186211652515,115.19552803715005,100.00473079886473,139.17638238513052,128.71974376426755,164.21082475463248,149.0,145.0,125.0,121.0,101.0,145.0,125.0,169.0,5.355762474506156,-0.07285207124999757,-0.1335845065685257,0.413392960897328,0.5235592507475744,0.09060832655312319,4.7197437642675615,-0.18401651520877302
85,4.25,-0.00895527252405337,-0.1491646827605102,1.762769624926297,-0.14899165272332482,-1.5675665590679264,-0.016331458856583936,0.600920190481467,0.16389322360358766,0.6191902773966228,3.0357082754441795,-0.0013456384355375692,1.5784536240302536,148.77315438565705,146.3164564128209,129.06808423696793,121.16951439456301,104.23858260481617,141.023414335549,124.42470904934125,165.8966419865675,149.0,145.0,125.0,121.0,101.0,145.0,125.0,169.0,-0.2268456143429611,5.2669718767384435,4.654291133519663,4.818221291114737,4.930093991979739,0.3339733417601828,0.4887090493412346,-0.18935801343252542
86,4.3,-0.008692728354951829,-0.14847430353381874,1.763418936340666,-0.15021510041347597,-1.5681622479953798,-0.015156519665215473,0.6012449213653871,0.16399731626147912,0.6184871600986759,3.0358163952246238,-0.0008797864439007044,1.5774860935864004,148.7138233446268,140.9937513669074,124.57206404582564,116.26147838476072,99.25585077477037,140.61870746753206,129.21848197841274,165.9904201610004,149.0,145.0,125.0,121.0,101.0,145.0,125.0,169.0,-0.27385632683109434,-0.08427738052586789,0.2872674719498263,-0.14537386363327637,0.12115689721935446,-0.24659865491691285,5.339995922635837,-0.17691051629043583
87,4.3500000000000005,-0.009927324957944794,-0.14603977177457184,1.7617926214490707,-0.1497762241797198,-1.567574633186152,-0.01580479362415721,0.6027691209071167,0.16329184560050983,0.6181040526666916,3.037039911998478,-0.0014218649560656862,1.5769543442788017,148.8299437736315,141.35976877043475,124.17238597596953,117.01941660968536,103.67037353824507,140.4085246781165,123.88750930960671,170.85015888651,149.0,145.0,125.0,121.0,101.0,145.0,125.0,169.0,0.001786423735010739,-0.00047967677022057607,0.026775697596943756,0.46909541054189535,4.639572716889828,-0.6222761432387284,0.09223371905553183,4.350158886509997
88,4.4,-0.008803095081393764,-0.14674045564158034,1.7631754113521518,-0.14995051906576284,-1.568275353502675,-0.015487912764256428,0.6020987727681649,0.16390922352018497,0.6176029898430726,3.037546601547718,-0.0007611111872080907,1.5776933714755648,149.1027891543837,141.31851958733168,124.35401182702417,116.60206215285818,103.74058894527256,141.0746693213083,128.72325677776968,166.05111389666797,149.0,145.0,125.0,121.0,101.0,145.0,125.0,169.0,0.13358997573892678,0.2877187659764621,0.09006332917008829,0.31021665929594044,4.681162715764377,0.30007915737387325,4.914873544236731,-0.10257871810249056
89,4.45,-0.0093019403914254,-0.14757816550037584,1.764114192465457,-0.14951834185092316,-1.568004225059334,-0.01642401219751566,0.6016151204649225,0.16363425396592005,0.6174142346491018,3.038065622617179,-0.0009441126263446207,1.578152999049676,148.62311859049137,140.45299903250324,124.24287275430565,115.62655938098573,99.09230653109417,140.0814682941157,123.70263014978426,165.9961921485537,149.0,145.0,125.0,121.0,101.0,145.0,125.0,169.0,-0.2664519616558626,-0.42021160144357894,0.002447222390758851,-0.31812147007810493,0.005529671590042413,-0.3048953422479231,-0.09019853547471345,0.08384155094411959
90,4.5,-0.008870054162083196,-0.1447173443820997,1.7626046590828528,-0.1509740312387522,-1.5684037948080176,-0.016196728022227713,0.603261493935318,0.16383899065664892,0.6168960946806478,3.037984209273805,-0.0005675922442585416,1.5783168231050402,148.84990902233858,146.11635441460086,129.20029305487543,116.2668160509416,99.77610559619146,141.04951454041307,123.8314092360719,166.22809279797175,149.0,145.0,125.0,121.0,101.0,145.0,125.0,169.0,-0.04536818505361173,4.798079260596757,4.988301620185928,-0.21498266426182208,0.7761055961914504,0.049514540413072156,0.041625346091555944,-0.29646515880624186
91,4.55,-0.00926822981932851,-0.14314798562351427,1.7612005428722073,-0.15317003663799467,-1.568272627631047,-0.01657686012804893,0.6044580796371524,0.16359725512018758,0.6171758889983803,3.035953414518487,-0.0006267628451655285,1.5783107934236433,149.27024204798838,141.83392198006126,124.36370829340333,116.93001340418525,104.35456360071503,146.97746411939244,123.95205714349292,167.64200939981998,149.0,145.0,125.0,121.0,101.0,145.0,125.0,169.0,0.4054879496277187,-0.27058621666003324,0.2696911993862477,-0.44605497188312726,5.383252125305193,5.149595266933441,0.24199797189529218,0.39151630317302544
92,4.6000000000000005,-0.00920152468129043,-0.1482518111209985,1.7638652314145151,-0.1535590138873162,-1.5677500289213455,-0.019157813310488603,0.6016634791967485,0.16369614992517392,0.6184826480743958,3.0330762510133247,-0.00082182994316562,1.5810037818756253,148.83646310188044,141.63149743555746,124.07226658629457,116.9685431648189,99.12997501061284,141.15991316836386,128.52667436868302,167.12796945566566,149.0,145.0,125.0,121.0,101.0,145.0,125.0,169.0,-0.0793479864152698,-0.28431365273822795,-0.3324953184673247,-0.08340488712915524,0.018404762678955907,-0.2119876580824339,4.793075959140269,0.17369510178891756
93,4.65,-0.009720423087719698,-0.14598363699832584,1.7624646279221858,-0.15342488180397096,-1.5675600460252808,-0.019336137278277654,0.6030116325470295,0.1633887937990565,0.6180540746177942,3.0340944385419104,-0.0010100911645305967,1.5806802970446676,148.64820231577286,141.52459348975577,124.16573606302728,117.14832860940804,99.14532022821378,141.56548585588416,123.66388363555035,167.60371879292765,149.0,145.0,125.0,121.0,101.0,145.0,125.0,169.0,-0.2039537417219816,-0.5575420338581931,-0.05007590278467835,-0.15936369828426095,0.15150579522407756,-0.11492651524986144,-0.01793454626784277,0.4693314411489989
94,4.7,-0.009219074214531275,-0.14347934481817326,1.7610718517604047,-0.15464396843340378,-1.567960079660419,-0.019027195651228013,0.604445814754167,0.16364062096102397,0.6176352244118298,3.034016281448538,-0.0006397787238656823,1.5808318505590355,148.9497059788267,142.6533523819526,124.25650085831823,117.47169366552072,99.06696331919736,141.94001905237974,123.58167339488548,168.21766792912393,149.0,145.0,125.0,121.0,101.0,145.0,125.0,169.0,0.09664475433690047,-0.018076189475965922,0.0637813722368667,-0.1856939147790682,0.07105329874745303,-0.12542062042187974,-0.10149492194620091,0.506776840015015
95,4.75,-0.00863985184186511,-0.14071597224832555,1.7593964785862326,-0.15597034545721034,-1.5683986120282905,-0.01862144070156102,0.6060237066470591,0.1639371736836422,0.6172771808123696,3.033790053805614,-0.00024055683217942477,1.5809616878613224,153.4882295240685,143.127431874757,129.69861665518664,118.40653492050248,99.10645993602968,142.52075138782573,128.91181340108992,173.26827088700807,149.0,145.0,125.0,121.0,101.0,145.0,125.0,169.0,4.562000015871776,-0.044699272783994624,5.4598106850373895,0.08670549619545236,0.12895482355525398,-0.2399848084932817,5.2267740310111765,5.0182708870080734
96,4.800000000000001,-0.008361113055308511,-0.13642534530765626,1.7564755599368427,-0.15640293051529408,-1.5688461079016198,-0.01777219194779356,0.6084622498325358,0.16404552955485313,0.6167367784647244,3.0347454712525725,9.568040353407579e-05,1.5803470331564888,148.80939639096184,143.6091628608368,123.73557508899995,118.9126650837472,98.7212505243367,143.18828497526982,128.55470305643578,169.17678160210605,149.0,145.0,125.0,121.0,101.0,145.0,125.0,169.0,-0.05590973148714488,-0.2561432616121894,-0.46400028254994624,0.16744215381090202,-0.16741344327464278,-0.05463000448724985,4.943701091799247,0.24554388108444147
97,4.8500000000000005,-0.008962994054033668,-0.13468320761643549,1.7552430618809884,-0.15558860841634026,-1.5685338545205498,-0.01788808667986075,0.6094787708533977,0.16369856113741485,0.6164352463814944,3.036058498678809,-0.0002303981990494439,1.5798916236822036,153.94374426201185,143.89372019019018,124.3018608229294,118.48349096194833,99.11636191610935,143.78617926889703,123.43073268867074,168.7228205557374,149.0,145.0,125.0,121.0,101.0,145.0,125.0,169.0,5.084273793580075,0.0036998235914145585,0.2448987976129502,-0.328745324971487,0.273184726699981,0.4338371100375705,-0.1180954363292611,-0.3670231942625941
98,4.9,-0.0075414791842352,-0.1285004188188421,1.7508470174678212,-0.1580584141123964,-1.5695597610682919,-0.0168212717832259,0.6130213015072417,0.16444406132336425,0.6159782391592241,3.0354075973135615,0.0006948461297566021,1.5801459163196483,148.79415133433432,145.07834859767115,124.03386973090812,124.76394777401472,98.94303308251244,144.8420221607017,123.61228610897786,170.32297373539527,149.0,145.0,125.0,121.0,101.0,145.0,125.0,169.0,-0.17542270217684008,-0.06972442464121321,-0.13244605856555938,4.563947774014724,0.06676533403375251,0.06311749538729826,-0.05177639102214161,-0.06960438960474265
99,4.95,-0.006780758276028198,-0.1267182706217569,1.7504101615991061,-0.1577544288582442,-1.5702213304129842,-0.015141513120880301,0.6137895336986883,0.16485336324798092,0.6151574704773174,3.0370602666896467,0.0011515589973317788,1.5791694164367636,148.56326682793713,150.22838856613862,123.91334558158422,120.11005742844802,99.04992387293822,144.61312215426273,123.65310317587429,175.34588051789424,149.0,145.0,125.0,121.0,101.0,145.0,125.0,169.0,-0.4489282940140726,5.206030842561382,-0.19290441841578482,0.08922409511469388,0.16554253419583187,-0.12521455973320894,-0.10759721323076533,4.989849389489566
100,5.0,-0.0065757346043713305,-0.1257774283476878,1.7490383617469618,-0.1577619360081739,-1.570160331759924,-0.015055784184442533,0.6143713325351903,0.16497911490892436,0.6155395213207941,3.03660500805174,0.0010839770212406005,1.5792941726880227,154.016063188591,144.99090243275126,124.30794470169408,120.45619156192453,99.00034432444369,144.97959168769134,123.55801146375681,170.4895288287296,149.0,145.0,125.0,121.0,101.0,145.0,125.0,169.0,5.02419326989182,-0.265195128224346,0.08972436271103464,0.09178478226351584,0.05928741387458599,-0.004148149707014883,-0.2435449564766497,-0.13498478994744303
101,5.050000000000001,-0.004875638896833845,-0.11983021547812367,1.745163991212058,-0.1592960507131851,-1.5714150269045328,-0.013049446462126912,0.617608193986391,0.16589701362949283,0.6147192959968605,3.0371803093121295,0.002120008745136819,1.5788697558454219,149.33966205054136,146.26493551969386,124.06930637959853,121.38585972603758,104.21246663331264,145.89730422549295,124.20292806651277,172.02785417524154,149.0,145.0,125.0,121.0,101.0,145.0,125.0,169.0,0.20458140538008807,0.018967777758363478,-0.22332519934884143,0.08270183130073927,5.238676310732001,-0.04422803257157245,0.36051561515089825,0.4150137083154983
102,5.1000000000000005,-0.004577669920234229,-0.1218208983518898,1.74649508690844,-0.15885111006593622,-1.5714346343047838,-0.013459867151365046,0.6163845168288353,0.16608086119763707,0.6149941134412481,3.036943525299842,0.0021817729580814924,1.5795735958161192,148.99286930491596,151.01574924346875,124.19428215746412,120.80589591173025,104.00379411654814,145.55386830568364,128.8927629904456,171.21292386790998,149.0,145.0,125.0,121.0,101.0,145.0,125.0,169.0,-0.14275822544839753,4.995506328489011,-0.2315653001629972,-0.0754600204731452,5.001769825050166,-0.03722481172526907,5.050350539083725,-0.1742356651639741
103,5.15,-0.005939658967029082,-0.12448572820662251,1.7472379694549316,-0.1577592296593502,-1.5703272907198933,-0.015289974890672742,0.6151022276218746,0.16533979245031777,0.6160091864349782,3.0360759497728327,0.001273408229568514,1.5801428491699514,149.0245866251681,151.06743659404378,124.06080300953197,120.66579822648495,98.42953779850158,150.4087086750235,123.98896169885971,170.9540350239071,149.0,145.0,125.0,121.0,101.0,145.0,125.0,169.0,0.00019638126564694024,5.240200821686068,-0.31074688431090897,0.02036298232359166,-0.5542020388967885,5.229846886405586,0.1862003576368412,-0.04596497609289626
104,5.2,-0.006617583022564322,-0.12505169547973782,1.745853166093121,-0.1578142611265081,-1.5694629635367336,-0.016707713913115985,0.6151071063850613,0.16499786309333905,0.6173136861299064,3.0340607583078945,0.0005952196749346917,1.5809637943450086,148.7828698085831,145.73746551961736,124.05841944537407,120.91346922991762,99.08946148102764,145.73202540653082,123.58440053051068,176.13995308855684,149.0,145.0,125.0,121.0,101.0,145.0,125.0,169.0,-0.2659106792217937,-0.4109084641224846,-0.34456562925279766,-0.2698996400184119,-0.021874551361029365,-0.025059613712112367,-0.2343129197817182,4.746190905320964
105,5.25,-0.005896575029306295,-0.12419627977126835,1.7452986507066983,-0.15710159030676296,-1.569822725015947,-0.015946840376476867,0.6154189534936042,0.16541466598115073,0.6170748895590701,3.0350944954139787,0.000863493941862535,1.5808934652978146,149.4595749664808,146.43823099931316,124.58218481460615,121.09805687885003,99.212082491673,145.53971724549913,123.88810394758686,171.3607867049826,149.0,145.0,125.0,121.0,101.0,145.0,125.0,169.0,0.3254286250173935,0.3528651456546281,0.08751530501126244,0.07247052490547622,0.04135078435592401,-0.08629901466347271,0.011876049747952068,0.06805586018888221
106,5.300000000000001,-0.0054655686729612185,-0.12290747109285283,1.7443443455299423,-0.15717016457195143,-1.5700669889042276,-0.01540612124152263,0.6161048122411185,0.16565809561188938,0.6169420930353642,3.0353724576445957,0.0010477716907048317,1.5807618867714142,149.34518324567713,151.48761239960615,129.685879579242,121.12617098597615,98.94853083387059,150.68487109812176,124.1017827362157,171.57480957434385,149.0,145.0,125.0,121.0,101.0,145.0,125.0,169.0,0.18696823553513656,5.294914630843452,5.185879579242001,-0.11212688636427803,-0.2096841762713982,4.877568866884437,0.1017827362156965,0.12363769934383494
107,5.3500000000000005,-0.00596418892227879,-0.12330052147896442,1.743194515208839,-0.1574712983305835,-1.5694943325348953,-0.016175509491330065,0.6161528151559803,0.16539931821127096,0.6180187958146756,3.0335105918086263,0.0005843336195671693,1.5810862528666625,154.07126130820913,147.3539658343857,124.11703184634331,121.52318544705177,99.399592650118,150.84212141561778,123.61795602254705,171.7466975623232,149.0,145.0,125.0,121.0,101.0,145.0,125.0,169.0,4.873730444011613,0.6708382623692144,-0.40657330387127727,-0.021878930630634,0.17918448685268945,4.756407129903487,-0.2757447648545218,-0.0781055872831193
108,5.4,-0.004804617628442642,-0.12088421773324765,1.7406927064178976,-0.15803262588586353,-1.5700010104940931,-0.01577365745963899,0.6174998433439821,0.16606091814195142,0.6183170371772505,3.0328800423122386,0.0010596602107495862,1.5817928752555095,149.50136651828225,147.16803828715302,125.03833565406771,122.16479847952856,99.65452979756736,151.61229655822515,124.22452262982065,172.4277905386383,149.0,145.0,125.0,121.0,101.0,145.0,125.0,169.0,0.24521897729863568,-0.038928925961735056,0.4528655685976228,-0.09374852901845235,0.3075910220571502,4.840867986796586,0.2245226298206498,-0.023381336361701883
109,5.45,-0.0048032693460728915,-0.12191506650184003,1.7403441406643578,-0.15725105394040684,-1.5696247961360514,-0.016520169707550547,0.616965036818102,0.16609710359012264,0.6191059973108072,3.032268480970066,0.0007752414393871593,1.5825767336018082,149.2505139373755,147.2471981725096,125.16511032539294,122.34906002150225,99.16097453378873,151.29564101486463,124.061105885763,171.89370665085613,149.0,145.0,125.0,121.0,101.0,145.0,125.0,169.0,-0.02760467203145265,0.05292414387976142,0.47774415836938816,0.08995937910397481,-0.3803477802608531,4.659277378500992,-0.009482349531131957,-0.44550903541837994
110,5.5,-0.004815407912908576,-0.122688538315193,1.7398489509204804,-0.1565674482619075,-1.5692668788290698,-0.017133835705738232,0.6165799222963547,0.1661208952121807,0.6198480030836724,3.0316707216596916,0.0004939887563656547,1.5832126943942098,154.12897566788357,151.92398191020956,124.82111648053032,122.29737890535591,99.83793009556746,146.89444356613043,124.19804014035432,177.46740007506503,149.0,145.0,125.0,121.0,101.0,145.0,125.0,169.0,4.731856326319788,4.740854338193077,0.011694638988556527,-0.017396255243659304,0.2694653652769976,0.274111615922963,0.10766685941130111,5.1432350455954605
111,5.550000000000001,-0.003504039737057596,-0.11956264895440727,1.7371199443305292,-0.15676560492141034,-1.570025329952525,-0.01567726942414094,0.6182482184073456,0.16686105851270847,0.6198124905692282,3.031900750225478,0.0010911719159302409,1.5829948919008958,154.8736348441073,152.6881082027891,124.88635451238255,122.65548664519922,99.78825421330804,146.85849308587163,124.1615359791848,173.02009173621266,149.0,145.0,125.0,121.0,101.0,145.0,125.0,169.0,5.414007514914729,4.944836981256986,-0.019628393600356397,0.03155502126758809,0.05709331717769452,-0.2616698469186091,-0.06816699111222214,0.17850757779681875
112,5.6000000000000005,-0.0022079943438835237,-0.11559849946734246,1.733541182625669,-0.15784493814814216,-1.5707895515426555,-0.0143099325578957,0.6205099683819076,0.16759251861060176,0.6199457616406779,3.031231856379548,0.0017143995584982825,1.5828476997373775,149.76234045740068,148.9814514405465,125.21667032238159,123.35094610540595,100.00163299540293,152.7306909849993,129.59336866314536,178.99462754401344,149.0,145.0,125.0,121.0,101.0,145.0,125.0,169.0,0.11697963265842459,0.40413185291762393,0.14172385557216013,-0.2550496119388053,0.10979626070905185,4.68783384214216,5.303427834743002,5.245120640660398
113,5.65,-0.0029113344925693063,-0.1172880506620948,1.7332096704881588,-0.15517694690203943,-1.569905915184716,-0.015405225840547043,0.6195831199367224,0.16723424059265005,0.6209218896122533,3.0318437979872552,0.0009377047832406474,1.583328097188977,149.82927704622287,153.45999100807998,125.074864828074,123.52019167161275,104.86625959946241,147.63615046322406,124.14393881744583,172.93305905711298,149.0,145.0,125.0,121.0,101.0,145.0,125.0,169.0,0.22265178742370287,5.2653740308542964,-0.03648420832856998,0.2139818215056838,4.977829847396299,0.008051289670321654,-0.2196975461905315,-0.27049825513997466
114,5.7,-0.002546098010304476,-0.11868751836941005,1.7333606892928186,-0.15512663352236755,-1.5699031157031635,-0.015496484667220756,0.6188023768875536,0.16746138647530634,0.6216882333925734,3.030632061646375,0.0009629702112725326,1.5837841384955396,149.88798374636866,148.3555812158645,124.93523942283092,123.19058764237573,100.48482942661437,147.62603132819294,129.44190336349718,173.03930190962564,149.0,145.0,125.0,121.0,101.0,145.0,125.0,169.0,0.2557523414099943,0.15930022412898195,-0.2824329909621881,-0.12406753003806541,0.49314543493038954,0.07509577725737933,5.014180591219944,-0.08941096166149698
115,5.75,-0.003131358319075961,-0.1188417391318386,1.7327671839357448,-0.1538322726463779,-1.5694192747846332,-0.015848416753671657,0.6187759302672426,0.1671452960038069,0.6220326580519168,3.03117892132344,0.0005116743535884799,1.5836013784982144,149.7268561779326,152.89649120313405,125.01070617881376,128.34091869894218,99.71613447505243,152.96682402584554,124.0277305740854,173.2292911692841,149.0,145.0,125.0,121.0,101.0,145.0,125.0,169.0,0.07809584735409941,4.809714343629901,-0.24791451084141072,5.112470423080113,-0.2921642801343032,5.543587511322741,-0.38063595977914344,0.2292911692840908
116,5.800000000000001,-0.003111331135190021,-0.1203246255959245,1.7325954879222136,-0.15270862781739902,-1.5690959880627355,-0.015832161435653802,0.6179571318477286,0.16719328783971776,0.6229369229431257,3.030638113780191,0.00019691142416982622,1.583641108658793,149.70295032961914,147.75188103487216,125.05265678559307,123.07224952389488,100.29937740037825,152.3402273962059,124.56009455893663,172.71163449918797,149.0,145.0,125.0,121.0,101.0,145.0,125.0,169.0,-0.015476171416051326,-0.1860071638856313,-0.3486447328451085,0.04621915513132032,0.1243774003782519,5.0860607295392395,-0.03712766328560687,-0.15939724684376733
117,5.8500000000000005,-0.0031976297243425655,-0.12222296397206334,1.7325068966921275,-0.15153128130920823,-1.5685551344138515,-0.01689269955016437,0.6169337320950455,0.16719097471334393,0.6240344278839156,3.0298118170400423,-0.00020916283049856514,1.5846696600159231,149.66683111910325,147.68633132130623,125.3225533474843,127.96787097624342,100.26821409846177,147.095664758522,124.8442949988537,172.63041316415627,149.0,145.0,125.0,121.0,101.0,145.0,125.0,169.0,-0.0898699118245801,-0.13222537972470527,-0.08179447860266074,5.0722188023303625,0.03696409846177063,0.018581425188663882,0.20557244396346935,-0.026273462590245707
118,5.9,-0.0028437197533150993,-0.1223287780108544,1.733183238363349,-0.15084533238333853,-1.5689313355101078,-0.015593906878644592,0.6166885373467127,0.16738394436470372,0.6235425242240857,3.031086545717622,3.6411900344393535e-06,1.5836914972342644,149.59200567059196,147.82216023284397,129.90662832562015,127.58816250369304,99.92721697699575,147.36354534446272,125.0376556876195,172.39380847719988,149.0,145.0,125.0,121.0,101.0,145.0,125.0,169.0,-0.1871609960747203,0.43674356617732296,4.512688931680769,5.0556949712255,-0.34193416172060626,0.5560919283136608,0.3643489147111503,0.10695588755845045
119,5.95,-0.002915419395313812,-0.12285838400525417,1.7339917707650052,-0.1502448117702122,-1.5690964931285354,-0.014496502108296117,0.6162936449904874,0.16733286302928685,0.6232358012761697,3.031973601519737,3.4055968399565045e-05,1.5825103708983335,149.57190828143004,151.8090175519791,125.90716075754129,122.55068498407658,100.1612925091603,146.74347432631774,124.68057036803854,177.20080307026382,149.0,145.0,125.0,121.0,101.0,145.0,125.0,169.0,-0.241369726868726,4.750926265672053,0.5565114068919395,0.30609623948784875,-0.07141189335542107,0.30741562610807566,-0.03200448226086092,5.200803070263824
120,6.0,-0.002618711999699652,-0.12237239699785452,1.7326456467967715,-0.14953554677238756,-1.5690483348422974,-0.014184592626600878,0.6165734940708442,0.1675218189329894,0.6237815413907023,3.031821795413023,-4.62489425472688e-05,1.582502178318381,149.8933559446797,147.080802559603,130.5196685296434,122.32269435330056,100.41991717859366,146.52387087720197,124.80552972438171,172.27432604487177,149.0,145.0,125.0,121.0,101.0,145.0,125.0,169.0,0.09000866434497844,-0.12631041110829733,5.083659852853815,-0.04390000678620884,0.005180336488406169,-0.0866554385875203,0.03706665052943001,0.1924897175264615
121,6.050000000000001,-0.0027064841033830334,-0.12253264047768653,1.732539026992419,-0.14928123687068506,-1.569017103755419,-0.013944509645083869,0.6164961622270465,0.16747241173599542,0.62392397520918,3.031808423620598,-0.0001042004189528561,1.582178828527403,149.76975957048367,147.33796883414053,130.58237964085902,127.17657631403988,100.5771909862002,151.72309430254046,124.62553546701453,172.1143968040362,149.0,145.0,125.0,121.0,101.0,145.0,125.0,169.0,-0.06113813306538401,0.2022694604453459,5.146370964069439,4.809981953953116,0.1624541440949417,5.1125679867509835,-0.1429276068377614,0.03256047669089051
122,6.1000000000000005,-0.00290875268562818,-0.12498727035284407,1.7341687308494995,-0.14813566252701937,-1.5688701596139722,-0.013654019237002046,0.615019244247733,0.16736871274808698,0.6241826048168926,3.0321154153499177,-0.0002879605772713174,1.5817039204068752,149.25365639230262,146.14356656522162,125.527199054741,121.61563705332208,100.09946093655249,151.27191740815493,124.56892404910727,171.74054048853492,149.0,145.0,125.0,121.0,101.0,145.0,125.0,169.0,-0.4989641527707442,-0.3868317576295304,0.1141555764801362,-0.24523251189531184,-0.2988619146005468,5.2132171985113285,-0.3159965858133607,0.24054048853490936
123,6.15,-0.0030733730522287672,-0.12691448848962272,1.734611473492274,-0.14708189136567995,-1.5684065965222285,-0.014570534061895568,0.6139433408038288,0.16731052459136808,0.6249398033476327,3.031670957913645,-0.0006430807272324515,1.58250138284664,149.7586828765843,146.2844522780378,125.63883454610146,122.09810345788173,101.19963734042554,150.89805198594289,129.9915333652139,170.78076703333306,149.0,145.0,125.0,121.0,101.0,145.0,125.0,169.0,-0.0388119042090388,-0.08297987227536716,0.1572727239756472,0.4560210283806498,0.7101415421062122,5.141749464934499,5.154511232417147,-0.3359331678741867
124,6.2,-0.004168364627626264,-0.12911598599066343,1.7349662552988834,-0.14526085302708758,-1.5674083379586747,-0.016124154065685126,0.6128246851423695,0.1667295483412886,0.6258281128191007,3.0316259967670676,-0.0014683632290219337,1.5830582949179821,150.0472077186668,146.0288692898605,125.79909219443951,120.941298198142,100.67250472090994,145.39357004892472,129.84180940930955,170.86136793436202,149.0,145.0,125.0,121.0,101.0,145.0,125.0,169.0,0.265957718666808,-0.006547376806172856,0.3362100983696354,-0.3665620638667357,0.1588205103836141,-0.035903635285833346,5.012835566251189,0.016297511826821622
125,6.25,-0.004786374359848189,-0.1284761679975981,1.7340523511269987,-0.14446267708377647,-1.5670109780165022,-0.01647008547501594,0.6132779387996087,0.16638641959822137,0.6259602834409976,3.0321574714204167,-0.0018329986501082651,1.5828260114149628,149.65028467629926,146.36598704569116,125.19592863758429,121.53763339125203,100.96537174443138,146.00590384630277,124.45851248681626,170.95228733291287,149.0,145.0,125.0,121.0,101.0,145.0,125.0,169.0,-0.06879289183490934,0.2968046557540422,-0.24608449151855571,0.2137821877509355,0.4801396769208319,0.5206717787922416,-0.3350746875324373,0.07653582990688657
126,6.300000000000001,-0.004568681593793311,-0.12831578856131642,1.733776745575863,-0.144283845195591,-1.5670857302217458,-0.01632885876483492,0.6133419013848193,0.16651705373350068,0.6260261719097265,3.0322284246182276,-0.0017704641972363323,1.5828968814598587,154.6265957572406,146.56720924173828,125.15141488551485,121.26129783191894,100.29141476428272,145.47607836320057,124.9438680937424,170.71844521880027,149.0,145.0,125.0,121.0,101.0,145.0,125.0,169.0,4.8593001597563505,0.48335179939027084,-0.3114672105550213,-0.0465624300897886,-0.23179198677213483,0.022491865310296795,0.1068459609456181,-0.16485457999249678
127,6.3500000000000005,-0.0035394609132777255,-0.12527496480426858,1.7316065667729914,-0.14489122897682094,-1.567801639318387,-0.015258014428009226,0.6149873704919764,0.16708200485410796,0.6257211451654503,3.032518251659959,-0.0011740630636410097,1.582785040242511,149.3594508275889,151.42418670778255,125.53759992815715,121.68271515481658,100.51466689416976,150.41967471677688,129.9182490536406,171.45680680711965,149.0,145.0,125.0,121.0,101.0,145.0,125.0,169.0,-0.46333398253769537,4.94106434491333,0.027709818267042902,-0.1172848451834138,-0.017964684777613704,4.480727348355839,5.0530579067593235,0.18517702844761588
128,6.4,-0.004738494162048301,-0.12631365771031877,1.7304315787686377,-0.1434238007338986,-1.5666626407651432,-0.01679012590814022,0.6146572438818071,0.1664449984298833,0.6270055482679513,3.0317364422149344,-0.0021353166456891553,1.5832316003616558,149.74386143948163,146.9938626026386,130.32221791051893,121.77406678338583,100.92348813309894,146.21742110012403,124.96688118989938,176.11264221725557,149.0,145.0,125.0,121.0,101.0,145.0,125.0,169.0,-0.03108548196208285,0.42698362174686927,4.799140987442,-0.15999915068009984,0.3812940402719363,0.22796962333078077,0.12212312538324854,4.826351894674916
129,6.45,-0.004338053172693979,-0.12629617231029933,1.73054353734564,-0.14292537063370725,-1.566974797351155,-0.016003212859627247,0.6145381372737287,0.16666668590101752,0.6268610575060846,3.032368225225307,-0.0019192814639265557,1.582815689438789,149.96628582467022,151.25832296542129,125.63628100104873,121.40280687821033,100.46350331869127,151.02352421380587,129.7904609697388,171.10346656695802,149.0,145.0,125.0,121.0,101.0,145.0,125.0,169.0,0.19624363057739191,4.819504400020428,0.10557924666277363,-0.33842119196511655,-0.12175983920347283,5.194050529595366,4.879710462639412,-0.02026568456327482
130,6.5,-0.005274230707651206,-0.12718588400997355,1.7294011343801552,-0.14160131230847828,-1.5660286474142584,-0.017304653519289115,0.6142502831471484,0.16617854187026612,0.6280400193866364,3.031636964576833,-0.0027080391571003134,1.5832772990675734,149.82687095720362,146.19657744997727,125.3301563153064,122.1445996728654,100.45381795303888,150.45308455075573,125.1445723623766,170.94434235993384,149.0,145.0,125.0,121.0,101.0,145.0,125.0,169.0,0.05049964918675775,-0.2675575711197695,-0.20288333227070388,0.33182434246891307,-0.18312472212035455,4.571980516785456,0.23382185527721533,-0.17938989158743557
131,6.550000000000001,-0.005318045901497204,-0.12850413592457066,1.7297369579187691,-0.14069424244270268,-1.565765737809805,-0.017830341766033264,0.6134789673879252,0.1661787154825939,0.6285117289953714,3.0315508448482023,-0.0029094299690017363,1.5837857929761372,149.6599305418428,146.15271706897107,125.6007695777576,121.62848420380459,100.33792441889844,145.77896856407327,124.86554225686672,170.41921189187494,149.0,145.0,125.0,121.0,101.0,145.0,125.0,169.0,-0.10701861069954409,-0.10787615136791139,0.0007695777576140144,-0.01986744454706237,-0.35569260237816147,0.12152175556264669,-0.042994328499137514,-0.5218450186941707
132,6.6000000000000005,-0.0051986447545124825,-0.12814548278678872,1.7293677600241226,-0.14050503483176513,-1.5658138933799464,-0.01761952270128253,0.6136655638828058,0.1662506830276823,0.628517178745484,3.0317399404632983,-0.002884318773071494,1.5836908328858879,155.04248333882833,146.05885076718081,125.44184810303469,121.58376667251424,100.74113206446415,145.4317960839658,124.96008844211677,176.01759774073875,149.0,145.0,125.0,121.0,101.0,145.0,125.0,169.0,5.287726467792382,-0.2244473300707747,-0.18149991458645354,-0.07702627902760313,0.04751504318755902,-0.22565072454484816,0.029334877961988307,5.064440917928166
133,6.65,-0.003987565036684515,-0.12521627297346827,1.7271534219716136,-0.14039421524901474,-1.566589493674173,-0.016341853375640092,0.6151718357315337,0.16692204873963634,0.6282228670326948,3.0325998475529827,-0.002261755168367694,1.5835463631009095,150.34292328773833,146.38555532792122,125.522974546359,122.1808889645475,100.44583058277593,145.8435147559376,124.86142088696533,170.98451417144548,149.0,145.0,125.0,121.0,101.0,145.0,125.0,169.0,0.46207222390853486,-0.16125318271708605,-0.11438809100364448,0.23583401949255853,-0.2799078138485596,-0.1142911512353892,-0.12028643010783285,-0.21264030009923435
134,6.7,-0.0037565131598324975,-0.12463543764132146,1.7266266229212412,-0.14018520972707726,-1.5667168246775631,-0.015971806144175815,0.6154626735734354,0.16705239828780233,0.6282073290467111,3.032862765452113,-0.0021812932122523367,1.5833946058304396,150.44744585027163,146.66762943125482,125.71923898549191,121.86009482179401,100.63293679243148,150.96045287555935,130.022834580589,171.19938190752944,149.0,145.0,125.0,121.0,101.0,145.0,125.0,169.0,0.4749882231529973,0.07440909227177575,0.042247835049438485,-0.13990517820599016,-0.1607474180948484,4.979400243980433,5.022834580589005,-0.015628234458382607
135,6.75,-0.004475748141763436,-0.12593081873457335,1.7265275468015293,-0.1386177537822828,-1.5660166374937345,-0.01704557508103166,0.6147932462608142,0.16667060317659443,0.6288975820319321,3.033005450798811,-0.002770696593325593,1.5838161306721836,149.8736988260507,146.3517940390233,125.61506525161677,126.90621157254674,100.76019654781457,146.02138006339254,124.60666297521344,176.22128766516914,149.0,145.0,125.0,121.0,101.0,145.0,125.0,169.0,-0.024606258695070233,-0.07405341860383562,-0.044978898493611814,5.1468296740919826,-0.03005768947356045,0.2629054871213363,-0.4178268207049289,5.170267257005899
136,6.800000000000001,-0.003955616220856495,-0.12583512911218575,1.7268510857015116,-0.13761315650823613,-1.566424834364697,-0.01572596811068605,0.614628742731241,0.16696176434332885,0.6284946800571111,3.0344426838094103,-0.002527339108132611,1.582977872719925,150.16787075452012,146.24042439450847,130.82098121015613,126.29150252159116,100.44805714464661,145.56443181283888,125.10126324596317,170.68242893650756,149.0,145.0,125.0,121.0,101.0,145.0,125.0,169.0,0.2033613599481052,0.20493378908049592,5.107956927595419,4.861038945432211,-0.4112179086582925,0.08468767637830567,0.036222595556670054,-0.1387092748745445
137,6.8500000000000005,-0.004048518947908253,-0.12620408643516523,1.7276487988206428,-0.13736909844093415,-1.566622156242797,-0.014755674982052547,0.6143505967580497,0.16689453872347385,0.6281397006906201,3.0351239615686,-0.0024442395734501597,1.581897523256636,150.0709269444183,145.2187719451568,125.64281279580332,121.5143694385757,100.4373934475099,145.74337014908272,124.90051436608097,170.90313262886463,149.0,145.0,125.0,121.0,101.0,145.0,125.0,169.0,0.09812359713794652,-0.557378682458283,-0.014330061339535093,0.31656724077348847,-0.38850888794656885,0.4142831002504521,-0.15381158965344668,0.424259389428025
138,6.9,-0.0038563025983355814,-0.1257925326530831,1.7273492235782042,-0.1371360408183384,-1.5667348519052782,-0.014490841915175245,0.6145368057412082,0.1670018118623815,0.6280655700870482,3.035472672884704,-0.002365801309457117,1.5818133086292032,150.16816407239577,145.68711130728727,125.25773213838184,121.10656812929133,105.51644954356162,145.55825035147558,124.86733577991478,175.33364797749826,149.0,145.0,125.0,121.0,101.0,145.0,125.0,169.0,0.19536072511543015,-0.08903932032780429,-0.4089345282848375,-0.06667748474374795,4.673229204578581,0.24892831757726713,-0.18699017581962385,4.854774738061647
139,6.95,-0.0031448013430872557,-0.12633462891312597,1.7279923293596342,-0.13674325184236302,-1.5671674322109865,-0.014111081060190322,0.6140451188235283,0.16740147193583635,0.6279119026803387,3.035969979235938,-0.00198070900189727,1.5821017750703645,150.38667244408433,145.76527943567572,130.99349543118439,125.78254900081483,100.6817419104986,144.84138251043683,130.0963305851417,170.119654180575,149.0,145.0,125.0,121.0,101.0,145.0,125.0,169.0,0.3633178793284903,0.2536021532978125,5.300338698292545,4.8973392877905395,-0.25758863343444843,-0.11886853558826135,5.000802129857121,-0.02871980316484535
140,7.0,-0.003885557672584916,-0.12634036199282406,1.7283203757493721,-0.1359605938308679,-1.5669942699027635,-0.013568630783433289,0.614052782275335,0.16696532533413871,0.6275950780611292,3.037075638554482,-0.002229572962380301,1.5808349972609286,150.08827368755433,144.95742680662335,125.80358705613742,120.45817901741557,100.65731473251631,144.7549357028521,124.70291296434472,169.75443777343412,149.0,145.0,125.0,121.0,101.0,145.0,125.0,169.0,0.2050465113335288,-0.3270742549477822,0.18023903851627487,-0.20261393412628273,-0.10801296304394926,-0.010391992708142386,-0.3707066675571142,-0.24556222656586832
141,7.050000000000001,-0.0036927945208220514,-0.12563340734759487,1.727859407661021,-0.13604773383032587,-1.5671331630780454,-0.013369048594986221,0.6144346954275558,0.16706908482344576,0.627486906649833,3.0372406825270066,-0.0021140011447882095,1.5808143469050535,149.94549321512181,151.09371100164574,125.49145657786588,121.1324262558957,100.51497511629272,144.52011426015602,125.48549328924665,169.1923421546191,149.0,145.0,125.0,121.0,101.0,145.0,125.0,169.0,0.021926336140926664,5.673328836040633,-0.10898492323788835,0.4017419291848855,-0.24923541002307964,-0.2967278451071492,0.4060635540124296,-0.8891242404929172
142,7.1000000000000005,-0.0036707168842795568,-0.1244388329792514,1.7261841900002262,-0.13631704120280963,-1.5670318190545842,-0.013334022283319147,0.6152338789183609,0.16709112644224317,0.6279391100881587,3.0364908318085844,-0.0022077305022329863,1.5808140975197362,149.80942693522624,150.44572206528886,125.53693235602842,121.3120291702761,100.69526129412537,145.6447757263985,125.2130776082651,170.73378422833537,149.0,145.0,125.0,121.0,101.0,145.0,125.0,169.0,-0.1633764120540947,4.669571437673796,-0.083681679059309,0.1453625036094321,-0.1327641835816256,0.2838415438082747,0.0868251032550752,0.21073813615099518
143,7.15,-0.003555551489844433,-0.12370543661284517,1.7248642373900296,-0.13627974814881405,-1.566959964512228,-0.013266410773509651,0.6157198822133648,0.16716790828015368,0.6283952873191497,3.0359392837135073,-0.0022790826416913897,1.580870921505434,149.76153767475256,145.84149723815008,130.71878530641968,121.56886518527415,100.54323715579321,145.65905611079862,129.86324338190622,175.65015230189132,149.0,145.0,125.0,121.0,101.0,145.0,125.0,169.0,-0.20297171981945947,-0.1939933672778982,5.065276534489854,0.11491781685309171,-0.3211696238677967,0.11244594130709006,4.767714926621677,4.798526285631177
144,7.2,-0.003846586664042917,-0.12363350123597039,1.724913298186082,-0.13516800672695117,-1.5669062491168395,-0.012863955413193295,0.6156945372445332,0.16699707781462853,0.6281862774133006,3.0371716023388746,-0.002391853530857345,1.580181928785449,154.73737425032243,145.68011344925023,125.83281271444882,126.09933113618865,105.89372776727932,150.62260564669765,125.50010131357163,170.60073498724086,149.0,145.0,125.0,121.0,101.0,145.0,125.0,169.0,4.764570903042073,-0.09603717836484262,0.23767997108600233,4.855968304330254,5.049378087108733,5.215356179746684,0.33913551880301385,0.04137885041993894
145,7.25,-0.0034055095418414894,-0.12501698434909114,1.7256869439791513,-0.13472586437869882,-1.5671159071809484,-0.01294801339420193,0.6148046330991309,0.1672513520127996,0.6284586734314734,3.03699688361892,-0.002170783848820987,1.580686683378794,149.99361545690007,145.34227295702584,125.2671409338204,121.15387114165046,105.63104111610484,144.84736314388329,124.72983122181518,170.4718099229266,149.0,145.0,125.0,121.0,101.0,145.0,125.0,169.0,-0.006384543099915936,-0.15772704297415815,-0.3958546608932516,0.20232929143018843,4.6833423713349625,-0.1589130067443457,-0.365697233469379,0.32343593918677843
146,7.300000000000001,-0.0030769456691870367,-0.1256677129461421,1.7265157921894838,-0.13483816474017063,-1.5673752546270423,-0.012887012258944175,0.6143461952650319,0.16743011067555846,0.628300676718592,3.0370658092287264,-0.0019187014876285748,1.5809280629008213,155.6053009318334,145.71794142283903,125.93949608806024,120.83061081361426,101.0816934239918,149.81544969497784,125.02307828754554,169.9292243360913,149.0,145.0,125.0,121.0,101.0,145.0,125.0,169.0,5.601054647332343,0.2996823994844777,0.255979604543755,0.024017407020843578,0.210385407114153,4.975787247720466,-0.10293797261705971,-0.0951659078111617
147,7.3500000000000005,-0.0026329270691083373,-0.12470327345213494,1.7250423583699899,-0.13466150432778923,-1.5674893876708724,-0.013048164838498355,0.6149047625932976,0.16768798604240784,0.6286988799729395,3.0367420101959883,-0.0017839005336167208,1.5815205586969245,150.36204080530916,145.71688072135396,125.78534442494559,121.299339288405,101.28343951676943,149.89774988471694,125.18480244581811,170.45016693516013,149.0,145.0,125.0,121.0,101.0,145.0,125.0,169.0,0.28954613579957444,0.09001504971216615,0.07581005687463743,0.23282044139834304,0.25003659401369416,4.812154895155346,-0.004993472549245662,0.20935060862950666
148,7.4,-0.002664216539981279,-0.12576410935895677,1.7253326463841612,-0.13395574310575364,-1.567294642467247,-0.013518991357102994,0.6142834586591076,0.16768508465972815,0.6290711529065425,3.0366679722448118,-0.0019294896987936691,1.5819774469809373,155.12808885978168,145.88150628273058,125.64949391660048,125.60035991226586,101.0112911363515,145.14770607329785,125.06060384164125,169.7246736052039,149.0,145.0,125.0,121.0,101.0,145.0,125.0,169.0,5.045110136377407,0.39427224017739393,-0.07556151577202015,4.713441952177165,-0.020155404529012298,0.1686704338848612,-0.1080953453506205,-0.3220743622757685
149,7.45,-0.0020443144062087804,-0.12391998662157899,1.7238929269879906,-0.13421712499170368,-1.5677556612143073,-0.012660968446661869,0.6152863099490766,0.16802459750808965,0.6289551449851879,3.036828988685883,-0.0015602996123444156,1.5816958952119058,150.20648614962894,145.63151393684223,125.56560552685306,121.01749479078269,101.29791011008713,145.35021673419882,130.0938219036649,170.19287149985928,149.0,145.0,125.0,121.0,101.0,145.0,125.0,169.0,0.0751302174255587,-0.10577419875100476,-0.18494634952662004,-0.18118070590604204,0.16471772108079055,0.11343026485421477,4.787073437407214,-0.23044138357631613
150,7.5,-0.0025212792763920078,-0.12367758606656576,1.7234014016132564,-0.13345229374847944,-1.567447599426255,-0.013005481826668053,0.615471267624179,0.16775726926990459,0.6290535147227875,3.0373412853594783,-0.0018403492733022886,1.5815912315235316,150.09606670929654,145.925761825358,126.06620382822176,121.17635383107067,101.02265491654082,145.39394265114518,125.41107883150718,174.75840285221878,149.0,145.0,125.0,121.0,101.0,145.0,125.0,169.0,0.013264161525818047,0.24847944743867129,0.33390294326600484,-0.0028497087523373667,-0.10814677122289439,0.18297218701016327,0.14985434171125536,4.450239586912666
151,7.550000000000001,-0.0021420756254602047,-0.12334537706594961,1.7232791479796985,-0.1328282866664483,-1.5676993090843956,-0.012433359882222383,0.6155298118143453,0.1679699497745626,0.6288622051652546,3.038177130597881,-0.0016589561614499123,1.5813745179813017,150.15753821993619,145.41091425295937,125.61610508846454,120.50758694538362,101.3107277777888,145.1730078371265,125.12484467379467,170.1142208018213,149.0,145.0,125.0,121.0,101.0,145.0,125.0,169.0,0.06431788095313584,-0.1187467639897745,-0.12554301843969887,-0.46568699670991276,0.2500583217218475,0.1332588831516074,-0.14046144865431262,-0.09598327981136132
152,7.6000000000000005,-0.0020120042606732724,-0.12299773155288696,1.72301695421545,-0.13272381205168626,-1.567776980185215,-0.012345849048843505,0.6157014140033757,0.16804348921470763,0.6288168970033413,3.0383682408593433,-0.0015923254780440751,1.5814095960707915,150.11887229065357,150.22512733941542,125.76588879455646,125.8060029232265,100.85561183389363,150.0022848528354,125.04380466358398,170.3400003034745,149.0,145.0,125.0,121.0,101.0,145.0,125.0,169.0,0.008935715600715328,4.675444464151143,0.024240687652220688,4.832728981132961,-0.20505762217330745,4.962535898860508,-0.24132771930807814,0.11393105703865057
153,7.65,-0.0020516881296717138,-0.12381390175356755,1.7227731263182902,-0.13206480227031747,-1.5675695614033742,-0.012344533106761979,0.615261100847321,0.16803980363323998,0.6294153641841789,3.037956575355168,-0.0017958613658878328,1.581390366800994,155.40603430596846,145.49157108480176,130.78928164228552,120.95292917706362,101.14392511798037,145.05464628957884,125.33338539938559,170.5845250155067,149.0,145.0,125.0,121.0,101.0,145.0,125.0,169.0,5.261353454904635,-0.03821614924077398,5.0040467429566675,-0.004565230095204666,-0.0058639115554894134,0.00612308282780691,-0.02390412833514912,0.47158867053749703
154,7.7,-0.001636433179849739,-0.12198572633381,1.7214577715996793,-0.13235833180273726,-1.5679835383585479,-0.011675566214395694,0.6162794679660749,0.16825764748356256,0.6292245625015075,3.038192898937154,-0.001453665441939937,1.5810973208399284,150.3465549341855,145.72300391361284,125.72465103279744,121.22736614297222,105.99169153749699,145.01463463568462,125.76309606588293,175.23326622892307,149.0,145.0,125.0,121.0,101.0,145.0,125.0,169.0,0.13680917147362134,-0.03547066265836554,-0.10831600016959622,-0.08032616472008516,4.797661686750722,-0.3009303962983392,0.40785992625254247,4.758933580052416
155,7.75,-0.001121747330315337,-0.12292313839970559,1.7226036062282333,-0.1319049542689985,-1.5683708899359097,-0.011329284993255584,0.6155627112244041,0.1685408327071713,0.6289621206931362,3.0388553974075982,-0.001110085450754971,1.5812279172544956,149.9090250635792,150.54216130841235,130.89859999644506,125.2639404726617,100.88589858363864,144.9070730471972,125.6297652638825,170.3294612203188,149.0,145.0,125.0,121.0,101.0,145.0,125.0,169.0,-0.2807403948429823,5.0709459565999735,4.9874888853339545,4.455051583772812,-0.2527568785462363,-0.04040594439943739,0.2724757361617671,0.21652487534958095
156,7.800000000000001,-0.0012205435008172394,-0.12274949337125829,1.72243493927935,-0.13186177759717355,-1.5684578824579098,-0.010574304052663575,0.6156745775204173,0.1684752017907034,0.6289682484195009,3.0389034978753164,-0.0011038147162283232,1.5803681547187958,149.6959535414541,145.3925425343226,125.89298691151222,121.20681408199083,101.1868931993097,150.03998693322828,125.86054886925595,170.31598619701205,149.0,145.0,125.0,121.0,101.0,145.0,125.0,169.0,-0.4938119169681016,-0.07867281748976128,0.1651108053175408,0.346194612964286,0.07368565213988042,5.044179805345684,0.5032593415352158,0.20304985204284437
157,7.8500000000000005,-0.0013117410247454053,-0.12343928995988707,1.722450558005284,-0.13120207177060417,-1.5682531399260293,-0.010984334263775875,0.61528236701186,0.1684353877694668,0.6293066773861762,3.038882835015522,-0.001267283167962382,1.5807051369721228,155.00483377464826,150.2347095755351,125.71695461903009,120.65956272463737,101.58928226135977,150.13797052016957,125.11856594797564,174.99039691695987,149.0,145.0,125.0,121.0,101.0,145.0,125.0,169.0,4.82320984302432,4.824453165278707,-0.11123921356902708,-0.05849894937143386,0.42155402356782945,5.269605339702471,-0.25566718085871554,5.025161743135719
158,7.9,-0.0006304506236536334,-0.12246468308328629,1.7206058877608381,-0.13044873737213925,-1.568432688849792,-0.010778298546024523,0.615789430746704,0.16883958700431745,0.6298885598407673,3.038771251861767,-0.00110595910672906,1.5811642954373075,154.88124032755658,144.9399478443238,131.130575876772,121.16992828268687,101.49919848151755,145.90643324066335,125.45914365770349,169.89320778737348,149.0,145.0,125.0,121.0,101.0,145.0,125.0,169.0,4.6226933190095885,-0.5515051471292004,5.076154108064531,0.16992828268686763,0.15378270326596033,0.8467317481260387,-0.02333056910063332,-0.24906025386364045
159,7.95,-0.0003021100088616002,-0.1211036256213176,1.7197166931973191,-0.1307084363135571,-1.56879800420998,-0.010268357139791906,0.6165408770093778,0.16900918553506394,0.6296877180972904,3.038996919869517,-0.0007957818457618161,1.5809476142518302,150.17942677330745,145.86171619189844,126.43874319317396,126.19745431149178,106.08974935348728,145.30138020619327,125.71276738862842,170.8694651098105,149.0,145.0,125.0,121.0,101.0,145.0,125.0,169.0,-0.1062875124068257,0.1474304776127119,0.43874319317395666,4.9673658159165655,4.803125149665614,0.06783455863488591,0.2580348783403498,0.4949795131026986
160,8.0,-9.297896292359553e-05,-0.12245173447334423,1.72114581326871,-0.13061696789471977,-1.5690608440513483,-0.009891246436021461,0.6156660921061745,0.16911407249467073,0.6295294927395877,3.0391633606211923,-0.0005756760395010633,1.5807547728310256,149.9472731225704,145.2343982872799,126.14527802313843,120.84842976705849,101.10688213176617,144.86008227612672,125.66716783784689,175.29370926183768,149.0,145.0,125.0,121.0,101.0,145.0,125.0,169.0,-0.28726845525475947,-0.2176272990740428,0.1718855619410893,0.07681114178132968,-0.19524552780830318,-0.09949219195837682,0.22180701310462664,5.223606169054171
161,8.05,0.0002855394292553548,-0.12206201847595688,1.7211010370573758,-0.129934496089672,-1.569337389223361,-0.009231893643104616,0.6157402936515581,0.1693244950214682,0.6292397188967426,3.040195143656908,-0.00037701423471261,1.580448772666884,155.1993475706824,150.00263141641653,126.59819937887251,120.61232108129525,101.48198720381755,144.4960730819377,125.3975953714598,169.9952154238113,149.0,145.0,125.0,121.0,101.0,145.0,125.0,169.0,4.848169840489666,4.775650688365145,0.5981993788725144,0.015829853225070734,0.18584986476176354,-0.16487112407089394,-0.1024046285401965,0.1563724486046864
162,8.1,0.000698421507006497,-0.12019645687593528,1.7191797048070878,-0.1302380898275528,-1.5695849463880043,-0.008905125663106528,0.6168455408821806,0.16955661129955302,0.6294442747993527,3.0398472294771457,-0.00016033912074941653,1.580511058935185,150.71016749226982,145.5615025717032,130.96888207686155,120.89706156720733,101.17615337835723,149.910383896803,130.51033033209495,170.16533573855895,149.0,145.0,125.0,121.0,101.0,145.0,125.0,169.0,0.4037845135464167,-0.0959442368074339,4.89093107463437,-0.2699762947080296,-0.13941165362570843,4.716354046056754,4.9732932950579105,-0.12273010506247088
