AI-SPARC/uncalibrated-visual-servoing/results/data/4_feat_ibvs_t.csv
,t,q_1,q_2,q_3,q_4,q_5,q_6,camera_x,camera_y,camera_z,camera_roll,camera_pitch,camera_yaw,f_1,f_2,f_3,f_4,f_5,f_6,f_7,f_8,desired_f_1,desired_f_2,desired_f_3,desired_f_4,desired_f_5,desired_f_6,desired_f_7,desired_f_8
0,0.0,9.298324584960938e-06,-0.39263248443603516,1.963494062423706,7.200241088867188e-05,-1.5707952976226807,2.384185791015625e-07,0.4463264048099518,0.16906212270259857,0.5921618342399597,-3.141307778251266,0.00012221750102738726,1.5708379755145234,151.4127579737336,65.55722326454034,125.41947565543072,39.58052434456929,99.43609022556392,65.56390977443608,125.41275797373358,91.55722326454034,149.0,145.0,125.0,121.0,101.0,145.0,125.0,169.0
1,0.05,7.915496826171875e-05,-0.3928499221801758,1.9618632793426514,3.504753112792969e-05,-1.5706441402435303,6.270408630371094e-05,0.4463805854320526,0.16910871863365173,0.5933746099472046,3.13998760294264,-3.0148367461570097e-05,1.5708453462323089,151.39080459770116,66.12260536398468,125.45801526717557,40.232824427480914,99.55854126679462,66.13435700575816,125.5,92.0,149.0,145.0,125.0,121.0,101.0,145.0,125.0,169.0
2,0.1,0.0001232624053955078,-0.39304423332214355,1.9602749347686768,-3.314018249511719e-05,-1.570481538772583,9.560585021972656e-05,0.4464467763900757,0.1691451370716095,0.5945497751235962,3.138134334275532,-0.0001939558364637942,1.5708567794591966,151.36520076481835,66.72848948374761,125.52417794970987,40.90522243713733,99.70419847328245,66.63931297709924,125.55407969639468,92.51992409867172,149.0,145.0,125.0,121.0,101.0,145.0,125.0,169.0
3,0.15000000000000002,0.00011348724365234375,-0.39326047897338867,1.9587719440460205,-0.0001628398895263672,-1.5702927112579346,0.00011801719665527344,0.4465083181858063,0.16916032135486603,0.5956820845603943,3.1362856366296343,-0.0003825966102515322,1.5708268079325955,151.39113680154142,67.18111753371869,125.5,41.5,99.78143133462282,67.22823984526113,125.55684007707129,92.97687861271676,149.0,145.0,125.0,121.0,101.0,145.0,125.0,169.0
4,0.2,0.0001704692840576172,-0.3934147357940674,1.9572532176971436,-0.0002903938293457031,-1.5701429843902588,0.0001423358917236328,0.4465878903865814,0.16920149326324463,0.596797525882721,3.1344858828421738,-0.0005323205437507009,1.5708616277012695,151.36679536679537,67.81467181467181,125.5484496124031,42.08914728682171,99.927734375,67.71484375,125.64807692307693,93.40384615384616,149.0,145.0,125.0,121.0,101.0,145.0,125.0,169.0
5,0.25,0.00011730194091796875,-0.3936009407043457,1.9558203220367432,-0.00046706199645996094,-1.5699341297149658,0.0001227855682373047,0.44666507840156555,0.16919903457164764,0.5978745222091675,3.1326900641752258,-0.0007417998005571771,1.5708308420235972,151.2976653696498,68.23540856031128,125.68493150684931,42.83170254403131,100.0,68.310546875,125.61013645224172,93.9317738791423,149.0,145.0,125.0,121.0,101.0,145.0,125.0,169.0
6,0.30000000000000004,0.00024628639221191406,-0.3937060832977295,1.9544203281402588,-0.0007138252258300781,-1.5698421001434326,0.00019931793212890625,0.44675299525260925,0.16926710307598114,0.5989008545875549,3.130938812511115,-0.0008345336996256284,1.5708855994215987,151.29019607843136,68.82941176470588,125.7707509881423,43.298418972332016,100.07128712871287,68.85148514851485,125.775390625,94.33984375,149.0,145.0,125.0,121.0,101.0,145.0,125.0,169.0
7,0.35000000000000003,0.0002951622009277344,-0.39383673667907715,1.9530613422393799,-0.0009722709655761719,-1.5697033405303955,0.00022268295288085938,0.4468374252319336,0.16930370032787323,0.5999119877815247,3.129191590925437,-0.0009733786806801927,1.5709148580412935,151.27272727272728,69.28260869565217,125.81636726546907,43.91816367265469,100.16370808678501,69.31163708086785,125.76725838264299,94.83629191321499,149.0,145.0,125.0,121.0,101.0,145.0,125.0,169.0
8,0.4,0.00037550926208496094,-0.3939528465270996,1.951747179031372,-0.0012733936309814453,-1.5695888996124268,0.00026917457580566406,0.44692227244377136,0.16935189068317413,0.600891649723053,3.1274596213560115,-0.0010890122598201013,1.5709520100029815,151.24850894632206,69.87872763419483,125.81386138613861,44.51485148514851,100.26984126984127,69.86507936507937,125.83596837944664,95.20750988142292,149.0,145.0,125.0,121.0,101.0,145.0,125.0,169.0
9,0.45,0.00039005279541015625,-0.3940408229827881,1.9504644870758057,-0.0015881061553955078,-1.5694382190704346,0.00027298927307128906,0.44702818989753723,0.16937391459941864,0.6018385291099548,3.125774951660654,-0.0012394799655027103,1.5709674958981508,151.21713147410358,70.2808764940239,125.86947791164658,45.06425702811245,100.38047808764941,70.27290836653387,125.87848605577689,95.77689243027888,149.0,145.0,125.0,121.0,101.0,145.0,125.0,169.0
10,0.5,0.0004036426544189453,-0.39420557022094727,1.9493029117584229,-0.001994609832763672,-1.5692932605743408,0.0002651214599609375,0.4470946192741394,0.16939492523670197,0.6027483940124512,3.124041948707476,-0.0013849700002103898,1.5709940125844526,151.18837675350701,70.84569138276554,125.93975903614458,45.75502008032129,100.52495009980039,70.88023952095809,125.86454183266932,96.13545816733068,149.0,145.0,125.0,121.0,101.0,145.0,125.0,169.0
11,0.55,0.0004851818084716797,-0.39428019523620605,1.948171854019165,-0.002448558807373047,-1.5691988468170166,0.00030303001403808594,0.44719359278678894,0.1694416105747223,0.6036015748977661,3.1223825430827477,-0.001479775605231711,1.5710414071742576,151.20925553319918,71.23138832997988,125.9493927125506,46.16801619433198,100.6753507014028,71.29859719438878,125.98418972332016,96.59486166007905,149.0,145.0,125.0,121.0,101.0,145.0,125.0,169.0
12,0.6000000000000001,0.0005145072937011719,-0.39445066452026367,1.9471604824066162,-0.0029778480529785156,-1.5690758228302002,0.0002665519714355469,0.44725096225738525,0.1694672703742981,0.6044245362281799,3.1206723127448006,-0.0016024196817484725,1.5711128105230745,151.17670682730923,71.82329317269077,126.0,46.7979797979798,100.75506072874494,71.81781376518218,125.97590361445783,96.99196787148594,149.0,145.0,125.0,121.0,101.0,145.0,125.0,169.0
13,0.65,0.0005333423614501953,-0.39456796646118164,1.9461662769317627,-0.0035238265991210938,-1.5689542293548584,0.00025534629821777344,0.44733449816703796,0.16948826611042023,0.6052147150039673,3.1190141402270797,-0.0017244814945567325,1.5711488335327124,151.18548387096774,72.22177419354838,126.0,47.16632860040568,100.82897384305835,72.20120724346077,126.0,97.31274900398407,149.0,145.0,125.0,121.0,101.0,145.0,125.0,169.0
14,0.7000000000000001,0.0005297660827636719,-0.3946974277496338,1.9452078342437744,-0.0040912628173828125,-1.5688202381134033,0.00022554397583007812,0.44741398096084595,0.16950012743473053,0.6059883236885071,3.117359373281557,-0.0018575279756352957,1.5711808083070815,151.20606060606062,72.76363636363637,126.02244897959184,47.89387755102041,100.91886409736308,72.78093306288032,126.04838709677419,97.83266129032258,149.0,145.0,125.0,121.0,101.0,145.0,125.0,169.0
15,0.75,0.0005352497100830078,-0.3947577476501465,1.94423508644104,-0.00464630126953125,-1.5686938762664795,0.00018930435180664062,0.4475242793560028,0.16951535642147064,0.6067396402359009,3.115771880390271,-0.0019830496199378265,1.5712291928567728,151.1808943089431,73.11382113821138,126.10882956878851,48.24024640657084,100.97755102040816,73.10612244897959,126.04242424242425,98.1919191919192,149.0,145.0,125.0,121.0,101.0,145.0,125.0,169.0
16,0.8,0.0005719661712646484,-0.39485669136047363,1.9433348178863525,-0.005265235900878906,-1.5685932636260986,0.0001881122589111328,0.447610080242157,0.16954244673252106,0.6074660420417786,3.114154045356691,-0.0020839923847481177,1.5712730613726844,151.2094455852156,73.60780287474333,126.09504132231405,48.824380165289256,101.01844262295081,73.67418032786885,126.09919028340082,98.67813765182186,149.0,145.0,125.0,121.0,101.0,145.0,125.0,169.0
17,0.8500000000000001,0.0006163120269775391,-0.39490771293640137,1.9424049854278564,-0.005852460861206055,-1.5684940814971924,0.00016045570373535156,0.44771608710289,0.1695723682641983,0.6081879734992981,3.1125861774460217,-0.0021824634717281617,1.5713516574275863,151.16089613034623,74.04684317718942,126.1912681912682,49.28898128898129,101.04722792607802,74.06776180698152,126.08113590263692,99.03042596348884,149.0,145.0,125.0,121.0,101.0,145.0,125.0,169.0
18,0.9,0.0006945133209228516,-0.39493393898010254,1.941502332687378,-0.006472587585449219,-1.5684216022491455,0.00018668174743652344,0.4478285610675812,0.16961531341075897,0.6088841557502747,3.1110373928568147,-0.0022548706040481895,1.5714096550176717,151.20746887966806,74.5,126.17463617463618,49.75467775467776,101.18426501035196,74.51138716356108,126.15102040816326,99.36734693877551,149.0,145.0,125.0,121.0,101.0,145.0,125.0,169.0
19,0.9500000000000001,0.0007174015045166016,-0.3949551582336426,1.9406321048736572,-0.007103681564331055,-1.5683190822601318,0.00016236305236816406,0.4479503333568573,0.16963604092597961,0.609557569026947,3.1095149554469295,-0.0023569282745504075,1.5714636297768292,151.1457905544148,74.97125256673512,126.24159663865547,50.32983193277311,101.13729508196721,74.94467213114754,126.15682281059063,99.87780040733197,149.0,145.0,125.0,121.0,101.0,145.0,125.0,169.0
20,1.0,0.0007495880126953125,-0.39494824409484863,1.9397494792938232,-0.007723808288574219,-1.5682241916656494,0.00016760826110839844,0.44808337092399597,0.16966038942337036,0.6102256774902344,3.108019078255694,-0.002452155691883747,1.5714974105139197,151.21503131524008,75.41127348643006,126.26736842105264,50.67368421052632,101.275,75.41041666666666,126.1922290388548,100.15746421267893,149.0,145.0,125.0,121.0,101.0,145.0,125.0,169.0
21,1.05,0.0007944107055664062,-0.39493727684020996,1.938899278640747,-0.008369207382202148,-1.5681407451629639,0.00016736984252929688,0.4482153356075287,0.16968926787376404,0.6108726263046265,3.1065354167406425,-0.002535725663719046,1.571548877282602,151.14760914760916,75.78794178794179,126.30021141649048,51.30443974630021,101.41090146750524,75.79245283018868,126.25619834710744,100.57644628099173,149.0,145.0,125.0,121.0,101.0,145.0,125.0,169.0
22,1.1,0.0008056163787841797,-0.3949391841888428,1.9381582736968994,-0.009095907211303711,-1.568047285079956,0.0001316070556640625,0.44834473729133606,0.16970381140708923,0.611460268497467,3.105065528526358,-0.002627627313992666,1.57160349291298,151.1576763485477,76.22614107883817,126.33545647558387,51.62208067940552,101.4327731092437,76.25840336134453,126.1881390593047,100.96319018404908,149.0,145.0,125.0,121.0,101.0,145.0,125.0,169.0
23,1.1500000000000001,0.0008990764617919922,-0.3949551582336426,1.9374439716339111,-0.009854316711425781,-1.5680058002471924,0.00015282630920410156,0.4484545588493347,0.16975046694278717,0.612040102481842,3.103577116260957,-0.0026697680564116014,1.5716814690682472,151.2436974789916,76.58193277310924,126.42430703624734,52.19616204690831,101.52410901467505,76.62893081761007,126.3271221532091,101.34368530020704,149.0,145.0,125.0,121.0,101.0,145.0,125.0,169.0
24,1.2000000000000002,0.0009753704071044922,-0.394881010055542,1.9366662502288818,-0.010556936264038086,-1.5679538249969482,0.00015854835510253906,0.44861000776290894,0.16979041695594788,0.612616240978241,3.10217137561988,-0.0027214736948228905,1.5717580668671591,151.14375,77.0125,126.38461538461539,52.574786324786324,101.50530785562633,77.02547770700637,126.40248962655602,101.66597510373444,149.0,145.0,125.0,121.0,101.0,145.0,125.0,169.0
25,1.25,0.0009489059448242188,-0.39484524726867676,1.9359395503997803,-0.01127171516418457,-1.567840337753296,8.392333984375e-05,0.44876018166542053,0.16978950798511505,0.6131765246391296,3.1007655173174555,-0.0028324958673172393,1.5718144228516076,151.20675105485233,77.4535864978903,126.5,53.05150214592275,101.61603375527426,77.4535864978903,126.36798336798337,102.07068607068607,149.0,145.0,125.0,121.0,101.0,145.0,125.0,169.0
26,1.3,0.0010085105895996094,-0.3947751522064209,1.935227632522583,-0.012017965316772461,-1.5677869319915771,9.369850158691406e-05,0.4489143192768097,0.16982223093509674,0.6137149930000305,3.0993776053043085,-0.0028854184805429113,1.5718712285693077,151.18987341772151,77.78902953586498,126.48394004282655,53.479657387580296,101.68789808917198,77.79405520169851,126.36820083682008,102.42887029288703,149.0,145.0,125.0,121.0,101.0,145.0,125.0,169.0
27,1.35,0.0010573863983154297,-0.39471912384033203,1.9345695972442627,-0.012801408767700195,-1.5677316188812256,8.606910705566406e-05,0.4490623474121094,0.16985006630420685,0.6142274141311646,3.097992365120236,-0.0029406712393831823,1.5719336237865842,151.1868365180467,78.32059447983015,126.5,53.89655172413793,101.70149253731343,78.28358208955224,126.42976939203355,102.76729559748428,149.0,145.0,125.0,121.0,101.0,145.0,125.0,169.0
28,1.4000000000000001,0.0010526180267333984,-0.394641637802124,1.9338948726654053,-0.013555765151977539,-1.567643404006958,5.221366882324219e-05,0.44922763109207153,0.16985683143138885,0.6147380471229553,3.0966410654719128,-0.0030266123265910512,1.5719715049103815,151.1923890063425,78.6321353065539,126.5,54.37662337662338,101.75583864118896,78.63269639065817,126.48,103.15157894736842,149.0,145.0,125.0,121.0,101.0,145.0,125.0,169.0
29,1.4500000000000002,0.0010378360748291016,-0.394542932510376,1.9332282543182373,-0.014308929443359375,-1.5675504207611084,-9.059906005859375e-06,0.4494035243988037,0.16985946893692017,0.6152337789535522,3.095319941222438,-0.003117230053748699,1.5720256514381747,151.1772151898734,79.0253164556962,126.5054704595186,54.733041575492344,101.78813559322033,78.99152542372882,126.40677966101696,103.5,149.0,145.0,125.0,121.0,101.0,145.0,125.0,169.0
30,1.5,0.0010509490966796875,-0.3944566249847412,1.9325993061065674,-0.015096187591552734,-1.5674793720245361,-3.266334533691406e-05,0.4495689570903778,0.1698727011680603,0.6157136559486389,3.0939900892157364,-0.003186550320095534,1.5720705238906625,151.15565031982942,79.40724946695096,126.57173913043478,55.17173913043478,101.88912579957356,79.42857142857143,126.5,103.86497890295358,149.0,145.0,125.0,121.0,101.0,145.0,125.0,169.0
31,1.55,0.001065969467163086,-0.394397497177124,1.932053804397583,-0.01594400405883789,-1.5674149990081787,-8.392333984375e-05,0.44971978664398193,0.16988587379455566,0.6161554455757141,3.0926562612213186,-0.0032476786676101797,1.5721444488659129,151.1897654584222,79.69509594882729,126.55555555555556,55.60566448801743,101.88865096359743,79.69379014989293,126.5,104.21940928270043,149.0,145.0,125.0,121.0,101.0,145.0,125.0,169.0
32,1.6,0.0010671615600585938,-0.39428019523620605,1.9314453601837158,-0.01673579216003418,-1.5673401355743408,-0.00013375282287597656,0.4499005377292633,0.16989395022392273,0.6166079044342041,3.091373022023961,-0.003319938795389305,1.5722029377312796,151.19569892473118,80.2516129032258,126.59649122807018,56.0,102.00213219616205,80.21961620469084,126.57112526539278,104.51380042462846,149.0,145.0,125.0,121.0,101.0,145.0,125.0,169.0
33,1.6500000000000001,0.0010216236114501953,-0.394179105758667,1.9308984279632568,-0.017563819885253906,-1.5672438144683838,-0.00021386146545410156,0.45007944107055664,0.1698828935623169,0.6170298457145691,3.0900992983877007,-0.003411591370156489,1.572246926037672,151.17672413793105,80.5,126.60087719298245,56.38815789473684,102.02591792656588,80.49460043196544,126.51797040169133,104.88372093023256,149.0,145.0,125.0,121.0,101.0,145.0,125.0,169.0
34,1.7000000000000002,0.0010271072387695312,-0.39407873153686523,1.930382490158081,-0.018423795700073242,-1.5671813488006592,-0.00026297569274902344,0.4502502679824829,0.16989152133464813,0.6174346804618835,3.0888239472090495,-0.0034702781187843875,1.572309869929007,151.206008583691,80.7725321888412,126.6,56.82857142857143,102.06236559139785,80.75268817204301,126.54468085106383,105.26382978723404,149.0,145.0,125.0,121.0,101.0,145.0,125.0,169.0
35,1.75,0.0010101795196533203,-0.3939554691314697,1.9298479557037354,-0.01925969123840332,-1.5671045780181885,-0.0003247261047363281,0.45043468475341797,0.16989152133464813,0.6178391575813293,3.087576819900568,-0.003542813380515839,1.5723629985128031,151.1839826839827,81.29004329004329,126.63796909492274,57.207505518763796,102.11182795698925,81.29677419354839,126.57112526539278,105.51380042462846,149.0,145.0,125.0,121.0,101.0,145.0,125.0,169.0
36,1.8,0.0010111331939697266,-0.3937966823577881,1.9293320178985596,-0.020111560821533203,-1.5670454502105713,-0.0003819465637207031,0.4506334066390991,0.16989794373512268,0.6182170510292053,3.0863673810686585,-0.0035991719734647155,1.5724279047365457,151.14902807775377,81.55939524838013,126.68211920529801,57.556291390728475,102.12987012987013,81.5,126.55744680851063,105.87234042553192,149.0,145.0,125.0,121.0,101.0,145.0,125.0,169.0
37,1.85,0.00099945068359375,-0.3936762809753418,1.9288685321807861,-0.021001338958740234,-1.566983938217163,-0.00042247772216796875,0.4508145749568939,0.16989892721176147,0.6185807585716248,3.0851340854816405,-0.003657050927330009,1.5724653496169994,151.20390455531452,81.89804772234274,126.64601769911505,58.0,102.30263157894737,81.8530701754386,126.58547008547009,106.25854700854701,149.0,145.0,125.0,121.0,101.0,145.0,125.0,169.0
38,1.9000000000000001,0.0009529590606689453,-0.393599271774292,1.9284908771514893,-0.021944761276245117,-1.566906213760376,-0.0005106925964355469,0.4509788155555725,0.16988539695739746,0.6189117431640625,3.0838898527877694,-0.003728642763153779,1.572515866830834,151.15550755939526,82.35421166306695,126.66962305986696,58.32372505543237,102.2472885032538,82.31453362255965,126.60767590618337,106.5501066098081,149.0,145.0,125.0,121.0,101.0,145.0,125.0,169.0
39,1.9500000000000002,0.00090789794921875,-0.3934977054595947,1.9280927181243896,-0.022866487503051758,-1.566828966140747,-0.0005960464477539062,0.45115405321121216,0.16987252235412598,0.619242787361145,3.0826716652930473,-0.003800079164796572,1.5725657553071934,151.15584415584416,82.58441558441558,126.66815144766147,58.728285077951,102.28665207877462,82.59299781181619,126.6017130620985,106.84154175588866,149.0,145.0,125.0,121.0,101.0,145.0,125.0,169.0
40,2.0,0.000896453857421875,-0.39334893226623535,1.927687406539917,-0.023787736892700195,-1.5667736530303955,-0.0006725788116455078,0.4513475298881531,0.16987267136573792,0.6195574998855591,3.0814943529709624,-0.0038493697635118697,1.5726382626830402,151.284140969163,83.02422907488987,126.72706935123043,59.060402684563755,102.37938596491227,82.90131578947368,126.62231759656652,107.2274678111588,149.0,145.0,125.0,121.0,101.0,145.0,125.0,169.0
41,2.0500000000000003,0.0008392333984375,-0.3932175636291504,1.9272663593292236,-0.024683475494384766,-1.566692590713501,-0.0007297992706298828,0.45153823494911194,0.1698547750711441,0.619888424873352,3.0803083169642607,-0.003925127884657405,1.572648526418859,151.12636165577342,83.38997821350763,126.70824053452115,59.474387527839646,102.34934497816595,83.3122270742358,126.6503198294243,107.52025586353945,149.0,145.0,125.0,121.0,101.0,145.0,125.0,169.0
42,2.1,0.0007572174072265625,-0.3931005001068115,1.9269216060638428,-0.02562999725341797,-1.566601037979126,-0.0008306503295898438,0.4517248868942261,0.16982631385326385,0.6201795339584351,3.0791339379137037,-0.004009206532951225,1.5726775397722559,151.12391304347827,83.61521739130434,126.72197309417041,59.874439461883405,102.30701754385964,83.60964912280701,126.62231759656652,107.7725321888412,149.0,145.0,125.0,121.0,101.0,145.0,125.0,169.0
43,2.15,0.0007567405700683594,-0.39285922050476074,1.9264814853668213,-0.026517152786254883,-1.5665581226348877,-0.0008826255798339844,0.4519609808921814,0.16983047127723694,0.6204724311828613,3.078048188342698,-0.004048075150586937,1.572735227350424,151.26385809312637,84.039911308204,126.73033707865169,60.15056179775281,102.37885462555066,83.95374449339207,126.60215053763442,108.21075268817204,149.0,145.0,125.0,121.0,101.0,145.0,125.0,169.0
44,2.2,0.0007421970367431641,-0.39266371726989746,1.9260313510894775,-0.02738356590270996,-1.5665037631988525,-0.0009160041809082031,0.4521750807762146,0.16982947289943695,0.6207914352416992,3.076927068193735,-0.00409829861909332,1.572763082482614,151.1159737417943,84.36323851203501,126.74049217002238,60.50559284116331,102.4342105263158,84.26973684210526,126.69164882226981,108.49250535331906,149.0,145.0,125.0,121.0,101.0,145.0,125.0,169.0
45,2.25,0.0006358623504638672,-0.39257025718688965,1.9257481098175049,-0.02835822105407715,-1.5664031505584717,-0.0010368824005126953,0.45235180854797363,0.16979067027568817,0.6210545897483826,3.075762028574358,-0.004189478972447958,1.5727885216318165,151.09170305676855,84.57860262008734,126.75450450450451,60.914414414414416,102.41629955947137,84.62334801762114,126.63655913978495,108.7505376344086,149.0,145.0,125.0,121.0,101.0,145.0,125.0,169.0
46,2.3000000000000003,0.0006663799285888672,-0.3923628330230713,1.9254124164581299,-0.02931690216064453,-1.5663869380950928,-0.001093149185180664,0.4525645673274994,0.16980601847171783,0.6213003993034363,3.07467492751468,-0.0042000726465291835,1.5728810290404356,151.2316258351893,85.0,126.75450450450451,61.16216216216216,102.45232815964523,84.96674057649668,126.60043196544277,109.07775377969763,149.0,145.0,125.0,121.0,101.0,145.0,125.0,169.0
47,2.35,0.0006959438323974609,-0.3921332359313965,1.9250023365020752,-0.03021097183227539,-1.5663673877716064,-0.0011138916015625,0.45278769731521606,0.16982170939445496,0.6215794086456299,3.0736005880343535,-0.004216841551406367,1.5729374359480792,151.14254385964912,85.36184210526316,126.76179775280899,61.52584269662921,102.47472527472527,85.23296703296704,126.73491379310344,109.42025862068965,149.0,145.0,125.0,121.0,101.0,145.0,125.0,169.0
48,2.4000000000000004,0.00055694580078125,-0.3919997215270996,1.9246900081634521,-0.031141042709350586,-1.5662472248077393,-0.0012440681457519531,0.4529869258403778,0.169769749045372,0.6218394041061401,3.0724907061523585,-0.004326095800504817,1.5729410559285504,151.09170305676855,85.57860262008734,126.825,61.91590909090909,102.51655629139073,85.58498896247241,126.70752688172043,109.67956989247311,149.0,145.0,125.0,121.0,101.0,145.0,125.0,169.0
49,2.45,0.0005521774291992188,-0.3918149471282959,1.9244177341461182,-0.03212881088256836,-1.5662181377410889,-0.001317739486694336,0.453191876411438,0.16977015137672424,0.6220557689666748,3.0714154941893255,-0.00434852007047218,1.573016535567122,151.21380846325167,85.9532293986637,126.82727272727273,62.15,102.52444444444444,85.86666666666666,126.59869848156183,109.97396963123644,149.0,145.0,125.0,121.0,101.0,145.0,125.0,169.0
50,2.5,0.0005893707275390625,-0.39158201217651367,1.9240562915802002,-0.03305459022521973,-1.5662133693695068,-0.0013079643249511719,0.45341435074806213,0.16978800296783447,0.6223043203353882,3.070361266746476,-0.0043516468059054386,1.5730495563965918,151.12114537444933,86.34140969162996,126.73303167420815,62.59276018099548,102.53777777777778,86.2088888888889,126.71583514099783,110.28416485900217,149.0,145.0,125.0,121.0,101.0,145.0,125.0,169.0
51,2.5500000000000003,0.00044083595275878906,-0.3913846015930176,1.9237425327301025,-0.033972740173339844,-1.5660932064056396,-0.0014405250549316406,0.45364540815353394,0.1697317361831665,0.6225347518920898,3.0693267975916725,-0.004460520783380716,1.5730465812593897,151.05263157894737,86.55043859649123,126.90389016018307,62.92677345537757,102.56319290465632,86.52328159645232,126.74353448275862,110.54310344827586,149.0,145.0,125.0,121.0,101.0,145.0,125.0,169.0
52,2.6,0.0004324913024902344,-0.39116668701171875,1.923494577407837,-0.03497052192687988,-1.566070795059204,-0.0014979839324951172,0.4538663327693939,0.1697300374507904,0.6227205991744995,3.0682985068926767,-0.0044764577271506414,1.5731017051066598,151.0801781737194,86.87973273942093,126.85421412300683,63.145785876993166,102.54867256637168,86.83185840707965,126.64502164502164,110.8051948051948,149.0,145.0,125.0,121.0,101.0,145.0,125.0,169.0
53,2.6500000000000004,0.00045752525329589844,-0.39093565940856934,1.9232184886932373,-0.03594803810119629,-1.5660679340362549,-0.0015180110931396484,0.4540882706642151,0.1697419136762619,0.6229174137115479,3.0672759143870043,-0.0044759026434445445,1.5731516057478714,151.17633928571428,87.12053571428571,126.80182232346242,63.61503416856492,102.57847533632287,87.11434977578476,126.6804347826087,111.22608695652174,149.0,145.0,125.0,121.0,101.0,145.0,125.0,169.0
54,2.7,0.00047016143798828125,-0.3906381130218506,1.922853708267212,-0.03684234619140625,-1.5660479068756104,-0.0015635490417480469,0.45434367656707764,0.1697494387626648,0.6231359839439392,3.0663143855593806,-0.0044904902320886215,1.5732157332212178,151.05263157894737,87.44956140350877,126.9448275862069,63.90114942528736,102.62,87.42,126.76241900647948,111.47516198704103,149.0,145.0,125.0,121.0,101.0,145.0,125.0,169.0
55,2.75,0.00047135353088378906,-0.39042234420776367,1.922637701034546,-0.03785204887390137,-1.5660359859466553,-0.0016140937805175781,0.45456039905548096,0.16975092887878418,0.6233018636703491,3.065304586432058,-0.00449625023371834,1.5732729882323744,151.06681514476614,87.70155902004454,126.9448275862069,64.09885057471264,102.59910913140311,87.74164810690424,126.74025974025975,111.7056277056277,149.0,145.0,125.0,121.0,101.0,145.0,125.0,169.0
56,2.8000000000000003,0.0005397796630859375,-0.3901827335357666,1.9223964214324951,-0.03884601593017578,-1.5660622119903564,-0.0016388893127441406,0.45477840304374695,0.16977941989898682,0.6234734058380127,3.0643086199926715,-0.004466286063602107,1.5733682612691926,151.11711711711712,88.04954954954955,126.80091533180779,64.48054919908466,102.64508928571429,88.0,126.59565217391304,112.0,149.0,145.0,125.0,121.0,101.0,145.0,125.0,169.0
57,2.85,0.0005712509155273438,-0.38989996910095215,1.9221150875091553,-0.03980278968811035,-1.5660669803619385,-0.0016531944274902344,0.4550227224826813,0.1697932928800583,0.623647928237915,3.063353652649496,-0.004458326796747395,1.5734179482603352,151.09070796460176,88.40929203539822,126.97235023041475,64.90322580645162,102.6391982182628,88.30734966592428,126.75704989154013,112.31453362255965,149.0,145.0,125.0,121.0,101.0,145.0,125.0,169.0
58,2.9000000000000004,0.0005598068237304688,-0.38958168029785156,1.921814203262329,-0.04073643684387207,-1.5660512447357178,-0.001668691635131836,0.45529112219810486,0.16978977620601654,0.6238176226615906,3.0624377112498316,-0.00447096358563867,1.5734281213059425,151.01101321585904,88.5748898678414,126.97235023041475,65.09677419354838,102.63028953229399,88.56124721603564,126.78571428571429,112.53679653679653,149.0,145.0,125.0,121.0,101.0,145.0,125.0,169.0
59,2.95,0.0005705356597900391,-0.389312744140625,1.9215900897979736,-0.04172396659851074,-1.5660498142242432,-0.0017139911651611328,0.45553094148635864,0.16979458928108215,0.623962938785553,3.0614947842196405,-0.004467081139287331,1.5734881629582373,151.05442176870747,89.0,126.84295612009238,65.27020785219399,102.64719101123596,88.91460674157304,126.6804347826087,112.77391304347826,149.0,145.0,125.0,121.0,101.0,145.0,125.0,169.0
60,3.0,0.0005354881286621094,-0.3890697956085205,1.9213593006134033,-0.04269123077392578,-1.5660173892974854,-0.0017719268798828125,0.45576342940330505,0.16978158056735992,0.6241224408149719,3.0605397566899164,-0.004492828123867547,1.5735174936451544,151.08823529411765,89.17647058823529,126.97674418604652,65.83720930232558,102.7069351230425,89.14765100671141,126.64551422319475,113.15754923413567,149.0,145.0,125.0,121.0,101.0,145.0,125.0,169.0
61,3.0500000000000003,0.0006520748138427734,-0.388704776763916,1.9210865497589111,-0.043662071228027344,-1.5660908222198486,-0.001712799072265625,0.45603522658348083,0.1698281615972519,0.6242557168006897,3.0596620344216645,-0.004422474938698587,1.5735734214035226,151.0,89.5,126.94444444444444,66.0,102.67337807606263,89.3937360178971,126.76906318082789,113.40087145969498,149.0,145.0,125.0,121.0,101.0,145.0,125.0,169.0
62,3.1,0.0005939006805419922,-0.3884589672088623,1.9208934307098389,-0.044647932052612305,-1.566051721572876,-0.0017778873443603516,0.45627227425575256,0.1698051244020462,0.6243901252746582,3.058728415885296,-0.00445408667889885,1.5735874100306657,150.93905191873588,89.82167042889391,126.97674418604652,66.16279069767442,102.668903803132,89.7248322147651,126.76355748373102,113.63991323210412,149.0,145.0,125.0,121.0,101.0,145.0,125.0,169.0
63,3.1500000000000004,0.0005536079406738281,-0.38828301429748535,1.9207842350006104,-0.04569673538208008,-1.566028356552124,-0.001840353012084961,0.4564712345600128,0.16978858411312103,0.6245063543319702,3.0577459910931837,-0.00447018546458354,1.5736156762819846,151.0,90.0,126.86542923433875,66.70301624129931,102.70588235294117,89.96832579185521,126.66447368421052,113.89912280701755,149.0,145.0,125.0,121.0,101.0,145.0,125.0,169.0
64,3.2,0.0005724430084228516,-0.38791894912719727,1.9205405712127686,-0.046654462814331055,-1.566040277481079,-0.0018658638000488281,0.4567551016807556,0.16979604959487915,0.624618649482727,3.0569089037862605,-0.004453942785596697,1.5736626849461846,151.0377777777778,90.36222222222223,126.99074074074075,66.92824074074075,102.73825503355705,90.23713646532438,126.72173913043478,114.25869565217391,149.0,145.0,125.0,121.0,101.0,145.0,125.0,169.0
65,3.25,0.0005705356597900391,-0.3876309394836426,1.9203431606292725,-0.047640085220336914,-1.566044569015503,-0.0018711090087890625,0.4570036232471466,0.16979491710662842,0.6247370839118958,3.0560141899602016,-0.004446999811134642,1.5736701357759189,150.93569844789357,90.58758314855876,126.99305555555556,67.12268518518519,102.71364653243847,90.51454138702461,126.7939262472885,114.4880694143167,149.0,145.0,125.0,121.0,101.0,145.0,125.0,169.0
66,3.3000000000000003,0.0005340576171875,-0.38741564750671387,1.920231580734253,-0.048674583435058594,-1.5660264492034912,-0.0019381046295166016,0.45722007751464844,0.1697796732187271,0.6248350739479065,3.0550836317418693,-0.004457341903217475,1.5737064255952542,150.93650793650792,90.94331065759637,126.89695550351288,67.38407494145198,102.70588235294117,90.89140271493213,126.73856209150327,114.72113289760348,149.0,145.0,125.0,121.0,101.0,145.0,125.0,169.0
67,3.35,0.0004930496215820312,-0.387176513671875,1.9200975894927979,-0.0496821403503418,-1.5660021305084229,-0.002019166946411133,0.4574483633041382,0.16976284980773926,0.6249350905418396,3.0541802709987915,-0.004472313911661813,1.573752597338733,151.00686498855836,91.09153318077803,126.93457943925233,67.80607476635514,102.77078651685393,91.08988764044943,126.64912280701755,115.0,149.0,145.0,125.0,121.0,101.0,145.0,125.0,169.0
68,3.4000000000000004,0.0005857944488525391,-0.38681960105895996,1.919903039932251,-0.05067324638366699,-1.5660679340362549,-0.0019989013671875,0.4577160179615021,0.1697990596294403,0.6250206828117371,3.0533521622614668,-0.004405952450783163,1.5738233526614127,150.97772828507794,91.43875278396436,127.0,68.0,102.75730337078652,91.30561797752809,126.73856209150327,115.27886710239652,149.0,145.0,125.0,121.0,101.0,145.0,125.0,169.0
69,3.45,0.0005631446838378906,-0.3865489959716797,1.9197561740875244,-0.05167531967163086,-1.5660650730133057,-0.0020215511322021484,0.45795688033103943,0.16978897154331207,0.6251144409179688,3.0524740656937,-0.00440538964240242,1.573826818533968,150.8487584650113,91.7313769751693,126.93457943925233,68.19392523364486,102.7085201793722,91.54035874439462,126.7939262472885,115.5119305856833,149.0,145.0,125.0,121.0,101.0,145.0,125.0,169.0
70,3.5,0.0003974437713623047,-0.386383056640625,1.9196984767913818,-0.05271029472351074,-1.5659711360931396,-0.0021483898162841797,0.45816564559936523,0.169721320271492,0.6251981854438782,3.0515465380720985,-0.004485441054749498,1.5737999824403899,150.92045454545453,91.98636363636363,126.92161520190024,68.65558194774347,102.70361990950227,91.92986425339366,126.73856209150327,115.72113289760348,149.0,145.0,125.0,121.0,101.0,145.0,125.0,169.0
71,3.5500000000000003,0.0003757476806640625,-0.3859884738922119,1.9194667339324951,-0.053637027740478516,-1.5659644603729248,-0.002190828323364258,0.4584672451019287,0.169712096452713,0.6252845525741577,3.0507830646894862,-0.004486288092388569,1.57382505600803,150.9248291571754,92.11845102505694,126.96736596736596,68.86247086247086,102.78103837471784,92.16704288939052,126.66228070175438,116.04824561403508,149.0,145.0,125.0,121.0,101.0,145.0,125.0,169.0
72,3.6,0.000499725341796875,-0.3856673240661621,1.9193527698516846,-0.05467534065246582,-1.566056489944458,-0.0021741390228271484,0.4587104618549347,0.16976012289524078,0.6253367066383362,3.049952749450585,-0.00439363316885679,1.5739280787995424,150.90848214285714,92.53571428571429,126.9860465116279,69.02325581395348,102.72072072072072,92.36711711711712,126.7292576419214,116.30349344978166,149.0,145.0,125.0,121.0,101.0,145.0,125.0,169.0
73,3.6500000000000004,0.0004448890686035156,-0.3854176998138428,1.9192306995391846,-0.055670738220214844,-1.5660350322723389,-0.0022089481353759766,0.4589434564113617,0.16973687708377838,0.6254226565361023,3.0490839378264147,-0.004409412216541905,1.5739137727359291,150.84807256235828,92.78458049886622,126.97405660377359,69.28301886792453,102.7420814479638,92.64027149321267,126.74945533769063,116.5119825708061,149.0,145.0,125.0,121.0,101.0,145.0,125.0,169.0
74,3.7,0.00036978721618652344,-0.3851926326751709,1.9191672801971436,-0.05670309066772461,-1.566004991531372,-0.0022764205932617188,0.4591667652130127,0.1697048395872116,0.6254828572273254,3.0482128339932943,-0.004431185304687877,1.5739120957632957,150.89342403628117,92.98866213151928,126.91725768321513,69.6903073286052,102.7233560090703,92.94784580498866,126.71834061135371,116.73799126637554,149.0,145.0,125.0,121.0,101.0,145.0,125.0,169.0
75,3.75,0.0003666877746582031,-0.38480329513549805,1.91896653175354,-0.057637929916381836,-1.5660126209259033,-0.0023131370544433594,0.4594610631465912,0.16970250010490417,0.6255515217781067,3.0474674290620465,-0.004417037178028943,1.5739487990162324,150.8590909090909,93.12954545454545,126.95560747663552,69.93691588785046,102.78103837471784,93.16704288939052,126.66228070175438,117.04824561403508,149.0,145.0,125.0,121.0,101.0,145.0,125.0,169.0
76,3.8000000000000003,0.0004677772521972656,-0.3844788074493408,1.9188807010650635,-0.05867624282836914,-1.5660946369171143,-0.0023114681243896484,0.45970726013183594,0.16974101960659027,0.625582754611969,3.0466681279734673,-0.004333408576120235,1.5740436605454684,150.88366890380314,93.54586129753915,126.96252927400468,70.08899297423888,102.72686230248307,93.39277652370203,126.7292576419214,117.30349344978166,149.0,145.0,125.0,121.0,101.0,145.0,125.0,169.0
77,3.85,0.00040721893310546875,-0.3842041492462158,1.9187548160552979,-0.05964779853820801,-1.566070795059204,-0.002357006072998047,0.4599515199661255,0.16971518099308014,0.6256569623947144,3.0458446908169257,-0.004351151313165858,1.5740346890944108,150.8212669683258,93.78733031674209,126.94075829383887,70.32464454976304,102.7420814479638,93.64027149321267,126.74945533769063,117.5119825708061,149.0,145.0,125.0,121.0,101.0,145.0,125.0,169.0
78,3.9000000000000004,0.00030684471130371094,-0.3839704990386963,1.9186928272247314,-0.06065678596496582,-1.5660240650177002,-0.002444028854370117,0.4601805806159973,0.16967296600341797,0.6257098913192749,3.04500742958016,-0.004386756533959102,1.5740290274780055,150.89342403628117,93.98866213151928,126.91294117647058,70.73647058823529,102.76993166287016,93.93394077448747,126.71834061135371,117.73799126637554,149.0,145.0,125.0,121.0,101.0,145.0,125.0,169.0
79,3.95,0.0002906322479248047,-0.3835787773132324,1.918511152267456,-0.06158638000488281,-1.5660288333892822,-0.0024871826171875,0.4604761004447937,0.1696649044752121,0.6257632374763489,3.0442883884996506,-0.00437614457966168,1.5740584624312812,150.8359908883827,94.14350797266515,126.94366197183099,70.95070422535211,102.8140589569161,94.12698412698413,126.64912280701755,118.0,149.0,145.0,125.0,121.0,101.0,145.0,125.0,169.0
80,4.0,0.0003533363342285156,-0.3832569122314453,1.918450117111206,-0.0626220703125,-1.566094160079956,-0.0024938583374023438,0.46072500944137573,0.1696874052286148,0.6257782578468323,3.0435134530244756,-0.004307915959724316,1.5741247552397708,150.81838565022423,94.5067264573991,126.93661971830986,71.09859154929578,102.73076923076923,94.36651583710407,126.71834061135371,118.26200873362446,149.0,145.0,125.0,121.0,101.0,145.0,125.0,169.0
81,4.05,0.00028204917907714844,-0.38299131393432617,1.9183642864227295,-0.06360435485839844,-1.5660665035247803,-0.002556324005126953,0.4609641432762146,0.16965684294700623,0.6258301734924316,3.0427104844198096,-0.004326372302518826,1.5741225052524728,150.79458239277653,94.78329571106094,126.93301435406698,71.42344497607655,102.72108843537416,94.62358276643991,126.70152505446623,118.49019607843137,149.0,145.0,125.0,121.0,101.0,145.0,125.0,169.0
82,4.1000000000000005,0.0002067089080810547,-0.3826789855957031,1.9182541370391846,-0.06456780433654785,-1.566040277481079,-0.0026061534881591797,0.46122750639915466,0.1696242392063141,0.6258752942085266,3.041949487025141,-0.004345925225469487,1.5741023984993532,150.8733031674208,94.97058823529412,126.90094339622641,71.7122641509434,102.76993166287016,94.93394077448747,126.6951754385965,118.6907894736842,149.0,145.0,125.0,121.0,101.0,145.0,125.0,169.0
83,4.15,0.00021147727966308594,-0.38227248191833496,1.9180757999420166,-0.06548404693603516,-1.5660593509674072,-0.0026390552520751953,0.46152520179748535,0.1696244329214096,0.6259179711341858,3.041261228474834,-0.0043209681480873485,1.5741410235531859,150.81006864988558,95.1258581235698,126.94366197183099,71.95070422535211,102.8140589569161,95.12698412698413,126.6359649122807,118.91885964912281,149.0,145.0,125.0,121.0,101.0,145.0,125.0,169.0
84,4.2,0.00029587745666503906,-0.38190698623657227,1.9180023670196533,-0.0664982795715332,-1.5661418437957764,-0.0026307106018066406,0.46179094910621643,0.16965541243553162,0.6259187459945679,3.040540041461468,-0.004237427716250484,1.5742121699988112,150.74606741573032,95.51685393258427,126.92,72.12,102.72171945701358,95.31447963800905,126.67177242888403,119.19912472647702,149.0,145.0,125.0,121.0,101.0,145.0,125.0,169.0
85,4.25,0.0001964569091796875,-0.3816337585449219,1.9179413318634033,-0.06748366355895996,-1.5661051273345947,-0.002685546875,0.4620368778705597,0.16961272060871124,0.6259505152702332,3.039766573071315,-0.00426629929142337,1.5741744241623927,150.77752808988765,95.73483146067416,126.92124105011933,72.39856801909308,102.73303167420815,95.59954751131222,126.65350877192982,119.45394736842105,149.0,145.0,125.0,121.0,101.0,145.0,125.0,169.0
86,4.3,0.00016379356384277344,-0.3813142776489258,1.9178478717803955,-0.06844973564147949,-1.5661089420318604,-0.002712249755859375,0.4622952342033386,0.1695968210697174,0.6259807348251343,3.0390262234935954,-0.004257214212718602,1.5741708979921496,150.82805429864254,95.89592760180996,126.89810426540285,72.67061611374407,102.75626423690206,95.874715261959,126.6870897155361,119.63457330415756,149.0,145.0,125.0,121.0,101.0,145.0,125.0,169.0
87,4.3500000000000005,0.00017881393432617188,-0.3809082508087158,1.9176857471466064,-0.06936144828796387,-1.5661370754241943,-0.002744436264038086,0.4625893533229828,0.16960105299949646,0.6260114312171936,3.0383588365241607,-0.004224013647474034,1.5742182015436492,150.75626423690204,96.125284738041,126.89386792452831,72.88915094339623,102.74715261958998,96.00911161731207,126.61353711790393,119.8995633187773,149.0,145.0,125.0,121.0,101.0,145.0,125.0,169.0
88,4.4,0.00016689300537109375,-0.38057589530944824,1.9176061153411865,-0.07033491134643555,-1.566157579421997,-0.0027627944946289062,0.46285057067871094,0.1695932298898697,0.6260272860527039,3.0376378926302956,-0.004199491560645257,1.5742254618770333,150.72108843537416,96.37641723356009,126.86997635933807,73.096926713948,102.73015873015873,96.2358276643991,126.62008733624454,120.15065502183405,149.0,145.0,125.0,121.0,101.0,145.0,125.0,169.0
89,4.45,0.00011181831359863281,-0.38028907775878906,1.9175584316253662,-0.07131838798522949,-1.5661494731903076,-0.002811431884765625,0.4630942642688751,0.16956809163093567,0.6260432600975037,3.0368937029905516,-0.004199990504383681,1.5742225793863072,150.73076923076923,96.63348416289593,126.91904761904762,73.37142857142857,102.7155756207675,96.44018058690745,126.61842105263158,120.37061403508773,149.0,145.0,125.0,121.0,101.0,145.0,125.0,169.0
90,4.5,6.079673767089844e-05,-0.37995362281799316,1.917464017868042,-0.07226872444152832,-1.566148042678833,-0.002822399139404297,0.46336206793785095,0.169544517993927,0.6260647773742676,3.0361840700837437,-0.0041980565586095175,1.5741859816981985,150.76523702031602,96.86230248306998,126.92124105011933,73.60143198090692,102.71461187214612,96.8082191780822,126.62663755458516,120.58951965065502,149.0,145.0,125.0,121.0,101.0,145.0,125.0,169.0
91,4.55,0.0001087188720703125,-0.3795597553253174,1.9173271656036377,-0.07319259643554688,-1.5662028789520264,-0.002811431884765625,0.4636439085006714,0.16956143081188202,0.6260852217674255,3.03551859737687,-0.0041415074852529125,1.574220605989928,150.7233560090703,97.05215419501134,126.87234042553192,73.87234042553192,102.74772727272727,96.9590909090909,126.62527233115469,120.82352941176471,149.0,145.0,125.0,121.0,101.0,145.0,125.0,169.0
92,4.6000000000000005,8.654594421386719e-05,-0.3792083263397217,1.917248010635376,-0.07414460182189941,-1.5662176609039307,-0.0028476715087890625,0.46391409635543823,0.1695493757724762,0.6260891556739807,3.034838731059478,-0.004121399527056807,1.5742350743352984,150.68253968253967,97.25850340136054,126.86588235294117,74.02588235294118,102.71981776765377,97.20501138952164,126.59606986899563,121.0524017467249,149.0,145.0,125.0,121.0,101.0,145.0,125.0,169.0
93,4.65,0.00010275840759277344,-0.37889695167541504,1.9172112941741943,-0.07512879371643066,-1.5662567615509033,-0.0028772354125976562,0.46415773034095764,0.16955283284187317,0.6260865330696106,3.0341291011525877,-0.004077182417817746,1.574279506900109,150.710407239819,97.58597285067873,126.84560570071258,74.27315914489311,102.71428571428571,97.38775510204081,126.58681318681319,121.28571428571429,149.0,145.0,125.0,121.0,101.0,145.0,125.0,169.0
94,4.7,2.1696090698242188e-05,-0.37858057022094727,1.9171326160430908,-0.0760641098022461,-1.5662338733673096,-0.0029146671295166016,0.46441829204559326,0.16951698064804077,0.6261042952537537,3.033431181807315,-0.004093305792264188,1.5742414927734025,150.70361990950227,97.76923076923077,126.86666666666666,74.5,102.67272727272727,97.675,126.65350877192982,121.45394736842105,149.0,145.0,125.0,121.0,101.0,145.0,125.0,169.0
95,4.75,-1.8835067749023438e-05,-0.3781931400299072,1.9169909954071045,-0.07694840431213379,-1.566230058670044,-0.0029571056365966797,0.46470752358436584,0.16949814558029175,0.6261256337165833,3.0327934632236753,-0.004090123535094703,1.574246579854877,150.69614512471657,98.00680272108843,126.82660332541568,74.77672209026129,102.7233560090703,97.94784580498866,126.5764192139738,121.65720524017468,149.0,145.0,125.0,121.0,101.0,145.0,125.0,169.0
96,4.800000000000001,-9.775161743164062e-06,-0.37778544425964355,1.916879415512085,-0.07786393165588379,-1.566265344619751,-0.0029768943786621094,0.4649995267391205,0.16949871182441711,0.6261216402053833,3.0321740764976552,-0.0040510542276936835,1.5742731382386272,150.69772727272726,98.15454545454546,126.84160756501183,74.97872340425532,102.68878718535468,98.06178489702518,126.59606986899563,121.9475982532751,149.0,145.0,125.0,121.0,101.0,145.0,125.0,169.0
97,4.8500000000000005,-2.47955322265625e-05,-0.3774104118347168,1.916762113571167,-0.07876348495483398,-1.5662815570831299,-0.0030028820037841797,0.4652779996395111,0.16948997974395752,0.6261347532272339,3.0315322330790875,-0.0040299348339115915,1.5742849276906652,150.64172335600907,98.3922902494331,126.82033096926713,75.11347517730496,102.69703872437357,98.25284738041002,126.59518599562364,122.1597374179431,149.0,145.0,125.0,121.0,101.0,145.0,125.0,169.0
98,4.9,-0.00010037422180175781,-0.3771367073059082,1.9167397022247314,-0.07972002029418945,-1.5662615299224854,-0.003070831298828125,0.46551403403282166,0.16945615410804749,0.6261359453201294,3.030826925508669,-0.004039900544531934,1.5742820587248298,150.65237020316027,98.66365688487585,126.83054892601432,75.47016706443914,102.6575963718821,98.4625850340136,126.59299781181619,122.36323851203501,149.0,145.0,125.0,121.0,101.0,145.0,125.0,169.0
99,4.95,-0.00019788742065429688,-0.37674474716186523,1.9166018962860107,-0.08058738708496094,-1.5662291049957275,-0.003107786178588867,0.46581268310546875,0.16941358149051666,0.6261511445045471,3.0302133001894145,-0.004065929059170064,1.5742275352772541,150.66742596810934,98.86104783599089,126.80094786729858,75.63744075829383,102.6689497716895,98.80365296803653,126.58078602620087,122.61353711790393,149.0,145.0,125.0,121.0,101.0,145.0,125.0,169.0
100,5.0,-0.00020647048950195312,-0.3763720989227295,1.9164912700653076,-0.08147525787353516,-1.5662472248077393,-0.0031464099884033203,0.46608737111091614,0.16940750181674957,0.6261586546897888,3.029587853666852,-0.004041288982266535,1.574257552602791,150.70361990950227,99.07013574660634,126.82033096926713,75.88652482269504,102.69772727272728,98.95681818181818,126.56359649122807,122.77850877192982,149.0,145.0,125.0,121.0,101.0,145.0,125.0,169.0
101,5.050000000000001,-0.00022077560424804688,-0.3759458065032959,1.9163386821746826,-0.08233451843261719,-1.566267728805542,-0.003155231475830078,0.4663897454738617,0.16939881443977356,0.6261667609214783,3.029002586855513,-0.0040180316672373565,1.574252330437556,150.63718820861678,99.26303854875283,126.84198113207547,76.09669811320755,102.66970387243735,99.1867881548975,126.57205240174673,123.0349344978166,149.0,145.0,125.0,121.0,101.0,145.0,125.0,169.0
102,5.1000000000000005,-0.00021266937255859375,-0.3755636215209961,1.9162418842315674,-0.08323335647583008,-1.566303014755249,-0.003168821334838867,0.4666662812232971,0.16939881443977356,0.626162052154541,3.028389286088951,-0.003978739130307065,1.5742725000316038,150.63656884875846,99.56884875846501,126.77857142857142,76.23571428571428,102.6590909090909,99.34772727272727,126.53070175438596,123.25877192982456,149.0,145.0,125.0,121.0,101.0,145.0,125.0,169.0
103,5.15,-0.0003159046173095703,-0.37525320053100586,1.9161670207977295,-0.08412647247314453,-1.5662662982940674,-0.003213644027709961,0.46692267060279846,0.16935372352600098,0.6261746883392334,3.027731046226752,-0.004007618633624993,1.5742210357501738,150.6439909297052,99.74603174603175,126.75714285714285,76.5,102.64464692482916,99.60592255125285,126.58078602620087,123.38646288209607,149.0,145.0,125.0,121.0,101.0,145.0,125.0,169.0
104,5.2,-0.0004088878631591797,-0.37484121322631836,1.9160096645355225,-0.08495092391967773,-1.5662314891815186,-0.003274679183959961,0.4672280550003052,0.16931316256523132,0.6261882781982422,3.0271616018107865,-0.0040340677520108925,1.574194485368001,150.61047835990888,99.94533029612757,126.75059382422803,76.7624703087886,102.6492027334852,99.82232346241457,126.55555555555556,123.67320261437908,149.0,145.0,125.0,121.0,101.0,145.0,125.0,169.0
105,5.25,-0.00048351287841796875,-0.37446093559265137,1.9158985614776611,-0.08580946922302246,-1.5662109851837158,-0.0033333301544189453,0.467514306306839,0.16927988827228546,0.626189112663269,3.0265723718114046,-0.004045099337174849,1.5741832601637067,150.6439909297052,100.10204081632654,126.79196217494089,76.95981087470449,102.61047835990888,100.05466970387243,126.53930131004367,123.83842794759825,149.0,145.0,125.0,121.0,101.0,145.0,125.0,169.0
106,5.300000000000001,-0.0004508495330810547,-0.37398481369018555,1.9157001972198486,-0.08661651611328125,-1.5662562847137451,-0.003325223922729492,0.4678325355052948,0.16929060220718384,0.6261992454528809,3.026043924147033,-0.003998428334757766,1.5742050266956784,150.60180995475113,100.33031674208145,126.77304964539007,77.13475177304964,102.65454545454546,100.2090909090909,126.5,124.07894736842105,149.0,145.0,125.0,121.0,101.0,145.0,125.0,169.0
107,5.3500000000000005,-0.00046825408935546875,-0.37361621856689453,1.915616750717163,-0.08750176429748535,-1.5662777423858643,-0.003340482711791992,0.4681037366390228,0.169280007481575,0.6261894702911377,3.0254434955096747,-0.003972959187022826,1.5742025875951902,150.6108597285068,100.57692307692308,126.69212410501193,77.3508353221957,102.61085972850678,100.42307692307692,126.52516411378556,124.28446389496717,149.0,145.0,125.0,121.0,101.0,145.0,125.0,169.0
108,5.4,-0.0005738735198974609,-0.3732259273529053,1.9154679775238037,-0.08831071853637695,-1.5662319660186768,-0.0034079551696777344,0.46839818358421326,0.16923445463180542,0.6262058019638062,3.0248757845438488,-0.004008836306649159,1.5741714225195533,150.59142212189616,100.81941309255079,126.71666666666667,77.57380952380953,102.60592255125285,100.69476082004556,126.50765864332604,124.47483588621444,149.0,145.0,125.0,121.0,101.0,145.0,125.0,169.0
109,5.45,-0.0006318092346191406,-0.37281155586242676,1.9153211116790771,-0.08912777900695801,-1.566220998764038,-0.0034461021423339844,0.46869730949401855,0.16920793056488037,0.6262100338935852,3.0243262698890834,-0.004012775373819268,1.5741551515837413,150.56462585034015,100.95691609977324,126.70071258907363,77.80997624703087,102.6324200913242,100.87671232876713,126.53711790393012,124.69213973799127,149.0,145.0,125.0,121.0,101.0,145.0,125.0,169.0
110,5.5,-0.0007011890411376953,-0.3724205493927002,1.9152162075042725,-0.08996748924255371,-1.5662024021148682,-0.003519296646118164,0.46898549795150757,0.16917650401592255,0.6261988282203674,3.0237724756780087,-0.00402060801698989,1.5741630446766486,150.59318181818182,101.1590909090909,126.72511848341232,78.0,102.61872146118722,101.07990867579909,126.5,124.86899563318778,149.0,145.0,125.0,121.0,101.0,145.0,125.0,169.0
111,5.550000000000001,-0.0007152557373046875,-0.3719785213470459,1.9150631427764893,-0.09077978134155273,-1.5662214756011963,-0.0035400390625,0.46929144859313965,0.16916769742965698,0.6261938810348511,3.0232492045132604,-0.0039971082019694204,1.57416950057078,150.51136363636363,101.35909090909091,126.67535545023696,78.20142180094787,102.62045454545455,101.24090909090908,126.5,125.13100436681222,149.0,145.0,125.0,121.0,101.0,145.0,125.0,169.0
112,5.6000000000000005,-0.0008103847503662109,-0.3716464042663574,1.9150164127349854,-0.09165215492248535,-1.5661890506744385,-0.0036246776580810547,0.46955326199531555,0.16912539303302765,0.6261741518974304,3.022661774717081,-0.004016736682201015,1.5741642560917535,150.5873015873016,101.58956916099773,126.6452380952381,78.3952380952381,102.59183673469387,101.4421768707483,126.4880174291939,125.31590413943356,149.0,145.0,125.0,121.0,101.0,145.0,125.0,169.0
113,5.65,-0.0009150505065917969,-0.37123990058898926,1.9148542881011963,-0.09242916107177734,-1.566143274307251,-0.0036907196044921875,0.46985340118408203,0.16908004879951477,0.6261876225471497,3.0221290922602964,-0.004052371354769838,1.5741334476831264,150.59142212189616,101.81941309255079,126.6627078384798,78.62470308788599,102.55377574370709,101.69565217391305,126.49234135667396,125.52516411378556,149.0,145.0,125.0,121.0,101.0,145.0,125.0,169.0
114,5.7,-0.0009872913360595703,-0.37078261375427246,1.9146387577056885,-0.09316611289978027,-1.5661156177520752,-0.0037326812744140625,0.4701738953590393,0.16904814541339874,0.6262088418006897,3.0216341077594167,-0.004072423284931604,1.5741077730834925,150.56462585034015,101.95691609977324,126.67535545023696,78.79857819905213,102.59132420091325,101.86986301369863,126.47483588621444,125.71553610503283,149.0,145.0,125.0,121.0,101.0,145.0,125.0,169.0
115,5.75,-0.0010230541229248047,-0.37036681175231934,1.9144957065582275,-0.09396243095397949,-1.5661180019378662,-0.003770112991333008,0.47046810388565063,0.1690307855606079,0.6262068748474121,3.021111168118078,-0.00406365440696185,1.5741112768719532,150.5431818181818,102.15227272727273,126.69833729216153,78.99287410926365,102.59225512528474,102.08656036446469,126.47379912663756,125.90829694323143,149.0,145.0,125.0,121.0,101.0,145.0,125.0,169.0
116,5.800000000000001,-0.0010313987731933594,-0.36995577812194824,1.9143750667572021,-0.09477782249450684,-1.56614089012146,-0.003796815872192383,0.4707549512386322,0.16902416944503784,0.6261944770812988,3.0205860359200267,-0.00403526274896511,1.5741287078550124,150.51136363636363,102.35909090909091,126.64775413711584,79.20567375886525,102.60364464692483,102.26195899772209,126.47494553376906,126.13943355119825,149.0,145.0,125.0,121.0,101.0,145.0,125.0,169.0
117,5.8500000000000005,-0.00110626220703125,-0.3695993423461914,1.914302110671997,-0.0956106185913086,-1.5661194324493408,-0.0038704872131347656,0.4710238575935364,0.1689900904893875,0.6261765956878662,3.0200359109662522,-0.004044997488178366,1.5741321360329834,150.54090909090908,102.5840909090909,126.59285714285714,79.41190476190476,102.54421768707483,102.4421768707483,126.46288209606988,126.30786026200873,149.0,145.0,125.0,121.0,101.0,145.0,125.0,169.0
118,5.9,-0.0012249946594238281,-0.3691694736480713,1.9141161441802979,-0.0963449478149414,-1.5660617351531982,-0.003945112228393555,0.4713357388973236,0.16893896460533142,0.6261895298957825,3.01954553415419,-0.004091025464678095,1.5740965060579282,150.5668934240363,102.77324263038548,126.57719714964371,79.6104513064133,102.5125284738041,102.66742596810934,126.42733188720173,126.52060737527115,149.0,145.0,125.0,121.0,101.0,145.0,125.0,169.0
119,5.95,-0.0012907981872558594,-0.36869335174560547,1.913874864578247,-0.09703993797302246,-1.5660345554351807,-0.0039865970611572266,0.4716627895832062,0.16890999674797058,0.6262149810791016,3.019085764071072,-0.004110918206736703,1.574077377216988,150.56462585034015,102.95691609977324,126.64775413711584,79.79432624113475,102.5261958997722,102.86788154897495,126.46288209606988,126.69213973799127,149.0,145.0,125.0,121.0,101.0,145.0,125.0,169.0
120,6.0,-0.001325368881225586,-0.3682107925415039,1.913644552230835,-0.0977473258972168,-1.5660316944122314,-0.0040090084075927734,0.4719884991645813,0.16889356076717377,0.6262308359146118,3.018630983813949,-0.004108841716541792,1.5740671351182975,150.4331065759637,103.13378684807256,126.62380952380953,79.98571428571428,102.5840909090909,103.06136363636364,126.42919389978213,126.88671023965142,149.0,145.0,125.0,121.0,101.0,145.0,125.0,169.0
121,6.050000000000001,-0.0013768672943115234,-0.3678596019744873,1.9136126041412354,-0.0986020565032959,-1.5660312175750732,-0.004075765609741211,0.4722493588924408,0.1688685566186905,0.6261894702911377,3.0180943487366396,-0.004098683769302435,1.5740843908707718,150.4920634920635,103.34013605442176,126.58095238095238,80.16190476190476,102.55808656036446,103.26651480637813,126.42919389978213,127.11328976034858,149.0,145.0,125.0,121.0,101.0,145.0,125.0,169.0
122,6.1000000000000005,-0.0014417171478271484,-0.36748266220092773,1.9135081768035889,-0.09938859939575195,-1.5660121440887451,-0.004148960113525391,0.472524493932724,0.16883879899978638,0.6261774301528931,3.0175803355174122,-0.0041064244681034015,1.5740964039774674,150.50569476082003,103.5261958997722,126.57719714964371,80.3895486935867,102.51480637813212,103.42369020501138,126.46288209606988,127.30786026200873,149.0,145.0,125.0,121.0,101.0,145.0,125.0,169.0
123,6.15,-0.0015456676483154297,-0.36705470085144043,1.913325548171997,-0.10010361671447754,-1.5659620761871338,-0.004229068756103516,0.4728313684463501,0.16879360377788544,0.6261867880821228,3.0171104382071987,-0.004144240423420229,1.5740800656943377,150.54545454545453,103.75681818181818,126.55450236966824,80.59478672985782,102.51136363636364,103.64090909090909,126.36086956521739,127.5,149.0,145.0,125.0,121.0,101.0,145.0,125.0,169.0
124,6.2,-0.0015845298767089844,-0.36657190322875977,1.9130942821502686,-0.10079455375671387,-1.5659582614898682,-0.004243373870849609,0.47315600514411926,0.16877511143684387,0.6262010335922241,3.0166713346773006,-0.004143956751162104,1.5740575370142462,150.53846153846155,103.96380090497738,126.56028368794327,80.76832151300236,102.43310657596372,103.86621315192744,126.4235807860262,127.65720524017468,149.0,145.0,125.0,121.0,101.0,145.0,125.0,169.0
125,6.25,-0.0016453266143798828,-0.36603379249572754,1.9127776622772217,-0.10140633583068848,-1.5659301280975342,-0.004271268844604492,0.473511278629303,0.16874828934669495,0.626238226890564,3.0162813377765127,-0.004166394644263096,1.5740298315051673,150.4331065759637,104.13378684807256,126.59619952494062,80.9809976247031,102.5,104.0,126.38997821350763,127.87363834422658,149.0,145.0,125.0,121.0,101.0,145.0,125.0,169.0
126,6.300000000000001,-0.0017142295837402344,-0.3656153678894043,1.9126427173614502,-0.10216164588928223,-1.5659143924713135,-0.004308223724365234,0.4738072454929352,0.16871649026870728,0.6262236833572388,3.0158094555265236,-0.004174731357416865,1.5740015610581954,150.4431818181818,104.29318181818182,126.54523809523809,81.13095238095238,102.52054794520548,104.19634703196347,126.40087145969498,128.07843137254903,149.0,145.0,125.0,121.0,101.0,145.0,125.0,169.0
127,6.3500000000000005,-0.001802206039428711,-0.36523914337158203,1.9125373363494873,-0.10292363166809082,-1.565880537033081,-0.0043866634368896484,0.47408363223075867,0.16867715120315552,0.6262096762657166,3.0153171189163364,-0.004196371459481234,1.5739979453834811,150.47045454545454,104.48636363636363,126.55,81.38333333333334,102.51826484018265,104.3972602739726,126.4161220043573,128.2483660130719,149.0,145.0,125.0,121.0,101.0,145.0,125.0,169.0
128,6.4,-0.0018846988677978516,-0.3647880554199219,1.9123623371124268,-0.10363078117370605,-1.5658490657806396,-0.004451274871826172,0.4743969738483429,0.16864030063152313,0.6262012720108032,3.01488593607445,-0.00421730959495894,1.5739854884195037,150.50681818181818,104.68636363636364,126.56501182033097,81.56973995271868,102.48519362186788,104.57630979498862,126.35729847494554,128.4313725490196,149.0,145.0,125.0,121.0,101.0,145.0,125.0,169.0
129,6.45,-0.0019114017486572266,-0.3642723560333252,1.9121143817901611,-0.1042935848236084,-1.5658562183380127,-0.004450082778930664,0.47473472356796265,0.16862642765045166,0.6262072920799255,3.014491825003373,-0.004208489001969941,1.5739582432960462,150.43990929705217,104.90022675736961,126.54028436018957,81.69668246445498,102.44772727272728,104.79545454545455,126.37336244541484,128.58951965065503,149.0,145.0,125.0,121.0,101.0,145.0,125.0,169.0
130,6.5,-0.0019750595092773438,-0.3638031482696533,1.9119083881378174,-0.10497498512268066,-1.5658361911773682,-0.004486799240112305,0.47505396604537964,0.1685972511768341,0.6262086629867554,3.014074122850091,-0.004221136644573845,1.5739359097446903,150.43537414965985,105.04308390022676,126.54502369668246,81.9218009478673,102.4159090909091,104.93863636363636,126.37472766884531,128.8235294117647,149.0,145.0,125.0,121.0,101.0,145.0,125.0,169.0
131,6.550000000000001,-0.0020322799682617188,-0.36331629753112793,1.911672830581665,-0.10563039779663086,-1.5658185482025146,-0.0045146942138671875,0.4753805994987488,0.16857095062732697,0.6262186765670776,3.013670539221582,-0.004233237684227977,1.5739096497587426,150.4162895927602,105.20588235294117,126.53095238095239,82.08571428571429,102.4931506849315,105.11872146118722,126.40434782608696,129.0,149.0,145.0,125.0,121.0,101.0,145.0,125.0,169.0
132,6.6000000000000005,-0.002125978469848633,-0.36290931701660156,1.9115407466888428,-0.10635137557983398,-1.5657804012298584,-0.004595279693603516,0.4756718873977661,0.16852903366088867,0.6262030601501465,3.0132231520246133,-0.004258893452828002,1.57390268808041,150.3922902494331,105.39682539682539,126.5,82.26666666666667,102.50681818181818,105.31363636363636,126.36304347826086,129.2,149.0,145.0,125.0,121.0,101.0,145.0,125.0,169.0
133,6.65,-0.0022132396697998047,-0.3625366687774658,1.9114553928375244,-0.10710573196411133,-1.565748929977417,-0.004679203033447266,0.4759438633918762,0.16848956048488617,0.6261754035949707,3.012755466278565,-0.004276510047291927,1.5739046091101667,150.4467120181406,105.58276643990929,126.5,82.39336492890995,102.4738041002278,105.50797266514806,126.33624454148472,129.37772925764193,149.0,145.0,125.0,121.0,101.0,145.0,125.0,169.0
134,6.7,-0.0022559165954589844,-0.3621230125427246,1.911299467086792,-0.10780858993530273,-1.5657413005828857,-0.004723787307739258,0.4762299358844757,0.16846910119056702,0.6261706948280334,3.0123106076541335,-0.004275920414716064,1.5739094837058387,150.3986332574032,105.81548974943053,126.5,82.60663507109005,102.41913439635535,105.69476082004556,126.30652173913043,129.53478260869565,149.0,145.0,125.0,121.0,101.0,145.0,125.0,169.0
135,6.75,-0.002310037612915039,-0.36167216300964355,1.9111120700836182,-0.10848784446716309,-1.565730333328247,-0.004747629165649414,0.47653695940971375,0.16844354569911957,0.6261669993400574,3.0118952128343133,-0.004281689512301591,1.5738817717954736,150.39455782312925,106.01360544217687,126.5,82.83809523809524,102.43310657596372,105.86621315192744,126.30434782608695,129.73260869565217,149.0,145.0,125.0,121.0,101.0,145.0,125.0,169.0
136,6.800000000000001,-0.002383708953857422,-0.36121535301208496,1.910926103591919,-0.10916376113891602,-1.5657098293304443,-0.00477290153503418,0.47684937715530396,0.1684095859527588,0.6261588335037231,3.0114903034416027,-0.004296668778899835,1.5738376511497048,150.4181818181818,106.11136363636363,126.4869976359338,82.97635933806147,102.43280182232347,106.02277904328018,126.38997821350763,129.87363834422658,149.0,145.0,125.0,121.0,101.0,145.0,125.0,169.0
137,6.8500000000000005,-0.0024869441986083984,-0.3607468605041504,1.9107091426849365,-0.10979652404785156,-1.5656588077545166,-0.004847049713134766,0.4771711528301239,0.16836410760879517,0.6261614561080933,3.011108512923373,-0.0043355657325348865,1.5738163377045702,150.39772727272728,106.28863636363636,126.47971360381861,83.14319809069212,102.41780821917808,106.20319634703196,126.40434782608696,130.10434782608695,149.0,145.0,125.0,121.0,101.0,145.0,125.0,169.0
138,6.9,-0.002608060836791992,-0.3603241443634033,1.9105217456817627,-0.11044073104858398,-1.5655925273895264,-0.004943132400512695,0.4774717092514038,0.16831150650978088,0.6261665225028992,3.0106991182225062,-0.004386309336339207,1.5738013417109789,150.3891402714932,106.42307692307692,126.47743467933492,83.37767220902613,102.42045454545455,106.41136363636363,126.28416485900217,130.28416485900217,149.0,145.0,125.0,121.0,101.0,145.0,125.0,169.0
139,6.95,-0.0025815963745117188,-0.3598339557647705,1.9103243350982666,-0.11110687255859375,-1.5656330585479736,-0.004948139190673828,0.47778478264808655,0.16831940412521362,0.6261495351791382,3.010326138849011,-0.004343119051266469,1.5738290220343465,150.3968253968254,106.69614512471655,126.40855106888361,83.52256532066508,102.41269841269842,106.58956916099773,126.28199566160521,130.47505422993493,149.0,145.0,125.0,121.0,101.0,145.0,125.0,169.0
140,7.0,-0.0026688575744628906,-0.3593904972076416,1.9101269245147705,-0.11174654960632324,-1.5655925273895264,-0.0050048828125,0.4780903458595276,0.16828054189682007,0.6261510252952576,3.009932222564776,-0.004372990780532191,1.5738056382474899,150.38496583143507,106.85649202733485,126.43230403800474,83.69121140142518,102.37954545454545,106.75909090909092,126.27450980392157,130.62745098039215,149.0,145.0,125.0,121.0,101.0,145.0,125.0,169.0
141,7.050000000000001,-0.002724170684814453,-0.35891222953796387,1.9098999500274658,-0.11236715316772461,-1.5655748844146729,-0.005033731460571289,0.47840896248817444,0.16825485229492188,0.6261543035507202,3.00956252225028,-0.004384971529928373,1.5737826784886673,150.38952164009112,107.05466970387243,126.45476190476191,83.86904761904762,102.38127853881278,106.92009132420091,126.29847494553377,130.75816993464053,149.0,145.0,125.0,121.0,101.0,145.0,125.0,169.0
142,7.1000000000000005,-0.0028078556060791016,-0.35840797424316406,1.9096472263336182,-0.11296343803405762,-1.5655405521392822,-0.00506138801574707,0.4787445068359375,0.16821707785129547,0.626159131526947,3.0092180600887137,-0.004413385302700728,1.5737324527846521,150.35827664399093,107.1859410430839,126.41666666666667,84.04285714285714,102.35990888382688,107.09794988610479,126.37608695652175,130.9673913043478,149.0,145.0,125.0,121.0,101.0,145.0,125.0,169.0
143,7.15,-0.0029523372650146484,-0.3579435348510742,1.9094116687774658,-0.11354684829711914,-1.5654547214508057,-0.00516510009765625,0.4790681004524231,0.1681547462940216,0.6261699199676514,3.0088632549361733,-0.004482736840409783,1.5737032458410811,150.3733031674208,107.32805429864253,126.37914691943128,84.19905213270142,102.37214611872146,107.23059360730593,126.3195652173913,131.22608695652173,149.0,145.0,125.0,121.0,101.0,145.0,125.0,169.0
144,7.2,-0.0030846595764160156,-0.35753631591796875,1.9092152118682861,-0.11415624618530273,-1.5653760433197021,-0.005265235900878906,0.4793601632118225,0.1680978536605835,0.6261840462684631,3.0084637050311738,-0.004545446827027942,1.573682853873162,150.36343115124154,107.48306997742664,126.42280285035629,84.3895486935867,102.40182648401826,107.44977168949772,126.23644251626898,131.36008676789587,149.0,145.0,125.0,121.0,101.0,145.0,125.0,169.0
145,7.25,-0.003075838088989258,-0.3570833206176758,1.9090402126312256,-0.11481213569641113,-1.5654041767120361,-0.005278825759887695,0.4796546697616577,0.16809849441051483,0.6261671185493469,3.0080861907941565,-0.0045133430333550795,1.5737032123483414,150.36281179138322,107.73696145124717,126.42992874109264,84.57244655581948,102.36734693877551,107.64625850340136,126.22943722943722,131.5,149.0,145.0,125.0,121.0,101.0,145.0,125.0,169.0
146,7.300000000000001,-0.003092527389526367,-0.3565859794616699,1.9088108539581299,-0.11542201042175293,-1.5654165744781494,-0.005275249481201172,0.47997593879699707,0.1680883765220642,0.626160740852356,3.007744153088463,-0.004499248481749302,1.573682823671982,150.29638009049773,107.92986425339366,126.3806146572104,84.69739952718676,102.34545454545454,107.7909090909091,126.22727272727273,131.66450216450215,149.0,145.0,125.0,121.0,101.0,145.0,125.0,169.0
147,7.3500000000000005,-0.003191709518432617,-0.35616469383239746,1.9086434841156006,-0.11606049537658691,-1.5653736591339111,-0.005326509475708008,0.4802698791027069,0.16804371774196625,0.6261512637138367,3.007359476240494,-0.0045330893415497404,1.5736417184534153,150.3659090909091,108.0409090909091,126.39379474940334,84.89498806682577,102.33333333333333,107.92237442922375,126.29847494553377,131.75816993464053,149.0,145.0,125.0,121.0,101.0,145.0,125.0,169.0
148,7.4,-0.0033044815063476562,-0.3556194305419922,1.908336877822876,-0.11658430099487305,-1.5653135776519775,-0.0053746700286865234,0.48062872886657715,0.16799396276474,0.6261647343635559,3.007074187312846,-0.004584307255221253,1.5735860024911847,150.32199546485262,108.22222222222223,126.35491606714628,85.06954436450839,102.29318181818182,108.07272727272728,126.35076252723312,132.0261437908497,149.0,145.0,125.0,121.0,101.0,145.0,125.0,169.0
149,7.45,-0.00351715087890625,-0.35515809059143066,1.908066987991333,-0.11710548400878906,-1.5651781558990479,-0.0054988861083984375,0.48095884919166565,0.1679033786058426,0.6261924505233765,3.006743324775668,-0.004700456962284112,1.5735162468854618,150.34162895927602,108.36199095022624,126.32380952380953,85.2547619047619,102.33029612756265,108.22323462414579,126.27826086956522,132.2586956521739,149.0,145.0,125.0,121.0,101.0,145.0,125.0,169.0
150,7.5,-0.0036864280700683594,-0.3547251224517822,1.907834768295288,-0.1176602840423584,-1.5650737285614014,-0.005600452423095703,0.4812677800655365,0.16783064603805542,0.6262118816375732,3.006387891245028,-0.004787399937655916,1.5734636972738674,150.34311512415348,108.51467268623024,126.36124401913875,85.38755980861244,102.3424036281179,108.5374149659864,126.18831168831169,132.41774891774892,149.0,145.0,125.0,121.0,101.0,145.0,125.0,169.0
151,7.550000000000001,-0.0036361217498779297,-0.35425782203674316,1.9076316356658936,-0.11827301979064941,-1.5651228427886963,-0.00560307502746582,0.48156070709228516,0.16784927248954773,0.626201331615448,3.00604030217036,-0.004735773978233491,1.5735115934504746,150.35227272727272,108.76136363636364,126.39618138424821,85.56324582338902,102.29772727272727,108.66818181818182,126.18260869565218,132.5,149.0,145.0,125.0,121.0,101.0,145.0,125.0,169.0
152,7.6000000000000005,-0.0036313533782958984,-0.35370564460754395,1.9073312282562256,-0.11881089210510254,-1.5651476383209229,-0.005568742752075195,0.4819048345088959,0.1678484082221985,0.6262087225914001,3.005754614489085,-0.0047142291126942865,1.5734803081957451,150.29638009049773,108.92986425339366,126.33254156769596,85.71971496437055,102.34545454545454,108.7909090909091,126.22727272727273,132.66450216450215,149.0,145.0,125.0,121.0,101.0,145.0,125.0,169.0
153,7.65,-0.003763914108276367,-0.35326433181762695,1.9071381092071533,-0.1193990707397461,-1.5650794506072998,-0.005640268325805664,0.4822118580341339,0.16778934001922607,0.6262005567550659,3.0054136893745564,-0.00477034291938901,1.573429513603377,150.27954545454546,109.00454545454545,126.34128878281624,85.89976133651551,102.27107061503416,108.97038724373576,126.22608695652174,132.7478260869565,149.0,145.0,125.0,121.0,101.0,145.0,125.0,169.0
154,7.7,-0.0038034915924072266,-0.3526914119720459,1.906836748123169,-0.11991643905639648,-1.5650699138641357,-0.005663394927978516,0.4825717508792877,0.16776978969573975,0.6261953711509705,3.0051687495047887,-0.004774906563285826,1.5734152055666313,150.29638009049773,109.23076923076923,126.31503579952268,86.0525059665871,102.2766439909297,109.05215419501134,126.32391304347826,133.02608695652174,149.0,145.0,125.0,121.0,101.0,145.0,125.0,169.0
155,7.75,-0.004048824310302734,-0.35224246978759766,1.9065706729888916,-0.12041330337524414,-1.5649116039276123,-0.0057985782623291016,0.4828987419605255,0.1676650196313858,0.6262230277061462,3.004852926223095,-0.004911618345147312,1.573326517038954,150.2721088435374,109.34013605442176,126.29523809523809,86.21666666666667,102.30593607305936,109.2351598173516,126.18614718614718,133.28354978354977,149.0,145.0,125.0,121.0,101.0,145.0,125.0,169.0
156,7.800000000000001,-0.004150867462158203,-0.3518526554107666,1.9064061641693115,-0.12101197242736816,-1.5648577213287354,-0.005869626998901367,0.48317354917526245,0.16761964559555054,0.6262208819389343,3.0044788783121725,-0.00495239864069204,1.5733046174161367,150.3108108108108,109.44594594594595,126.30861244019138,86.377990430622,102.289592760181,109.53393665158372,126.16198704103672,133.41684665226782,149.0,145.0,125.0,121.0,101.0,145.0,125.0,169.0
157,7.8500000000000005,-0.004065275192260742,-0.3513517379760742,1.9061686992645264,-0.12157726287841797,-1.5649254322052002,-0.005867719650268555,0.4834764897823334,0.16765336692333221,0.626211404800415,3.0041779987890727,-0.004883328035093196,1.573380720746114,150.33863636363637,109.725,126.26730310262529,86.51312649164677,102.27210884353741,109.65986394557824,126.12987012987013,133.5,149.0,145.0,125.0,121.0,101.0,145.0,125.0,169.0
158,7.9,-0.004088640213012695,-0.3508145809173584,1.905860185623169,-0.12207484245300293,-1.5649211406707764,-0.005869865417480469,0.4838147759437561,0.1676410585641861,0.6262256503105164,3.0039101003004838,-0.004884994869877346,1.5733617573784906,150.2766439909297,109.91156462585035,126.3047619047619,86.71666666666667,102.24660633484163,109.79638009049773,126.1598272138229,133.6328293736501,149.0,145.0,125.0,121.0,101.0,145.0,125.0,169.0
159,7.95,-0.004157066345214844,-0.3502678871154785,1.9055569171905518,-0.12257099151611328,-1.5648930072784424,-0.00587916374206543,0.4841644763946533,0.16760919988155365,0.6262310743331909,3.00365748494634,-0.004909902557091457,1.573307363265215,150.26984126984127,109.9795918367347,126.26428571428572,86.88809523809523,102.24429223744292,109.96575342465754,126.20173535791757,133.73752711496746,149.0,145.0,125.0,121.0,101.0,145.0,125.0,169.0
160,8.0,-0.004214763641357422,-0.3496718406677246,1.9052202701568604,-0.1230316162109375,-1.5648648738861084,-0.005919456481933594,0.4845369756221771,0.16758228838443756,0.6262311935424805,3.003456438550448,-0.004931040017350942,1.5732943718616739,150.21896162528216,110.16704288939052,126.21904761904761,87.0,102.2255125284738,110.03644646924829,126.27155172413794,134.06034482758622,149.0,145.0,125.0,121.0,101.0,145.0,125.0,169.0
161,8.05,-0.004464149475097656,-0.34928417205810547,1.9050061702728271,-0.12353754043579102,-1.5646965503692627,-0.006088972091674805,0.4848307967185974,0.16747567057609558,0.6262531280517578,3.0031211895084606,-0.005072708101387324,1.573237635803716,150.27828054298644,110.31447963800905,126.27142857142857,87.19285714285714,102.24027459954233,110.19450800915332,126.18614718614718,134.28354978354977,149.0,145.0,125.0,121.0,101.0,145.0,125.0,169.0
162,8.1,-0.004583120346069336,-0.3488490581512451,1.904759168624878,-0.12404537200927734,-1.564624547958374,-0.00615382194519043,0.4851292073726654,0.1674235761165619,0.626274585723877,3.0028004993539565,-0.00513299800705868,1.5731943943597908,150.28442437923252,110.44018058690745,126.26201923076923,87.3485576923077,102.25454545454545,110.44545454545455,126.10129310344827,134.38793103448276,149.0,145.0,125.0,121.0,101.0,145.0,125.0,169.0
163,8.15,-0.004542350769042969,-0.348341703414917,1.9045007228851318,-0.12457108497619629,-1.5646650791168213,-0.006143093109130859,0.4854412078857422,0.167438343167305,0.6262714862823486,3.0025245256114417,-0.005091682281291854,1.573220669256532,150.3054298642534,110.6289592760181,126.26730310262529,87.51312649164677,102.27313769751693,110.60722347629797,126.12987012987013,134.5,149.0,145.0,125.0,121.0,101.0,145.0,125.0,169.0
164,8.200000000000001,-0.004538774490356445,-0.3478062152862549,1.9042127132415771,-0.12506628036499023,-1.5646817684173584,-0.006143093109130859,0.4857724905014038,0.16743715107440948,0.626270592212677,3.0022779385439646,-0.005073648125559798,1.5732233486378777,150.26818181818183,110.88636363636364,126.28776978417267,87.64028776978417,102.22121896162528,110.78781038374717,126.07775377969763,134.60043196544277,149.0,145.0,125.0,121.0,101.0,145.0,125.0,169.0
165,8.25,-0.004535675048828125,-0.3472440242767334,1.9039013385772705,-0.1255502700805664,-1.5647060871124268,-0.006099700927734375,0.4861180782318115,0.1674349159002304,0.6262717843055725,3.0020453904570217,-0.005054054981223927,1.573181275321604,150.2255125284738,110.96355353075171,126.21666666666667,87.81666666666666,102.19817767653758,110.85876993166288,126.14285714285714,134.69480519480518,149.0,145.0,125.0,121.0,101.0,145.0,125.0,169.0
166,8.3,-0.004651069641113281,-0.3466672897338867,1.903562307357788,-0.12598276138305664,-1.5646417140960693,-0.0061419010162353516,0.4864877462387085,0.16738301515579224,0.6262785196304321,3.00185032979189,-0.005110518835679049,1.5731173185417044,150.17194570135746,111.10407239819004,126.19047619047619,87.95714285714286,102.1986301369863,111.04109589041096,126.1431623931624,134.94444444444446,149.0,145.0,125.0,121.0,101.0,145.0,125.0,169.0
167,8.35,-0.004768848419189453,-0.34619927406311035,1.9033286571502686,-0.12648439407348633,-1.564573049545288,-0.0062258243560791016,0.4868014454841614,0.16733063757419586,0.6262731552124023,3.001582260542593,-0.005165527743138429,1.5730932845004972,150.22121896162528,111.21218961625283,126.17339667458432,88.06413301662708,102.1448275862069,111.09655172413792,126.13333333333334,135.25591397849462,149.0,145.0,125.0,121.0,101.0,145.0,125.0,169.0
168,8.4,-0.004913806915283203,-0.3457956314086914,1.9030711650848389,-0.1269514560699463,-1.5644724369049072,-0.006315708160400391,0.4870859384536743,0.1672682911157608,0.626312255859375,3.0012594958409804,-0.0052501736329734995,1.573053296978918,150.24774774774775,111.38288288288288,126.2153110047847,88.23684210526316,102.18451025056947,111.34851936218679,126.10129310344827,135.38793103448276,149.0,145.0,125.0,121.0,101.0,145.0,125.0,169.0
169,8.450000000000001,-0.0049359798431396484,-0.34534120559692383,1.9028127193450928,-0.1274404525756836,-1.564462423324585,-0.006340503692626953,0.48737818002700806,0.16725707054138184,0.6263296008110046,3.00096736002682,-0.00525407031753555,1.5730590438415286,150.2449438202247,111.53033707865168,126.14903846153847,88.44951923076923,102.2312925170068,111.58276643990929,126.09935205183585,135.44708423326134,149.0,145.0,125.0,121.0,101.0,145.0,125.0,169.0
170,8.5,-0.004945039749145508,-0.34481191635131836,1.9025309085845947,-0.12790751457214355,-1.5644614696502686,-0.006385087966918945,0.4877057671546936,0.16725102066993713,0.6263231039047241,3.000748076602931,-0.005246877771483312,1.5730955588670552,150.28473804100227,111.78132118451025,126.1923076923077,88.53365384615384,102.19683257918552,111.68099547511312,126.07775377969763,135.60043196544277,149.0,145.0,125.0,121.0,101.0,145.0,125.0,169.0
171,8.55,-0.0050067901611328125,-0.34429168701171875,1.902205228805542,-0.12833690643310547,-1.5644280910491943,-0.006397247314453125,0.4880378246307373,0.16722247004508972,0.6263470649719238,3.000513091461837,-0.005276980417454035,1.5730512278222322,150.23006833712984,111.93394077448747,126.17985611510791,88.71462829736211,102.15227272727273,111.81136363636364,126.08189655172414,135.64008620689654,149.0,145.0,125.0,121.0,101.0,145.0,125.0,169.0
172,8.6,-0.0051043033599853516,-0.3436911106109619,1.9018218517303467,-0.12871909141540527,-1.5643737316131592,-0.00640869140625,0.48841592669487,0.16717830300331116,0.626366138458252,3.0003480997451364,-0.005327780284102576,1.5729738693890514,150.1768707482993,111.98639455782313,126.17966903073287,88.88652482269504,102.14123006833712,111.99316628701594,126.12903225806451,135.78279569892473,149.0,145.0,125.0,121.0,101.0,145.0,125.0,169.0
173,8.65,-0.005153656005859375,-0.3430824279785156,1.9014637470245361,-0.12911677360534668,-1.5643494129180908,-0.0064427852630615234,0.48878970742225647,0.16715474426746368,0.6263652443885803,3.0002008316410147,-0.005346716441076413,1.5729625846172939,150.1950113378685,112.1655328798186,126.17535545023696,89.0,102.15366972477064,112.0711009174312,126.09787234042552,136.11063829787233,149.0,145.0,125.0,121.0,101.0,145.0,125.0,169.0
174,8.700000000000001,-0.0052564144134521484,-0.34262728691101074,1.901198148727417,-0.12957024574279785,-1.564286470413208,-0.006498575210571289,0.4890929162502289,0.16710889339447021,0.6263823509216309,2.9999355744227736,-0.005399159502618794,1.5729250951881355,150.22247191011235,112.26516853932584,126.19761904761904,89.13333333333334,102.16820276497695,112.17050691244239,126.09482758620689,136.3168103448276,149.0,145.0,125.0,121.0,101.0,145.0,125.0,169.0
175,8.75,-0.005335569381713867,-0.34220242500305176,1.9009497165679932,-0.13003778457641602,-1.5642387866973877,-0.006541252136230469,0.4893767535686493,0.1670733541250229,0.6264036893844604,2.999643928519434,-0.005438060119001532,1.5728968965402925,150.24269662921347,112.40898876404495,126.17788461538461,89.3125,102.17045454545455,112.40227272727273,126.02580645161291,136.4,149.0,145.0,125.0,121.0,101.0,145.0,125.0,169.0
176,8.8,-0.005296230316162109,-0.34166550636291504,1.9006359577178955,-0.13047552108764648,-1.5642750263214111,-0.006514072418212891,0.48970043659210205,0.1670876443386078,0.6264111995697021,2.9994301329679534,-0.005403441325167287,1.572905930460585,150.19864559819413,112.60270880361173,126.12048192771084,89.45060240963855,102.17155756207674,112.63205417607223,126.01295896328294,136.52267818574515,149.0,145.0,125.0,121.0,101.0,145.0,125.0,169.0
177,8.85,-0.005271434783935547,-0.3411531448364258,1.9003636837005615,-0.1309356689453125,-1.564300298690796,-0.0065212249755859375,0.49001285433769226,0.16709552705287933,0.6264052391052246,2.9992111987345753,-0.005375652357310084,1.5729353215216244,150.20728929384967,112.82687927107061,126.09375,89.5576923076923,102.16742081447964,112.76244343891403,126.05172413793103,136.60344827586206,149.0,145.0,125.0,121.0,101.0,145.0,125.0,169.0
178,8.9,-0.0053708553314208984,-0.34064626693725586,1.9000627994537354,-0.1313493251800537,-1.5642378330230713,-0.006579399108886719,0.4903411269187927,0.16705086827278137,0.6264153122901917,2.9990032164016283,-0.005428280855972767,1.5729032250951402,150.17995444191345,112.95444191343964,126.17067307692308,89.74038461538461,102.10478359908883,112.874715261959,126.09482758620689,136.6831896551724,149.0,145.0,125.0,121.0,101.0,145.0,125.0,169.0
179,8.950000000000001,-0.00545811653137207,-0.34003758430480957,1.8996717929840088,-0.13170075416564941,-1.5641882419586182,-0.006597280502319336,0.4907195270061493,0.16701076924800873,0.6264302134513855,2.998870160247873,-0.005473981164031575,1.5728415645946565,150.16289592760182,113.00904977375566,126.13776722090262,89.90973871733966,102.11415525114155,112.99086757990868,126.08704883227176,136.91295116772824,149.0,145.0,125.0,121.0,101.0,145.0,125.0,169.0
180,9.0,-0.005521059036254883,-0.3394770622253418,1.8993313312530518,-0.13208413124084473,-1.564150094985962,-0.006634950637817383,0.49106916785240173,0.1669815629720688,0.6264379024505615,2.9987061112175266,-0.00550432565003709,1.5728223604679834,150.2058823529412,113.19004524886878,126.12351543942992,90.04750593824228,102.0919540229885,113.08505747126436,126.04264392324095,137.24520255863538,149.0,145.0,125.0,121.0,101.0,145.0,125.0,169.0
181,9.05,-0.005612373352050781,-0.3390061855316162,1.8990089893341064,-0.13247036933898926,-1.564087152481079,-0.006669759750366211,0.4913768470287323,0.16694125533103943,0.6264777779579163,2.9984674447561703,-0.005560176233908343,1.5727756226097336,150.22247191011235,113.26516853932584,126.15,90.11428571428571,102.04838709677419,113.25806451612904,126.04935622317596,137.38841201716738,149.0,145.0,125.0,121.0,101.0,145.0,125.0,169.0
182,9.1,-0.005602598190307617,-0.3385133743286133,1.8986566066741943,-0.1328413486480713,-1.564087152481079,-0.006667613983154297,0.49168047308921814,0.16694457828998566,0.6265252828598022,2.9982365329958585,-0.00555919165291873,1.5727846675040034,150.21621621621622,113.41216216216216,126.15347721822542,90.32613908872902,102.11764705882354,113.48642533936652,126.02580645161291,137.4,149.0,145.0,125.0,121.0,101.0,145.0,125.0,169.0
183,9.15,-0.0055141448974609375,-0.33791589736938477,1.8982903957366943,-0.13322019577026367,-1.5641529560089111,-0.0066263675689697266,0.49202585220336914,0.16697998344898224,0.6265312433242798,2.998091079426888,-0.0054977890894299325,1.5728237741141216,150.1764705882353,113.61764705882354,126.06714628297362,90.45083932853717,102.17155756207674,113.63205417607223,126.02155172413794,137.54741379310346,149.0,145.0,125.0,121.0,101.0,145.0,125.0,169.0
184,9.200000000000001,-0.0055522918701171875,-0.3374364376068115,1.8980357646942139,-0.13365602493286133,-1.5641329288482666,-0.0066792964935302734,0.49232879281044006,0.16696125268936157,0.6265246272087097,2.997879591345094,-0.0055096675243674394,1.572841836407425,150.18949771689498,113.84703196347031,126.09375,90.5576923076923,102.16742081447964,113.76244343891403,126.02580645161291,137.6,149.0,145.0,125.0,121.0,101.0,145.0,125.0,169.0
185,9.25,-0.005648136138916016,-0.33692359924316406,1.8977391719818115,-0.13405513763427734,-1.564077615737915,-0.006720781326293945,0.49265792965888977,0.16691718995571136,0.6265267133712769,2.997695853927924,-0.005556224347930123,1.572796155841464,150.10502283105023,113.95205479452055,126.15625,90.69951923076923,102.10478359908883,113.874715261959,126.0,137.73987206823028,149.0,145.0,125.0,121.0,101.0,145.0,125.0,169.0
186,9.3,-0.005678415298461914,-0.3364074230194092,1.8974668979644775,-0.13448858261108398,-1.5640766620635986,-0.0067119598388671875,0.4929787516593933,0.16690075397491455,0.6265138387680054,2.997506466760339,-0.005557297620306564,1.5727581737195315,150.1266968325792,114.02941176470588,126.13776722090262,90.90973871733966,102.02752293577981,114.0,126.03594080338266,137.91331923890064,149.0,145.0,125.0,121.0,101.0,145.0,125.0,169.0
187,9.35,-0.005700349807739258,-0.3357818126678467,1.8970568180084229,-0.13480687141418457,-1.5640690326690674,-0.006695747375488281,0.49335455894470215,0.16688883304595947,0.6265285611152649,2.997404428091463,-0.005566098320882959,1.5727216699531452,150.16968325791856,114.15158371040724,126.12351543942992,90.99524940617577,102.05045871559633,114.04816513761467,126.02553191489362,138.22553191489362,149.0,145.0,125.0,121.0,101.0,145.0,125.0,169.0
188,9.4,-0.0057773590087890625,-0.3353102207183838,1.8967301845550537,-0.13517069816589355,-1.5640170574188232,-0.006716251373291016,0.49365901947021484,0.1668541431427002,0.6265665888786316,2.9971849340926915,-0.005613533349160233,1.5726740741100826,150.22247191011235,114.26516853932584,126.13776722090262,91.09026128266034,102.03218390804598,114.2367816091954,126.02580645161291,138.4,149.0,145.0,125.0,121.0,101.0,145.0,125.0,169.0
189,9.450000000000001,-0.005768775939941406,-0.33481478691101074,1.896362543106079,-0.13550877571105957,-1.564016580581665,-0.006701469421386719,0.4939625859260559,0.16685697436332703,0.6266183257102966,2.9969749669845966,-0.005614062191658278,1.572669289584844,150.19325842696628,114.39775280898877,126.1462829736211,91.27338129496403,102.06561085972851,114.41855203619909,126.0,138.4051724137931,149.0,145.0,125.0,121.0,101.0,145.0,125.0,169.0
190,9.5,-0.005700826644897461,-0.3342247009277344,1.895977258682251,-0.1358492374420166,-1.5640690326690674,-0.006648063659667969,0.49430620670318604,0.16688375174999237,0.6266357898712158,2.996840534798316,-0.005568399377267264,1.5726775097649301,150.1505617977528,114.55505617977528,126.06714628297362,91.45083932853717,102.13378684807256,114.59637188208617,126.0,138.54935622317598,149.0,145.0,125.0,121.0,101.0,145.0,125.0,169.0
191,9.55,-0.005696773529052734,-0.3337087631225586,1.8956935405731201,-0.13624906539916992,-1.5640795230865479,-0.00667119026184082,0.49461981654167175,0.16688275337219238,0.6266258358955383,2.996673744541715,-0.005554370305780625,1.5727035837938657,150.14965986394557,114.77324263038548,126.0,91.5,102.16289592760181,114.710407239819,126.0,138.5948275862069,149.0,145.0,125.0,121.0,101.0,145.0,125.0,169.0
192,9.600000000000001,-0.005834102630615234,-0.3332521915435791,1.8954427242279053,-0.13664722442626953,-1.5639903545379639,-0.006764650344848633,0.4949239194393158,0.16682124137878418,0.6266227960586548,2.9964797697465166,-0.005627283684200581,1.5726728216294588,150.10502283105023,114.95205479452055,126.10336538461539,91.61057692307692,102.07762557077625,114.87671232876713,125.98076923076923,138.72222222222223,149.0,145.0,125.0,121.0,101.0,145.0,125.0,169.0
193,9.65,-0.00588226318359375,-0.33275437355041504,1.8951609134674072,-0.13704323768615723,-1.5639712810516357,-0.0067713260650634766,0.49523627758026123,0.16679754853248596,0.6266201138496399,2.9962999312908383,-0.005644091949449577,1.5726350923622359,150.1360544217687,115.00453514739229,126.15676959619952,91.85985748218528,102.0183066361556,114.97482837528604,126.0,138.8778947368421,149.0,145.0,125.0,121.0,101.0,145.0,125.0,169.0
194,9.700000000000001,-0.00585174560546875,-0.3320934772491455,1.8947231769561768,-0.13733267784118652,-1.5640060901641846,-0.006705522537231445,0.49562087655067444,0.1668076068162918,0.6266315579414368,2.9962351645109946,-0.005618680784087115,1.5725959570546317,150.14512471655328,115.09977324263039,126.12351543942992,91.95249406175772,102.05045871559633,115.04816513761467,126.0,139.1221052631579,149.0,145.0,125.0,121.0,101.0,145.0,125.0,169.0
195,9.75,-0.005867719650268555,-0.33156585693359375,1.894380807876587,-0.13767695426940918,-1.5640032291412354,-0.006691932678222656,0.49594366550445557,0.1667981743812561,0.6266494393348694,2.9960760878422006,-0.005622664714087935,1.5725673766090038,150.1941309255079,115.24153498871331,126.11611374407583,92.07345971563981,102.02522935779817,115.12614678899082,125.97430406852249,139.37687366167023,149.0,145.0,125.0,121.0,101.0,145.0,125.0,169.0
196,9.8,-0.005903720855712891,-0.33107852935791016,1.8940179347991943,-0.13799715042114258,-1.563978910446167,-0.006669521331787109,0.496248722076416,0.1667810082435608,0.6266988515853882,2.9958802246611986,-0.0056475401246255975,1.5725142619170067,150.19101123595505,115.34606741573033,126.14489311163895,92.17814726840855,101.98177676537586,115.33485193621868,126.0,139.4051724137931,149.0,145.0,125.0,121.0,101.0,145.0,125.0,169.0
197,9.850000000000001,-0.0058498382568359375,-0.33047986030578613,1.8935720920562744,-0.13826441764831543,-1.5640151500701904,-0.00660395622253418,0.4965972602367401,0.16680274903774261,0.6267432570457458,2.995767033216455,-0.005619830081153995,1.5724991057378768,150.1275167785235,115.47874720357942,126.08851674641149,92.37320574162679,102.02483069977427,115.51015801354401,126.0,139.5,149.0,145.0,125.0,121.0,101.0,145.0,125.0,169.0
198,9.9,-0.005825519561767578,-0.32989501953125,1.8931901454925537,-0.13857126235961914,-1.564035177230835,-0.0065860748291015625,0.496942400932312,0.1668110340833664,0.6267555952072144,2.9956637714799923,-0.005602032463641011,1.572503403341216,150.11011235955056,115.63820224719102,126.0,92.5,102.0840909090909,115.67045454545455,125.97419354838709,139.6,149.0,145.0,125.0,121.0,101.0,145.0,125.0,169.0
199,9.950000000000001,-0.0058596134185791016,-0.3293638229370117,1.8928778171539307,-0.1389157772064209,-1.5640156269073486,-0.006627082824707031,0.4972677230834961,0.1667938232421875,0.6267499923706055,2.995538039288066,-0.005615119496105485,1.5725131120292226,150.14383561643837,115.87442922374429,126.0,92.5,102.07551487414187,115.8283752860412,125.93147751605996,139.62955032119913,149.0,145.0,125.0,121.0,101.0,145.0,125.0,169.0
200,10.0,-0.005910396575927734,-0.3288285732269287,1.8925392627716064,-0.13924050331115723,-1.5639870166778564,-0.006642580032348633,0.497597873210907,0.16676926612854004,0.6267585754394531,2.995409790798178,-0.005640128486102261,1.572482316565793,150.10502283105023,115.95205479452055,126.12918660287082,92.71291866028709,102.05022831050228,115.92237442922375,125.98945147679325,139.85443037974684,149.0,145.0,125.0,121.0,101.0,145.0,125.0,169.0
201,10.05,-0.005901813507080078,-0.3282935619354248,1.8922197818756104,-0.13959217071533203,-1.564007043838501,-0.0066165924072265625,0.4979190230369568,0.16676999628543854,0.6267567873001099,2.9952745229088205,-0.005623166229244351,1.572463083086602,150.1266968325792,116.02941176470588,126.11611374407583,92.92654028436019,102.03661327231121,116.02517162471396,125.96405919661734,140.08668076109936,149.0,145.0,125.0,121.0,101.0,145.0,125.0,169.0
202,10.100000000000001,-0.00585174560546875,-0.3277266025543213,1.8918616771697998,-0.13991641998291016,-1.5640528202056885,-0.00656437873840332,0.49825066328048706,0.16678887605667114,0.626762866973877,2.9951605337787,-0.005584211842396256,1.5724561217779047,150.14285714285714,116.14739229024943,126.10663507109005,92.9739336492891,102.00228832951944,116.11212814645309,125.95735607675905,140.24520255863538,149.0,145.0,125.0,121.0,101.0,145.0,125.0,169.0
203,10.15,-0.005820751190185547,-0.32720446586608887,1.8915021419525146,-0.1402292251586914,-1.5640785694122314,-0.00652003288269043,0.4985618591308594,0.1668001413345337,0.6267905235290527,2.9950102100157934,-0.005564038535012334,1.5724400037529374,150.16930022573362,116.26410835214448,126.11611374407583,93.07345971563981,101.94736842105263,116.21281464530892,125.97419354838709,140.4,149.0,145.0,125.0,121.0,101.0,145.0,125.0,169.0
204,10.200000000000001,-0.005797386169433594,-0.3266575336456299,1.8910744190216064,-0.14048266410827637,-1.5640919208526611,-0.00646662712097168,0.4988872706890106,0.16680902242660522,0.6268454194068909,2.99487699964123,-0.005557924446913756,1.5724091124704331,150.19325842696628,116.39775280898877,126.07398568019093,93.25059665871122,101.92727272727272,116.37727272727273,125.96137339055794,140.42274678111588,149.0,145.0,125.0,121.0,101.0,145.0,125.0,169.0
205,10.25,-0.005761623382568359,-0.3259568214416504,1.8905136585235596,-0.14063382148742676,-1.564112901687622,-0.0063877105712890625,0.49928972125053406,0.16682283580303192,0.6269036531448364,2.9948666151885948,-0.005548204942002096,1.5723641710810659,150.1118568232662,116.51901565995526,126.06698564593302,93.42344497607655,102.04524886877829,116.52714932126698,125.97430406852249,140.5546038543897,149.0,145.0,125.0,121.0,101.0,145.0,125.0,169.0
206,10.3,-0.005753278732299805,-0.32538652420043945,1.8901546001434326,-0.14093518257141113,-1.5641276836395264,-0.0063724517822265625,0.49962782859802246,0.16682370007038116,0.6269044876098633,2.9947776193309785,-0.005535615560730571,1.572355464475503,150.1123595505618,116.68539325842697,126.0,93.5,102.0840909090909,116.67045454545455,125.95064377682404,140.61158798283262,149.0,145.0,125.0,121.0,101.0,145.0,125.0,169.0
207,10.350000000000001,-0.005801677703857422,-0.3248472213745117,1.8898289203643799,-0.1412487030029297,-1.564103364944458,-0.00639796257019043,0.4999580681324005,0.1667998731136322,0.6268993616104126,2.994677546417118,-0.005555886850980581,1.5723362450427592,150.09610983981693,116.92677345537757,126.0,93.5,102.05034324942791,116.87643020594966,125.91434689507494,140.72591006423983,149.0,145.0,125.0,121.0,101.0,145.0,125.0,169.0
208,10.4,-0.005846500396728516,-0.32438063621520996,1.8895504474639893,-0.14159631729125977,-1.5640795230865479,-0.006416797637939453,0.5002505779266357,0.16677792370319366,0.6269016265869141,2.994517263376243,-0.005574487513769307,1.572314579389056,150.10502283105023,116.95205479452055,126.07398568019093,93.74940334128878,101.94954128440367,116.95183486238533,125.96436058700209,140.9140461215933,149.0,145.0,125.0,121.0,101.0,145.0,125.0,169.0
209,10.450000000000001,-0.005818843841552734,-0.32375478744506836,1.8891046047210693,-0.14182400703430176,-1.5641028881072998,-0.006367683410644531,0.5006141066551208,0.1667877435684204,0.6269258260726929,2.9944705530065927,-0.005558296990636636,1.5722905306261212,150.14446952595938,117.04966139954853,126.11611374407583,93.92654028436019,101.9816933638444,117.02517162471396,125.9746835443038,141.126582278481,149.0,145.0,125.0,121.0,101.0,145.0,125.0,169.0
210,10.5,-0.005780458450317383,-0.32314109802246094,1.888662576675415,-0.14205622673034668,-1.5641357898712158,-0.006301164627075195,0.5009703040122986,0.16680215299129486,0.626953661441803,2.994411704748787,-0.005534775071054823,1.572258735644466,150.1159090909091,117.15,126.10663507109005,93.9739336492891,101.92237442922375,117.12328767123287,125.93162393162393,141.3440170940171,149.0,145.0,125.0,121.0,101.0,145.0,125.0,169.0
211,10.55,-0.00571131706237793,-0.3226180076599121,1.8882744312286377,-0.14232802391052246,-1.564185380935669,-0.006226778030395508,0.5012747049331665,0.16683076322078705,0.626994788646698,2.994274664673443,-0.005495936837541279,1.5722478272148412,150.16666666666666,117.29054054054055,126.09219858156028,94.08747044917257,101.90681818181818,117.24772727272727,125.97419354838709,141.4,149.0,145.0,125.0,121.0,101.0,145.0,125.0,169.0
212,10.600000000000001,-0.005692481994628906,-0.32201075553894043,1.8877756595611572,-0.1425004005432129,-1.5641930103302002,-0.006165504455566406,0.5016305446624756,0.16683778166770935,0.6270574331283569,2.9942117315952497,-0.005497003431985987,1.5722053757693424,150.16331096196868,117.4407158836689,126.06650831353919,94.19952494061758,101.9502262443439,117.42307692307692,125.97430406852249,141.4453961456103,149.0,145.0,125.0,121.0,101.0,145.0,125.0,169.0
213,10.65,-0.005680084228515625,-0.32139158248901367,1.8872954845428467,-0.1426835060119629,-1.564199686050415,-0.006120204925537109,0.501992404460907,0.16684149205684662,0.6271023154258728,2.9941683063425506,-0.005496924842923768,1.5721719976933601,150.1118568232662,117.51901565995526,126.06698564593302,94.42344497607655,102.01801801801801,117.53603603603604,125.96137339055794,141.57725321888412,149.0,145.0,125.0,121.0,101.0,145.0,125.0,169.0
214,10.700000000000001,-0.005645036697387695,-0.3207874298095703,1.886897325515747,-0.14293622970581055,-1.5642330646514893,-0.0060787200927734375,0.5023426413536072,0.16685402393341064,0.6271063089370728,2.994122845108713,-0.005468752789039162,1.5721616561665226,150.10538116591928,117.71076233183857,126.0,94.5,102.0840909090909,117.67045454545455,125.93147751605996,141.62955032119913,149.0,145.0,125.0,121.0,101.0,145.0,125.0,169.0
215,10.75,-0.005696296691894531,-0.3202478885650635,1.8865716457366943,-0.14322924613952637,-1.5642101764678955,-0.00609135627746582,0.502672016620636,0.1668286919593811,0.6270970106124878,2.9940434852154936,-0.0054895601653461665,1.572126548896665,150.0568181818182,117.86136363636363,126.0,94.5,102.0228310502283,117.87671232876713,125.94680851063829,141.77872340425532,149.0,145.0,125.0,121.0,101.0,145.0,125.0,169.0
216,10.8,-0.00571894645690918,-0.31980347633361816,1.886315107345581,-0.14356780052185059,-1.5641977787017822,-0.006125211715698242,0.5029474496841431,0.16681665182113647,0.6270930171012878,2.993892460076036,-0.0054955732810323624,1.5721399576355373,150.10502283105023,117.95205479452055,126.08809523809524,94.68095238095238,101.94954128440367,117.95183486238533,125.96450939457202,141.96450939457202,149.0,145.0,125.0,121.0,101.0,145.0,125.0,169.0
217,10.850000000000001,-0.0056765079498291016,-0.3192424774169922,1.8859155178070068,-0.14380884170532227,-1.5642311573028564,-0.006075382232666016,0.5032739639282227,0.16683326661586761,0.6271175146102905,2.9938137660363116,-0.00546968537805493,1.5721286256798583,150.1266968325792,118.02941176470588,126.04018912529551,94.84397163120568,101.95216400911161,118.01822323462414,125.9746835443038,142.126582278481,149.0,145.0,125.0,121.0,101.0,145.0,125.0,169.0
218,10.9,-0.005687713623046875,-0.31867265701293945,1.8854830265045166,-0.14400792121887207,-1.5642192363739014,-0.006058692932128906,0.5036130547523499,0.166826993227005,0.6271553635597229,2.9937528374547067,-0.005483043806784718,1.5721032153441927,150.1159090909091,118.15,126.09929078014184,94.94799054373523,101.92237442922375,118.12328767123287,125.91471215351812,142.32409381663112,149.0,145.0,125.0,121.0,101.0,145.0,125.0,169.0
219,10.950000000000001,-0.005604743957519531,-0.3181319236755371,1.8850815296173096,-0.14425086975097656,-1.564281702041626,-0.0059680938720703125,0.5039231777191162,0.16686154901981354,0.6271914839744568,2.9936495714287075,-0.005434073288043454,1.5720879451494336,150.16930022573362,118.26410835214448,126.09929078014184,95.05200945626477,101.85746606334841,118.26244343891403,125.95064377682404,142.38841201716738,149.0,145.0,125.0,121.0,101.0,145.0,125.0,169.0
220,11.0,-0.005512714385986328,-0.3174588680267334,1.884516954421997,-0.1443624496459961,-1.564340353012085,-0.0058536529541015625,0.5043004751205444,0.16690069437026978,0.6272576451301575,2.9936480875288,-0.00539231129979642,1.5720583000490311,150.18609865470853,118.37219730941705,126.06603773584905,95.09669811320755,101.91156462585035,118.35600907029479,125.97430406852249,142.4453961456103,149.0,145.0,125.0,121.0,101.0,145.0,125.0,169.0
221,11.05,-0.005486726760864258,-0.31684184074401855,1.8840010166168213,-0.14449477195739746,-1.5643503665924072,-0.005795001983642578,0.5046583414077759,0.1669112741947174,0.6273208856582642,2.9936180907552825,-0.005391048561846882,1.5720249939419013,150.14922048997772,118.48329621380846,126.07875894988067,95.29355608591885,101.97516930022573,118.48984198645599,125.97430406852249,142.5546038543897,149.0,145.0,125.0,121.0,101.0,145.0,125.0,169.0
222,11.100000000000001,-0.005445718765258789,-0.31623196601867676,1.8835499286651611,-0.1446819305419922,-1.5643818378448486,-0.005738735198974609,0.5050094127655029,0.16692735254764557,0.6273489594459534,2.9935906274683304,-0.005367980189080557,1.5720058853374717,150.11011235955056,118.63820224719102,126.04086538461539,95.46153846153847,102.06108597285068,118.6447963800905,125.93147751605996,142.62955032119913,149.0,145.0,125.0,121.0,101.0,145.0,125.0,169.0
