AI-SPARC/uncalibrated-visual-servoing/results/data/4_feat_kf.csv
,t,q_1,q_2,q_3,q_4,q_5,q_6,camera_x,camera_y,camera_z,camera_roll,camera_pitch,camera_yaw,f_1,f_2,f_3,f_4,f_5,f_6,f_7,f_8,desired_f_1,desired_f_2,desired_f_3,desired_f_4,desired_f_5,desired_f_6,desired_f_7,desired_f_8,noise_1,noise_2,noise_3,noise_4,noise_5,noise_6,noise_7,noise_8
0,0.0,9.361875081825843e-06,-0.3926333301083327,1.9634954084936185,7.252088425691028e-05,-1.5707955582218611,2.220446049250313e-15,0.4463258536086648,0.16906234102687412,0.592161801541222,-3.141307158888575,0.00012241039484984628,1.5708380808617421,151.05680171461992,65.33125101459177,120.48293339638053,44.09022942430376,99.61686642657749,65.28622076991928,130.1131175287212,87.11150283445855,149.0,145.0,125.0,121.0,101.0,145.0,125.0,169.0,-0.3559562591136578,-0.22597224994857068,-4.9365422590501895,4.509705079734469,0.18077620101356612,-0.2776890045168014,4.700359554987641,-4.44572043008179
1,0.05,-0.0035712834841321595,-0.391126224623485,1.9609526511304214,0.0019895478829945468,-1.568410076683442,-0.00325092953147621,0.44767624849427823,0.16767088913125677,0.5930003162593886,-3.140425907374691,-0.0022750503910919455,1.5705013121944262,151.68495697112883,65.92838420271995,120.65489745452038,39.776718177490864,104.6140204641673,65.71152848273947,125.58198762472513,92.06447334340656,149.0,145.0,125.0,121.0,101.0,145.0,125.0,169.0,0.3159321145322776,0.039282864287828435,-4.753148522491109,-0.22328182250913808,5.114020464167295,-0.28847151726053366,0.16707366679014607,0.19258041797634876
2,0.1,-0.005339666800896925,-0.39352574104720883,1.9629122435033652,-7.79368796930413e-05,-1.5673143946435735,-0.005187273113723467,0.4468573319113417,0.1669806069665203,0.5929639762259789,3.140231846824001,-0.0033600864711689775,1.5706774143524032,146.48967502543604,66.3773666677944,125.85560013567756,40.70778552019789,94.84670178894201,66.45745505612777,125.02177678950761,92.15216161168964,149.0,145.0,125.0,121.0,101.0,145.0,125.0,169.0,-4.871701647604099,0.2244029966662954,0.45065716989808824,0.42071327685187887,-4.611313478233561,0.22463062864685188,-0.3931371684273667,0.024054537119847216
3,0.15000000000000002,-0.0051117665200615114,-0.39312872007723954,1.9613388205252926,0.0002352667940770381,-1.5672859465068791,-0.004881638630453544,0.44712793729069583,0.16709149233290388,0.59382322321515,3.139367796045022,-0.0033790263545559144,1.570605526220995,151.1270315352072,66.33596626615359,120.31951194154009,45.58613386086251,99.67939886780908,67.0008308580423,125.48416725573611,92.37357141126574,149.0,145.0,125.0,121.0,101.0,145.0,125.0,169.0,-0.21766543448977144,-0.19054888536156117,-5.116434521175021,4.807931183998263,0.16326983555102592,0.4144930971314795,0.004016027002655349,-0.07255335243935433
4,0.2,-0.0066749272101467305,-0.39250892292143913,1.959795389862279,0.0009305202041547389,-1.5661596711427128,-0.006566614689529793,0.44775722619049924,0.16649019253487587,0.5945147889352479,3.1391320253907296,-0.004501644780994604,1.5707297351198257,151.32484200796503,66.85804743355708,120.52858975140053,40.75865790716953,99.95304371090772,66.7232528575643,125.82041983992923,88.16660250428131,149.0,145.0,125.0,121.0,101.0,145.0,125.0,169.0,-0.0647933087335994,-0.044063890819120134,-4.934730711919925,-0.31470116618954014,0.3615215529115737,-0.2208704565012044,0.3424927765894925,-4.622265058098714
5,0.25,-0.008563168565767665,-0.39216659971153556,1.9584280833327181,0.001502535871430677,-1.564844856425883,-0.008345480881868372,0.44830031330246434,0.16575997733552578,0.5952256097873846,3.138661542398347,-0.00581065950592567,1.5706250578039027,151.3738844797608,71.8164845020218,125.1165559357705,41.43544853774714,104.92289382282819,67.13267803110246,120.31003404175313,92.828898503361,149.0,145.0,125.0,121.0,101.0,145.0,125.0,169.0,-0.018835826752630243,4.605756532673142,-0.3834440642294892,-0.06455146225286111,5.219618292963062,-0.19680173768366974,-5.165881179826845,-0.22312461802627048
6,0.30000000000000004,-0.008368261015162304,-0.3941898678692968,1.9607483242658192,-0.0015728255530311763,-1.5651021816617652,-0.007000203535146632,0.44739874614998437,0.16584344232143705,0.5948874043765155,3.135884620090646,-0.005532519217785555,1.5694925491150638,150.96535798755775,67.51325793022257,125.54758473588048,37.09752241994248,99.90540425881014,67.70335909894189,125.3724772548889,93.21450412675453,149.0,145.0,125.0,121.0,101.0,145.0,125.0,169.0,-0.18522116302140226,0.013257930222565594,0.11901330730904609,-4.776994954574894,0.274635028040903,0.07258986817266058,-0.07111739138259347,-0.03214979293952913
7,0.35000000000000003,-0.008125590068135402,-0.3957162857692209,1.9606987542992425,-0.0024464952669163154,-1.565112007687186,-0.007028302677285936,0.4467363016693803,0.1659584402664436,0.5956996614565195,3.1334285781341946,-0.005503513640343251,1.5697784105302386,150.8944859330814,67.4746728753325,125.27408674513104,42.21763294669257,99.94645986716435,67.73044092197145,125.40665844848003,94.04115406129144,149.0,145.0,125.0,121.0,101.0,145.0,125.0,169.0,-0.34194817544573586,-0.40711007040393277,-0.17272176550724552,0.03774900085118083,0.284323944834254,-0.2579085925916612,-0.052956936135354626,0.31615406129144924
8,0.4,-0.00807067459377242,-0.3960654442416329,1.9599334237829815,-0.00279197521882546,-1.5650222356465262,-0.007102099038061027,0.4466749302765395,0.16599130347606578,0.5964119353948679,3.131970705683522,-0.005582929439253644,1.569915642176576,151.37469883407653,68.21097729093353,120.44488000460112,42.415189255209405,104.74755019744528,68.83359362848731,125.71535000979345,94.15371355988654,149.0,145.0,125.0,121.0,101.0,145.0,125.0,169.0,0.16222320054825998,-0.04438333284814378,-4.99566580436575,-0.35868988709079286,4.885682493165124,0.4036325389931436,0.21535000979345786,0.20022518779351572
9,0.45,-0.00997537767602541,-0.39908618525549766,1.9625223456466,-0.005538072963603202,-1.5638380922467165,-0.009425535612273439,0.44559488198672653,0.16525342177279953,0.5962899107343803,3.1287651341513043,-0.006717998595841699,1.5703660036390668,151.23533222652293,69.01507883024334,125.25280325089108,42.959885444997845,99.82306506561477,68.36288817726218,125.68576146773877,98.75188896866504,149.0,145.0,125.0,121.0,101.0,145.0,125.0,169.0,0.09026452826372375,0.4909008805334712,-0.22571237410891898,-0.08503643000215422,-0.049981809385235915,-0.32461182273782785,0.18576146773877178,4.6013098180858965
10,0.5,-0.01030167154987005,-0.40050800043055546,1.9618835057339874,-0.005929620512157285,-1.5634611137097183,-0.009674071672757023,0.4450787171542769,0.16515062132263628,0.5973993280085724,3.126304780525191,-0.007067308424480878,1.5703111418847178,150.65774084174203,69.488706198778,130.57153064435596,38.946613681788364,95.19643485525232,69.11311128093317,130.1661764350296,94.62830029603064,149.0,145.0,125.0,121.0,101.0,145.0,125.0,169.0,-0.4882157657530475,0.44531369384703445,5.046972687577952,-4.843170208191994,-4.732278016034806,-0.03540357055197213,4.6067222439964555,-0.14557884626953685
11,0.55,-0.009369958734373185,-0.398100335347773,1.9569071846594959,-0.0028260778505435624,-1.563718465312264,-0.008833250079591348,0.44622266597834664,0.16553565485131708,0.5993769240724839,3.126858393761947,-0.006825019148273038,1.5703949864725604,151.69427428859473,69.32499191468033,125.40246124505768,49.90345426900379,100.02123716080935,69.60616312940252,125.5956279744884,94.9284383419429,149.0,145.0,125.0,121.0,101.0,145.0,125.0,169.0,0.586852413594713,-0.219929960319682,-0.2576178063257218,5.7236123717705825,-0.06787175008172866,-0.07304479138955834,-0.023512650511600716,-0.11648353305710893
12,0.6000000000000001,-0.009611690757561853,-0.3967750547819513,1.9552472777127692,-0.0024578194767665984,-1.5634937726643878,-0.00889710913593511,0.4470089506184169,0.1654430876379071,0.5998726040516958,3.126897356263431,-0.007048611677962995,1.5702196207301988,146.6156608532676,69.42229870705337,125.4803097690002,44.454718554811585,105.13403453855172,69.67071757421377,125.43611531799219,95.28639133229312,149.0,145.0,125.0,121.0,101.0,145.0,125.0,169.0,-4.50163536939641,-0.4246197820122351,-0.16569023099980473,-0.09528144518840882,5.022702530599438,-0.289520994374695,-0.2534721083339409,0.0034836702106107037
13,0.65,-0.009436200183601695,-0.3990192228414662,1.9577570193125675,-0.005790960315195992,-1.5636569760520516,-0.009219192976518187,0.44602019864997844,0.1655129587061728,0.5995306449096814,3.1238193779841135,-0.006850428838741763,1.5707375304563864,151.39520573737238,69.6625684952945,125.86035377925401,49.92659216742592,100.319771242636,70.50396897565705,125.39394706390088,95.79499045269249,149.0,145.0,125.0,121.0,101.0,145.0,125.0,169.0,0.2421242264379809,-0.45472772736951644,0.14322230515042525,5.0321698566689514,0.2079947955302083,0.304368177253851,-0.313896073354009,0.09499045269248127
14,0.7000000000000001,-0.009232344176493879,-0.3976650976689844,1.9561448854675225,-0.005543689518394235,-1.5637056570422834,-0.009046558079413458,0.44675209099720353,0.16559339068156717,0.5999976033159896,3.123815041581183,-0.006804604732025352,1.570767690181027,150.9138714045025,70.46026700746971,125.86225391837615,50.30065733021167,100.24331865131286,70.21592051836372,125.80735983677413,95.89420793560578,149.0,145.0,125.0,121.0,101.0,145.0,125.0,169.0,-0.18984679510612665,0.029738631735858757,0.1297189882364333,5.146964715441217,0.08583833635222851,-0.39825270998274925,0.16743811466063088,-0.04708364952142713
15,0.75,-0.009539786707998488,-0.39641310559160736,1.9545897741117555,-0.005273000638406522,-1.563452866126723,-0.009042269811358583,0.44751307829466735,0.16547355321564414,0.6004663809292794,3.123786267967965,-0.007058600277666929,1.5704595868502138,151.33732601565885,70.68937541877519,125.91181860352658,40.872401635592155,100.12458866219879,70.88729897018845,125.28786046368441,96.20758292607289,149.0,145.0,125.0,121.0,101.0,145.0,125.0,169.0,0.22554956855306293,-0.11102378282161435,0.23978641036763068,-4.628604400625152,-0.03309596853973414,0.011051465198436543,-0.37552536308724316,0.042228595364219544
16,0.8,-0.008737339473396055,-0.39690204871910284,1.9531442579078577,-0.005371503385359855,-1.5637468164710677,-0.00863196739365657,0.44729220189877983,0.16580809410838773,0.6016864371971307,3.1217501067242295,-0.0067531635244862795,1.570861792165745,151.01326170666985,71.37427855234178,130.75169725664153,45.52958278633771,100.00236074925613,71.10744411702387,120.53119797766124,96.76610600904446,149.0,145.0,125.0,121.0,101.0,145.0,125.0,169.0,-0.11673829333013756,0.19227855234176913,4.938819993060053,-0.534803531569732,-0.29763925074387726,-0.19655588297613377,-5.268802022338768,0.11462086052960979
17,0.8500000000000001,-0.0045967823175887546,-0.395192749654786,1.9512548133703573,-0.005907954809789118,-1.5662467289481654,-0.004647880744578448,0.4476570304437883,0.1674379717234994,0.6022757164024791,3.121074601514597,-0.004320593079254488,1.5709764821611132,151.18043640275087,71.63612613396484,125.74451349408726,41.527703787211735,100.40527221488263,71.08294326756932,126.14212270480084,102.059327433978,149.0,145.0,125.0,121.0,101.0,145.0,125.0,169.0,-0.015172379684256995,-0.008584444877481938,-0.09929989333667245,-4.902316496763922,-0.003178489342728132,-0.5790285634166044,0.31742150958171533,5.16490512322103
18,0.9,-0.00394697869170102,-0.3968589827583435,1.9496755684961453,-0.0061085470216859505,-1.5663647101296414,-0.004109993839481962,0.44691782238360206,0.16772178231466522,0.6041254563094133,3.1176218059873944,-0.004203660493858686,1.571099768981338,146.23960659320727,76.82461660827738,125.56531660631511,47.24434741541191,100.5419234059758,72.31211755386676,125.62871268927425,97.24981513966185,149.0,145.0,125.0,121.0,101.0,145.0,125.0,169.0,-4.931419563734381,4.623409364816613,-0.392087044800509,0.0029681050670802623,-0.17726851321612247,0.033329675078868,-0.34350953294797576,-0.2501848603381491
19,0.9500000000000001,-0.0050604133541032326,-0.39735696447979185,1.9497238394046645,-0.007322206659107877,-1.5656723015703697,-0.003974284087899349,0.4469741770953998,0.16729007326493933,0.6044450889187252,3.1159598438135587,-0.004898684731657942,1.5698722806463323,151.25745204998523,72.85315201922705,125.76868255387282,47.577558637895265,100.54268042717914,72.88480909037754,125.40319794137214,97.97335881889933,149.0,145.0,125.0,121.0,101.0,145.0,125.0,169.0,0.1972110861298002,0.09813193890576447,-0.07213377265778716,-0.21223728047208332,-0.10905073371699922,0.0864384182797878,-0.4780897849860109,0.05987793358745241
20,1.0,-0.0047282849398246896,-0.39703179345435213,1.9482624866440492,-0.007515629558715542,-1.565751487461374,-0.0035393241997487834,0.4472262527798134,0.16743273696976224,0.6053157510287114,3.1146377638070124,-0.0048246359488980485,1.569774195249278,150.76088367665423,73.26680863434188,126.46805277752672,48.04007804012469,100.08153822485818,73.22053972247568,125.99672605042029,97.92733451088853,149.0,145.0,125.0,121.0,101.0,145.0,125.0,169.0,-0.31416703328491913,0.18972952683681985,0.5805272151545379,-0.19305079423113766,-0.6664292548166251,0.035580372882172785,0.09712765684600334,-0.2875249268624758
21,1.05,-0.004425992789652167,-0.39637864627385966,1.9465294799314803,-0.007461195884153948,-1.5658109552485255,-0.0030941705237159667,0.44763535291980927,0.16756465168882953,0.6061998517781357,3.113616536426439,-0.004772622597324393,1.5696353488249597,151.2605287957769,73.55089223901764,120.82711540478005,49.00339099536099,100.96543575324034,73.57330020129874,126.55591521459311,98.41804789894232,149.0,145.0,125.0,121.0,101.0,145.0,125.0,169.0,0.14396437859898217,-0.017614918446571832,-5.06588871044629,0.20915231223341163,0.20324063128912084,-0.1238542702459875,0.616156178448532,-0.3369721813789639
22,1.1,-0.006182273425908935,-0.3968095361000805,1.9456983230563276,-0.007745051093624777,-1.5645824321754738,-0.004706931883710741,0.4478139148671898,0.1668880474865125,0.6069887000792179,3.1120562913518093,-0.0059522469009628326,1.5695330943478307,151.37219372827278,74.27470683485474,125.72223568276893,49.23300460581008,100.75995248625112,69.09858977903843,125.88006665175692,99.42756622425036,149.0,145.0,125.0,121.0,101.0,145.0,125.0,169.0,0.3497447486809298,0.26246193689556674,-0.12869599424970415,-0.04235771303049983,-0.11325814769569581,-5.011839668814334,-0.07530860179276991,0.38294147780005183
23,1.1500000000000001,-0.00798861913140847,-0.3968325108124824,1.9438871406354528,-0.007650302139432963,-1.5633739734392114,-0.0044304437195932245,0.44823287496645825,0.16620074366164375,0.6082224945536041,3.110312399321474,-0.007163013473620728,1.567497503053182,151.1927144328787,74.87058640487903,125.89125533320409,50.06690798241456,100.84080930179708,74.93096544951844,125.94725533215396,99.79026805903122,149.0,145.0,125.0,121.0,101.0,145.0,125.0,169.0,0.3305745151831964,0.2574176805992008,0.13763214479828545,0.03792247516818613,0.03138307228888294,0.037522826567624165,0.03262118581248654,0.03417049805561449
24,1.2000000000000002,-0.00790008213483162,-0.3964112425366557,1.9422904132351348,-0.00785161658165423,-1.563301170604535,-0.004173184693780474,0.4485750539437672,0.1662503248356808,0.6091456198789393,3.1089379935521357,-0.007233602668344091,1.5673430843298444,150.85305891026985,74.9567145635418,125.78599089425072,50.66147742196599,100.98571037603212,75.19550751923411,126.12698293863843,94.4553211508538,149.0,145.0,125.0,121.0,101.0,145.0,125.0,169.0,-0.07492462882477637,-0.10501383151994594,0.016598860707738142,0.10172899429303076,0.1482103760321058,-0.21074248076588198,0.16174776481431327,-5.628523429923285
25,1.25,-0.0077941905282652435,-0.3949395170967933,1.9410621120948433,-0.007925167344676964,-1.5633329900037065,-0.0042051194557686244,0.4493805100711692,0.16629072443993748,0.6093294052804992,3.109114640354993,-0.007198123895687875,1.5674795013874954,151.07315251576864,80.3555698695854,125.38839876581379,51.22204615962571,100.50099228279728,75.2250990427313,126.48293136814175,100.18396276259567,149.0,145.0,125.0,121.0,101.0,145.0,125.0,169.0,0.22572983535626495,4.990621415977145,-0.4057188812450319,0.46994531928958194,-0.36595158414658413,-0.3528635352312752,0.5643977632537719,-0.0848763412739835
26,1.3,-0.009402462980817372,-0.3945253484259732,1.939148930672661,-0.007801287057101369,-1.5622436433134528,-0.004198049167247309,0.4499822477252138,0.16567284372530888,0.610435079857437,3.1077336579830313,-0.008285054363775161,1.5659093797327441,146.49129568746773,76.11443104485684,125.76697522416364,51.291570021489925,100.68332872374107,75.91450049016065,126.08876976766152,106.16712586047885,149.0,145.0,125.0,121.0,101.0,145.0,125.0,169.0,-4.311579055858783,0.19656656847080045,0.10802785574259395,-0.18632471535217607,-0.18125460959226397,-0.3688328431726822,0.15420944046315033,5.232565533280486
27,1.35,-0.008628609295203926,-0.3952577835259672,1.9386592172230017,-0.009411201913369194,-1.5625809197099763,-0.0037735562852652116,0.44969841384491827,0.1659939856870507,0.61128223260147,3.104898221840349,-0.007947654190080096,1.5662725297244433,145.74563483374223,71.35868093362477,125.6245681801448,52.18830963439397,101.22769387234825,77.09963021554483,126.06824117824834,106.72396120957465,149.0,145.0,125.0,121.0,101.0,145.0,125.0,169.0,-4.996031832924448,-5.141319066375228,-0.10154646953672529,-0.021881448408580407,0.28785984745198906,0.24070905371911128,0.12853223853940265,5.268659754273206
28,1.4000000000000001,-0.005756645226582702,-0.39539072534352426,1.9387706466869705,-0.011308861783529967,-1.5642056511252722,-0.0035631249306815604,0.44935296959896354,0.16712747870157163,0.6114811889099181,3.102985536714848,-0.006316154358389692,1.5688907537623913,150.5388191924875,77.21551893311322,125.97089728616629,52.705343843703254,100.99624635591196,77.13009476180373,121.29561385195079,101.98204343281111,149.0,145.0,125.0,121.0,101.0,145.0,125.0,169.0,-0.40539568354555144,0.2403123215429797,-0.005648556051199166,0.1936167648119995,-0.09938773972212736,0.044855676564644814,-4.774201343121082,0.1894356299363632
29,1.4500000000000002,-0.00414317171623324,-0.3948333137235065,1.9374518133199379,-0.012492778969176221,-1.5650959824667359,-0.0018021758255080123,0.4495844011456974,0.16777383783386665,0.6122657243795795,3.1010561634834657,-0.005490803280309806,1.5687207538583963,150.89518952693604,76.94584657399362,120.99339603805454,48.44642336670318,101.62785418260397,82.64025722968151,126.22005394861132,102.01058075137627,149.0,145.0,125.0,121.0,101.0,145.0,125.0,169.0,-0.03954731516921782,-0.5362586891642749,-5.027790402623422,-4.759085107873093,0.35838049839344505,5.0549940717867665,0.12501262629727442,-0.1650390833344738
30,1.5,-0.004969429644923196,-0.395286651368441,1.9360368207288596,-0.013098058561672232,-1.5643207139366098,-0.0036380324900675554,0.44967547994766105,0.1674608551757783,0.6135044692902598,3.0985682002961124,-0.006188997126768324,1.5697726905732505,151.05564829395104,83.41098495786176,131.17313415365348,53.63683564384709,101.48840614937798,78.40535944384771,126.2024224806955,102.91069999781448,149.0,145.0,125.0,121.0,101.0,145.0,125.0,169.0,0.11237098302666876,5.173589999878553,4.941870770355834,-0.14260761097088884,0.05591669790118563,0.0952328615692234,0.08283485182952341,0.03028762668045914
31,1.55,-0.004072937773747398,-0.3943653935580915,1.9339896077426237,-0.013654302762615256,-1.564799799950964,-0.0018464279702254949,0.45019156934153925,0.1678266188706214,0.6145527773038199,3.096901007782745,-0.005782794038233237,1.5688687323770898,150.5941844776411,73.53689476435868,121.17925920411504,59.33612962759504,101.79831037734529,78.4951840431527,120.86774432527875,103.82269191928783,149.0,145.0,125.0,121.0,101.0,145.0,125.0,169.0,-0.33590026812159873,-5.18132557462437,-4.922033899333223,4.775784800008835,0.29617362520854273,-0.45353390556523154,-5.362863641178285,0.38244034696079277
32,1.6,-0.0030691836595724276,-0.3930243512466194,1.93356113350207,-0.014293527877800916,-1.5653746540591955,-0.0020775630222686914,0.4507849287467927,0.16821840861353224,0.614310720954669,3.0971822029517218,-0.005195108281381648,1.5700771797251254,150.99422245379023,78.7374282601071,125.93806574152568,54.90959026021788,100.98298142808052,78.83933017051417,121.09681101849964,98.1412424158752,149.0,145.0,125.0,121.0,101.0,145.0,125.0,169.0,-0.02042189767420842,-0.19144203277993121,-0.2951955975672031,0.2810805409954171,-0.5170185719194755,-0.16066982948582625,-5.161522314833699,-5.358757584124804
33,1.6500000000000001,-0.0029256356231210923,-0.3916561692141194,1.932373510311562,-0.014676262678278817,-1.5654419873790095,-0.0014163672887841372,0.45155942548843814,0.16827821683918007,0.614547898817077,3.0969868157832736,-0.005158174633366967,1.5695574084131814,151.38881210172315,79.4776365350886,126.24322328469124,60.234500844594415,101.5045404325577,79.69379974860263,126.12684854580475,103.95013518240556,149.0,145.0,125.0,121.0,101.0,145.0,125.0,169.0,0.4311849830790826,0.15560263678352332,-0.13421706238034745,5.2345008445944154,-0.04226807808059951,0.30869336562391403,-0.10599968704347223,0.1372453695157522
34,1.7000000000000002,-0.0024316472364276365,-0.38990355433496404,1.931104345548773,-0.01455465162801639,-1.5657301849364584,-0.0012472981644764403,0.45242329581246726,0.16847039787543047,0.6146106086969487,3.097595557022326,-0.004878910985411866,1.5698663740873984,151.66727871009513,79.65031754008095,126.5541082023249,55.110324944560254,101.64036978265959,79.747660181794,131.3984455855641,103.72469537655704,149.0,145.0,125.0,121.0,101.0,145.0,125.0,169.0,0.65453985659196,0.24479737022955728,0.24591854715248626,-0.10088195199146537,0.09356127202128942,0.2710644371131577,5.169755356873882,-0.2753046234429684
35,1.75,-0.0028041550359785283,-0.3892272889315018,1.929324629247274,-0.014744479435655489,-1.565368152192252,-0.0018978641650728711,0.4529726263583089,0.1683307703120463,0.615545411230255,3.0962941076010906,-0.005211662242263757,1.5701659769168008,151.20898468741711,80.16122400935826,126.14882898514848,55.9908490988987,101.57640951467586,79.913686893202,131.11456525137936,104.28103414831669,149.0,145.0,125.0,121.0,101.0,145.0,125.0,169.0,0.194340335952692,0.2323537164712338,-0.1989031962769943,0.23922922848833414,0.0009784801931023988,-0.12510621024626797,4.804941820417027,-0.21896585168330227
36,1.8,-0.0032225038149245044,-0.3885531202681727,1.9276418021588473,-0.015069111016420944,-1.5649831347199212,-0.0026083528679832213,0.453532998355007,0.16817205868067933,0.6164286234367334,3.0949536420569324,-0.005561738592767659,1.5704819966291208,151.20715829889184,80.14957187589813,126.44744903716884,56.595099205291945,106.920475389048,80.49551015805056,126.33111827899614,110.33487442236076,149.0,145.0,125.0,121.0,101.0,145.0,125.0,169.0,0.20715829889183515,-0.3504281241018731,0.10831860238623102,0.23857746616150652,5.239533204893823,-0.09121361068605473,-0.05881882792210159,5.292945701186754
37,1.85,-0.0006025212388816037,-0.38920011676904886,1.927815451827958,-0.01883334600970965,-1.5665179321116138,-0.001451379075619208,0.4531387353415583,0.16921874043002785,0.6170339586581431,3.0907179225859323,-0.004068028087626125,1.5718963524110081,150.80939822089078,86.44962254526031,126.73624444432983,62.52920321346039,106.59299183085862,86.13531698461207,126.7774143906373,110.93504605048422,149.0,145.0,125.0,121.0,101.0,145.0,125.0,169.0,-0.23974707825450273,5.060733656371423,0.23624444432983177,5.287975143284956,4.66793829766804,4.741312701956829,0.29749895723349634,5.138005881351014
38,1.9000000000000001,0.00027698087229444113,-0.38975682982030424,1.9287318812918874,-0.022466620703940787,-1.5671034812507747,-0.0010638238099223152,0.45300095035628585,0.16956186274700188,0.6170705567124477,3.0874462658446107,-0.0034983469230734396,1.5723710764860783,150.76588320544192,82.02198644685485,126.82580813476811,58.222146246491626,102.1747848311044,77.38157047422436,126.56208548969843,106.63606327276908,149.0,145.0,125.0,121.0,101.0,145.0,125.0,169.0,-0.30234707174357905,-0.07396238043724691,0.25437956333954,0.23093745528283333,0.22382534283149214,-4.605636348803361,0.1561658279648134,0.19631697255766836
39,1.9500000000000002,0.0014057879425561914,-0.3888540168356758,1.927382890887345,-0.024070500550416263,-1.5677281436478259,-5.405477736486475e-05,0.45351841288049066,0.17001658949917953,0.6177661097207254,3.0854050453289235,-0.0029304828718136494,1.5724629284500087,150.71574420093253,82.69153227984421,126.26183549563716,58.51619045482059,106.97500898016622,87.50422900140582,126.98566779440688,107.21878855442974,149.0,145.0,125.0,121.0,101.0,145.0,125.0,169.0,-0.3530730033685296,0.011962387371101469,-0.30644644268883536,-0.18865536015738635,4.968557367263007,4.874121474524102,0.4856677944068747,0.16772472464250235
40,2.0,0.002095613740140223,-0.3892270859073821,1.9281201306556381,-0.027902294904327718,-1.568173310660124,-0.0002849890384211129,0.4535350715827168,0.17028198871388023,0.617866568114997,3.081936375651487,-0.002472013610163236,1.5733671602312467,151.23905841373977,78.49854165636496,126.95270081876811,54.49759267418165,101.9988648496987,83.54043601327017,126.5648848177532,107.56570989836548,149.0,145.0,125.0,121.0,101.0,145.0,125.0,169.0,0.13538670747626322,-4.998218602814309,0.3185544773046811,-4.9857776140666905,-0.12451177367792485,0.10537107820523134,0.04471496637314788,-0.1795130315708147
41,2.0500000000000003,0.005249286678469911,-0.3883270793413769,1.925568680112189,-0.03096693033578779,-1.5698491399820789,0.0008457308571592215,0.45394432077159114,0.17155786569869438,0.6195630447906059,3.077218479828659,-0.0008663286716225519,1.5752990373074123,151.46624571845464,84.91410208336454,126.5430336916035,66.03770853514585,102.33133831254861,84.11976344478452,126.50651052899745,109.25807611441348,149.0,145.0,125.0,121.0,101.0,145.0,125.0,169.0,0.1879848488894217,0.17279773553845038,-0.3305554731820573,5.112200634468651,-0.1053429101588171,-0.46102258141635016,-0.10078560834160398,0.39112332471391675
42,2.1,0.005413435732548155,-0.3866650099698652,1.924738239861477,-0.030479109939323568,-1.5699821629000823,0.0008542136393474564,0.45475637806843056,0.1716211118974889,0.6193149085350346,3.078548664957614,-0.0007357970726562883,1.5754429231305664,151.098353398369,84.2924237282545,121.63869476376468,60.769937515435096,102.64162120285214,79.49330837837141,126.7568564137886,109.17970926239117,149.0,145.0,125.0,121.0,101.0,145.0,125.0,169.0,-0.1646900798918632,-0.4140980108759313,-5.203291692217259,-0.07656361323307342,0.255158320756061,-5.05254315001287,0.14956027644952896,0.3127564726916016
43,2.15,0.0049069124055076685,-0.38613048334018396,1.9237077848850062,-0.032058826397759255,-1.5695889084296768,0.00030931606249140486,0.4553335727655156,0.17142453511379435,0.6199571989103904,3.076473377755459,-0.0010992818164109902,1.5755053079500299,146.00148298402627,85.88333416701006,126.7452780366673,61.24153910054254,102.34838044693369,85.20653401836859,126.60509701337071,114.75160559627446,149.0,145.0,125.0,121.0,101.0,145.0,125.0,169.0,-5.221224439554498,0.4335525076214089,-0.14852727306721286,-0.25846089945746287,-0.12091779868034862,-0.052237911455978364,-0.06156965329596531,5.2516055962744534
44,2.2,0.008368192877745262,-0.3852194552768382,1.9227528595294752,-0.03640189852410014,-1.5716247952993738,0.0021599336699282823,0.4556889052569108,0.1728207253839545,0.6207016406365663,3.0720789588722446,0.0008101531342273891,1.5769884011404176,151.02250158325901,86.66598403117871,127.65474959598274,63.09354665543332,102.46712854317232,91.41463453110536,131.8441391242134,105.70870991026825,149.0,145.0,125.0,121.0,101.0,145.0,125.0,169.0,-0.3071687464113192,0.06598403117871803,0.4493319887592482,0.31025094437237094,-0.12136703204892316,5.138085858538986,5.034717282671649,-4.856600582237092
45,2.25,0.0070232021953371415,-0.3840090882163727,1.9217588517260982,-0.03531679033011592,-1.5707855796542898,0.0007053114107500313,0.4564861444950714,0.1722818916389362,0.6207002666776278,3.073389191755274,6.927923923532246e-05,1.5771496877989613,151.3779859333313,87.10301102003439,122.12092475508582,62.457535392861146,102.39744583524465,86.17026269242814,126.82058034995691,110.43409287356965,149.0,145.0,125.0,121.0,101.0,145.0,125.0,169.0,0.06438944210321808,0.5240636516133302,-5.072333671880475,-0.22785786556581494,-0.1654680720401067,-0.09905298086105284,0.011158508415143336,-0.13121761893569622
46,2.3000000000000003,0.006685578954486626,-0.3834693031506089,1.9204829699184272,-0.03736564895516237,-1.5704647853183547,-3.4728758041779884e-05,0.4570991513594282,0.1721543398825516,0.6215639732891739,3.0706029523142555,-0.00020411353167981401,1.5775715671137633,151.407896059279,92.6769101003973,122.29940187518217,64.06186691810873,103.16312317735664,87.0238156329446,127.00816403255787,111.29615651597798,149.0,145.0,125.0,121.0,101.0,145.0,125.0,169.0,0.0782257296086751,5.272514496001689,-4.9421331135311375,0.45915811449699734,0.49572229629936326,-0.09732974150473019,0.17554600680679192,-0.12659026513788815
47,2.35,0.00526050402704259,-0.3835824950834934,1.919428771102079,-0.04065134290813566,-1.569501177573426,-0.000750661358254856,0.45766107952624524,0.1715956699721103,0.6227174891057788,3.0661439710444056,-0.0011132105243524485,1.5769338072512153,151.19637196731196,88.6987718919499,121.77229833098288,69.8701940494129,107.68866935973256,88.20173295543252,126.2468640547362,112.5137504277332,149.0,145.0,125.0,121.0,101.0,145.0,125.0,169.0,-0.03270292255585997,0.08643709018778309,-5.323811508834055,4.943420594035328,5.019046299865591,-0.12199209999986053,-0.5155549517432726,-0.011087585225762257
48,2.4000000000000004,0.004909216518447224,-0.38373998837153556,1.9213542572313473,-0.044668265666801155,-1.5694419705363103,-0.0017621931810802849,0.45787900466569903,0.17143560289901333,0.621926935691999,3.0638970516117796,-0.0010883619993237925,1.5775994950731331,151.58638466900587,89.49495635948372,127.43611664206729,65.0015297141291,102.62742349898834,88.63361691951884,126.29034000597123,113.1452834985652,149.0,145.0,125.0,121.0,101.0,145.0,125.0,169.0,0.3174957801169832,0.3682896928170638,0.29391480720490254,-0.2392959739442919,0.05314411983090881,-0.19121678336363931,-0.33816971325123535,0.1452834985652022
49,2.45,0.005627083305382197,-0.3824804795890553,1.9199294857553042,-0.04654748013785914,-1.5698400804066717,-0.0013772457449170439,0.45866542608288013,0.17173490630666538,0.622544077304269,3.0618562157457596,-0.0007150510372278636,1.577905720345474,156.71561875453554,89.9908555199377,127.3009691345494,66.55153794317025,102.39965939009033,89.44700373005318,126.846552532242,113.6073330889249,149.0,145.0,125.0,121.0,101.0,145.0,125.0,169.0,5.41874375453553,0.12478409136626425,0.17996456833935956,0.4670630573254893,-0.301005798379736,-0.06962598169847437,0.07382525951473269,-0.05716907557726444
50,2.5,0.005772796083966192,-0.38091646657473754,1.91761048064496,-0.04702302784645829,-1.5698409425053992,-0.0013600245880853734,0.4596311942600672,0.17180698879666484,0.6234730318286,3.0606273270790005,-0.0007148445613440704,1.578034783445561,151.20120383001114,90.13846369116496,126.8738342099696,66.52992910626408,98.397832440013,89.85167851888872,126.83052773154644,119.2080857071535,149.0,145.0,125.0,121.0,101.0,145.0,125.0,169.0,-0.02324061443332093,-0.3615363088350444,-0.31007383600740934,-0.2953582500577557,-4.347703274272705,-0.3112679096827149,0.057800458819174075,4.87258787165567
51,2.5500000000000003,0.0077492419173568194,-0.3785948887261914,1.9137378596185934,-0.047949921359787595,-1.5708073863444145,-0.0005392850887653289,0.46082426010066563,0.17263709803788632,0.6251748498457446,3.058150746650915,0.00018615446171558648,1.5791162105223084,151.26981574531112,91.45551879335629,132.10804913391203,67.75543989669504,102.92187413203501,91.11307066086196,126.9702241328443,115.36047209946624,149.0,145.0,125.0,121.0,101.0,145.0,125.0,169.0,-0.016537722250415592,-0.059022593668310815,4.766306014645981,-0.2009821216535841,-0.05301171271383578,0.0011985147432368509,0.04831523913496807,0.011231318555174417
52,2.6,0.00937215423130322,-0.37653352513555305,1.9118165846988173,-0.048332557977033286,-1.571802784135782,0.0008878992850434031,0.4617535937174246,0.17330821825515777,0.62558703456109,3.0579109244737595,0.0010614944653094742,1.5792345518975628,151.05853196881233,92.21921683311018,127.49924268275318,68.57616251450925,102.74647336591673,96.34067529195003,126.80659996711663,115.40742357627516,149.0,145.0,125.0,121.0,101.0,145.0,125.0,169.0,-0.2770536167732677,0.25300061689396924,0.07100194201243286,0.24977362562036728,-0.3698577302801448,4.794813994410888,-0.16736966411981832,-0.24116644541680432
53,2.6500000000000004,0.009522450225928125,-0.37501628735574943,1.910315604051867,-0.04859387703157392,-1.57184938909296,0.0006136759374091305,0.4626191139004415,0.1733769070098624,0.6259451051558765,3.0576684712449564,0.001127917528959553,1.579652525120806,151.35837400010968,92.28303015413533,127.35825093721016,63.46890865535975,102.99494136285414,91.8156707842023,122.06251675365029,115.69843499062881,149.0,145.0,125.0,121.0,101.0,145.0,125.0,169.0,0.0339892126376309,-0.05925172505930129,-0.06998980353059572,-5.204702455751367,-0.18564554459507202,-0.10532244378868251,-4.937483246349713,-0.3015650093711827
54,2.7,0.011086738212915836,-0.3731066423488105,1.9079026617161796,-0.05173308403131083,-1.57273238402525,0.0018667615485328248,0.46377094400855,0.17403655615527636,0.6270851066122577,3.0540214342032193,0.0018964011433768285,1.5798882826575729,145.87950451967984,93.8485546603686,127.05816079297044,70.10646019082762,103.6007257565882,93.10868145499626,131.77154566799166,117.23172387243766,149.0,145.0,125.0,121.0,101.0,145.0,125.0,169.0,-5.446338176949371,0.3361951098068054,-0.4418392070295589,0.157622981525295,0.3043456660904661,0.038545708389911344,4.677453764271753,-0.061492757759275735
55,2.75,0.011118429822005726,-0.37203384090562563,1.9078323005537472,-0.05237280854540982,-1.5728052863228443,0.001381276444067936,0.4643678509288326,0.17404617263187533,0.6267068854917789,3.054387516986161,0.0020113352180524866,1.5803973600485546,151.71289556720046,93.5810631815701,127.56324130141344,70.06217017592675,103.29979329630739,93.04477035436943,131.86111350731002,117.39839622793347,149.0,145.0,125.0,121.0,101.0,145.0,125.0,169.0,0.3367694410743169,-0.08109898059205867,0.06324130141344775,0.011007385229073088,0.005675649248565729,-0.06382693069843458,4.8089395942665405,0.04404840184652675
56,2.8000000000000003,0.011156920505966283,-0.37045330076011496,1.9062231399725063,-0.0528592603195146,-1.5727967509861953,0.000870398349171797,0.4653136257431743,0.17406971685278483,0.627132427013272,3.0538752452473203,0.002044930813776045,1.5809436325357145,146.13289967005184,93.95884626728107,127.36316343200771,70.88189717654447,103.26465674198519,93.34494167857443,132.33555227658908,117.69267684733238,149.0,145.0,125.0,121.0,101.0,145.0,125.0,169.0,-5.2426659408078855,-0.16785056529810494,-0.13683656799228494,0.43538554863749274,-0.04096123554289678,-0.2932605686165882,5.274550097939862,0.07176181465264811
57,2.85,0.011221358886693622,-0.3692235573406637,1.9060268828687912,-0.052917781778075046,-1.572889697911183,0.0003946211386431919,0.4659388179353716,0.17409367565603637,0.6266986987632082,3.0548529542926293,0.0021803064901841774,1.5814759748763951,151.46098736271006,94.07502504161187,127.54145303739462,70.07692382264153,107.93851772650045,93.95654118833457,127.54036594024274,117.69612747920354,149.0,145.0,125.0,121.0,101.0,145.0,125.0,169.0,0.015286005244002102,0.007151738444444322,-0.009472888531299234,-0.29807617735846526,4.627706915689645,0.40248713428051475,0.4793637615935104,0.07521244652380159
58,2.9000000000000004,0.011863059455998304,-0.36824625858108506,1.9061384457201846,-0.056529455121881345,-1.5733912597606121,0.0003219749101441849,0.46664468966223843,0.17435205152151137,0.6265866230578047,3.052328712084984,0.002686556785921006,1.5821410038772228,151.405990501087,95.28008753058397,127.94288782097966,70.9434555503261,103.40071199724778,93.96050275237394,126.85006275859561,118.19188434125098,149.0,145.0,125.0,121.0,101.0,145.0,125.0,169.0,0.017728650071177337,0.4222997202002307,0.3391582172500621,-0.22437661750606033,0.08314442968022129,-0.2399476980765077,-0.20211115444785943,-0.2624634848359745
59,2.95,0.012589987901741928,-0.36651015908489937,1.9047235499710293,-0.0581028963819481,-1.5738439330725695,0.0007133632604556794,0.4676366454723501,0.17466268062831508,0.6269305021117718,3.0510757129844945,0.0031016085690666454,1.58243420622314,146.31165271227252,100.66098839723574,122.46198952723293,71.60483480024246,103.0473020892849,89.70327406801349,127.0110524850498,113.40671646304153,149.0,145.0,125.0,121.0,101.0,145.0,125.0,169.0,-5.107266206646384,5.2510784873258265,-5.187662444924836,-0.2536338772517485,-0.31161438927040985,-5.109367015507964,-0.23009795742807232,-5.568947253772613
60,3.0,0.010544686019939409,-0.3667312929963167,1.9063353301346284,-0.060169252750806645,-1.5727497632363603,-4.103080753381505e-06,0.4679391623736774,0.17380660318996394,0.6261624179702007,3.050402383503341,0.0020710506871008884,1.5811984751689483,151.43425633089245,95.51474586743731,126.9367126578431,71.75857391436566,103.42089084302859,94.99532442859268,127.4879604009594,124.50754809944941,149.0,145.0,125.0,121.0,101.0,145.0,125.0,169.0,0.1084136342632173,0.0023863168755208024,-0.5434738223433697,-0.17149601570427175,0.2579949154267717,0.004374202348346522,0.5139907697229577,5.156138121141385
61,3.0500000000000003,0.011876257435369464,-0.3647213727544276,1.9046195825570065,-0.06253341946792812,-1.5735454513194442,0.000391371781736094,0.46906267567313553,0.1743700624569325,0.6266761214052253,3.04833203575868,0.0028299379682277573,1.5820599115455212,151.4176855217093,96.06073088879305,128.02342966811796,77.65370839146196,98.35382315405568,95.76199651242148,127.47648601277915,125.12869700028943,149.0,145.0,125.0,121.0,101.0,145.0,125.0,169.0,0.06937091496772525,-0.3280331561507752,0.4596245637095982,4.857884725568697,-4.891672341439808,-0.07584132541636865,0.4347277710209007,5.1594662310586745
62,3.1,0.013081176035468989,-0.36246283117102873,1.9023533063820706,-0.06096357443656464,-1.5742093393368464,0.0011631893759984635,0.4700115924155344,0.17489198978362652,0.6269884744714382,3.049894234247093,0.0034245728759530036,1.5824410102891864,151.55148201557893,96.43391224573713,127.7409611658373,73.08368467939141,103.47784145773616,95.53693561909125,127.28813137717268,120.66938547922693,149.0,145.0,125.0,121.0,101.0,145.0,125.0,169.0,0.13256309666003027,0.02400233582722395,0.1090167213928688,0.2457217164284526,0.1189249791808677,-0.2757054644301853,0.036475748033599965,0.6693854792269383
63,3.1500000000000004,0.013756935215118116,-0.3606325688663934,1.9009801055445594,-0.06232895753153356,-1.5746381167111405,0.00149021899876578,0.4710392002046208,0.17518352108046922,0.62722899869821,3.0489851983391696,0.003819153213930011,1.5827480804885468,151.5621081702076,96.62237868016088,128.20450134265087,73.28179914231843,98.37283333784335,96.25746828923417,127.14315950700927,120.65630748092967,149.0,145.0,125.0,121.0,101.0,145.0,125.0,169.0,0.13418024227967387,-0.35284654506435353,0.5783331183518097,-0.035957867027365815,-5.029413853167901,-0.08635193548492992,0.051456450240703985,0.1344734197942987
64,3.2,0.014245300815498574,-0.3582250948634953,1.898126832760318,-0.06145975909982626,-1.5748362218528689,0.0019328154583475587,0.47229058598578727,0.17541454609954332,0.6279512772841157,3.0494081361000336,0.003974894959722095,1.5827783343744863,151.59676437444853,97.20694632436256,127.42469820403164,73.81769034523168,103.93440358295454,96.899335192117,127.27536276927407,120.68230918618099,149.0,145.0,125.0,121.0,101.0,145.0,125.0,169.0,0.15458750370020724,-0.11278156679390218,-0.2606164812830388,0.09741062495196424,0.5254148189095976,0.1330430572855306,0.006640302313711572,-0.13707407373090147
65,3.25,0.014732869556965067,-0.35638383800342854,1.8967547795381865,-0.06297724426316442,-1.5751519151244642,0.0020800393585158616,0.4733704226094939,0.17563084583980543,0.6281987457129844,3.048359423162322,0.004273260748971122,1.583085911585432,151.2888302860762,93.16777018278152,127.86923962918826,74.5017734410248,108.72841757325435,97.4793941842906,126.66732588140192,121.2820834382282,149.0,145.0,125.0,121.0,101.0,145.0,125.0,169.0,-0.19875436403666755,-4.755480381552558,0.1145667319919974,0.22607250644536117,5.258891613886401,0.17013910528381798,-0.5026087591209532,-0.19504074477834057
66,3.3000000000000003,0.016254604412310414,-0.3546395514604219,1.8967110979929949,-0.06629941111532123,-1.576213434382801,0.0023214023946249718,0.4742957170038807,0.17626680338231762,0.6277885849253453,3.046735192200646,0.005306928341705442,1.5842616799772904,151.58747939190044,98.54643984451711,127.71069539460295,74.86586319862195,103.43126122904009,98.2370486500439,127.19820621521721,127.28611576520649,149.0,145.0,125.0,121.0,101.0,145.0,125.0,169.0,0.07500773657165427,-0.029523874303743952,-0.14141728145338026,-0.08484102673016165,-0.004693827139693313,0.37412730172930164,-0.11607949906851085,5.169632248722969
67,3.35,0.01812057684538093,-0.35162112850453964,1.8939668631859083,-0.06823173717583586,-1.5773176580977983,0.0031532395616458153,0.47587214901123137,0.17708146001403618,0.628465189800703,3.045071242557678,0.006322688702240313,1.5851853147263615,151.12873636666495,99.73207860969471,128.15640580967928,75.82842437121553,103.96437073794557,98.86485568193112,127.17632365615829,118.46828140645474,149.0,145.0,125.0,121.0,101.0,145.0,125.0,169.0,-0.4006753980409329,0.27054014815624117,0.2148170246325503,-0.024379367102232014,0.41358067022547995,0.12896403407559606,-0.15920265963119012,-4.430841400562806
68,3.4000000000000004,0.017822478917121742,-0.3503147880532089,1.8934236833821085,-0.06949360111630609,-1.5772107523822951,0.0030746739594422756,0.4767320664451731,0.17696069612377716,0.6283613626185527,3.0445732132825842,0.006217444134850006,1.584970690987547,151.6436227843589,94.7708992218724,127.62880625379,76.33039183276094,103.39817700045083,98.9874869491406,132.32325917818608,123.42173963022938,149.0,145.0,125.0,121.0,101.0,145.0,125.0,169.0,0.06669970743584905,-5.070729737403625,-0.3054660466794812,0.18719934449803255,-0.15612164208310642,-0.08038635402681955,5.052516820107484,0.11824618044773075
69,3.45,0.018244675498044316,-0.3481829171846713,1.8918372438040842,-0.06956217468511028,-1.577463578567973,0.0024108693186306596,0.4778564350227061,0.17715135267584842,0.6284389852138181,3.0450553038007198,0.0065340000130469375,1.5860316835201351,151.2900362314404,100.18158478382267,123.18816101157665,71.07716666488639,103.00059685988997,98.88143189208573,127.4987082044961,123.47925235183219,149.0,145.0,125.0,121.0,101.0,145.0,125.0,169.0,-0.3154059454303448,0.0840791148884241,-4.76877678746641,-5.329531899706903,-0.60211194372176,-0.4345951959503894,0.2514434342553886,-0.10499272475423864
70,3.5,0.01845217209406913,-0.34526676970489767,1.8887045875464912,-0.07288982946831624,-1.5774964180587796,0.001757430784941505,0.47982350887542435,0.17727842637791533,0.6295821972594771,3.041517425277885,0.006620281497951424,1.586863026651083,151.56948388575364,101.55825015743389,128.04039264469267,77.68481181598709,108.75336807025505,100.56027556738171,127.33212681144215,119.91865990503702,149.0,145.0,125.0,121.0,101.0,145.0,125.0,169.0,-0.017817701547945087,-0.03131900356383915,0.016918466288934158,-0.24946048448239197,5.116179861638272,-0.1766858838654543,-0.00633472701939119,-5.006614820237705
71,3.5500000000000003,0.01826174788586954,-0.34434333804184014,1.8894923267537358,-0.0759732054300839,-1.5775836855424954,0.0015744839239655306,0.48053933828911344,0.1771891221093192,0.6289554716941533,3.0401455745409707,0.0067225873586405594,1.5868369622605412,151.70767721811555,101.89282401549953,132.9349644820831,83.53209627161043,103.53783350778085,100.92307732135042,127.26870633348815,125.71041695158416,149.0,145.0,125.0,121.0,101.0,145.0,125.0,169.0,0.11851243256251134,-0.11169065718670311,4.934964482083095,5.238952063572592,-0.053588614115311024,-0.2575095860987887,0.029671245768849483,0.24331168842626832
72,3.6,0.019356341562207113,-0.34259183153423844,1.8887215745851993,-0.07568567779710778,-1.578355596310125,0.0027871328814401686,0.48126067923067134,0.17766627943276678,0.628607117814518,3.0414039350603153,0.00737547221858793,1.586657557034442,151.48719565064127,101.95163946225912,127.60407753622532,78.37200222646175,103.23658273440726,100.96393220368248,127.51212531909059,125.27480205847257,149.0,145.0,125.0,121.0,101.0,145.0,125.0,169.0,-0.10371344026783265,-0.01199690137724022,-0.3959224637746745,0.13200222646174548,-0.3467505989260619,-0.1914732017229216,0.2566668038067444,-0.11602763585057357
73,3.6500000000000004,0.019901994484421426,-0.3403139555321051,1.8872033355177429,-0.07746124806573595,-1.5787440209275942,0.0030383594845777573,0.48258674815437286,0.17791958306405647,0.6287574236048834,3.040387103494118,0.007732745199745379,1.586906500630032,151.60587708880465,102.26937757698494,128.12709239227112,74.00238054268615,103.06397414653047,101.76501831263313,127.3914080892906,130.90317555460211,149.0,145.0,125.0,121.0,101.0,145.0,125.0,169.0,0.02442912500373659,-0.3460070383996711,0.12008304647673951,-4.971918522734408,-0.501636713198032,0.007099760596936379,0.05588177350110942,4.802298361619676
74,3.7,0.022203510093431245,-0.3356434038488949,1.8830940804224099,-0.08182659150190563,-1.5801602734838074,0.004146671678991076,0.48524751200368943,0.1789638539792387,0.6298298701305254,3.036574502668077,0.009013436047561869,1.5879294727687618,151.21574588088959,104.485747291242,127.53154054289563,85.73061984718792,103.3682296843017,103.39753182094073,127.83426359470897,122.93514537472674,149.0,145.0,125.0,121.0,101.0,145.0,125.0,169.0,-0.4101044592464683,0.14334366312410435,-0.5703551917015252,5.060003733443849,-0.3421775555173116,-0.016495328380536665,0.4760218364672072,-4.7066128670315
75,3.75,0.021548378408868807,-0.3350331052199853,1.8833539253953324,-0.08160787488675725,-1.5798453729237352,0.0038113527062124675,0.4856250322974205,0.17867847943201354,0.6293278064144362,3.0376639574142525,0.008736399464570504,1.587648586924333,156.66079527572506,108.92119195508444,127.90847615564027,85.16707337164664,98.3970297429752,103.3435030361505,126.50343099037399,127.83190401245338,149.0,145.0,125.0,121.0,101.0,145.0,125.0,169.0,5.045761107160125,4.7776839824192905,-0.13238922897511493,4.628611833185104,-5.3056729597275,0.059719252366699345,-0.7904286587488222,0.21567594227794254
76,3.8000000000000003,0.020973307073762104,-0.3329739829598686,1.8806298559729537,-0.08048488068985549,-1.5794393793125368,0.004118832607157508,0.48686014845610726,0.17846297409126288,0.6300658917143042,3.0381198199481654,0.008298610948619257,1.5868117880914547,151.37752202872275,104.5975890102088,128.11435979361266,80.94852921166742,103.6291423467234,103.62152565437276,132.38942378935192,127.73953573353471,149.0,145.0,125.0,121.0,101.0,145.0,125.0,169.0,-0.21431470597112512,0.03976588095709089,0.07914852600704389,0.04712076096320294,-0.006604259611448701,-0.08888158544624211,5.053897473562454,-0.15958707348283532
77,3.85,0.020807771077481885,-0.33093977064908264,1.8792480702800072,-0.08168412760005195,-1.579392561019107,0.003511254231633565,0.48812781347961853,0.17840860263564404,0.6301593299685769,3.037581450644277,0.008313537018952375,1.5872512736980404,151.7661747554243,109.67733788765744,128.05372215575542,76.17281299896125,102.95779083423636,104.18959501568393,127.02966079550006,128.48011068474955,149.0,145.0,125.0,121.0,101.0,145.0,125.0,169.0,0.17207044703426047,4.650127003303707,0.020467998985809914,-5.162103865646822,-0.6990273475818144,0.025958652047576983,-0.2701203861191847,-0.007854304309549849
78,3.9000000000000004,0.021033902927994674,-0.3280701459478048,1.8771348457772277,-0.08515482208252845,-1.5796324704338973,0.0039824521110616296,0.4900073329841149,0.17854017698073463,0.6306109658298362,3.0348660337629476,0.00849183068528201,1.5869617145074335,156.30071982430053,106.49786012225677,127.82482918110468,87.19440902343557,103.4714787913953,105.10994767358042,127.03510198700016,129.6736656553776,149.0,145.0,125.0,121.0,101.0,145.0,125.0,169.0,4.78702119416353,0.30151309029329687,-0.19440158812610317,4.646332100358644,-0.1846298058897685,-0.23846861601233454,-0.23623280512237793,0.04346871883493182
79,3.95,0.020997302480156854,-0.3260859083285408,1.8755444184129928,-0.08507383995731965,-1.5796549402790117,0.004067747923899301,0.49112649549273685,0.17854427436429313,0.6307184415835697,3.0353401635034043,0.0085075352203837,1.5868419765320247,151.21136760418875,106.56585456259465,127.52073965537383,87.68611413804393,103.48914240688696,105.67897310534185,127.76473520027768,129.68117819944553,149.0,145.0,125.0,121.0,101.0,145.0,125.0,169.0,-0.28863239581126116,0.06585456259464523,-0.49576977858842347,4.853566968232608,-0.15871312358709203,0.028860238524698874,0.45704289258537295,-0.15178883352148623
80,4.0,0.02115953395720771,-0.3244703110283549,1.8748827052248824,-0.08554324533216606,-1.5798332964424562,0.004124826534553705,0.4920039825566979,0.1786260461785428,0.630431365990489,3.035822818761891,0.008682129197840173,1.5869330982094874,151.7148858245455,106.55513690847012,127.80770128017672,82.82285255865398,103.68813744370155,105.75197409528533,127.60391706429468,130.0050912927154,149.0,145.0,125.0,121.0,101.0,145.0,125.0,169.0,0.16261309727274692,-0.07895400062080354,-0.19229871982328547,-0.17714744134602853,0.05321680878091528,-0.0802254511999272,0.26839074850519223,-0.09578590026704747
81,4.05,0.02158939470468102,-0.3219348719238324,1.8733334459213014,-0.08732662555265902,-1.5801852986827916,0.0043224395076530975,0.4934877040915609,0.17883764541980607,0.6304517137097436,3.0350252271830795,0.009008136783195266,1.5871225187365374,151.18472819364825,107.63689346839772,132.7331362529916,83.30721897298639,103.81597908423643,106.53439518490892,127.17482962717332,130.8836216331858,149.0,145.0,125.0,121.0,101.0,145.0,125.0,169.0,-0.34708998816993614,0.35280255930680704,4.713905483760852,-0.24085795009053607,0.2110129442815782,0.13710398852065175,-0.10185882598570853,0.2125976680442017
82,4.1000000000000005,0.022915285259542895,-0.3188811539767449,1.871517451269348,-0.08910971021856717,-1.5811372405364024,0.005633083451781484,0.49509828678917617,0.17944953347109197,0.6303952917224789,3.03446598135415,0.009814483589810945,1.58703970922798,146.70204553719108,107.90775037947647,127.99589129912495,83.79503100815921,103.36140259237825,106.81038243872045,127.41049661695145,126.69309532438386,149.0,145.0,125.0,121.0,101.0,145.0,125.0,169.0,-4.856777992220672,0.016347664544339363,-0.044108700875048173,-0.31791016831137736,-0.27268831671266536,-0.2305266521886453,0.12010360385101258,-4.658433059895618
83,4.15,0.022873186264989798,-0.31740837266291466,1.8715366135833076,-0.09095230374287055,-1.5812539696781052,0.005699408528700989,0.49600865925974613,0.17943694395108056,0.6298654561215303,3.0341125810995875,0.009919333772487984,1.5869150763541244,146.4068467145058,102.78254821466005,123.1196760516299,84.78883301838934,103.81921872261735,112.11900441349192,127.41153017160431,126.53538421490765,149.0,145.0,125.0,121.0,101.0,145.0,125.0,169.0,-5.149971467312382,-5.40836087624903,-4.88032394837011,0.288833018389334,0.19309259649122618,4.738373782861295,0.13484171844527182,-5.135639750233956
84,4.2,0.022305738495308702,-0.3163934143073064,1.8720093402848326,-0.09265513847591222,-1.5809793239670356,0.0042497562283179136,0.49673296899181585,0.17918310631788628,0.6292335994892352,3.0339113226505083,0.00979764597235434,1.5878151756029977,156.97120969305163,108.42039117199324,127.87113247456355,85.14688352693506,104.06635204354038,107.64466238060717,122.58239831548894,131.74158523533828,149.0,145.0,125.0,121.0,101.0,145.0,125.0,169.0,5.40364212548405,-0.07285207124999757,-0.1335845065685257,0.413392960897328,0.5235592507475744,0.09060832655312319,-4.752393807049348,-0.18401651520877302
85,4.25,0.0229897689075238,-0.3133099551824512,1.8698625037192036,-0.09413424613314492,-1.5815011333241422,0.0051546967166111735,0.4984681323869613,0.17952052553410638,0.6293429728941857,3.0333616163058807,0.010217573027905625,1.5875385218357836,151.35686479289686,104.41119902826011,133.0989590869774,90.34622092302884,98.75873666756513,108.54118054896739,127.7126220928195,132.38455503004573,149.0,145.0,125.0,121.0,101.0,145.0,125.0,169.0,-0.2268456143429611,-4.670248935540802,5.103676068109465,5.079711489066569,-4.831353422524961,0.3339733417601828,0.4887090493412346,-0.18935801343252542
86,4.3,0.024173509048758035,-0.3102764926829633,1.8674334734422517,-0.09278831947477117,-1.582228006573719,0.005929522683433941,0.49986389550045685,0.18008368648720985,0.6293349684357431,3.0353025718451256,0.010873123770367811,1.5878954905495895,151.3383885711281,109.05857976233128,128.31321086817624,85.13764500429124,103.73550667300411,108.00003811638354,132.69612582704605,132.4977098741651,149.0,145.0,125.0,121.0,101.0,145.0,125.0,169.0,-0.27385632683109434,-0.08427738052586789,0.2872674719498263,-0.14537386363327637,0.12115689721935446,-0.24659865491691285,5.444498928998325,-0.17691051629043583
87,4.3500000000000005,0.02410452852359546,-0.30751436589064474,1.8656540687586451,-0.09447823061953198,-1.5822797774553674,0.005384289250851104,0.501561382335236,0.1800784489547967,0.6293679055755418,3.0346026227272933,0.010975513107584055,1.588354440955206,151.58511975706836,109.84411491782437,128.04072918596904,86.49235122449538,98.53892508700372,108.31732117219752,127.32167094849275,128.3271915465123,149.0,145.0,125.0,121.0,101.0,145.0,125.0,169.0,0.001786423735010739,-0.00047967677022057607,0.026775697596943756,0.46909541054189535,-5.009173347000757,-0.6222761432387284,0.09223371905553183,-5.05808983876909
88,4.4,0.023349689332570644,-0.3050676508411536,1.8634344434420402,-0.09412447513313094,-1.581823777216477,0.005023508771475171,0.5030693339940743,0.1797720822151847,0.6296178538683962,3.035190528113065,0.010560348361957373,1.5880113917895635,151.71730038297872,110.49812600579547,128.09006332917008,86.60336086733378,108.48111036174106,109.59918630023101,121.93349921943343,133.5887256297236,149.0,145.0,125.0,121.0,101.0,145.0,125.0,169.0,0.13358997573892678,0.2877187659764621,0.09006332917008829,0.31021665929594044,4.914146076026762,0.30007915737387325,-5.283892084914406,-0.10257871810249056
89,4.45,0.024814247473949447,-0.3023681947822414,1.8630760198335912,-0.09738019443900425,-1.5829642023416417,0.0064124158696512445,0.5044915879106839,0.18044951720786578,0.6288804015472886,3.034255431810506,0.01154597583789519,1.58796587430366,151.31688137167748,110.42438299315101,128.00244722239077,86.68187852992189,103.52007105861465,109.6235162908617,127.12055415269732,134.48169101330973,149.0,145.0,125.0,121.0,101.0,145.0,125.0,169.0,-0.2664519616558626,-0.42021160144357894,0.002447222390758851,-0.31812147007810493,0.005529671590042413,-0.3048953422479231,-0.09019853547471345,0.08384155094411959
90,4.5,0.02553976691577864,-0.2986898636221942,1.8608667428857144,-0.09957941292553851,-1.5835368678439279,0.006829220571855199,0.5065944014616561,0.18081900187493172,0.6287890421279764,3.0335209485197545,0.01206600513006778,1.5882072330041443,151.60485603019302,106.9489311308811,132.7521608431962,87.612523163244,104.25388337396923,110.77618120707974,127.32579020509372,134.98769970019595,149.0,145.0,125.0,121.0,101.0,145.0,125.0,169.0,-0.04536818505361173,-4.716988151630102,4.703209794245167,-0.21498266426182208,0.7761055961914504,0.049514540413072156,0.041625346091555944,-0.29646515880624186
91,4.55,0.02732424500726305,-0.2939624536374792,1.8581152039167215,-0.10157844910777403,-1.584803452361359,0.00783674095085729,0.5090691031518162,0.1816787448750871,0.6285035187369361,3.0334815340833767,0.013218386460354873,1.58885366807155,152.1005552142017,112.2338980882727,128.41591761448058,88.1058318205697,108.39494347616,106.74684435789243,127.64372583366635,136.41743422973892,149.0,145.0,125.0,121.0,101.0,145.0,125.0,169.0,0.4054879496277187,-0.27058621666003324,0.2696911993862477,-0.44605497188312726,4.824787574155537,-4.734224684423833,0.24199797189529218,0.39151630317302544
92,4.6000000000000005,0.028544474920148666,-0.29007946563689124,1.8567461591707186,-0.10532730921909694,-1.5858326876016875,0.008820801009953083,0.5112543306922774,0.1822719630529631,0.6278949251223721,3.032225804389236,0.014123308466340377,1.5889673910447284,151.64225557705913,113.16112064570275,127.79631030214156,89.24446396532987,103.6028492071234,112.12579011969534,132.33721046800207,137.14788865017601,149.0,145.0,125.0,121.0,101.0,145.0,125.0,169.0,-0.0793479864152698,-0.28431365273822795,-0.3324953184673247,-0.08340488712915524,0.018404762678955907,-0.2119876580824339,4.937210468002068,0.17369510178891756
93,4.65,0.028592829693466104,-0.28610283370968936,1.8541376491651116,-0.10757747084560432,-1.586000787887344,0.008350119718555149,0.5136648356354876,0.18234126287776903,0.6279063196275365,3.031349513653892,0.01432846576371473,1.5894508266660101,151.50114603654853,113.8504402277826,128.0798544916469,90.0842557912749,103.69696034067863,113.17110452687874,127.35251513253301,138.40080895720897,149.0,145.0,125.0,121.0,101.0,145.0,125.0,169.0,-0.2039537417219816,-0.5575420338581931,-0.05007590278467835,-0.15936369828426095,0.15150579522407756,-0.11492651524986144,-0.01793454626784277,0.4693314411489989
94,4.7,0.029738923361394054,-0.28071108856266225,1.8509515952918303,-0.11094360089925903,-1.5869164648718748,0.00895539086488606,0.516744741360548,0.18293902929112554,0.6276998263318265,3.030178262426437,0.015161031095636875,1.5898773747729902,151.86056457616317,115.57435142745054,128.31436141864057,91.3781111896293,103.60866391821648,114.40555283090556,127.1974298092366,139.7454865174344,149.0,145.0,125.0,121.0,101.0,145.0,125.0,169.0,0.09664475433690047,-0.018076189475965922,0.0637813722368667,-0.1856939147790682,0.07105329874745303,-0.12542062042187974,-0.10149492194620091,0.506776840015015
95,4.75,0.031045755366901684,-0.2745630267345085,1.8472464766729635,-0.11470933290956076,-1.5879617234638035,0.00974133329511151,0.5202588472198725,0.18363205803909352,0.6274843959606793,3.02884048262298,0.016099672766487463,1.590266457907717,156.76388243178084,116.88563780586769,133.1687231979528,92.96688982799269,103.65339926799969,115.62668185817338,122.10176338651667,135.76530415626962,149.0,145.0,125.0,121.0,101.0,145.0,125.0,169.0,4.957140858747126,-0.044699272783994624,5.037386792422826,0.08670549619545236,0.12895482355525398,-0.2399848084932817,-5.15678362203034,-4.8201659292004635
96,4.800000000000001,0.03222913648613268,-0.27016152632599866,1.8448092936202416,-0.11624638503275753,-1.5889524827906225,0.011697629173780477,0.5226008701426442,0.1842451338578831,0.6270361674096042,3.0292218004167664,0.016870030139590413,1.5894017358509513,151.74896831729336,117.33143988694657,127.80266638411673,93.64790192392584,103.31170743584624,116.46185351199627,122.23639639934287,141.57390209003967,149.0,145.0,125.0,121.0,101.0,145.0,125.0,169.0,-0.05590973148714488,-0.2561432616121894,-0.46400028254994624,0.16744215381090202,-0.16741344327464278,-0.05463000448724985,-5.091961809612363,0.24554388108444147
97,4.8500000000000005,0.03470492832767036,-0.262250852166813,1.8404607447528312,-0.12104396715702137,-1.5908329014076887,0.013993708934110671,0.5269386763616057,0.18553350042194333,0.6264117659027768,3.027931858423878,0.018465639468209907,1.589363423592138,157.07394903478954,119.24868868773396,128.54213382065444,94.70812103447551,103.76221981441928,118.64436342582705,127.2865655806199,142.58848528031368,149.0,145.0,125.0,121.0,101.0,145.0,125.0,169.0,4.940318745257228,0.0036998235914145585,0.2448987976129502,-0.328745324971487,0.273184726699981,0.4338371100375705,-0.1180954363292611,-0.3670231942625941
98,4.9,0.03626519377289794,-0.2534981035462094,1.834579090055974,-0.1251883927172881,-1.592145508648131,0.015567304620607292,0.5319489199619326,0.18642552056011719,0.6262768043020887,3.0266208013816076,0.019568120720446648,1.5891855025596695,151.95237998840614,121.03117243634534,128.16140359974878,91.7003906497639,103.5908881410513,120.08066135503643,127.40585072762192,144.80539561039527,149.0,145.0,125.0,121.0,101.0,145.0,125.0,169.0,-0.17542270217684008,-0.06972442464121321,-0.13244605856555938,-5.194825751147267,0.06676533403375251,0.06311749538729826,-0.05177639102214161,-0.06960438960474265
99,4.95,0.03919931939216692,-0.23883969709084774,1.8251968218323018,-0.13413720947865615,-1.5945495811828705,0.01800892357088202,0.5404290734746735,0.18811347404999973,0.6258607013308752,3.022884508651262,0.021604609145496282,1.5893390927136748,151.76551371911503,129.6355766935799,128.2249038007623,100.36776290790007,103.68398071207002,123.39322361814098,127.40191652884113,143.02648438639642,149.0,145.0,125.0,121.0,101.0,145.0,125.0,169.0,-0.4489282940140726,5.119165315024106,-0.19290441841578482,0.08922409511469388,0.16554253419583187,-0.12521455973320894,-0.10759721323076533,-5.404805254195549
100,5.0,0.03830165064938784,-0.23793413290324006,1.825060901451793,-0.13501130190804567,-1.5941473795202947,0.018057465905372716,0.5411155610878964,0.1876853375622905,0.6255839279689068,3.0227519052348155,0.021186432645464895,1.588436148463834,146.99737294855257,124.38327648749618,128.4003819590829,100.52262378453109,103.50950386409103,123.7252890797302,127.2323460288483,148.54635692913013,149.0,145.0,125.0,121.0,101.0,145.0,125.0,169.0,-5.220967662801137,-0.265195128224346,0.08972436271103464,0.09178478226351584,0.05928741387458599,-0.004148149707014883,-0.2435449564766497,-0.13498478994744303
101,5.050000000000001,0.03932719803467011,-0.23241451544956293,1.8223955635623623,-0.13887971900522933,-1.5950922697754617,0.018949058361882543,0.5442666673360551,0.18828146421163988,0.6248645975102528,3.0216915137519895,0.021996720058228152,1.5884425827095927,152.50063403695904,125.95756426898643,128.1190784287691,101.73576305579053,98.52088943875286,124.85641991559258,127.84269590865195,150.39614578378718,149.0,145.0,125.0,121.0,101.0,145.0,125.0,169.0,0.20458140538008807,0.018967777758363478,-0.22332519934884143,0.08270183130073927,-4.930514448936125,-0.04422803257157245,0.36051561515089825,0.4150137083154983
102,5.1000000000000005,0.04055559785811047,-0.2222708290349198,1.815187612484472,-0.14317105695949195,-1.5961998673568676,0.02042688412743976,0.5501930665435174,0.18910028750127955,0.6247241530264447,3.020307237486873,0.022892347365018096,1.588040446360003,152.1737252910351,123.43889709336383,128.11083832795492,103.70458533100077,108.5545553263702,127.12908188373909,132.49896921671336,152.08409766816936,149.0,145.0,125.0,121.0,101.0,145.0,125.0,169.0,-0.14275822544839753,-4.754509500042762,-0.2315653001629972,-0.0754600204731452,5.049155758335638,-0.03722481172526907,4.998969216713369,-0.1742356651639741
103,5.15,0.041461134642481134,-0.21600126612258608,1.811992978425006,-0.1475909720601125,-1.5971394346807086,0.020591985800581636,0.553857671243006,0.18966318121279757,0.6239588931245807,3.018937540229796,0.023773246074791782,1.5886367899505403,152.3313510653615,124.49215843671458,128.10180916950077,105.17058719757023,102.89878941409467,123.56064489487697,127.68620035763684,153.69570169057377,149.0,145.0,125.0,121.0,101.0,145.0,125.0,169.0,0.00019638126564694024,-5.106970103590428,-0.31074688431090897,0.02036298232359166,-0.5542020388967885,-4.962859378627297,0.1862003576368412,-0.04596497609289626
104,5.2,0.04362992851022618,-0.20483123049308238,1.8052440906059442,-0.15354651728831126,-1.5989959354828862,0.0223647667625384,0.5602214040358333,0.1909864845764777,0.6230300763270297,3.0173325512342144,0.025364272847134037,1.5887811751457002,152.20914355071312,131.52835400876253,128.0981309999607,107.12785316897036,103.4588946794082,130.94075235209985,127.32238811114613,151.25769951930292,149.0,145.0,125.0,121.0,101.0,145.0,125.0,169.0,-0.2659106792217937,-0.4109084641224846,-0.34456562925279766,-0.2698996400184119,-0.021874551361029365,-0.025059613712112367,-0.2343129197817182,-4.950547903377485
105,5.25,0.04343279670101241,-0.20277485937009576,1.804332173298988,-0.15468269703462667,-1.599041374114984,0.022474721952816523,0.5614600681608225,0.190921857229369,0.6226441984670026,3.017313318221883,0.02538875751929841,1.5884678886102288,152.7768325127064,132.66604009165894,128.4750431446549,107.860889233146,103.38668976740678,131.24209081584502,127.55714353945989,156.69357026348106,149.0,145.0,125.0,121.0,101.0,145.0,125.0,169.0,0.3254286250173935,0.3528651456546281,0.08751530501126244,0.07247052490547622,0.04135078435592401,-0.08629901466347271,0.011876049747952068,0.06805586018888221
106,5.300000000000001,0.044476955803091744,-0.1950979772047874,1.7997147836021057,-0.15909002360681734,-1.6000883901489003,0.02363353283283587,0.5659337351573013,0.19161704722476836,0.6219797630129159,3.0159148268466685,0.026247792209664708,1.588196784087199,152.68912340794893,129.17048146264796,133.8183986150897,109.32217155461568,103.19497684067775,138.20874853594898,127.65259574434577,158.57282469121375,149.0,145.0,125.0,121.0,101.0,145.0,125.0,169.0,0.18696823553513656,-4.8812426752830875,5.388554517094163,-0.11212688636427803,-0.2096841762713982,5.111290908830334,0.1017827362156965,0.12363769934383494
107,5.3500000000000005,0.04525730386130844,-0.1922524125336662,1.798241585447193,-0.15967261219284312,-1.6007407361207866,0.024039114010050433,0.5674033458504825,0.19207025714730536,0.6214413509967474,3.0166697440715744,0.026866401803993727,1.588514847340506,147.73669391101944,135.0364296602187,128.08236474922606,109.72148390122777,103.52444764474743,138.28635975429302,127.37872677986093,158.72473994117217,149.0,145.0,125.0,121.0,101.0,145.0,125.0,169.0,-4.826746949195604,0.6708382623692144,-0.40657330387127727,-0.021878930630634,0.17918448685268945,4.915833438503526,-0.2757447648545218,-0.0781055872831193
108,5.4,0.04509664785081613,-0.19206260588390656,1.79873803062888,-0.1602416871600889,-1.6007120174844243,0.023706558254019683,0.5675112750222308,0.19198060538230896,0.6210719004953559,3.0167763710554207,0.02687762335882522,1.5886901061800087,152.78384558674068,134.3344616319782,128.90419300222592,109.64518952407889,103.6269187531496,138.0814271749538,127.84493079308596,158.80519009220973,149.0,145.0,125.0,121.0,101.0,145.0,125.0,169.0,0.24521897729863568,-0.038928925961735056,0.4528655685976228,-0.09374852901845235,0.3075910220571502,4.709578435458012,0.2245226298206498,-0.023381336361701883
109,5.45,0.045230971073493276,-0.18952165581833524,1.7973740069089734,-0.16149418129066806,-1.6009579885777354,0.023755795587016237,0.568996060226962,0.19209916764115295,0.6206999526171124,3.016696630143741,0.027112829796660562,1.588742412942183,152.49265119150797,134.91219919718466,128.95446256191704,110.24960461191993,102.88478791911285,128.6314365438302,127.55238377622952,158.87903457512928,149.0,145.0,125.0,121.0,101.0,145.0,125.0,169.0,-0.02760467203145265,0.05292414387976142,0.47774415836938816,0.08995937910397481,-0.3803477802608531,-5.264179322558095,-0.009482349531131957,-0.44550903541837994
110,5.5,0.04718666545676564,-0.17845660635099847,1.7906796620481256,-0.1675399099422492,-1.6027378028529755,0.025841529677984365,0.5753630861612722,0.19336850156452604,0.6196091995662801,3.0149587556436472,0.028578870612939365,1.5883603347258668,147.5025454048663,131.8752943333427,128.51169463898856,112.48260374475635,103.54238203194366,136.5636949492563,127.88366685941129,167.094589430517,149.0,145.0,125.0,121.0,101.0,145.0,125.0,169.0,-5.212348212154975,-5.3842801347424105,0.011694638988556527,-0.017396255243659304,0.2694653652769976,0.274111615922963,0.10766685941130111,5.200589430516993
111,5.550000000000001,0.05061338746533384,-0.1655286587244733,1.7835352829675974,-0.17515609941350618,-1.605479662000623,0.027613866799341746,0.582559922388942,0.19547775861984304,0.6178558621933607,3.0130260255585446,0.03102760810034487,1.589628780246539,157.72930840592912,145.06446018634574,128.60400399152,115.15628149829166,103.35133200030526,138.74244537941885,127.78103935809413,164.97017424446346,149.0,145.0,125.0,121.0,101.0,145.0,125.0,169.0,4.698123374744076,5.033275155160704,-0.019628393600356397,0.03155502126758809,0.05709331717769452,-0.2616698469186091,-0.06816699111222214,0.17850757779681875
112,5.6000000000000005,0.05150977489103603,-0.15769640548757202,1.7782927165705713,-0.17914869995129967,-1.6064547385545032,0.028956766759351105,0.5871669308285227,0.19615475014325337,0.6173225736931718,3.0115386576652297,0.03176850359074037,1.5890210492912111,153.28608192910937,142.26843247922244,128.83537812253059,116.57208386727345,103.41795952601517,136.01820590257518,132.9751558771337,171.6667570830855,149.0,145.0,125.0,121.0,101.0,145.0,125.0,169.0,0.11697963265842459,0.40413185291762393,0.14172385557216013,-0.2550496119388053,0.10979626070905185,-4.8307736892615365,5.057670611907741,5.038073389568807
113,5.65,0.056137301233946335,-0.13133369441981024,1.7610806769854728,-0.19372063205777668,-1.6106078312014738,0.03248089796161091,0.6025196070978427,0.1993890045507541,0.61497626664857,3.0059944585164535,0.0352417820678615,1.58943044271629,153.83628815106007,153.30787222445218,129.09599442415006,122.92338353090739,108.82552320404349,147.06194350523919,127.9764562999633,172.99296328332156,149.0,145.0,125.0,121.0,101.0,145.0,125.0,169.0,0.22265178742370287,5.22109536494805,-0.03648420832856998,0.2139818215056838,5.280613024402761,0.008051289670321654,-0.2196975461905315,-0.27049825513997466
114,5.7,0.05635292287577798,-0.13071913045111172,1.7611663102557404,-0.1952118503422331,-1.6109243830411293,0.033082534976609956,0.602836642739288,0.19951056137878717,0.6148006425179622,3.005055975175242,0.03542801740092985,1.5889720421040774,153.84956677439968,148.48919713134546,128.77477039886833,123.06449179199583,104.0442476393392,147.41577713998285,123.33784653720062,173.41058903833851,149.0,145.0,125.0,121.0,101.0,145.0,125.0,169.0,0.2557523414099943,0.15930022412898195,-0.2824329909621881,-0.12406753003806541,0.49314543493038954,0.07509577725737933,-4.77369192433784,-0.08941096166149698
115,5.75,0.057125195873906964,-0.1291567282873296,1.7603641115123851,-0.19601270384136127,-1.6115341920396506,0.03410758928441027,0.6035653389586804,0.19996658845352183,0.6145440974490768,3.00489512004558,0.03587883078821616,1.588641491332058,153.80054482694592,143.09300332154294,128.88187272320116,128.90043910783078,103.1858357198657,142.51281222792613,127.85013327099009,173.98890655389948,149.0,145.0,125.0,121.0,101.0,145.0,125.0,169.0,0.07809584735409941,-5.572302800906055,-0.24791451084141072,5.489800809958425,-0.2921642801343032,-5.199187772073842,-0.38063595977914344,0.2292911692840908
116,5.800000000000001,0.05883250208476998,-0.12333364189347495,1.7565758774708398,-0.19830593977276445,-1.6128844651853322,0.03550654112760254,0.60672840688105,0.20107888704287688,0.6138514772268107,3.0045510387376333,0.03702035722263255,1.5887700913480307,153.82630881844196,149.6212950673517,128.90982984342608,124.4996089856398,103.77507600317266,143.55434495033566,128.41497961640786,174.83102420909492,149.0,145.0,125.0,121.0,101.0,145.0,125.0,169.0,-0.015476171416051326,-0.1860071638856313,-0.3486447328451085,0.04621915513132032,0.1243774003782519,-5.307930498766131,-0.03712766328560687,-0.15939724684376733
117,5.8500000000000005,0.06117965740173137,-0.11248519224162878,1.7497015061819043,-0.20467410792810625,-1.6149552159412721,0.03790554609238361,0.6129428858081213,0.20272228530733924,0.6126273387628599,3.002018713993444,0.038646477361252936,1.5883655352941026,154.08316831755167,152.1555009784242,129.3885445044482,131.66085209636807,103.81759650952895,151.40000435008986,128.83269108803125,177.73643840181654,149.0,145.0,125.0,121.0,101.0,145.0,125.0,169.0,-0.0898699118245801,-0.13222537972470527,-0.08179447860266074,4.754072435351127,0.03696409846177063,0.018581425188663882,0.20557244396346935,-0.026273462590245707
118,5.9,0.061183351816055165,-0.11373483289477981,1.7500999543249147,-0.20304899968406032,-1.614891032080915,0.03790740641862733,0.6121332058093717,0.20267694875260248,0.6129651845348538,3.002755433203438,0.03860430332935124,1.5884029704143163,153.88166491485646,152.4144763596996,134.42990459011628,131.41201997515904,103.4517166319302,151.55609192831366,128.99812500579273,177.47697486289053,149.0,145.0,125.0,121.0,101.0,145.0,125.0,169.0,-0.1871609960747203,0.43674356617732296,5.023124929099334,4.912019975159044,-0.34193416172060626,0.5560919283136608,0.3643489147111503,0.10695588755845045
119,5.95,0.06170107408685599,-0.1141583659133425,1.750004496970111,-0.2015228365460402,-1.6152032951499509,0.038508828631994785,0.6116870909213087,0.20294251488495663,0.6131337191295718,3.003699591208956,0.03886895785131536,1.5883194395863112,153.87314970053413,146.6470682905647,130.0765959734881,126.50905607035465,103.79789503733765,151.0321681013556,128.60297650633228,171.48404218181827,149.0,145.0,125.0,121.0,101.0,145.0,125.0,169.0,-0.241369726868726,-4.968473631725676,0.5565114068919395,0.30609623948784875,-0.07141189335542107,0.30741562610807566,-0.03200448226086092,-5.438011050120892
120,6.0,0.06045755070205949,-0.12050392277203192,1.7537479606162423,-0.19679563270323985,-1.6140978248350146,0.03726243502728366,0.607972070778956,0.20203980774721114,0.6139300356657473,3.005891294802549,0.038027764060019134,1.5885409909602681,154.04715152148785,149.8145059154223,124.55209639471205,124.49227020597975,103.78961147421296,148.92132859334862,128.53706665052943,175.292106575764,149.0,145.0,125.0,121.0,101.0,145.0,125.0,169.0,0.09000866434497844,-0.12631041110829733,-4.818116371245385,-0.04390000678620884,0.005180336488406169,-0.0866554385875203,0.03706665052943001,0.1924897175264615
121,6.050000000000001,0.060563491257543234,-0.118745870435228,1.7523173764857667,-0.1977630340959502,-1.614252936887234,0.03729251770927178,0.6090691803253757,0.20215680522360543,0.6139309686001727,3.0052652726816365,0.03815412309476939,1.5885723070743154,153.91447162303217,150.58031824093314,134.1156399056012,120.36609203377881,103.94308655516213,154.70053443630883,128.4369203019075,175.6979597162346,149.0,145.0,125.0,121.0,101.0,145.0,125.0,169.0,-0.06113813306538401,0.2022694604453459,4.643417683378974,-4.719378051691284,0.1624541440949417,5.3191115114076535,-0.1429276068377614,0.03256047669089051
122,6.1000000000000005,0.05982793145248522,-0.12277368810707268,1.754717465817265,-0.19504128479629745,-1.6136311951459978,0.03666283886902866,0.6067301359357942,0.20161841989745818,0.6144373192478388,3.0064009456089122,0.03766848694217685,1.5885861902785536,153.3696190094469,148.95197727727808,129.4953118933966,123.84256192065287,103.44018191010065,142.939696937345,128.09464980201935,174.85270778891515,149.0,145.0,125.0,121.0,101.0,145.0,125.0,169.0,-0.4989641527707442,-0.3868317576295304,0.1141555764801362,-0.24523251189531184,-0.2988619146005468,-5.394964417236669,-0.3159965858133607,0.24054048853490936
123,6.15,0.06146902310782121,-0.11640429438802302,1.750620985963427,-0.19835562192624723,-1.6150170730301854,0.03833786597590283,0.610302016966028,0.202731125732909,0.613705615549492,3.0052723226742493,0.03878088881575176,1.588342660323354,153.96931817709176,150.78084126593603,129.5967631698355,125.91037346999424,104.50577646274114,155.10594447328265,123.92490669764034,175.77326223442466,149.0,145.0,125.0,121.0,101.0,145.0,125.0,169.0,-0.0388119042090388,-0.08297987227536716,0.1572727239756472,0.4560210283806498,0.7101415421062122,5.149595266933441,-4.622986022666185,-0.3359331678741867
124,6.2,0.06095822916417948,-0.1204738385042945,1.7531759945731578,-0.1956827434413424,-1.6145191639186747,0.03800374543584217,0.6078795041331015,0.20231235061979064,0.6141540861736761,3.006442539679893,0.03837772923696891,1.5882735950106022,154.22522452111082,149.808116574314,129.75146433565777,124.09742098698072,103.97518777585269,148.81639177389582,133.07116294371994,175.01629751182682,149.0,145.0,125.0,121.0,101.0,145.0,125.0,169.0,0.265957718666808,-0.006547376806172856,0.3362100983696354,-0.3665620638667357,0.1588205103836141,-0.035903635285833346,4.571162943719937,0.016297511826821622
125,6.25,0.06088605847029127,-0.119379390005947,1.7520108385866822,-0.1958274295243876,-1.6145385017116833,0.0377896286855246,0.6085729412475157,0.2023031022087686,0.6143015318013397,3.0062329443413893,0.038413746443595805,1.5884016848900653,153.8843639309757,150.29069467612064,129.1283835935878,124.92442048562327,104.30178296349398,149.5988280914175,128.2128180327741,175.36963927818275,149.0,145.0,125.0,121.0,101.0,145.0,125.0,169.0,-0.06879289183490934,0.2968046557540422,-0.24608449151855571,0.2137821877509355,0.4801396769208319,0.5206717787922416,-0.3350746875324373,0.07653582990688657
126,6.300000000000001,0.06102708615717356,-0.11920123524669624,1.7517244511987267,-0.19563056444875526,-1.6146655977029782,0.037974506825073195,0.6086557566032671,0.20238537773907786,0.6143604021333,3.0063163496703798,0.03852069881708106,1.5883462092089975,149.4207096937334,150.48947424836987,129.06300087455136,124.66407586778254,103.60220801322787,149.12249186531028,128.6708994982305,175.14680889993102,149.0,145.0,125.0,121.0,101.0,145.0,125.0,169.0,-4.554800510348263,0.48335179939027084,-0.3114672105550213,-0.0465624300897886,-0.23179198677213483,0.022491865310296795,0.1068459609456181,-0.16485457999249678
127,6.3500000000000005,0.06137676671720804,-0.11873608542361413,1.7514776859314845,-0.1959647482151503,-1.6149372155889141,0.03822175200830813,0.6088730166886274,0.2025915252888112,0.6142843093037216,3.0061797381651716,0.03875281199148544,1.5884103886380327,153.5366660174623,155.00586422307663,129.4520168545144,124.68655310790827,103.78124008659415,144.2621275412328,133.85203526470548,175.57300972806738,149.0,145.0,125.0,121.0,101.0,145.0,125.0,169.0,-0.46333398253769537,4.893847929797591,0.027709818267042902,-0.1172848451834138,-0.017964684777613704,-4.930715401113128,5.26268165253818,0.18517702844761588
128,6.4,0.06218720632535302,-0.11383110235025473,1.747962927362579,-0.19869452021640388,-1.6157377812674456,0.03921508165677112,0.6117706608184859,0.20320303886954763,0.613984162652238,3.004788764636928,0.0393557014732486,1.588075997978929,154.05595905245087,151.78730750838653,134.21705224818447,125.89106467910715,104.24097783473835,150.6667048011964,128.7951269276646,171.71314163995078,149.0,145.0,125.0,121.0,101.0,145.0,125.0,169.0,-0.03108548196208285,0.42698362174686927,4.717052248184474,-0.15999915068009984,0.3812940402719363,0.22796962333078077,0.12212312538324854,-4.997884976018799
129,6.45,0.061989339101784946,-0.11535612038452792,1.7486709788741646,-0.19704421405490358,-1.615580095707558,0.03931673436235972,0.6108339196991288,0.2030364616193003,0.614257435592573,3.0056076047963596,0.039218184370014265,1.5878301477564987,154.19014606960178,146.0601395419605,129.4979033404794,125.21168541784299,103.70458746618574,145.64505809492337,133.3411586782255,176.230212326909,149.0,145.0,125.0,121.0,101.0,145.0,125.0,169.0,0.19624363057739191,-4.897177531210253,0.10557924666277363,-0.33842119196511655,-0.12175983920347283,-4.386878032821142,4.7197437642675615,-0.02026568456327482
130,6.5,0.06273255710900472,-0.11203131993221893,1.7461489413567808,-0.19809127282028083,-1.6162137363515,0.03971762724222794,0.612701992679348,0.2035563023165122,0.6140551972536136,3.0053267618955397,0.03978260217533407,1.5880810953414237,154.14661416861415,151.3909291364467,129.31728651910933,126.58660141253262,103.68540117429399,156.02665963540957,128.8700123314677,176.7177529655554,149.0,145.0,125.0,121.0,101.0,145.0,125.0,169.0,0.05049964918675775,-0.2675575711197695,-0.20288333227070388,0.33182434246891307,-0.18312472212035455,5.229846886405586,0.23382185527721533,-0.17938989158743557
131,6.550000000000001,0.062004133477701284,-0.11454442316816493,1.7472655247540532,-0.19608905847441882,-1.6156188874867397,0.03886718042038417,0.6113102473677239,0.20306565733051204,0.6146169050787168,3.005976559950618,0.03933031377084186,1.5882985600469037,153.89298138930045,150.89212384863208,129.41053603211006,125.65741493337227,103.47830739762185,150.22152175556263,128.58105147302757,175.83120841642034,149.0,145.0,125.0,121.0,101.0,145.0,125.0,169.0,-0.10701861069954409,-0.10787615136791139,0.0007695777576140144,-0.01986744454706237,-0.35569260237816147,0.12152175556264669,-0.042994328499137514,-0.5218450186941707
132,6.6000000000000005,0.062098342956289354,-0.11438854054407788,1.7468400047609318,-0.19564979671691596,-1.6156983975354313,0.039000617531082415,0.6113766843538728,0.20312120404432046,0.6147632370594529,3.006135447008113,0.03939877645913332,1.588256587791449,158.83928130228404,150.77555266992923,129.228266539766,125.60025609889172,103.8938224284171,149.8521935868324,128.6316293330289,181.3226170282774,149.0,145.0,125.0,121.0,101.0,145.0,125.0,169.0,4.839281302284046,-0.2244473300707747,-0.18149991458645354,-0.07702627902760313,0.04751504318755902,-0.22565072454484816,0.029334877961988307,4.980360814128265
133,6.65,0.06264660170881786,-0.11244551222859878,1.7450694636761206,-0.19590494871630248,-1.6161513320574725,0.03956581955930005,0.6124590510338082,0.2034923350033639,0.614799382230352,3.0060244208362907,0.039771985149942284,1.5881813965182354,154.51095206097574,151.144245798953,129.38561190899637,126.2868978492798,103.58768111895778,150.29875232702548,128.55275372285584,176.43936734808435,149.0,145.0,125.0,121.0,101.0,145.0,125.0,169.0,0.46207222390853486,-0.16125318271708605,-0.11438809100364448,0.23583401949255853,-0.2799078138485596,-0.1142911512353892,-0.12028643010783285,-0.21264030009923435
134,6.7,0.06281630932395066,-0.11205665399073039,1.7444544339753616,-0.195510857187982,-1.6162898068319809,0.0397857060067639,0.6126560900998465,0.20359845903815627,0.6149367788428304,3.0061759218560313,0.039886436693289805,1.5881208628003198,154.51784536601014,151.45400092900647,129.5539749139407,125.98589439535478,103.71869922222136,155.33409060601488,133.99899975405347,176.65678555864508,149.0,145.0,125.0,121.0,101.0,145.0,125.0,169.0,0.4749882231529973,0.07440909227177575,0.042247835049438485,-0.13990517820599016,-0.1607474180948484,4.877568866884437,5.339995922635837,-0.015628234458382607
135,6.75,0.06182253489833123,-0.11387720375678034,1.7448307130065803,-0.19378537377082683,-1.6155534042230544,0.03852494386406846,0.6117629152854827,0.20298235749021387,0.6156109425812667,3.0065253301562787,0.03933282515666397,1.588485127849555,153.92233251681515,150.94431392833496,129.35759069465414,120.97266843970411,103.82394231052643,150.40890548712133,128.12640394852585,171.37131979189752,149.0,145.0,125.0,121.0,101.0,145.0,125.0,169.0,-0.024606258695070233,-0.07405341860383562,-0.044978898493611814,-4.791785521751988,-0.03005768947356045,0.2629054871213363,-0.4178268207049289,-4.930603285025558
136,6.800000000000001,0.061102004724659764,-0.11571454147279736,1.7457918148924172,-0.19265831372155073,-1.6150502323571834,0.03807923670382962,0.6107897013149377,0.20251945421505096,0.6159551662670361,3.0068094518784605,0.038903712698223784,1.588283469640964,154.0535637890979,150.98833459879708,133.97576524318285,120.48230085469281,103.3879788784903,149.8838844635269,128.51223027309985,175.75764389211201,149.0,145.0,125.0,121.0,101.0,145.0,125.0,169.0,0.2033613599481052,0.20493378908049592,4.691264181611729,-4.969928444670251,-0.4112179086582925,0.08468767637830567,0.036222595556670054,-0.1387092748745445
137,6.8500000000000005,0.06134901995386555,-0.1155770810734511,1.745553096931987,-0.1922513157209078,-1.6152617220798415,0.03849048115063125,0.6108054408624223,0.2026599400643881,0.6159798599224612,3.0070984034096297,0.03907680703542059,1.5881082402496411,153.94506237264815,150.1140498889703,129.32112641424433,125.69448656136798,103.42912638259452,150.19584622650297,128.3250345641927,176.28002862019724,149.0,145.0,125.0,121.0,101.0,145.0,125.0,169.0,0.09812359713794652,-0.557378682458283,-0.014330061339535093,0.31656724077348847,-0.38850888794656885,0.4142831002504521,-0.15381158965344668,0.424259389428025
138,6.9,0.061536378607904396,-0.11525381619315311,1.7450261976592225,-0.1918437506653663,-1.615404163569603,0.0386604268891908,0.6109584067767238,0.20277494784168926,0.6160907091243218,3.0072948163528372,0.03920649484087339,1.588116746617541,154.05221144086184,150.60625720318959,128.95276759937474,125.31204591951158,98.09675804367768,150.0304914438298,128.29185597802652,170.9778706964646,149.0,145.0,125.0,121.0,101.0,145.0,125.0,169.0,0.19536072511543015,-0.08903932032780429,-0.4089345282848375,-0.06667748474374795,-5.720877226863408,0.24892831757726713,-0.18699017581962385,-4.877898534304606
139,6.95,0.06084411563015735,-0.11599484975914498,1.7444549870761437,-0.18972045633336831,-1.6148615325660574,0.03823876496414291,0.6106126702696512,0.2023713893971855,0.616692031674747,3.0081406396751613,0.03875662780497959,1.5879447613384523,154.13971539485644,150.56209076613425,124.19291503482394,129.80318196754175,103.52197048480203,149.26189298745783,123.25632801007606,175.4751263506813,149.0,145.0,125.0,121.0,101.0,145.0,125.0,169.0,0.3633178793284903,0.2536021532978125,-5.153238811329895,4.653609317969093,-0.25758863343444843,-0.11886853558826135,-5.11867198992394,-0.02871980316484535
140,7.0,0.061325437505449276,-0.11542204891184138,1.7439839355975346,-0.18979496517486005,-1.615199243626642,0.03884419518624416,0.6108618247242704,0.20265887853636572,0.6166691823444033,3.008133728764333,0.03901518718953814,1.5877831310770274,153.9825932888803,150.03259310471958,129.54367989873134,125.04684843146512,103.68198703695606,149.47760800729185,128.12354620600613,175.38470597266783,149.0,145.0,125.0,121.0,101.0,145.0,125.0,169.0,0.2050465113335288,-0.3270742549477822,0.18023903851627487,-0.20261393412628273,-0.10801296304394926,-0.010391992708142386,-0.3707066675571142,-0.24556222656586832
141,7.050000000000001,0.06151332836644219,-0.11510975217399544,1.7435143330159066,-0.1894392132307603,-1.6153509738862262,0.039073383082319335,0.6110049070571308,0.20277295821426142,0.6167556862713226,3.0083191092927755,0.03914555702839701,1.5877319331928277,153.7994731136877,145.42880252783544,129.25445593697717,125.65120429477628,103.54076458997693,149.19127215489286,128.92429771907962,174.7365955291808,149.0,145.0,125.0,121.0,101.0,145.0,125.0,169.0,0.021926336140926664,-4.930864831831926,-0.10898492323788835,0.4017419291848855,-0.24923541002307964,-0.2967278451071492,0.4060635540124296,-0.8891242404929172
142,7.1000000000000005,0.06176291029367098,-0.11469675403367274,1.7429690769702502,-0.18885751457024336,-1.6155215243020784,0.039049518878818024,0.6111736241017626,0.2029210170699116,0.6168071012670642,3.0087621636373556,0.03933745846536358,1.588000009857301,153.61417036549267,155.24220450569567,129.29993901059586,125.37812112429908,103.68123581641836,149.7318415438083,128.59067125710123,175.81650736692023,149.0,145.0,125.0,121.0,101.0,145.0,125.0,169.0,-0.1633764120540947,4.882537146028308,-0.083681679059309,0.1453625036094321,-0.1327641835816256,0.2838415438082747,0.0868251032550752,0.21073813615099518
143,7.15,0.06176975860175471,-0.11446682553156373,1.7424795883741035,-0.18874118773237303,-1.6155737550169311,0.0393733594023189,0.6113316769105459,0.2029316260555166,0.6169892200815369,3.0086034625718048,0.03933888896112114,1.5876726501387408,153.57665405980632,150.21764904436452,134.16540088203644,125.41169201040148,103.53053378294582,149.7557325144534,133.44190057126377,180.92771111727322,149.0,145.0,125.0,121.0,101.0,145.0,125.0,169.0,-0.20297171981945947,-0.1939933672778982,4.799809484186953,0.11491781685309171,-0.3211696238677967,0.11244594130709006,4.914873544236731,5.2443134338755435
144,7.2,0.06239995001745857,-0.11246984183748054,1.7406363560792286,-0.18877565442098376,-1.616072986652294,0.0397154526347534,0.6124112092126296,0.20334515781629514,0.6170212542471137,3.0086946739336393,0.039796023078764495,1.5879028625083598,149.11413175984939,150.777173455582,129.6038469946406,130.32435870483698,98.97061014056773,154.68626684934236,128.86331346851287,176.0452473223735,149.0,145.0,125.0,121.0,101.0,145.0,125.0,169.0,-4.775438792297839,-0.09603717836484262,0.23767997108600233,4.731210953230994,-4.905141362438284,4.756407129903487,0.33913551880301385,0.04137885041993894
145,7.25,0.06206311285594479,-0.11397358656059442,1.7408269663762326,-0.18656127136319478,-1.6157048253320925,0.03917225431554394,0.6115229578639221,0.2031109671697216,0.6175679580614019,3.009621493385608,0.03953961526238081,1.5881879497965434,153.77001297242802,150.15076156986228,129.0058732008778,125.41615218559866,108.59537369059484,149.20908699325565,128.14880953635654,175.80312646143048,149.0,145.0,125.0,121.0,101.0,145.0,125.0,169.0,-0.006384543099915936,-0.15772704297415815,-0.3958546608932516,0.20232929143018843,4.749373690594842,-0.1589130067443457,-0.365697233469379,0.32343593918677843
146,7.300000000000001,0.06246168228183091,-0.11392129417564245,1.741108320447263,-0.18709508816471088,-1.6160484271487379,0.039531208030916254,0.6114820794949335,0.20332566406939873,0.617406959001142,3.0093919802386426,0.03982523456493201,1.588177964013321,148.79460662279473,150.65934975915184,129.65770746631483,125.23784030118932,104.06008480591176,144.56520184911872,128.41550862932468,175.42133894655777,149.0,145.0,125.0,121.0,101.0,145.0,125.0,169.0,-4.982940154752055,0.2996823994844777,0.255979604543755,0.024017407020843578,0.210385407114153,-4.82758372202357,-0.10293797261705971,-0.0951659078111617
147,7.3500000000000005,0.06325955654141069,-0.11203420423291588,1.7398910648430395,-0.18792521256225303,-1.616665736809403,0.040291730286470706,0.6124723135058144,0.2038322116693503,0.6171660786000959,3.0091862496625117,0.04033363559141421,1.588134952094239,154.20348056202909,150.95681832840071,129.53932937017936,125.76930112809363,104.1860365940137,154.7408679867966,128.5432690757133,176.15915755843645,149.0,145.0,125.0,121.0,101.0,145.0,125.0,169.0,0.28954613579957444,0.09001504971216615,0.07581005687463743,0.23282044139834304,0.25003659401369416,4.840867986796586,-0.004993472549245662,0.20935060862950666
148,7.4,0.06292179908270512,-0.11364932831392682,1.740668367446208,-0.18670975635718134,-1.6163973413690762,0.039921434490468144,0.611547290588643,0.2035844494495915,0.6174973669625046,3.009579024046435,0.04012873431821259,1.5882133298012109,148.54098043293797,150.71028055618572,129.35116262215902,130.1465013817708,103.86515646669835,149.5690728483718,128.4953862794076,175.16148463192152,149.0,145.0,125.0,121.0,101.0,145.0,125.0,169.0,-5.257356365398841,0.39427224017739393,-0.07556151577202015,4.924518623150128,-0.020155404529012298,0.1686704338848612,-0.1080953453506205,-0.3220743622757685
149,7.45,0.06341841612227661,-0.11334816854022112,1.7403670845179802,-0.1864769229682368,-1.6167294317674612,0.04025803380136983,0.6116112491641774,0.20386750261063963,0.6174924091634654,3.009783089727545,0.0404250130248342,1.5883421474818777,153.8697360265542,150.18468223278427,129.25591386552713,125.01881929409396,104.07052934432728,149.4821677398041,123.56305129275731,175.2492491386674,149.0,145.0,125.0,121.0,101.0,145.0,125.0,169.0,0.0751302174255587,-0.10577419875100476,-0.18494634952662004,-0.18118070590604204,0.16471772108079055,0.11343026485421477,-5.129405186933211,-0.23044138357631613
150,7.5,0.06391522378465364,-0.11340386828501625,1.7404481223958657,-0.1861565857703611,-1.6170790571469107,0.04095451024809904,0.6114511503074415,0.20413919494657812,0.6174323219884673,3.0100874631110286,0.04069798811031411,1.5881168474695642,153.87868859216763,150.44930760478857,129.80600594755785,125.03148505519616,103.8133824038274,149.41033637212084,128.86745588910003,171.08841617754078,149.0,145.0,125.0,121.0,101.0,145.0,125.0,169.0,0.013264161525818047,0.24847944743867129,0.33390294326600484,-0.0028497087523373667,-0.10814677122289439,0.18297218701016327,0.14985434171125536,-4.277154422072396
151,7.550000000000001,0.06366052019175639,-0.11411404465706765,1.7406111937750994,-0.18527017896504638,-1.6169137921079715,0.04088921491306463,0.6110552862553357,0.20396886544423903,0.6176576782761175,3.0104331827397615,0.0405552232781226,1.5879608542624528,153.92851541181733,149.88948368868512,129.2723064439259,124.32356031511804,104.17733104899457,149.2403295902223,128.47432454356357,175.01491166182288,149.0,145.0,125.0,121.0,101.0,145.0,125.0,169.0,0.06431788095313584,-0.1187467639897745,-0.12554301843969887,-0.46568699670991276,0.2500583217218475,0.1332588831516074,-0.14046144865431262,-0.09598327981136132
152,7.6000000000000005,0.06376261616724266,-0.1139664462188823,1.7402875099486854,-0.1849706921423162,-1.6170135068954918,0.0410254657587692,0.6111203342119967,0.20402693619397455,0.617752827783933,3.0105484882292126,0.04064189038734613,1.5879195406087212,153.8584202516832,145.27300217818515,129.42209015001782,130.15002440819563,103.72221510509941,144.34066488314426,128.3734582729098,175.22482599867288,149.0,145.0,125.0,121.0,101.0,145.0,125.0,169.0,0.008935715600715328,-4.755863801196291,0.024240687652220688,5.360777096367677,-0.20505762217330745,-4.766405823926461,-0.24132771930807814,0.11393105703865057
153,7.65,0.06479591486353709,-0.11153301463879561,1.7383811003339247,-0.1851064287054709,-1.6177723804412727,0.04184655190628739,0.6123525661373703,0.20468434076945174,0.6175652812619337,3.0108835568113124,0.041310641835912994,1.5880570547133102,158.84967097352,150.3033987575915,134.30134529280147,125.21431889007647,103.94804390407577,149.45902889445105,128.79198734453308,175.93282898061503,149.0,145.0,125.0,121.0,101.0,145.0,125.0,169.0,4.911782774762241,-0.03821614924077398,4.818512674775722,-0.004565230095204666,-0.0058639115554894134,0.00612308282780691,-0.02390412833514912,0.47158867053749703
154,7.7,0.06506173650856528,-0.11113586327149871,1.7375092118522693,-0.18392589541671578,-1.6179944929584318,0.042372730626240696,0.6124945351063263,0.20484108657680536,0.6177827494416653,3.011553712564424,0.04149448111325327,1.5878004578936291,154.02892535404624,150.25083639128354,129.37237069510937,125.00551074515116,109.08594183728616,148.9882262302077,129.20397643110692,170.54912689651604,149.0,145.0,125.0,121.0,101.0,145.0,125.0,169.0,0.13680917147362134,-0.03547066265836554,-0.10831600016959622,-0.08032616472008516,5.14216673688455,-0.3009303962983392,0.40785992625254247,-4.850873103483966
155,7.75,0.06499249469398416,-0.11204564645114878,1.738424720907216,-0.18401105646792493,-1.6180113347382052,0.04240950757694195,0.6119568996661884,0.2047590205859056,0.6177352381629159,3.0114629100493,0.04149911131412435,1.5876881207496034,153.6409090896931,145.08352201904611,124.68477203804386,129.78996074362192,103.69492923815396,149.14671679201908,128.93719308508963,175.43679777983303,149.0,145.0,125.0,121.0,101.0,145.0,125.0,169.0,-0.2807403948429823,-4.998952207758013,-4.815227961956141,4.8414628895446645,-0.2527568785462363,-0.04040594439943739,0.2724757361617671,0.21652487534958095
156,7.800000000000001,0.0652851947727302,-0.11122928695510126,1.7375576045768177,-0.18381671433779134,-1.6182124277520549,0.042322664048453085,0.612386809922831,0.20494902319740826,0.6178005224328366,3.0116044896131875,0.041717515379314736,1.5880471147149546,153.43211400895783,150.09210907551434,129.64037962252183,125.40640966672773,104.01344468828447,153.90425729817972,129.2993758463896,175.60304985204286,149.0,145.0,125.0,121.0,101.0,145.0,125.0,169.0,-0.4938119169681016,-0.07867281748976128,0.1651108053175408,0.346194612964286,0.07368565213988042,4.659277378500992,0.5032593415352158,0.20304985204284437
157,7.8500000000000005,0.06498242886140071,-0.11261740100785111,1.7381993511371139,-0.1827202126615064,-1.6179693406120759,0.04189246669602653,0.6115940637951984,0.20472811516224126,0.618095179054632,3.0119771770033346,0.04154653367861819,1.5882164459145078,158.9946557947724,144.56861732442894,129.33725864050822,124.67755255277449,104.42155402356784,153.68783384214217,128.36226654233815,170.1339280625109,149.0,145.0,125.0,121.0,101.0,145.0,125.0,169.0,5.048043885121476,-5.3656742566798945,-0.11123921356902708,-0.05849894937143386,0.42155402356782945,4.68783384214216,-0.25566718085871554,-4.8797171616606265
158,7.9,0.06431252658539766,-0.11480409207819564,1.739261906015673,-0.18071471561037677,-1.6174607255151559,0.0411667449102997,0.6103493875923499,0.2042732002128185,0.6184863916623022,3.0129023706285647,0.041173897760013976,1.5883674054905714,148.4342690874623,148.73807818620412,124.10418030385267,124.38375117685534,104.07933602318548,149.11836152679808,128.58680588314107,174.05113467791026,149.0,145.0,125.0,121.0,101.0,145.0,125.0,169.0,-5.309480912537708,-0.5515051471292004,-5.2975475579183975,0.16992828268686763,0.15378270326596033,0.8467317481260387,-0.02333056910063332,-0.24906025386364045
159,7.95,0.0642462386042646,-0.11491263086863812,1.7394069408519126,-0.18110016499963466,-1.6174198713770673,0.040827355406616306,0.6103294638816172,0.2042331959042149,0.6184937651186014,3.012576416830407,0.041163356137933226,1.5886296570088851,153.62022605753054,149.50651189723692,129.8676225035188,129.2295792405419,98.74379407802475,148.4360438141681,128.86936300334034,174.8856045131027,149.0,145.0,125.0,121.0,101.0,145.0,125.0,169.0,-0.1062875124068257,0.1474304776127119,0.43874319317395666,4.960182688817761,-5.167674734852508,0.06783455863488591,0.2580348783403498,0.4949795131026986
160,8.0,0.06448661121359267,-0.11382734223615687,1.7377823061976008,-0.1799344022137812,-1.6175718444657496,0.04113496748471457,0.610908332986617,0.20440932702729905,0.6187956051852047,3.01319217744984,0.04130668569852883,1.5885718523889947,153.44019485711422,149.1932741684312,129.6010701112973,124.38367809457104,103.76435043178766,148.43990174743556,128.8284606334569,179.5120443640891,149.0,145.0,125.0,121.0,101.0,145.0,125.0,169.0,-0.28726845525475947,-0.2176272990740428,0.1718855619410893,0.07681114178132968,-0.19524552780830318,-0.09949219195837682,0.22180701310462664,5.058032622406135
161,8.05,0.06497250635316432,-0.11278857053746716,1.7368437798617409,-0.1799885022510983,-1.6179504609853659,0.04150145966455865,0.6114399336027994,0.20471297510567282,0.6188033942647789,3.0132092908070267,0.04163930230456458,1.5886482490287113,159.1335126863471,144.5121910602877,130.06171869217724,124.55231053992036,104.24431760669725,148.623435327542,128.52332636561184,174.8581268345696,149.0,145.0,125.0,121.0,101.0,145.0,125.0,169.0,5.3310178838522955,-5.184274636178006,0.5981993788725144,0.015829853225070734,0.18584986476176354,-0.16487112407089394,-0.1024046285401965,0.1563724486046864
162,8.1,0.06506651143239006,-0.11272041408218447,1.73641891275222,-0.17905317331020099,-1.6180381661429868,0.04151475652574588,0.6114221248585271,0.20476123842076363,0.618946148836208,3.0137797148522774,0.041750588819684194,1.5887415273922987,154.13124782591538,149.31495723069781,134.15489298233635,124.08423536835892,103.87273409536213,154.1832636246831,133.41268380227754,174.37726989493754,149.0,145.0,125.0,121.0,101.0,145.0,125.0,169.0,0.4037845135464167,-0.0959442368074339,4.668931859226196,-0.2699762947080296,-0.13941165362570843,5.543587511322741,4.793075959140269,-0.12273010506247088
163,8.15,0.06448046931686502,-0.11441554245246977,1.7370615631363906,-0.17747495197015217,-1.6176088140034404,0.04072980176985164,0.61048784221066,0.204369393889298,0.6193747838985056,3.0143468603770747,0.041444677577955454,1.589009459483426,153.6605904285489,149.51504393891963,134.26248717840244,123.72144097795899,103.80352604234002,147.62785749767838,128.47353581495003,178.8988024753063,149.0,145.0,125.0,121.0,101.0,145.0,125.0,169.0,-0.039619215056963274,0.42070431627810917,4.861185659964252,-0.25252865327744645,-0.12967233822678847,-0.503721449690033,-0.02646418504998269,4.8086063968749135
