AI-SPARC/uncalibrated-visual-servoing/results/data/4_feat_ibvs_tr.csv
,t,q_1,q_2,q_3,q_4,q_5,q_6,camera_x,camera_y,camera_z,camera_roll,camera_pitch,camera_yaw,f_1,f_2,f_3,f_4,f_5,f_6,f_7,f_8,desired_f_1,desired_f_2,desired_f_3,desired_f_4,desired_f_5,desired_f_6,desired_f_7,desired_f_8,noise_1,noise_2,noise_3,noise_4,noise_5,noise_6,noise_7,noise_8
0,0.0,9.361875081825843e-06,-0.3926333301083327,1.9634954084936185,7.252088425691028e-05,-1.5707955582218611,2.220446049250313e-15,0.4463258536086648,0.16906234102687412,0.592161801541222,-3.141307158888575,0.00012241039484984628,1.5708380808617421,151.05680171461992,65.33125101459177,125.87013282532881,39.357242522060154,99.61686642657749,65.28622076991928,125.57983164052372,91.74980368251668,149.0,145.0,125.0,121.0,101.0,145.0,125.0,169.0,-0.3559562591136578,-0.22597224994857068,0.45065716989808824,-0.22328182250913808,0.18077620101356612,-0.2776890045168014,0.16707366679014607,0.19258041797634876
1,0.05,-0.003368415804977154,-0.3937713593204344,1.9613115396722902,-5.123777195725765e-05,-1.5682000745885585,-0.002920128548403511,0.44657651729285686,0.16778940066296955,0.5941646619721525,3.1384191064198887,-0.002473566163112079,1.570384834118014,151.62712756045258,66.62941569161231,125.1165559357705,41.27013412627273,99.80954134606728,66.39221681925954,125.10686283157263,92.45587271893804,149.0,145.0,125.0,121.0,101.0,145.0,125.0,169.0,0.3159321145322776,0.039282864287828435,-0.3834440642294892,0.42071327685187887,0.16326983555102592,-0.28847151726053366,-0.3931371684273667,0.024054537119847216
2,0.1,-0.0057282448784459206,-0.3933434579430197,1.9584397815156285,5.826919503348904e-06,-1.5662351091729523,-0.0048741753812620026,0.44743609107276144,0.16691445388365925,0.5959145700257973,3.1360197054903454,-0.004422771671803182,1.5699950109577454,151.0611807193564,67.8320953043586,125.64328515196924,41.59015320274249,100.20454480872552,67.88354535732903,125.61054193871091,93.30172687788694,149.0,145.0,125.0,121.0,101.0,145.0,125.0,169.0,-0.21766543448977144,0.2244029966662954,0.11901330730904609,-0.31470116618954014,0.3615215529115737,0.22463062864685188,0.004016027002655349,-0.07255335243935433
3,0.15000000000000002,-0.009028611597943215,-0.39444204703422514,1.9564521141253595,-0.00023168458433886485,-1.5637123468046736,-0.007779272741107235,0.4476692753979973,0.16567318452922028,0.5977774940780765,3.1326613196786277,-0.006904404497042513,1.5696367781459863,151.14257103235167,68.36371468052991,125.37308720135435,42.98613079895572,100.2746350280409,69.1458656461511,125.97938598047298,93.98852586741062,149.0,145.0,125.0,121.0,101.0,145.0,125.0,169.0,-0.0647933087335994,-0.19054888536156117,-0.17272176550724552,-0.06455146225286111,0.274635028040903,0.4144930971314795,0.3424927765894925,-0.22312461802627048
4,0.2,-0.011812698011539169,-0.3949925765005222,1.9543552294387947,-0.00047523760322620845,-1.5614946853041891,-0.010420659279951394,0.4480798231937076,0.16463215349807575,0.5994716164427698,3.1297282937727635,-0.009067289737564706,1.5695407052207713,151.21599783273857,69.47061321289908,125.52874307143563,44.166461872138306,100.46452196463623,69.51180281082553,125.6788826086174,95.06824390784787,149.0,145.0,125.0,121.0,101.0,145.0,125.0,169.0,-0.018835826752630243,-0.044063890819120134,-0.22571237410891898,0.03774900085118083,0.284323944834254,-0.2208704565012044,-0.07111739138259347,-0.03214979293952913
5,0.25,-0.014826571675233602,-0.3953732127433178,1.9520748827320293,-0.0005734924814140285,-1.5591515855061209,-0.013031629407236789,0.448603597796585,0.16349894085168143,0.601198665299296,3.126916281788099,-0.011342343666141855,1.5691971975775485,151.03062042113703,70.44098070249979,125.52038219367428,44.84131011290921,100.22039592421318,70.55866545913541,125.78632877815035,96.30424929938668,149.0,145.0,125.0,121.0,101.0,145.0,125.0,169.0,-0.18522116302140226,0.013257930222565594,-0.2576178063257218,-0.35868988709079286,-0.049981809385235915,-0.19680173768366974,-0.052956936135354626,0.31615406129144924
6,0.30000000000000004,-0.018329758188239786,-0.3961520461089876,1.9497863685177048,-0.0004697646715965398,-1.556456047356682,-0.016080692435717747,0.44898732811789593,0.16217933649692443,0.6030889016070857,3.123873494569508,-0.013945461532815819,1.5688237997342755,150.89111955363794,70.95145566664786,125.70677940462772,46.24289879266991,100.49374441153442,71.79178178736457,126.11535000979346,97.10022518779353,149.0,145.0,125.0,121.0,101.0,145.0,125.0,169.0,-0.34194817544573586,-0.40711007040393277,-0.16569023099980473,-0.08503643000215422,-0.06787175008172866,0.07258986817266058,0.21535000979345786,0.20022518779351572
7,0.35000000000000003,-0.02141273322933701,-0.3970742862024079,1.9479313245230037,-0.000715712264873769,-1.554043882751718,-0.018978055431621232,0.44922382513325354,0.16102324186908618,0.6047874021246707,3.120762357001151,-0.016246400244812886,1.5687307784195086,151.32520106775146,72.18901706956635,126.02870287774756,47.303491560946554,100.95137565092736,72.42233580659368,126.18576146773877,97.59790812767835,149.0,145.0,125.0,121.0,101.0,145.0,125.0,169.0,0.16222320054825998,-0.04438333284814378,0.14322230515042525,-0.09528144518840882,0.2079947955302083,-0.2579085925916612,0.18576146773877178,-0.14557884626953685
8,0.4,-0.02433010288198334,-0.39739274196786933,1.9458032723728085,-0.0008790997879986051,-1.5517768381171262,-0.02153484882033796,0.44973163897556095,0.15992281859410515,0.6063931524106749,3.1180634860206227,-0.018400543554436485,1.5684660618735864,151.2539008919001,73.64847663810923,126.02456434906118,47.94354698389419,100.95620870672259,74.0270893291166,125.99051540560062,98.36247438277455,149.0,145.0,125.0,121.0,101.0,145.0,125.0,169.0,0.09026452826372375,0.4909008805334712,0.1297189882364333,-0.534803531569732,0.08583833635222851,0.4036325389931436,-0.023512650511600716,-0.11648353305710893
9,0.45,-0.02700044829374315,-0.398105461783516,1.9440337801938545,-0.0012905438815153936,-1.5496553735192569,-0.02396928449459157,0.44999910138979027,0.15892336864396736,0.607960019244065,3.1150731366310174,-0.020391590931906182,1.5683398045472878,150.64796309603557,74.49815922230232,126.2564878717455,49.48313511968086,100.98561505017128,74.1930596949337,125.81332951109925,99.20186423701223,149.0,145.0,125.0,121.0,101.0,145.0,125.0,169.0,-0.4882157657530475,0.44531369384703445,0.23978641036763068,0.0029681050670802623,-0.03309596853973414,-0.32461182273782785,-0.2534721083339409,0.0034836702106107037
10,0.5,-0.03020278414624622,-0.3987320983803455,1.9422508068971007,-0.0016313155765672605,-1.5472757095232152,-0.02661162067216649,0.450376507244468,0.15770647282693107,0.6094903894302068,3.1122047525082013,-0.02262508573886499,1.5679050038349776,151.71159678987286,74.74735020327951,125.90070010666332,50.28776271952792,100.87390886641094,75.42693952568233,125.79812021992501,100.15609024902649,149.0,145.0,125.0,121.0,101.0,145.0,125.0,169.0,0.586852413594713,-0.219929960319682,-0.09929989333667245,-0.21223728047208332,-0.29763925074387726,-0.03540357055197213,-0.313896073354009,0.09499045269248127
11,0.55,-0.031661866616210066,-0.3983970259145022,1.9401606741522768,-0.002121739415568591,-1.5458824553710313,-0.028031295112486365,0.45098626459970104,0.15717063800492417,0.6108183578041815,3.109890320713784,-0.023907109765046283,1.56796169554171,151.38409953507997,75.39431025914003,125.73606421570369,51.197705508289864,101.33925848544719,76.18956025062724,126.35186434416882,100.8197196291671,149.0,145.0,125.0,121.0,101.0,145.0,125.0,169.0,0.2421242264379809,-0.4246197820122351,-0.392087044800509,-0.19305079423113766,-0.003178489342728132,-0.07304479138955834,0.16743811466063088,-0.04708364952142713
12,0.6000000000000001,-0.03414042584704591,-0.39837591510643033,1.9381068021004166,-0.0023214607181261115,-1.5438666182272849,-0.03036115259512684,0.45156533004244875,0.1562331203627438,0.6122307942376932,3.1075410536764414,-0.02577752368916314,1.5679342232955975,151.0122365382272,76.10568893929715,126.10795097310492,52.55449129528426,101.29307046983473,76.80369934460835,125.94114130357941,101.6151452620309,149.0,145.0,125.0,121.0,101.0,145.0,125.0,169.0,-0.18984679510612665,-0.45472772736951644,-0.07213377265778716,0.20915231223341163,-0.17726851321612247,-0.289520994374695,-0.37552536308724316,0.042228595364219544
13,0.65,-0.036050034949500986,-0.3984395142899011,1.9364893293530692,-0.002991830716648103,-1.5422679458636521,-0.032180412046883156,0.45202224054938406,0.15551351243476147,0.613437142429066,3.1050900807444957,-0.027233914768734113,1.567962565140227,151.43057048905513,77.46488507525049,126.82095274706943,53.21934441462908,101.49222858398024,78.19349397682741,126.74569593785615,102.44726119316995,149.0,145.0,125.0,121.0,101.0,145.0,125.0,169.0,0.22554956855306293,0.029738631735858757,0.5805272151545379,-0.04235771303049983,-0.10905073371699922,0.304368177253851,0.31742150958171533,0.11462086052960979
14,0.7000000000000001,-0.03811789643698216,-0.39858150837325823,1.9348000524354907,-0.003520405924580583,-1.5405592518419793,-0.03413593490752653,0.4524533795618987,0.15473337182960145,0.6147125295708987,3.1026171349437948,-0.02878546384932124,1.5679806036683788,151.04678371924848,78.0965233869897,126.23983848850891,54.184474199306116,101.06220322381586,78.29405498232495,126.13859573020991,102.81507829755658,149.0,145.0,125.0,121.0,101.0,145.0,125.0,169.0,-0.11673829333013756,-0.11102378282161435,-0.12869599424970415,0.03792247516818613,-0.6664292548166251,-0.39825270998274925,-0.34350953294797576,-0.2501848603381491
15,0.75,-0.04010218777048813,-0.39775828384721335,1.932570869438858,-0.0037991671866852705,-1.5389232239029127,-0.035770408327482794,0.45335694328709886,0.1539650680940989,0.615896170112445,3.100829330044254,-0.03029291082027567,1.5677450644881128,151.12857762031575,79.17977855234177,126.56806692740699,55.010424646466944,102.05485353451493,79.52502995982209,126.06506810975083,103.81145688095587,149.0,145.0,125.0,121.0,101.0,145.0,125.0,169.0,-0.015172379684256995,0.19227855234176913,0.13763214479828545,0.10172899429303076,0.20324063128912084,0.011051465198436543,-0.4780897849860109,0.05987793358745241
16,0.8,-0.04224237239773343,-0.3984111504699901,1.9314534788650208,-0.004681280062352133,-1.5372389346490865,-0.03776032048969036,0.45353237363681287,0.15315677430930885,0.6170515126233475,3.098048704604224,-0.03178975775813366,1.567747770290675,151.3896000924723,79.62355086167642,126.44485973027297,56.2982061888548,101.90398323161465,80.17197859978249,126.69120799511238,104.15222137334894,149.0,145.0,125.0,121.0,101.0,145.0,125.0,169.0,0.1972110861298002,-0.008584444877481938,0.016598860707738142,0.46994531928958194,-0.11325814769569581,-0.19655588297613377,0.09712765684600334,-0.2875249268624758
17,0.8500000000000001,-0.043899264915102876,-0.39730013840425693,1.9294039259714912,-0.005119975846550773,-1.5358603344822237,-0.039221181610705536,0.4545238539016892,0.1525024487865664,0.6180021208046838,3.096573816238279,-0.03304498193391746,1.567657025573661,150.84966275394913,80.52579151337385,126.06808024539252,56.3944613108487,102.2070880614429,80.4860473584923,127.18424128483151,104.82685760585507,149.0,145.0,125.0,121.0,101.0,145.0,125.0,169.0,-0.31416703328491913,0.09813193890576447,-0.4057188812450319,-0.18632471535217607,0.03138307228888294,-0.5790285634166044,0.616156178448532,-0.3369721813789639
18,0.9,-0.04827011464728104,-0.39701216023362607,1.9269766945684257,-0.004544536404042621,-1.5327559294505075,-0.042772056819152304,0.45544302151226496,0.1507850845987179,0.6194678285440641,3.0947581476333004,-0.03591990753476227,1.5670291532340186,151.25057418670133,81.4754438125511,126.54952895949535,57.463769765719455,102.41973355484006,81.82803166183385,126.52383851974241,106.22089456948449,149.0,145.0,125.0,121.0,101.0,145.0,125.0,169.0,0.14396437859898217,0.18972952683681985,0.10802785574259395,-0.021881448408580407,0.1482103760321058,0.033329675078868,-0.07530860179276991,0.38294147780005183
19,0.9500000000000001,-0.05106245994194536,-0.397614548936541,1.925626508122189,-0.005003495011697723,-1.5306408984465412,-0.04527658607924545,0.45570133976149996,0.14971620375548506,0.6207157764411712,3.09215330572693,-0.03779893037543396,1.5669316421454413,151.44336176995753,81.88025742197897,126.41280231633523,58.51370506503275,101.91219411121766,82.71557749112746,126.69501434820565,106.60254656643168,149.0,145.0,125.0,121.0,101.0,145.0,125.0,169.0,0.3497447486809298,-0.017614918446571832,-0.10154646953672529,0.1936167648119995,-0.36595158414658413,0.0864384182797878,0.03262118581248654,0.03417049805561449
20,1.0,-0.05254072883894789,-0.3967262197175909,1.9237401655094466,-0.005475608451774416,-1.529329472742778,-0.04668579144589735,0.45654016679157655,0.1491368458239818,0.621659380767458,3.09057004115401,-0.03896082098846492,1.566986197807422,151.41211957956088,82.8933632244492,126.50437371566372,58.881891275443365,102.22492640586027,83.38436624484686,126.80829948895224,107.18883055527775,149.0,145.0,125.0,121.0,101.0,145.0,125.0,169.0,0.3305745151831964,0.26246193689556674,-0.005648556051199166,-0.14260761097088884,-0.18125460959226397,0.035580372882172785,0.16174776481431327,-0.0848763412739835
21,1.05,-0.054836829199589765,-0.3963589239529828,1.9219346968537483,-0.005756090550498527,-1.5275133470004825,-0.04871615538110241,0.45721599871465834,0.14823901810784776,0.6227617315504824,3.088682585668465,-0.04058153333162688,1.5668819361821666,151.01539795182038,83.65096606769598,126.26827878996063,60.187539338322814,102.7978821191669,83.90064461616826,127.21601066647958,108.02599476972132,149.0,145.0,125.0,121.0,101.0,145.0,125.0,169.0,-0.07492462882477637,0.2574176805992008,-0.2951955975672031,0.2810805409954171,0.28785984745198906,-0.1238542702459875,0.5643977632537719,0.1894356299363632
22,1.1,-0.058652715454990734,-0.3960625737895751,1.9199170016892682,-0.005488725933791461,-1.5247962363323229,-0.051881775791467355,0.4580339670454,0.14672591161261048,0.6239813810238828,3.086954986600678,-0.04304915078891637,1.5664347574105777,151.3126863570954,84.07324703804528,126.4253334994174,60.55529782328943,102.41177297456358,84.84779068371049,126.92094810137027,108.390036510618,149.0,145.0,125.0,121.0,101.0,145.0,125.0,169.0,0.22572983535626495,-0.10501383151994594,-0.13421706238034745,-0.10088195199146537,-0.09938773972212736,0.037522826567624165,0.15420944046315033,-0.1650390833344738
23,1.1500000000000001,-0.060712413138589216,-0.3955167540650577,1.9182354762255205,-0.005864029058108677,-1.52314591243434,-0.05378285042718245,0.4587563104077994,0.1459110413013768,0.6249302224490615,3.0852712310026598,-0.04450325869000714,1.566433716088101,150.62052224302033,84.84667455983148,126.87204467327861,61.61985985911897,102.95838049839344,85.30611145181838,126.86709433004268,109.30915472907698,149.0,145.0,125.0,121.0,101.0,145.0,125.0,169.0,-0.40539568354555144,0.19656656847080045,0.24591854715248626,0.23922922848833414,0.35838049839344505,-0.21074248076588198,0.12853223853940265,0.03028762668045914
24,1.2000000000000002,-0.06398615833679644,-0.396519945999553,1.9174297298452867,-0.0064379533470622086,-1.520809413444975,-0.05673568746513746,0.45883733259665804,0.14464807486818138,0.6260027662000506,3.0826155336285255,-0.04652481057133595,1.5663543485767304,150.97352458025563,85.66732757208763,126.39200589463209,62.38403201161606,102.72333751238082,85.89148035617144,126.89675175673206,110.11939686869992,149.0,145.0,125.0,121.0,101.0,145.0,125.0,169.0,-0.03954731516921782,0.2403123215429797,-0.1989031962769943,0.23857746616150652,0.05591669790118563,-0.3528635352312752,0.12501262629727442,0.38244034696079277
25,1.25,-0.06731144255504162,-0.39623648993761407,1.915615960353052,-0.006382625152343557,-1.5184030617628395,-0.059477164583515485,0.45956927627763283,0.14332612318715562,0.6271131265289112,3.0808667732303965,-0.048670276701548644,1.5659820468321062,150.9638122247118,85.57904064564725,126.70740744065503,63.16715613409833,103.09754348822224,86.59007126641636,126.9165328824641,110.6514685642641,149.0,145.0,125.0,121.0,101.0,145.0,125.0,169.0,0.11237098302666876,-0.5362586891642749,0.10831860238623102,0.23093745528283333,0.29617362520854273,-0.3688328431726822,0.08283485182952341,0.1372453695157522
26,1.3,-0.06959991072726268,-0.39668189983659286,1.9147824348310634,-0.007126393790612973,-1.5166525824886508,-0.0617565354742573,0.4598000007515799,0.1424428374735163,0.6279710376773356,3.078621219230193,-0.05014196033107904,1.566180670281412,150.5829593810012,86.40285621283411,126.8518050850621,63.436058598652686,102.37339238698463,87.7772387340844,126.6206669796232,110.81136204322371,149.0,145.0,125.0,121.0,101.0,145.0,125.0,169.0,-0.33590026812159873,-0.19144203277993121,0.23624444432983177,-0.18865536015738635,-0.5170185719194755,0.24070905371911128,-0.10599968704347223,-0.2753046234429684
27,1.35,-0.0707011003912057,-0.3973271047188356,1.9144619350542778,-0.00846540680782537,-1.5156225248043453,-0.06325061928401032,0.4597835391149192,0.14204597456771503,0.6286354792968738,3.0761725942802713,-0.050915828309037625,1.5667572686523754,150.95094374109232,87.51463347378794,126.9371381840292,64.04297661665198,102.99468342307414,88.13261549180714,126.82301924647615,111.30401007829481,149.0,145.0,125.0,121.0,101.0,145.0,125.0,169.0,-0.02042189767420842,0.15560263678352332,0.25437956333954,-0.07656361323307342,-0.04226807808059951,0.044855676564644814,-0.05881882792210159,-0.21896585168330227
28,1.4000000000000001,-0.07275507525617098,-0.3977376804936257,1.9137326897082305,-0.009348334809354153,-1.5140514185203848,-0.06524417350013367,0.4599999396639932,0.14125077236587286,0.6294227001782531,3.0739433809681342,-0.0522113781226447,1.566903526729537,151.42223643721778,88.16426045747788,126.5051814642879,64.59270189124021,103.08895297709041,88.85790567262914,127.17026681437636,112.35033482970053,149.0,145.0,125.0,121.0,101.0,145.0,125.0,169.0,0.4311849830790826,0.24479737022955728,-0.30644644268883536,-0.25846089945746287,0.09356127202128942,0.0952328615692234,0.29749895723349634,0.19631697255766836
29,1.4500000000000002,-0.07538782674977762,-0.39762372846374694,1.9122512366155124,-0.009532264764075649,-1.5120335426530351,-0.06763006834636842,0.46053984909211476,0.14021046254053543,0.6304104597302497,3.072128504907282,-0.0539506512529049,1.5668734870368934,151.57506965791646,88.73124996371186,127.1420838890694,65.99495682672531,103.11312801290337,88.77777450564972,127.1539436057426,112.77883583575361,149.0,145.0,125.0,121.0,101.0,145.0,125.0,169.0,0.65453985659196,0.2323537164712338,0.3185544773046811,0.31025094437237094,0.0009784801931023988,-0.45353390556523154,0.1561658279648134,0.16772472464250235
30,1.5,-0.077285402168624,-0.3960520880638878,1.9103123167206295,-0.009836548356691122,-1.5106325933950338,-0.06899094062597833,0.46174528875284426,0.13939568430733995,0.6310660817633644,3.071290089972968,-0.05520054566372581,1.566469519116692,151.0231691647815,88.70362592995218,126.42758406170167,65.92563050652721,103.30774142674757,89.82767515885917,127.38344557218466,113.20048696842917,149.0,145.0,125.0,121.0,101.0,145.0,125.0,169.0,0.194340335952692,-0.3504281241018731,-0.3305554731820573,-0.22785786556581494,0.22382534283149214,-0.16066982948582625,0.4856677944068747,-0.1795130315708147
31,1.55,-0.08013781292638278,-0.39619499965967764,1.9091470196306002,-0.01007643028515215,-1.508491597379682,-0.07170750291281314,0.46216486179002353,0.13827163045801558,0.63196291732761,3.0694299386807686,-0.05702373253917132,1.566569891915889,151.05055874631913,89.65758124372383,126.71232178353655,67.31529018996869,103.06386031934534,90.90636778422856,127.0942645159227,114.26274494633554,149.0,145.0,125.0,121.0,101.0,145.0,125.0,169.0,0.20715829889183515,-0.07396238043724691,-0.14852727306721286,0.45915811449699734,-0.12451177367792485,0.30869336562391403,0.04471496637314788,0.39112332471391675
32,1.6,-0.08156638177792619,-0.39589806266586525,1.9082378812642684,-0.010882353747998952,-1.5072858368659832,-0.07328225858757076,0.46264327529037824,0.13770054737149046,0.6325483442147477,3.067829062398093,-0.057996877088942494,1.5668851917412836,150.5815198900713,90.22463207062901,127.34193342074016,67.23803099502945,103.12470403819799,91.43538368593944,126.9103751059441,114.71007790126303,149.0,145.0,125.0,121.0,101.0,145.0,125.0,169.0,-0.23974707825450273,0.011962387371101469,0.4493319887592482,-0.2392959739442919,-0.1053429101588171,0.2710644371131577,-0.10078560834160398,0.3127564726916016
33,1.6500000000000001,-0.08351497448876755,-0.39788599422997795,1.908581003037253,-0.01218350840455118,-1.5057116797713261,-0.07561953056708148,0.4620116190051732,0.13701701937136188,0.6333657243622254,3.0646175997756093,-0.05915301396259868,1.56756348308326,150.55642285991928,91.07029204077763,127.26089593928037,68.52602532147644,103.67904590857808,91.61494062816122,127.25114041188972,114.76720224562412,149.0,145.0,125.0,121.0,101.0,145.0,125.0,169.0,-0.30234707174357905,0.17279773553845038,0.29391480720490254,0.4670630573254893,0.255158320756061,-0.12510621024626797,0.14956027644952896,-0.13121761893569622
34,1.7000000000000002,-0.08617851919779751,-0.39836887361848605,1.9081414165335913,-0.012988928313304893,-1.5038670079605732,-0.0780573183142863,0.46223390998422803,0.13596470093489896,0.6339807478529863,3.0625982407498444,-0.06065786145977192,1.5675806308993419,150.43425731337354,90.82798343708787,127.08257739494269,68.35547310386148,103.25408220131965,92.10689959686111,126.9406724991704,115.23888058688004,149.0,145.0,125.0,121.0,101.0,145.0,125.0,169.0,-0.3530730033685296,-0.4140980108759313,0.17996456833935956,-0.2953582500577557,-0.12091779868034862,-0.09121361068605473,-0.06156965329596531,-0.12659026513788815
35,1.75,-0.08797176615712665,-0.39974296977395607,1.908338378576242,-0.01425031780102648,-1.502431815812205,-0.08021723411161519,0.4618949165989728,0.13531683065853556,0.6346124402078386,3.059910123395676,-0.06170438392620316,1.5682091656115245,151.03927686765934,92.36032596299899,126.68276625945799,68.95653577810775,103.51133438975202,92.85655591232846,127.08615850841515,115.8366396875015,149.0,145.0,125.0,121.0,101.0,145.0,125.0,169.0,0.13538670747626322,0.4335525076214089,-0.31007383600740934,-0.2009821216535841,-0.12136703204892316,0.10537107820523134,0.011158508415143336,-0.011087585225762257
36,1.8,-0.0905616495471393,-0.39981098122603687,1.9073593196157708,-0.01466780109678778,-1.500529341526395,-0.08253935279833557,0.4623082349166818,0.13428885382954986,0.6353668711757626,3.0581421116237255,-0.06327689648649895,1.5681853881895294,150.94253030343486,92.40234766754236,127.06140961587334,70.04114053209518,103.3617186891892,92.73283084647964,127.24568175341314,116.4982246750358,149.0,145.0,125.0,121.0,101.0,145.0,125.0,169.0,0.1879848488894217,0.06598403117871803,0.07100194201243286,0.24977362562036728,-0.1654680720401067,-0.46102258141635016,0.17554600680679192,0.1452834985652022
37,1.85,-0.09309054900210256,-0.39897069783967565,1.9059331288442776,-0.014932656681665435,-1.4987414359046172,-0.08453775372315286,0.4631822021515334,0.1332341907900662,0.6360005977389146,3.057013336846413,-0.06481004646182459,1.5678549988892971,150.62983046805334,93.46013671097407,126.8740491259098,70.56638210561289,104.15920678317288,93.82365707661086,126.47527073633013,116.91760156662457,149.0,145.0,125.0,121.0,101.0,145.0,125.0,169.0,-0.1646900798918632,0.5240636516133302,-0.06998980353059572,0.157622981525295,0.49572229629936326,-0.052237911455978364,-0.5155549517432726,-0.05716907557726444
38,1.9000000000000001,-0.0952428420399265,-0.40041720439805095,1.9063327946295185,-0.016255286447046213,-1.4972088548844509,-0.08677894014631882,0.4628369946138185,0.13243653387002888,0.6365372672503801,3.054356101144085,-0.06592134751492384,1.5682277390497632,150.3830362649782,93.4645692086388,126.46177525080176,70.94835678281945,103.66131719675398,94.22546624990818,126.65954195722932,117.27667754281147,149.0,145.0,125.0,121.0,101.0,145.0,125.0,169.0,-0.3071687464113192,0.08643709018778309,-0.4418392070295589,0.011007385229073088,0.05314411983090881,-0.09905298086105284,-0.33816971325123535,0.011231318555174417
39,1.9500000000000002,-0.09755497223498999,-0.4011943651807828,1.906193109082034,-0.017163483890594744,-1.4955180169825306,-0.0891146766542148,0.46284208237042035,0.131549458524687,0.6370938906933395,3.052219200325884,-0.0672213919977625,1.5685180475677722,150.7904168393635,94.28153170194948,127.01434154591222,71.87303836037344,103.41224721366846,94.7508630295796,127.11281608520281,117.59598951788594,149.0,145.0,125.0,121.0,101.0,145.0,125.0,169.0,0.06438944210321808,0.3682896928170638,0.06324130141344775,0.43538554863749274,-0.301005798379736,-0.09732974150473019,0.07382525951473269,-0.24116644541680432
40,2.0,-0.09912264177509522,-0.4000197721746792,1.9051506579879796,-0.017920540258914208,-1.49441238699898,-0.09038900440929787,0.46377650919760444,0.13085471776576213,0.6373688939213369,3.051412952416216,-0.06814271094222803,1.5683632806474608,150.74412961976887,94.46803351928389,126.73241282668083,71.65834028753257,103.58776498631529,95.16684285145645,127.08089514704088,117.83700311995906,149.0,145.0,125.0,121.0,101.0,145.0,125.0,169.0,0.0782257296086751,0.12478409136626425,-0.13683656799228494,-0.29807617735846526,-0.05301171271383578,-0.12199209999986053,0.057800458819174075,-0.3015650093711827
41,2.0500000000000003,-0.10120149154012825,-0.39986682677245877,1.904477667752059,-0.018607821369517108,-1.4928914240046893,-0.09233517108310219,0.4642304384794812,0.13001098330136138,0.6378473420681006,3.04992734055534,-0.06935697171063036,1.5684476579760072,150.60407868663953,94.48444070265921,126.91491735537113,72.20489167517685,103.34339528176805,95.6569759877207,127.07806352288783,118.70967429029564,149.0,145.0,125.0,121.0,101.0,145.0,125.0,169.0,-0.03270292255585997,-0.3615363088350444,-0.009472888531299234,-0.22437661750606033,-0.3698577302801448,-0.19121678336363931,0.04831523913496807,-0.061492757759275735
42,2.1,-0.10283065553730752,-0.40025852855620414,1.904184875974611,-0.019535008495045414,-1.491578357000546,-0.09416565638145213,0.4643466439336402,0.12938403426761771,0.6383395779412208,3.0480570501755713,-0.07032801803314931,1.568879952135559,150.95887509046182,95.24442568219375,127.2806216318842,72.69514661055314,103.6128981447253,96.12454877558308,126.84645522067281,119.11778112074053,149.0,145.0,125.0,121.0,101.0,145.0,125.0,169.0,0.3174957801169832,-0.059022593668310815,0.3391582172500621,-0.2536338772517485,-0.18564554459507202,-0.06962598169847437,-0.16736966411981832,0.04404840184652675
43,2.15,-0.10361772280334058,-0.40076563836237744,1.9042854836808605,-0.0209728278889858,-1.490846567464084,-0.09533145030043277,0.46432035885710576,0.12909976925926897,0.6386694534907411,3.0460592065793395,-0.07075326467694863,1.5694566614236407,150.61417278048586,96.02436320349905,126.43201637373505,73.27948437645259,104.06396105070586,96.37623209031729,127.54343698813813,119.59807760412633,149.0,145.0,125.0,121.0,101.0,145.0,125.0,169.0,-0.02324061443332093,0.25300061689396924,-0.5434738223433697,-0.17149601570427175,0.3043456660904661,-0.3112679096827149,0.4793637615935104,0.07176181465264811
44,2.2,-0.10817025475851327,-0.40082830589219043,1.9029321533136478,-0.020466599826228116,-1.4877431513353523,-0.09903062893566084,0.4649043727209111,0.12726413387923272,0.6395801016165736,3.0445665081679296,-0.07338590311412192,1.5689549874109636,150.5134161948003,96.29558698461813,127.39574249982753,74.3022327729395,103.81695015905248,97.29286518140991,126.81171373034476,120.14894516541781,149.0,145.0,125.0,121.0,101.0,145.0,125.0,169.0,-0.016537722250415592,-0.05925172505930129,0.4596245637095982,0.2457217164284526,0.005675649248565729,0.0011985147432368509,-0.20211115444785943,0.07521244652380159
45,2.25,-0.10877438607138057,-0.40164661588882433,1.9035755633005307,-0.022237279879511185,-1.4871966665736425,-0.10016866715354089,0.4646967873462059,0.12706436638538535,0.6397148621615357,3.0424825168959178,-0.07360246773879224,1.5696850513935978,150.29933527211563,97.06073214684385,127.10901672139286,74.46404213297264,103.83678937570404,97.50103452442647,126.74225227298668,120.15228305894283,149.0,145.0,125.0,121.0,101.0,145.0,125.0,169.0,-0.2770536167732677,0.3361951098068054,0.1090167213928688,-0.035957867027365815,-0.04096123554289678,-0.10532244378868251,-0.23009795742807232,-0.2624634848359745
46,2.3000000000000003,-0.11061532137472607,-0.402356170764937,1.903798979088796,-0.023459936415697324,-1.4859077794914723,-0.10203469114800745,0.464672304215094,0.12635637621224016,0.640028383391046,3.040500483071775,-0.07450436953305135,1.569961657498489,150.53167439782283,97.04621583422275,127.55364176032711,74.96160815581617,103.87532046880003,98.07277553724077,127.46526687181112,121.54873582725477,149.0,145.0,125.0,121.0,101.0,145.0,125.0,169.0,0.0339892126376309,-0.08109898059205867,0.5783331183518097,0.09741062495196424,0.08314442968022129,0.038545708389911344,0.5139907697229577,0.6693854792269383
47,2.35,-0.11317408032440257,-0.40385269215431263,1.9039345155694027,-0.024204226021202757,-1.483996140858939,-0.10471780808366349,0.46429949533522735,0.12541652785897184,0.6407038753416993,3.0379855306205927,-0.0758910510750329,1.570431305769949,150.8786299061906,97.46703315563212,126.74930907702962,75.70001791587464,103.56214798696722,98.38666811880651,127.4347277710209,121.27899556431645,149.0,145.0,125.0,121.0,101.0,145.0,125.0,169.0,0.3367694410743169,-0.16785056529810494,-0.2606164812830388,0.22607250644536117,-0.31161438927040985,-0.06382693069843458,0.4347277710209007,0.1344734197942987
48,2.4000000000000004,-0.11460360851493823,-0.40200058496653845,1.9026075644445841,-0.024695665622236795,-1.482970168893841,-0.10584222761821138,0.4655424422485941,0.12472659290116042,0.6408408662773887,3.037829748608433,-0.07679218306738085,1.5702259552816837,150.48724862206643,98.01416108423884,127.04773504882368,75.71961441881439,104.09701930567068,98.66039796796878,126.96438272477778,121.66757708905979,149.0,145.0,125.0,121.0,101.0,145.0,125.0,169.0,0.015286005244002102,0.007151738444444322,0.1145667319919974,-0.08484102673016165,0.2579949154267717,-0.2932605686165882,0.036475748033599965,-0.13707407373090147
49,2.45,-0.11677195050729461,-0.40298233649712145,1.9028136069682793,-0.02567773479881419,-1.481412328986603,-0.10807399078948299,0.46539688296232773,0.12390645457494877,0.641264054520225,3.035723674658116,-0.07789713694112045,1.5705821832705782,150.47567257530483,98.84052401926564,126.78358271854661,76.30562063289777,103.97571510263765,99.80495627008298,126.97703784558955,121.88868018545422,149.0,145.0,125.0,121.0,101.0,145.0,125.0,169.0,0.017728650071177337,0.4222997202002307,-0.14141728145338026,-0.024379367102232014,0.1189249791808677,0.40248713428051475,0.051456450240703985,-0.19504074477834057
50,2.5,-0.1180434470368752,-0.40340027087091057,1.9030774250994247,-0.026934700317716054,-1.4804418231746581,-0.1096568889969185,0.46544402824660325,0.12341533844660578,0.6414237895948839,3.0340776381835473,-0.07852056727713802,1.5711036294904324,150.57120433193765,98.80471189827087,127.16231702463256,76.80719934449803,104.40747870097348,99.41607195794315,126.95559621878704,122.50339699251269,149.0,145.0,125.0,121.0,101.0,145.0,125.0,169.0,0.1084136342632173,0.0023863168755208024,0.2148170246325503,0.18719934449803255,0.5254148189095976,-0.2399476980765077,0.006640302313711572,0.11824618044773075
51,2.5500000000000003,-0.1198902463987701,-0.40436068475273856,1.9035026684568566,-0.02812939372743095,-1.4791319132701437,-0.1116568796525308,0.46527393262115335,0.12272099870226669,0.6417091568852622,3.032040074895562,-0.079392141531136,1.5715289150436278,150.4782494196406,98.86355562889595,126.64953395332051,76.8730395155176,103.87184938273685,100.08091741222489,126.43227496180927,122.75314681012948,149.0,145.0,125.0,121.0,101.0,145.0,125.0,169.0,0.06937091496772525,-0.3280331561507752,-0.3054660466794812,-0.24946048448239197,-0.004693827139693313,0.004374202348346522,-0.5026087591209532,-0.10499272475423864
52,2.6,-0.11992252402822068,-0.4052341998626936,1.904373351733871,-0.030012887198255456,-1.4788823215528693,-0.11253803428249798,0.46496366165131753,0.12276592110950928,0.641724622111737,3.0300601739244786,-0.07930940852670984,1.5725536612277733,150.60452571348245,99.5450303732104,126.98699327925651,77.56841120401786,104.32176925583343,100.3311065654025,126.77644386541748,123.31574159496833,149.0,145.0,125.0,121.0,101.0,145.0,125.0,169.0,0.13256309666003027,0.02400233582722395,0.016918466288934158,0.13200222646174548,0.41358067022547995,-0.07584132541636865,-0.11607949906851085,0.24331168842626832
53,2.6500000000000004,-0.12109045983706945,-0.40617162482962366,1.9049846282763587,-0.031451275722417016,-1.4779741563711086,-0.11411576061837092,0.4647338276083386,0.12234844823009942,0.6418976113682553,3.028067051468833,-0.07981359411570277,1.5731997969670088,150.57680319309935,99.54176703807381,126.6744292950193,77.7506383489029,103.78694766484759,100.40003710982724,126.78730896827578,123.24211189903315,149.0,145.0,125.0,121.0,101.0,145.0,125.0,169.0,0.13418024227967387,-0.35284654506435353,-0.3959224637746745,0.04712076096320294,-0.15612164208310642,-0.2757054644301853,-0.15920265963119012,-0.11602763585057357
54,2.7,-0.12185863983558676,-0.40548402789416516,1.9047421637455857,-0.03264070290269894,-1.4773709974736784,-0.11502365244036472,0.46530415221856525,0.12198662977824962,0.6418963243218025,3.027185963864481,-0.08021452436263152,1.5734631129586738,150.55739780814986,100.10501702805388,127.08733745453719,78.01176943522829,103.32134484640169,100.95809250895952,127.15798549033016,124.03109650302561,149.0,145.0,125.0,121.0,101.0,145.0,125.0,169.0,0.15458750370020724,-0.11278156679390218,0.12008304647673951,-0.17714744134602853,-0.60211194372176,-0.08635193548492992,0.2514434342553886,0.21567594227794254
55,2.75,-0.12326133981389198,-0.4049017867631828,1.9040990434025504,-0.0333568474464232,-1.4762902043811925,-0.11634404215891703,0.4658752980954679,0.12138271014696045,0.6421666962046698,3.0261749036041983,-0.08103421091266409,1.573561253010653,150.2190860115502,100.6582695529263,126.4595699953309,78.32273307235336,103.869296958024,101.563391315992,126.89576317507851,123.93831502441925,149.0,145.0,125.0,121.0,101.0,145.0,125.0,169.0,-0.19875436403666755,-0.029523874303743952,-0.5703551917015252,-0.24085795009053607,-0.053588614115311024,0.1330430572855306,-0.00633472701939119,-0.15958707348283532
56,2.8000000000000003,-0.1251611027323345,-0.405307249224522,1.9041425468380302,-0.03420857393747445,-1.4748960012610128,-0.11835084580353161,0.46597795391362096,0.12063783074252463,0.6424283118582983,3.0246242870647815,-0.08202463498102595,1.5739206275074349,150.406772442454,101.2823048540386,126.87012333383896,78.56902450505547,103.59136821295512,101.97706979835313,126.86763420873181,124.48751606606082,149.0,145.0,125.0,121.0,101.0,145.0,125.0,169.0,0.07500773657165427,0.27054014815624117,-0.13238922897511493,-0.31791016831137736,-0.3467505989260619,0.17013910528381798,0.029671245768849483,-0.007854304309549849
57,2.85,-0.1267453987269973,-0.40567440036500946,1.9041073882313748,-0.03512671695498204,-1.4736874765880845,-0.12002470173281798,0.46607000860518055,0.12002189132045876,0.642733206368973,3.0230154337657984,-0.08284911334169613,1.57425444128354,149.969607620827,101.4637960960205,127.05395960913047,79.65407231309966,103.43851291273712,102.55617218950985,127.13079267793262,124.91759459296081,149.0,145.0,125.0,121.0,101.0,145.0,125.0,169.0,-0.4006753980409329,0.0840791148884241,0.07914852600704389,0.288833018389334,-0.501636713198032,0.37412730172930164,0.2566668038067444,0.04346871883493182
58,2.9000000000000004,-0.12787117357459143,-0.40537563755903516,1.9040889494315314,-0.03622726813409871,-1.472862394226241,-0.12129595691286266,0.4664627277292815,0.1195393241841384,0.6427447439895945,3.021989734901749,-0.08340285141030471,1.5745610937778571,150.38745442441697,101.74698288322861,127.04565691586238,80.048153666187,103.58300947690164,102.62023585452447,126.95797967559902,124.94611326438061,149.0,145.0,125.0,121.0,101.0,145.0,125.0,169.0,0.06669970743584905,-0.03131900356383915,0.020467998985809914,0.413392960897328,-0.3421775555173116,0.12896403407559606,0.05588177350110942,-0.15178883352148623
59,2.95,-0.1279625556966124,-0.40390091966028363,1.9038248478643807,-0.03765393087610791,-1.4728156881449221,-0.12149677118490398,0.46737073085201,0.11938714836923904,0.6424297703105275,3.0217590005970107,-0.08339380050169175,1.5746937207021032,149.89871170162849,101.92595640163682,126.7804727837332,79.78678694038682,103.87705910672518,102.72654433904249,127.20392881321139,125.4018885183376,149.0,145.0,125.0,121.0,101.0,145.0,125.0,169.0,-0.3154059454303448,-0.11169065718670311,-0.19440158812610317,-0.14537386363327637,-0.006604259611448701,-0.08038635402681955,0.4760218364672072,-0.09578590026704747
60,3.0,-0.13108628645579046,-0.4048152040726194,1.903789016901114,-0.038011036364259176,-1.4706273316645175,-0.12442069528324717,0.46731668905684753,0.11817751722155015,0.6429235153991921,3.019916679852385,-0.0850294314455456,1.5748532805640323,150.16595318150695,102.36986467380176,126.43370125415717,80.8292969218769,103.1397635844081,102.80721840606472,126.0063003132138,126.09343878953952,149.0,145.0,125.0,121.0,101.0,145.0,125.0,169.0,-0.017817701547945087,-0.01199690137724022,-0.49576977858842347,0.46909541054189535,-0.6990273475818144,-0.4345951959503894,-0.7904286587488222,0.2125976680442017
61,3.0500000000000003,-0.13103583598398671,-0.4030477602429756,1.9032645708990943,-0.039387800308680276,-1.4706685205792258,-0.1243012065185658,0.468361532229241,0.11806164883907755,0.6426501844940538,3.019804991541997,-0.0849817746281059,1.574791953351254,150.27926893374453,102.51451305616297,126.71931744179288,80.95163080071009,103.61939029461274,103.28562567392349,126.38955327355447,126.03276670157445,149.0,145.0,125.0,121.0,101.0,145.0,125.0,169.0,0.11851243256251134,-0.3460070383996711,-0.19229871982328547,0.31021665929594044,-0.1846298058897685,-0.1766858838654543,-0.2701203861191847,-0.18401651520877302
62,3.1,-0.13076163655266893,-0.40200272957898653,1.9033725316825212,-0.04107926494458436,-1.4708379372229627,-0.1243315805991938,0.4690103377492551,0.11808764012666231,0.642302687021511,3.0192928234184078,-0.08473439049903367,1.5751228788979996,150.00241863520387,103.16928705935051,126.82424572950471,80.59833422612442,103.5683340228149,103.4422422749434,126.3434438692425,126.31410618980073,149.0,145.0,125.0,121.0,101.0,145.0,125.0,169.0,-0.10371344026783265,0.14334366312410435,-0.044108700875048173,-0.31812147007810493,-0.15871312358709203,-0.2575095860987887,-0.23623280512237793,-0.18935801343252542
63,3.1500000000000004,-0.1324529693815779,-0.4027399112796761,1.903658319054939,-0.04213652015360525,-1.469613972025079,-0.1260366899125538,0.4689155600516402,0.11744132993222195,0.6425752876828724,3.017474235411017,-0.08552910310725845,1.5754067462341337,150.1053815059561,103.41119445238566,126.70439017697578,81.13185277877615,103.75924695953469,104.00701926058863,127.12059429445453,126.65486518464415,149.0,145.0,125.0,121.0,101.0,145.0,125.0,169.0,0.02442912500373659,0.03976588095709089,-0.1335845065685257,-0.21498266426182208,0.05321680878091528,-0.1914732017229216,0.45704289258537295,-0.17691051629043583
64,3.2,-0.13520022690122424,-0.402735239418087,1.9031915304556355,-0.04242168073997199,-1.4677217908998017,-0.12839138264464323,0.46929449299521564,0.11631372241100552,0.6429405688682097,3.016268279979988,-0.08700062988449289,1.5753009226515187,149.61353620269207,104.11002372859117,127.0689933602747,81.25952878446205,103.91303314630179,104.4818472353444,126.78466981827263,127.13230500282774,149.0,145.0,125.0,121.0,101.0,145.0,125.0,169.0,-0.4101044592464683,0.30151309029329687,0.2872674719498263,-0.44605497188312726,0.2110129442815782,0.007099760596936379,0.26839074850519223,-0.10257871810249056
65,3.25,-0.13872187120898793,-0.4054982151698008,1.904068218854654,-0.04299037421554086,-1.4651968318457946,-0.13193405158007065,0.46831009089441816,0.11508043378016339,0.6436671378934906,3.0131528699486108,-0.08869186091289057,1.575839347164041,149.78804936022271,104.2100626004197,126.78758994696081,82.13796915867238,103.53182296148283,104.9358856240004,126.39234070997716,127.66388795465642,149.0,145.0,125.0,121.0,101.0,145.0,125.0,169.0,-0.21431470597112512,0.06585456259464523,0.026775697596943756,-0.08340488712915524,-0.27268831671266536,-0.016495328380536665,-0.10185882598570853,0.08384155094411959
66,3.3000000000000003,-0.13973441253430785,-0.40632720284907187,1.9047402904353028,-0.04435371545890021,-1.4643965659668003,-0.13332406021886634,0.46809735425300647,0.11472753762160667,0.6437416947660503,3.011405584841317,-0.08907458980985954,1.5764498220081982,150.17207044703426,104.4210459993792,126.8432439907477,82.28847345184296,103.9494377741562,105.31860250109767,126.60842136086035,127.56101147670778,149.0,145.0,125.0,121.0,101.0,145.0,125.0,169.0,0.17207044703426047,-0.07895400062080354,0.09006332917008829,-0.15936369828426095,0.19309259649122618,0.059719252366699345,0.12010360385101258,-0.29646515880624186
67,3.35,-0.14002532167827653,-0.40690412613803595,1.9056191152935291,-0.0460477529733363,-1.4640950421162442,-0.13423959698580035,0.4679519718094201,0.11464524255481254,0.6435949215570347,3.009902525699883,-0.08904413132748078,1.5772340955183273,149.6994911196282,105.06776692985312,126.84643699221172,82.49972808010584,104.2653314026463,105.33896651581958,126.64999323359679,128.4497913614481,149.0,145.0,125.0,121.0,101.0,145.0,125.0,169.0,-0.28863239581126116,0.35280255930680704,0.002447222390758851,-0.1856939147790682,0.5235592507475744,-0.08888158544624211,0.13484171844527182,0.39151630317302544
68,3.4000000000000004,-0.14379127023460292,-0.40998496292869824,1.9065991859504345,-0.046496911248231854,-1.4613859382044954,-0.13804915289748632,0.46681494162616904,0.11334879269829086,0.6443746182984448,3.006620132386708,-0.0908272626237291,1.5778433107611778,150.11273186211835,105.09235716573198,127.10516677779242,83.35662837537282,103.95954073560318,105.76585764194657,126.97355753418972,128.59793752603136,149.0,145.0,125.0,121.0,101.0,145.0,125.0,169.0,0.16261309727274692,0.016347664544339363,0.2696911993862477,0.08670549619545236,0.12115689721935446,0.025958652047576983,0.4887090493412346,0.17369510178891756
69,3.45,-0.14522315571265043,-0.41007703898427783,1.9068101155344532,-0.047523650590469924,-1.4604062371372715,-0.1395199852345188,0.4670183422339739,0.11276254920293685,0.6443953885027996,3.0054443787093725,-0.0914515960723899,1.5780883622349782,149.6262756292635,105.41867335247882,126.43160724563523,83.63923702560577,103.78415562578851,105.94982654938207,126.48990813766018,129.19491283649782,149.0,145.0,125.0,121.0,101.0,145.0,125.0,169.0,-0.34708998816993614,-0.07285207124999757,-0.3324953184673247,0.16744215381090202,0.005529671590042413,-0.23846861601233454,0.09223371905553183,0.4693314411489989
70,3.5,-0.14780888106700285,-0.41098546458385243,1.9070168944973984,-0.048068571204878285,-1.4585886711806575,-0.1419810139131159,0.46689762372231286,0.11178168869439445,0.6447338973468728,3.003707170948916,-0.09270758012760018,1.5783112180080636,149.58894385934127,105.70519630368466,126.66867409721532,83.58010884169518,104.51656361145864,106.44616303750689,126.19215440570176,129.56324742825032,149.0,145.0,125.0,121.0,101.0,145.0,125.0,169.0,-0.2268456143429611,-0.08427738052586789,-0.05007590278467835,-0.328745324971487,0.7761055961914504,0.028860238524698874,-0.09019853547471345,0.506776840015015
71,3.5500000000000003,-0.14972253384862277,-0.4153404148045716,1.9094376136835898,-0.04960705871486404,-1.4569610498980126,-0.14508460671701418,0.46492063552476437,0.1113609564343796,0.6452070217884492,2.9997048734050114,-0.09332437367517511,1.5800328106435741,149.6261436731689,106.0185679422774,126.94750230246942,84.2752706067426,103.93912087521092,106.53358529048806,126.43169626807736,129.4204847794296,149.0,145.0,125.0,121.0,101.0,145.0,125.0,169.0,-0.27385632683109434,-0.00047967677022057607,0.0637813722368667,0.08922409511469388,0.018404762678955907,-0.0802254511999272,0.041625346091555944,0.24554388108444147
72,3.6,-0.15104543890699285,-0.4164375673959886,1.9103820290180922,-0.05097353400143767,-1.4560319779584336,-0.14672923352358147,0.46459280103048184,0.11090210116339819,0.6452092807211217,2.997903174399228,-0.0937560633125869,1.5806175577884694,149.88371413457838,106.54555009127768,126.41911660056694,84.53853802901676,104.08483912855742,106.9935142449309,126.65044867612065,129.04142750996274,149.0,145.0,125.0,121.0,101.0,145.0,125.0,169.0,0.001786423735010739,0.2877187659764621,-0.46400028254994624,0.09178478226351584,0.15150579522407756,0.13710398852065175,0.24199797189529218,-0.3670231942625941
73,3.6500000000000004,-0.15255833228043025,-0.41585084528322414,1.910477100491664,-0.05199131806409163,-1.4551359401768815,-0.14805699725249033,0.46515784325545145,0.11021858634816126,0.6450035534734809,2.997316511601065,-0.09438987857055166,1.580581600727447,149.98866243950704,106.11602028261439,126.99229463094628,84.76499349796741,103.8172071449013,107.01819129652931,126.26036734052461,129.73935787454622,149.0,145.0,125.0,121.0,101.0,145.0,125.0,169.0,0.13358997573892678,-0.42021160144357894,0.2448987976129502,0.08270183130073927,0.07105329874745303,-0.2305266521886453,-0.01793454626784277,-0.06960438960474265
74,3.7,-0.15153532914144208,-0.41573357806383937,1.9115714768895176,-0.05425993751792646,-1.4557875910316262,-0.14785807697615905,0.4652541734024283,0.11060288334700658,0.6444622820125449,2.996394233975742,-0.0936043063403339,1.581414236201743,149.51960573065182,106.48422147564766,126.6575801881536,84.80118039947436,103.85599563988178,107.42989404083883,126.09425979503493,129.831996342128,149.0,145.0,125.0,121.0,101.0,145.0,125.0,169.0,-0.2664519616558626,-0.27058621666003324,-0.13244605856555938,-0.0754600204731452,0.12895482355525398,0.09060832655312319,-0.10149492194620091,-0.13498478994744303
75,3.75,-0.1513129940452318,-0.4170126456603671,1.9132301055522873,-0.0563922329727613,-1.4558194161136058,-0.14865582104120323,0.4646884812558736,0.11078193306337027,0.6441446472241972,2.994581298290153,-0.09317105763978523,1.5825885483850188,149.79748895780355,106.60616253773796,126.65084558158422,85.01775881565692,103.57304457199254,107.75127614074238,126.08945173348206,130.51171182152302,149.0,145.0,125.0,121.0,101.0,145.0,125.0,169.0,-0.04536818505361173,-0.28431365273822795,-0.19290441841578482,0.02036298232359166,-0.16741344327464278,0.3339733417601828,-0.1180954363292611,0.4150137083154983
76,3.8000000000000003,-0.15045555281365974,-0.41783678350414855,1.914610893997887,-0.058547261655510496,-1.4561981012733325,-0.14892226421599375,0.46429869222146813,0.1111855245345019,0.6438145418894744,2.9930318466695836,-0.09250073980960309,1.583802932679987,150.2819725101978,106.48996390438408,127.00186906555342,84.87480320235885,104.0911334446487,107.29442698610873,126.13690285426087,130.01444358011906,149.0,145.0,125.0,121.0,101.0,145.0,125.0,169.0,0.4054879496277187,-0.5575420338581931,0.08972436271103464,-0.2698996400184119,0.273184726699981,-0.24659865491691285,-0.05177639102214161,-0.1742356651639741
77,3.85,-0.149124755093764,-0.41822704109498243,1.9160610867867627,-0.06104184072399832,-1.4570099723609742,-0.14866935975482587,0.4641018812950292,0.11173208111794758,0.6432794404808254,2.9917668823290473,-0.09150949033895583,1.584893993573697,149.83432107833295,107.19535306711876,126.65872608270244,85.36734231977726,103.86420123146965,106.95464693368436,126.08625621466523,130.24717923194493,149.0,145.0,125.0,121.0,101.0,145.0,125.0,169.0,-0.0793479864152698,-0.018076189475965922,-0.22332519934884143,0.07247052490547622,0.06676533403375251,-0.6222761432387284,-0.10759721323076533,-0.04596497609289626
78,3.9000000000000004,-0.15075309962144345,-0.4177533099996933,1.9160289769673549,-0.06204469630024967,-1.45605477965099,-0.1498560348986877,0.46461888644070043,0.11100725880874351,0.6432168271759716,2.9909526396330404,-0.09218161643644256,1.5846333683220017,149.67556433056717,107.50469831757745,126.58967822315306,85.46041197373934,103.84329189480965,108.30263670213091,125.84116092587628,130.85158527195358,149.0,145.0,125.0,121.0,101.0,145.0,125.0,169.0,-0.2039537417219816,-0.044699272783994624,-0.2315653001629972,-0.11212688636427803,0.16554253419583187,0.30007915737387325,-0.2435449564766497,0.06805586018888221
79,3.95,-0.15029375210514395,-0.4195123289503293,1.9179129019635797,-0.06428328698584451,-1.4561771698374004,-0.15060299571832791,0.46378136611634896,0.1113226143395738,0.6429681012847884,2.988803124524615,-0.09159963877104745,1.586009954304877,149.90959439462466,107.50644666644536,126.6035388299748,85.77032886157716,103.78818766962907,107.90226578307177,126.48229547463568,131.074457371475,149.0,145.0,125.0,121.0,101.0,145.0,125.0,169.0,0.09664475433690047,-0.2561432616121894,-0.31074688431090897,-0.021878930630634,0.05928741387458599,-0.3048953422479231,0.36051561515089825,0.12363769934383494
80,4.0,-0.15186022704912716,-0.41947179322558803,1.9179840904678018,-0.06513763867216227,-1.455109991152372,-0.15205362732771777,0.46405260751708166,0.11067650595744537,0.6430106567478286,2.9877618210207815,-0.09230067432945627,1.586111164753618,149.7817990990618,108.01324636297089,126.55207519762058,85.99927472679549,103.12610486647405,108.42547361969696,126.29834989034711,131.07142712299725,149.0,145.0,125.0,121.0,101.0,145.0,125.0,169.0,-0.05590973148714488,0.0036998235914145585,-0.34456562925279766,-0.09374852901845235,-0.5542020388967885,0.049514540413072156,0.1862003576368412,-0.0781055872831193
81,4.05,-0.1525144643661811,-0.41831328110678845,1.9177397761893777,-0.06624396583786529,-1.4547201489992458,-0.1525327982702822,0.4648266972407333,0.11029968657715994,0.6427979248752368,2.98747134042908,-0.09257740565848224,1.5860079717882711,149.56381174758394,108.23410332655496,126.87102045965044,86.42501092549573,103.56695793594862,108.37684482922721,125.81967769054692,131.33577359321578,149.0,145.0,125.0,121.0,101.0,145.0,125.0,169.0,-0.17542270217684008,-0.06972442464121321,0.08751530501126244,0.08995937910397481,-0.021874551361029365,-0.2119876580824339,-0.2343129197817182,-0.023381336361701883
82,4.1000000000000005,-0.15264090363964966,-0.4184716656595344,1.918632150575795,-0.06808380483357857,-1.4546951235284729,-0.15296938562207751,0.4648771933457661,0.11023665726549516,0.6424749708327042,2.9863300199273617,-0.09234698534295326,1.5864211994146469,149.22488122979544,108.27528106225184,126.27051002946205,86.53989541142302,103.52984183294927,108.70093026224374,125.97431736430194,131.29158016645954,149.0,145.0,125.0,121.0,101.0,145.0,125.0,169.0,-0.4489282940140726,-0.265195128224346,-0.40657330387127727,-0.017396255243659304,0.04135078435592401,-0.11492651524986144,0.011876049747952068,-0.44550903541837994
83,4.15,-0.15373843549186006,-0.418645085106633,1.9192589687613246,-0.06938737537749118,-1.4540016189696479,-0.1541785985853812,0.46499555885999777,0.10978684160680716,0.6422825302066678,2.9852591556891586,-0.09269464539659938,1.5867077711233994,149.84676150016682,108.77963128486736,127.0808339063285,86.82838879435467,103.32347908903473,109.07610999182302,126.01361568285142,132.09034052443255,149.0,145.0,125.0,121.0,101.0,145.0,125.0,169.0,0.20458140538008807,0.018967777758363478,0.4528655685976228,0.03155502126758809,-0.2096841762713982,-0.12542062042187974,0.1017827362156965,0.17850757779681875
84,4.2,-0.1533959541587966,-0.4184643963399326,1.919931454000964,-0.0712237150095536,-1.4542359382182628,-0.15422096195605262,0.46517515018327016,0.10988996155769136,0.6419576140662691,2.984322066525089,-0.09229125118989745,1.5871468080003805,149.4676930809649,108.59859272352597,127.09716673054787,86.72395301273312,103.70323511976409,109.08659746998774,125.6256636858497,131.79288202655016,149.0,145.0,125.0,121.0,101.0,145.0,125.0,169.0,-0.14275822544839753,-0.4109084641224846,0.47774415836938816,-0.2550496119388053,0.17918448685268945,-0.2399848084932817,-0.2757447648545218,-0.27049825513997466
85,4.25,-0.15231204005854115,-0.4199534697783913,1.9220389349783007,-0.07389689867422078,-1.4548947304547637,-0.15435376691026947,0.4644273366745782,0.11042669020180167,0.641483056914835,2.9823805361315623,-0.09127560280459812,1.5884486503268795,149.6064016318623,109.45787707882886,126.72598035327427,87.28670909423296,103.7910515818536,109.31178220925321,126.1753423019518,132.0323688978233,149.0,145.0,125.0,121.0,101.0,145.0,125.0,169.0,0.00019638126564694024,0.3528651456546281,0.011694638988556527,0.2139818215056838,0.3075910220571502,-0.05463000448724985,0.2245226298206498,-0.08941096166149698
86,4.3,-0.15391743369369681,-0.4199488704434433,1.9223634788023043,-0.07496981435951655,-1.4539437253954812,-0.15567995834194104,0.4646877421195341,0.10974972021359698,0.6413923514623513,2.981366233708659,-0.09187187641442414,1.5883727963836036,149.26140523526752,110.06988814360437,126.64187031440999,87.25060947254592,102.96316367012084,110.1081373644905,125.71715316448757,132.78069303844296,149.0,145.0,125.0,121.0,101.0,145.0,125.0,169.0,-0.2659106792217937,0.6708382623692144,-0.019628393600356397,-0.12406753003806541,-0.3803477802608531,0.4338371100375705,-0.009482349531131957,0.2292911692840908
87,4.3500000000000005,-0.15502101963746107,-0.4210157653099471,1.923138259728563,-0.07622512492710154,-1.4531082834400646,-0.15699510531001648,0.4643452301487096,0.10938143851338425,0.6414889563511202,2.9795708792561935,-0.09221247679931273,1.5888459641267383,149.8206892885245,109.63168718778233,126.70830349003693,87.64674134834281,103.72215078727189,109.88664690715201,125.91898761412828,132.6519235078732,149.0,145.0,125.0,121.0,101.0,145.0,125.0,169.0,0.3254286250173935,-0.038928925961735056,0.14172385557216013,0.04621915513132032,0.2694653652769976,0.06311749538729826,0.10766685941130111,-0.15939724684376733
88,4.4,-0.1549364835142959,-0.4211271276895716,1.9240425433749788,-0.0780474182380364,-1.4531972941344504,-0.15734095385886748,0.4643928542461841,0.10940289848816956,0.6411322158075643,2.9785378807889837,-0.09188906634452883,1.5893538979493678,149.65601585458276,109.96720985816548,126.51877894956617,88.21135939738258,103.4699138299982,109.9850418505232,125.69529905104234,132.92923005029033,149.0,145.0,125.0,121.0,101.0,145.0,125.0,169.0,0.18696823553513656,0.05292414387976142,-0.03648420832856998,0.30609623948784875,0.05709331717769452,-0.12521455973320894,-0.06816699111222214,-0.026273462590245707
89,4.45,-0.1548936294257488,-0.4202417519522368,1.9244430848073675,-0.07975357280072748,-1.4533834890742767,-0.1573322727199069,0.46496360227994804,0.10931522260146478,0.640665050328535,2.9781613242627665,-0.09163586036780365,1.5893959564219797,149.61992064794302,110.47095762857396,126.21756700903781,87.9560999932138,103.27773519200676,110.3902538859164,125.36132097232799,133.28982625792884,149.0,145.0,125.0,121.0,101.0,145.0,125.0,169.0,0.24521897729863568,0.40413185291762393,-0.2824329909621881,-0.04390000678620884,0.10979626070905185,-0.004148149707014883,-0.2196975461905315,0.10695588755845045
90,4.5,-0.15505887184346623,-0.4204401727030125,1.9251500706164881,-0.08137449617415049,-1.4532623006008336,-0.1577762908084357,0.4649860523168279,0.10924630027955362,0.6404632263865557,2.9769977333004154,-0.09148946480007968,1.5897910992587039,149.3295381851114,110.45215736698613,126.25729382249192,87.99695498810469,103.68758987937483,110.51385277550924,125.14823240049799,133.6335982625611,149.0,145.0,125.0,121.0,101.0,145.0,125.0,169.0,-0.02760467203145265,0.15930022412898195,-0.24791451084141072,-0.24523251189531184,0.49314543493038954,-0.04422803257157245,-0.38063595977914344,0.1924897175264615
91,4.55,-0.15536900226832362,-0.4229177277738092,1.9271188445375902,-0.0833237428731275,-1.4528606754511353,-0.15907726965582958,0.46383907398967517,0.10931819677485492,0.6404447095968213,2.9743678799723554,-0.09123722059063896,1.5910588911915156,149.48752595094822,110.29855340618562,126.17208065575593,88.9171609247537,102.94252959741672,110.60053029031555,125.48712175934719,133.5799045875454,149.0,145.0,125.0,121.0,101.0,145.0,125.0,169.0,0.11697963265842459,-0.1860071638856313,-0.3486447328451085,0.4560210283806498,-0.2921642801343032,-0.03722481172526907,-0.03712766328560687,0.03256047669089051
92,4.6000000000000005,-0.15454729062633188,-0.42095157769570335,1.9271522159993797,-0.08514663152314572,-1.453602882735093,-0.15828307486731719,0.4648939741547629,0.10945293738118123,0.6397603282352358,2.974755395010999,-0.09067658408103176,1.5909550919265982,149.5480674643833,110.56611191243682,126.36665912964476,88.21848948252502,103.26108626113775,110.71924418375623,125.6397525825316,134.0349977633617,149.0,145.0,125.0,121.0,101.0,145.0,125.0,169.0,0.22265178742370287,-0.13222537972470527,-0.08179447860266074,-0.3665620638667357,0.1243774003782519,-0.025059613712112367,0.20557244396346935,0.24054048853490936
93,4.65,-0.15543492212302512,-0.42201928001347033,1.9279281872160787,-0.0863805799687607,-1.4528555367931224,-0.1595172997450729,0.46452634861094166,0.1091778032605284,0.6398542161244366,2.9730032566036386,-0.09093441709731781,1.5915493309277615,149.516415848519,111.41067721546642,127.04342240165634,89.12477695214885,103.08959567740914,110.9663325642839,125.77365124029254,133.68499706468396,149.0,145.0,125.0,121.0,101.0,145.0,125.0,169.0,0.2557523414099943,0.43674356617732296,0.5565114068919395,0.2137821877509355,0.03696409846177063,-0.08629901466347271,0.3643489147111503,-0.3359331678741867
94,4.7,-0.15563861333914675,-0.42082244682452474,1.9280692128853385,-0.08798589788500166,-1.4529759084180593,-0.15940232735124393,0.4652775707720003,0.10895612177759664,0.6394190450868548,2.972773798670931,-0.09079048994047863,1.591235149110191,149.26142918068743,111.03083244603457,126.4746818922696,89.01922704359441,102.54723460402248,111.64690758569625,125.26429181403543,134.27324195627128,149.0,145.0,125.0,121.0,101.0,145.0,125.0,169.0,0.07809584735409941,-0.12631041110829733,0.1141555764801362,-0.0465624300897886,-0.34193416172060626,0.274111615922963,-0.03200448226086092,0.016297511826821622
95,4.75,-0.15388136711414502,-0.4204600317296232,1.929159179565353,-0.09039666382528422,-1.454139544804839,-0.1585356353372358,0.4654144282476864,0.10961580608573918,0.6387881083040057,2.9721065450788124,-0.08963116096337154,1.5920280258178974,149.16979698772883,111.50155687137172,126.57415926751128,88.9882560519142,102.81775687238766,111.11112612285469,125.3458224108981,134.4866740787548,149.0,145.0,125.0,121.0,101.0,145.0,125.0,169.0,-0.015476171416051326,0.2022694604453459,0.1572727239756472,-0.1172848451834138,-0.07141189335542107,-0.2616698469186091,0.03706665052943001,0.07653582990688657
96,4.800000000000001,-0.15497638628552046,-0.42094589321463216,1.9296180235054017,-0.09158681355593368,-1.4533955630453157,-0.1595316753498568,0.46536801276530565,0.1091970246088213,0.6388401435686686,2.970680536598148,-0.08997748946591493,1.5921505203287336,149.0036552680315,111.19830013685488,126.65227227453543,89.29855007211783,102.92629992936372,111.6340054881436,125.0474393656393,134.5851454200075,149.0,145.0,125.0,121.0,101.0,145.0,125.0,169.0,-0.0898699118245801,-0.3868317576295304,0.3362100983696354,-0.15999915068009984,0.005180336488406169,0.008051289670321654,-0.1429276068377614,-0.16485457999249678
97,4.8500000000000005,-0.1534818586284037,-0.42200934324739414,1.9315300169185727,-0.09423336981819652,-1.454335201069001,-0.15924595710444178,0.4647913026475012,0.10986531085396894,0.6383062107250715,2.9690874326757686,-0.08879351489948042,1.5933640612914932,148.98987249674826,111.658646921983,126.13313628770221,89.19144893790502,103.0465851264627,111.78794212486443,124.88446424367972,135.01236596853977,149.0,145.0,125.0,121.0,101.0,145.0,125.0,169.0,-0.1871609960747203,-0.08297987227536716,-0.24608449151855571,-0.33842119196511655,0.1624541440949417,0.07509577725737933,-0.3159965858133607,0.18517702844761588
98,4.9,-0.1535557962716938,-0.42423327210900164,1.9333351713405165,-0.09613870919268086,-1.4540639704457394,-0.1603013948037959,0.46375246574414375,0.1100131996629847,0.638279356230279,2.966643753247411,-0.08846622135206063,1.594584536056787,148.93829930386414,111.87997744588887,126.09267786716518,90.05721294350519,102.62305244308207,111.82462676523903,124.84864624270011,134.9355482689251,149.0,145.0,125.0,121.0,101.0,145.0,125.0,169.0,-0.241369726868726,-0.006547376806172856,-0.3114672105550213,0.33182434246891307,-0.2988619146005468,0.018581425188663882,-0.3350746875324373,-0.02026568456327482
99,4.95,-0.15291825795111524,-0.4235240438847825,1.9339948226663148,-0.09811443629358774,-1.454628003594915,-0.15990152774890687,0.46417165664157534,0.11017824630024,0.6377412451234772,2.966186445931901,-0.08788207704373391,1.5947808452531334,149.2061224084208,112.37026437139386,126.42926422241212,89.93090975752548,103.56550313811618,112.6009797088623,125.16934596094562,134.91783233063478,149.0,145.0,125.0,121.0,101.0,145.0,125.0,169.0,0.09000866434497844,0.2968046557540422,0.027709818267042902,-0.01986744454706237,0.7101415421062122,0.5560919283136608,0.1068459609456181,-0.17938989158743557
100,5.0,-0.1520420471730768,-0.4250608752372518,1.9361281944567708,-0.10061789162021473,-1.4551903725878281,-0.1601908196761297,0.4634053164092446,0.11062996355179174,0.6372464827179094,2.9643726103350336,-0.0869470307399653,1.5960109839799028,149.11853089766748,112.59682697669524,126.5367480778316,89.87362307162175,103.00382051038362,112.43491562610808,125.18462312538325,134.57537720352806,149.0,145.0,125.0,121.0,101.0,145.0,125.0,169.0,-0.06113813306538401,0.48335179939027084,0.10557924666277363,-0.07702627902760313,0.1588205103836141,0.30741562610807566,0.12212312538324854,-0.5218450186941707
101,5.050000000000001,-0.15155342950052209,-0.4251221793548354,1.9372681601955017,-0.10273909221742406,-1.4556516870654974,-0.16012229803587452,0.4634368550761592,0.11079637016626856,0.6367395877369245,2.9634301620755648,-0.08632794212610004,1.5964399270765497,148.60554891136226,112.78327815856397,126.15764298351877,90.30162349317676,103.16953361631477,112.22142536949329,125.27529650965509,135.11685278745838,149.0,145.0,125.0,121.0,101.0,145.0,125.0,169.0,-0.4989641527707442,0.42698362174686927,-0.20288333227070388,0.23583401949255853,0.4801396769208319,-0.0866554385875203,0.23382185527721533,-0.21264030009923435
102,5.1000000000000005,-0.1537707295661428,-0.4260860424526727,1.9379513272205644,-0.10366647461714251,-1.4542485684635782,-0.16199179878816228,0.4632482195562861,0.10995768213078275,0.6368166763741056,2.9618294466634327,-0.08715084475817793,1.5964172844350037,148.98041886502173,112.28051935195715,126.25141557258965,90.28128345228497,102.41124598791141,112.43245079509391,124.93631601632845,135.6717280873807,149.0,145.0,125.0,121.0,101.0,145.0,125.0,169.0,-0.0388119042090388,-0.2675575711197695,0.0007695777576140144,-0.13990517820599016,-0.23179198677213483,-0.035903635285833346,-0.042994328499137514,-0.015628234458382607
103,5.15,-0.15298120461775433,-0.42593562356196824,1.9387853099190435,-0.10563180897703583,-1.4547873645636207,-0.16170442687203357,0.46335612494800354,0.11024300401661301,0.6364083765185331,2.960982141095186,-0.08650103717673886,1.5969127526981135,149.28010866206304,112.74589743353775,126.03957977693025,90.86926646956528,102.56789390108098,113.10400511212558,124.96683487796199,135.76406850290323,149.0,145.0,125.0,121.0,101.0,145.0,125.0,169.0,0.265957718666808,-0.10787615136791139,-0.18149991458645354,0.31656724077348847,-0.017964684777613704,0.5206717787922416,0.029334877961988307,-0.1387092748745445
104,5.2,-0.15115788782717665,-0.4246351419688086,1.939507230952647,-0.10797853386648093,-1.456156190648719,-0.16047673948526997,0.46396006569191595,0.11084053053510673,0.6356069901853257,2.961013220539947,-0.08532994238564823,1.5973093928887756,148.9312071081651,112.72403042168567,126.09491423457774,90.5715654093131,102.90270461961703,112.6622903539753,124.80812003640486,136.35266585594073,149.0,145.0,125.0,121.0,101.0,145.0,125.0,169.0,-0.06879289183490934,-0.2244473300707747,-0.11438809100364448,-0.06667748474374795,0.3812940402719363,0.022491865310296795,-0.12028643010783285,0.424259389428025
105,5.25,-0.15146857445530326,-0.42612756597050216,1.9408183778571928,-0.10962956897274845,-1.4558111462972816,-0.16139026345936314,0.4633170400597058,0.11082595830920497,0.6355685524043361,2.959057148982345,-0.08517757863723878,1.598116321372145,148.5860777821682,112.91404093492997,126.1869506774267,90.56224394701067,102.34643354502045,113.05494163350889,124.47848654335037,136.08418342264162,149.0,145.0,125.0,121.0,101.0,145.0,125.0,169.0,-0.46333398253769537,-0.16125318271708605,0.042247835049438485,-0.20261393412628273,-0.12175983920347283,0.22796962333078077,-0.4178268207049289,-0.02871980316484535
106,5.300000000000001,-0.1504047261781567,-0.42738994375973416,1.9425829796512293,-0.11200606136190228,-1.456432774334938,-0.16137478984509546,0.46266776979267177,0.11133692592659684,0.6351933296332581,2.9573112871622285,-0.08424229242075948,1.599210577475215,149.00900885766055,113.30554116774347,126.25035788907115,91.36547249913306,102.35475406575843,113.05839044243135,124.8577328930395,135.99471237297647,149.0,145.0,125.0,121.0,101.0,145.0,125.0,169.0,-0.03108548196208285,0.07440909227177575,-0.044978898493611814,0.4017419291848855,-0.18312472212035455,0.12152175556264669,0.036222595556670054,-0.24556222656586832
107,5.3500000000000005,-0.14938859032277607,-0.4257359471335782,1.9428807283908869,-0.11403620977398976,-1.457386010048567,-0.16037565229960915,0.46353206782145207,0.11157120981360927,0.6344925140431743,2.957495560081383,-0.0834867486330557,1.5990734188422537,149.19624363057738,113.39823573802266,126.11554006853059,91.18432354257047,102.10895386226831,112.95869270979858,124.55659565016556,135.57241422104553,149.0,145.0,125.0,121.0,101.0,145.0,125.0,169.0,0.19624363057739191,-0.07405341860383562,-0.014330061339535093,0.1453625036094321,-0.35569260237816147,-0.22565072454484816,-0.15381158965344668,-0.8891242404929172
108,5.4,-0.14753570070940025,-0.42305182496222926,1.942911804881489,-0.11635724407540904,-1.4590168191865596,-0.15847138287637508,0.4648499535284411,0.11205268262252652,0.633549761201139,2.9583351448041935,-0.08232053118745546,1.5987194538261498,148.94361128814162,113.82251098623014,125.55516803581773,91.30466140659668,102.25647026706815,113.21904218209794,124.36278357983647,136.82838519497454,149.0,145.0,125.0,121.0,101.0,145.0,125.0,169.0,0.05049964918675775,0.20493378908049592,-0.4089345282848375,0.11491781685309171,0.04751504318755902,-0.1142911512353892,-0.18699017581962385,0.21073813615099518
109,5.45,-0.14776055524229248,-0.42252651570782795,1.9430736550379564,-0.1177188746063842,-1.458928268259605,-0.15854447846329478,0.46523774610101026,0.11189968909730527,0.6333762899722009,2.9576417607468177,-0.08227861252177057,1.5986367598292779,148.73100955831453,113.32994526120369,126.07026461396384,91.64989962391101,101.83480540310906,113.81652144722108,124.15870509714877,136.9712431038136,149.0,145.0,125.0,121.0,101.0,145.0,125.0,169.0,-0.10701861069954409,-0.557378682458283,0.18023903851627487,0.20232929143018843,-0.2799078138485596,0.2629054871213363,-0.3707066675571142,0.04137885041993894
110,5.5,-0.14456019865228642,-0.4218529778538054,1.9445371562029745,-0.1207986228070217,-1.4611641775491213,-0.15661830838675916,0.4653736754040016,0.11310783934040998,0.632427451386916,2.957244865461443,-0.08029066022553322,1.5996103391420657,149.36394138278703,113.83853077313015,125.83517751331034,91.45802755930511,101.93377994508924,113.61951354702508,124.94209959004847,137.31667918243002,149.0,145.0,125.0,121.0,101.0,145.0,125.0,169.0,0.46207222390853486,-0.08903932032780429,-0.10898492323788835,0.024017407020843578,-0.1607474180948484,0.08468767637830567,0.4060635540124296,0.32343593918677843
111,5.550000000000001,-0.14441871924562566,-0.4203177507830773,1.9440365496066745,-0.12192489156049646,-1.4613024503746024,-0.15621757120471758,0.46624227131535934,0.11303191825710343,0.6322282174087648,2.9572126234189016,-0.08021796316795983,1.599336868347778,149.30402803579935,114.39177545540554,125.81987162043308,91.82672907083997,101.99457285239835,114.20738654852632,124.58234079832235,137.22321974241308,149.0,145.0,125.0,121.0,101.0,145.0,125.0,169.0,0.4749882231529973,0.2536021532978125,-0.083681679059309,0.23282044139834304,-0.03005768947356045,0.4142831002504521,0.0868251032550752,-0.0951659078111617
112,5.6000000000000005,-0.14300325481202147,-0.41876086384787437,1.9442017864856398,-0.12385456814395646,-1.4624005166569827,-0.1550203506839103,0.4670014139759343,0.11345547312486329,0.6316484197067636,2.957290326448374,-0.07933645049550168,1.599387942264351,148.67840998260425,114.00471228797565,126.1351158685219,91.62138339665806,101.53486052271427,114.22441851365569,124.75877837594588,137.70042203720092,149.0,145.0,125.0,121.0,101.0,145.0,125.0,169.0,-0.024606258695070233,-0.3270742549477822,0.23767997108600233,-0.18118070590604204,-0.4112179086582925,0.24892831757726713,0.33913551880301385,0.20935060862950666
113,5.65,-0.14233909550715262,-0.41877321389377453,1.9447684398006686,-0.12549211432500096,-1.4627434513129813,-0.154835168909917,0.46701900416363945,0.1137192560372082,0.6314640501231544,2.9562859783746593,-0.07885220977987012,1.5998924665925933,148.91198606857282,114.4097362364517,125.46603792222696,92.04830118638833,101.62129503362206,113.98652362127449,124.01995299074586,137.37971935969733,149.0,145.0,125.0,121.0,101.0,145.0,125.0,169.0,0.2033613599481052,-0.1939933672778982,-0.3958546608932516,-0.0028497087523373667,-0.38850888794656885,-0.11886853558826135,-0.365697233469379,-0.3220743622757685
114,5.7,-0.14091058906084442,-0.4169508067391243,1.9448011854283314,-0.1274310258622564,-1.4638989843350805,-0.15347657759601852,0.4679133495519653,0.11412952293393464,0.6308557163716699,2.956506578839931,-0.07796552660105646,1.5997769186232669,148.81174946318876,114.64992125119636,126.0463836449478,91.68835340733048,101.57904502993189,114.3732713736285,124.2415810430429,137.65546465669215,149.0,145.0,125.0,121.0,101.0,145.0,125.0,169.0,0.09812359713794652,-0.09603717836484262,0.255979604543755,-0.46568699670991276,-0.25758863343444843,-0.010391992708142386,-0.10293797261705971,-0.23044138357631613
115,5.75,-0.13984972664449336,-0.41707585705395234,1.9456171816337786,-0.12940546521282004,-1.4645714817889566,-0.15295952402535118,0.46784107432248545,0.11455517353034128,0.6305871464035633,2.9553854284988597,-0.07719059192910116,1.6003041270422214,148.93954677162705,114.78645900353747,125.87988130369398,92.30077828135518,101.73188851478857,114.1589371795234,124.31563433014134,137.9757655991124,149.0,145.0,125.0,121.0,101.0,145.0,125.0,169.0,0.19536072511543015,-0.15772704297415815,0.07581005687463743,-0.004565230095204666,-0.10801296304394926,-0.2967278451071492,-0.004993472549245662,-0.09598327981136132
116,5.800000000000001,-0.13939494356964932,-0.41594297168606253,1.9455686967295618,-0.13091591799639435,-1.464993426291545,-0.15235758328094473,0.4684739838303411,0.11463166665829536,0.630296777796438,2.9550812757178084,-0.07682276617390749,1.6001196104610793,149.0346141756248,115.42468239948448,125.73203342093684,92.38296497452042,101.54832556558668,114.99359764136925,124.15517899093257,138.4878248623484,149.0,145.0,125.0,121.0,101.0,145.0,125.0,169.0,0.3633178793284903,0.2996823994844777,-0.07556151577202015,-0.08032616472008516,-0.24923541002307964,0.2838415438082747,-0.1080953453506205,0.11393105703865057
117,5.8500000000000005,-0.13842191198061204,-0.4154618211311143,1.9459274728117713,-0.1326476127814229,-1.4656398466898448,-0.15168352077368352,0.46871926670338504,0.11497741344590767,0.6300421061204573,2.954357182956383,-0.07617042170308475,1.600377002694013,148.82167468685316,115.44798271714865,125.59424146773226,93.0137073033196,101.65312389427726,115.03215397050417,124.3926160343616,139.03506305806533,149.0,145.0,125.0,121.0,101.0,145.0,125.0,169.0,0.2050465113335288,0.09001504971216615,-0.18494634952662004,0.346194612964286,-0.1327641835816256,0.11244594130709006,0.14985434171125536,0.47158867053749703
118,5.9,-0.13852683798771226,-0.4146474516252243,1.945745280152324,-0.1337657638903993,-1.465583952208335,-0.15158690937802222,0.46923682555457463,0.11486254986977024,0.6299418228573325,2.953875047045622,-0.07616357564123395,1.6002229298580377,148.611788087293,116.03021694063823,126.0711478412252,92.9593581934857,101.41477169642559,114.99267623530945,124.07731632912348,139.02096931979403,149.0,145.0,125.0,121.0,101.0,145.0,125.0,169.0,0.021926336140926664,0.39427224017739393,0.33390294326600484,-0.05849894937143386,-0.3211696238677967,-0.1589130067443457,-0.14046144865431262,0.21652487534958095
119,5.95,-0.13883319510953074,-0.41453257428086987,1.9458555732961225,-0.13502926864743436,-1.4653951796380777,-0.15163281249176563,0.46942409386527495,0.1147145318377418,0.6299728161394982,2.9528117774316174,-0.076166290632069,1.6000745467642088,148.4486328258212,115.78799023542913,125.55212195617959,93.39074046542798,101.82273108612651,115.61558401413177,123.86048223544306,139.21209962579852,149.0,145.0,125.0,121.0,101.0,145.0,125.0,169.0,-0.1633764120540947,-0.10577419875100476,-0.12554301843969887,0.16992828268686763,0.210385407114153,0.1686704338848612,-0.24132771930807814,0.20304985204284437
120,6.0,-0.13775777474317374,-0.4151254036027554,1.9471125439212589,-0.13714465766759165,-1.466092199625514,-0.15131064258151605,0.4690999162101211,0.11518163428638584,0.629625617637217,2.951511906796324,-0.0753039526077209,1.6008132334477105,148.43066883317593,116.33834119859074,125.69175337800755,93.42706494888793,101.83480317878028,115.60974476116871,124.10749898970494,139.040472040123,149.0,145.0,125.0,121.0,101.0,145.0,125.0,169.0,-0.20297171981945947,0.24847944743867129,0.024240687652220688,0.07681114178132968,0.25003659401369416,0.11343026485421477,-0.02390412833514912,-0.24906025386364045
121,6.050000000000001,-0.1380286952239742,-0.41536616744390464,1.9476933167211703,-0.13859525382905158,-1.4659488467752277,-0.15157921847536793,0.46909463338830154,0.11507122962347273,0.629511255737291,2.9503701321452604,-0.07520802199045974,1.6009157837022636,148.49361545690007,116.10347545823245,125.46165855453779,93.59343799571872,101.59655221217861,115.88813189216987,124.4544231191572,139.96948062175014,149.0,145.0,125.0,121.0,101.0,145.0,125.0,169.0,-0.006384543099915936,-0.1187467639897745,-0.10831600016959622,0.015829853225070734,-0.020155404529012298,0.18297218701016327,0.40785992625254247,0.4949795131026986
122,6.1000000000000005,-0.1389689489763306,-0.4156492147269022,1.9477365795784332,-0.13935834947899428,-1.465159562960693,-0.15239138011088604,0.46912629824565016,0.11471176539171418,0.6297086960055045,2.94918755581347,-0.07565424086051992,1.600997579564807,148.790706228607,116.48846598533,125.6459292196398,93.58168610938404,101.80687458382589,116.13570986354377,124.34819956689674,139.77775329492985,149.0,145.0,125.0,121.0,101.0,145.0,125.0,169.0,0.28954613579957444,-0.03821614924077398,0.1651108053175408,-0.2699762947080296,0.16471772108079055,0.1332588831516074,0.2724757361617671,0.1563724486046864
123,6.15,-0.13903164251600852,-0.41603212667984346,1.9482387598277189,-0.14067665481490055,-1.4650201275001882,-0.15267088428005504,0.4690217679565712,0.11471085395362693,0.6296968123015698,2.947957533507362,-0.07553259337971316,1.6013267441679937,148.57513021742557,116.7423071151194,125.52115153193226,93.86572327474312,101.46222359914748,116.28019715690189,124.58226611354424,139.75988840509555,149.0,145.0,125.0,121.0,101.0,145.0,125.0,169.0,0.0751302174255587,-0.03547066265836554,-0.11123921356902708,-0.25252865327744645,-0.10814677122289439,0.00612308282780691,0.5032593415352158,-0.12273010506247088
124,6.2,-0.13983222008833351,-0.41528652811715716,1.9478660765333045,-0.1414304446501009,-1.4644891902858586,-0.15301994051929135,0.4695697426757673,0.11432172831761656,0.6297156722818477,2.9474710105634414,-0.07591719315003084,1.6009986755036725,148.40036093571936,116.92132718251024,125.9923146217454,94.16206238707763,101.69340807541643,116.19906960370166,123.62774089089015,140.04051561170698,149.0,145.0,125.0,121.0,101.0,145.0,125.0,169.0,0.013264161525818047,-0.07867281748976128,0.43874319317395666,-0.20273353128971705,0.2500583217218475,-0.3009303962983392,-0.25566718085871554,-0.1366144331360629
125,6.25,-0.13884693922049163,-0.4161763795308673,1.9492362517269903,-0.14363553154745645,-1.4651678149037144,-0.15267352153784408,0.469108501201206,0.1147697587766805,0.6294347926410238,2.9459011431278213,-0.07503062487544403,1.601643715238093,148.5184463213201,116.59757742167814,125.6718855619411,94.00379426922865,101.18259669881434,116.51268047535365,123.8541749988281,139.96174869799427,149.0,145.0,125.0,121.0,101.0,145.0,125.0,169.0,0.06431788095313584,-0.5515051471292004,0.1718855619410893,-0.4962057307713468,-0.20505762217330745,-0.04040594439943739,-0.02333056910063332,-0.4012802552351359
126,6.300000000000001,-0.13699355541958047,-0.41584817367977367,1.9501270786877685,-0.14585650013670293,-1.466446166075011,-0.1515722902229788,0.4691786062993562,0.11548259473332786,0.6289352265835663,2.9452046204244877,-0.0738330585675992,1.6022426501899778,148.52856620058918,117.44304248685059,126.09054631764802,94.41088449878251,101.38919781683957,117.45413915553344,124.1252915155085,140.1765066819987,149.0,145.0,125.0,121.0,101.0,145.0,125.0,169.0,0.008935715600715328,0.1474304776127119,0.5981993788725144,-0.18860529713586613,-0.0058639115554894134,0.8467317481260387,0.2580348783403498,-0.27703314101016413
127,6.3500000000000005,-0.13496872495370393,-0.4161871027680144,1.9515684619031113,-0.14834331935032008,-1.4678342734256322,-0.1506048952137733,0.4688856556969012,0.11630863154856055,0.628386199453261,2.94413384382707,-0.07244355646451588,1.6031480130030222,148.63680917147363,117.15103629539601,125.32909459113534,94.76576105877767,101.10438597859662,116.7845833271078,124.10752129881891,141.33792492183792,149.0,145.0,125.0,121.0,101.0,145.0,125.0,169.0,0.13680917147362134,-0.2176272990740428,-0.22166683018444383,0.16677628720406681,-0.2527568785462363,0.06783455863488591,0.22180701310462664,0.8258370097500053
128,6.4,-0.13503468667182084,-0.4152314994340087,1.951106089072522,-0.1492269392962826,-1.4677425528080654,-0.1504121445440516,0.4694667019065581,0.11620644755200198,0.6283876156167774,2.9437498998146365,-0.07251091911951611,1.6029357692567514,148.21925960515702,117.53539216872251,125.42780852493884,94.93069258041743,101.3583571849866,116.9224056182606,123.769276787389,140.87595422440688,149.0,145.0,125.0,121.0,101.0,145.0,125.0,169.0,-0.2807403948429823,-0.0959442368074339,-0.07219147506116226,0.005051554776405245,0.07368565213988042,-0.09949219195837682,-0.1024046285401965,0.09940555184050148
129,6.45,-0.1349512817953782,-0.41522833666068193,1.9515539476736228,-0.1506571828203498,-1.4678182974628662,-0.15038243717597766,0.46954578526740426,0.11622360296158067,0.6282531686996906,2.94279563093094,-0.072282640296379,1.6030444306347236,147.9603165233989,118.27162174747076,125.39957946701213,95.26258942971012,101.69649319631723,117.04924079807022,123.7441371512529,141.37622273099052,149.0,145.0,125.0,121.0,101.0,145.0,125.0,169.0,-0.4938119169681016,0.42070431627810917,-0.1517025842699233,0.1702817374024155,0.42155402356782945,-0.16487112407089394,-0.02646418504998269,0.24036526996600827
130,6.5,-0.1370036873828706,-0.41643332518358456,1.9518580769321598,-0.1512667215286747,-1.4663288441526365,-0.15189412826261872,0.46921970472287533,0.11547306847995871,0.6286732892994897,2.940942677934044,-0.07317751370058792,1.602877810114147,148.30845903137197,118.01309589149069,125.60674720480888,95.3838194459655,101.44646563009523,117.02798586738314,123.78984194078066,141.23213780301066,149.0,145.0,125.0,121.0,101.0,145.0,125.0,169.0,-0.1062875124068257,-0.1528027260208262,0.17672175951626926,-0.03857241154085378,0.15378270326596033,-0.503721449690033,0.016006020603277292,-0.13815044532637832
131,6.550000000000001,-0.13726866755166123,-0.41608609737850566,1.9520004658459245,-0.15252607305554333,-1.4662457658444312,-0.15186727462706173,0.46951365646899185,0.11532143267013026,0.6285740080183548,2.9401732694469844,-0.07313253999353195,1.6026588608409462,148.0429855863157,118.58363761783684,125.79570268355059,95.60721486078916,100.99347996238778,117.50513606087421,124.03236679808496,141.7195529945643,149.0,145.0,125.0,121.0,101.0,145.0,125.0,169.0,-0.28726845525475947,0.2118131374673267,0.4776365257897707,-0.0670853936637714,-0.19524552780830318,-0.28653060579246614,0.31713501000549676,0.1742991314296413
132,6.6000000000000005,-0.13843932979045048,-0.4159060392597391,1.9517426962168942,-0.15323525890293732,-1.4654653994946578,-0.15239108842379334,0.46981294632734477,0.11482403304993491,0.6287649962152052,2.939230446619645,-0.07365097946861555,1.602214583850092,148.6641531771409,118.6567929476486,125.01591396574075,96.06267236957677,101.32419937932487,118.06039914276057,123.64825544555906,141.89479878738837,149.0,145.0,125.0,121.0,101.0,145.0,125.0,169.0,0.4037845135464167,-0.08053424129148243,-0.23663705466741863,0.1341009410053384,0.18584986476176354,-0.0051348378219489245,0.04515123269874777,0.08992073860787209
133,6.65,-0.1373348855412786,-0.4144338120375597,1.951754245897603,-0.15486510967001843,-1.4663954223587394,-0.15130242447813735,0.47054050052410107,0.11514162579092406,0.6282883065439274,2.939324024348597,-0.07294079602149056,1.6020763148944468,148.10784622273104,118.7410419970804,125.93124896226898,96.0223837583906,100.94291280158009,118.40322370403479,123.72267550544838,142.09193593794407,149.0,145.0,125.0,121.0,101.0,145.0,125.0,169.0,-0.039619215056963274,-0.1368381872514014,0.7671463981664154,-0.08787265186580362,-0.13941165362570843,0.13930118587498444,0.14966665589085382,-0.0009844160382321103
134,6.7,-0.13587985787345502,-0.4147605769522218,1.9528743310661296,-0.15699812415949754,-1.4673976598251244,-0.15056234634303323,0.47030753441201545,0.11574293952851467,0.6279185647739722,2.9382133695841177,-0.07189074173086067,1.6027026446657757,148.04738074200978,119.31303553534342,125.21990685171224,96.18451303159064,100.91644416662758,118.31522398489243,123.52586722365164,142.3046027909815,149.0,145.0,125.0,121.0,101.0,145.0,125.0,169.0,-0.06321833633123151,0.3130355353434224,0.04061392241931751,-0.11094151386390191,-0.12967233822678847,-0.048853685010485724,-0.02159414500177399,0.11696482188657178
135,6.75,-0.13627112784205186,-0.4145318778363589,1.9529026357643788,-0.15806409008558742,-1.4671560967165078,-0.15063942534839736,0.4705469112177373,0.11555319015163644,0.6279320946233413,2.9373669302732273,-0.07197761007498947,1.6024916219625494,147.76557696481552,119.19896326043919,125.27872654235924,96.46973654629339,100.52113838712621,118.67492145701124,123.06995836226102,142.6168567075106,149.0,145.0,125.0,121.0,101.0,145.0,125.0,169.0,-0.38453850862558275,-0.004269995911852556,0.12176451704277308,-0.04671914990914357,-0.44966453258181904,0.0617827708798438,-0.5005262192367709,0.1873412890083959
136,6.800000000000001,-0.13485356427557837,-0.414590092341105,1.953816413790328,-0.16010608682299576,-1.4681481736050372,-0.1497890557740491,0.47045621056417014,0.11611712760264187,0.6275717746866818,2.936416223201009,-0.07099023016943513,1.602959383571682,148.30500426683574,119.1851180465609,125.24084688687324,96.83498318938618,101.12278980291231,118.56482732678353,123.61677533590655,142.65854254612157,149.0,145.0,125.0,121.0,101.0,145.0,125.0,169.0,0.07052150821505351,-0.0723532178069221,0.07841033864988838,0.24361263101054548,0.15426680049100147,-0.1470370799961444,0.13537489826978633,0.05241563146074806
137,6.8500000000000005,-0.1340109689673823,-0.4133806501484276,1.9539012567619176,-0.1616678802340381,-1.468903037737765,-0.1489081502093006,0.47107162877275427,0.11634800336307244,0.6271549689804102,2.9363407341490224,-0.07039449145011319,1.6028033329492815,148.03347340984837,119.75660210666325,125.25405614875427,96.67155686921001,100.877491907499,118.81562386223278,123.05305647329757,142.9910873891455,149.0,145.0,125.0,121.0,101.0,145.0,125.0,169.0,-0.15590303356963922,0.054523584723299205,0.10544153918247795,-0.07403507033659118,-0.008706639716494652,-0.10447299006746115,-0.382108361867269,0.2174610155191208
138,6.9,-0.13336364306077986,-0.41381340885546525,1.9546765764736858,-0.1633783656247143,-1.4693334285062116,-0.14856091708111263,0.4708668448519405,0.11662844022461988,0.6270248037274433,2.935078111684771,-0.0698236721222092,1.6031176553272177,148.3591592695134,119.94923536413972,125.49070949785828,96.84047018791487,100.95666793913834,119.39470657615546,123.34742715116388,142.88287261146917,149.0,145.0,125.0,121.0,101.0,145.0,125.0,169.0,0.2804555658097166,0.11358721599156545,0.3526020809784857,-0.10837891694446591,0.036378084065874255,0.3294891848511105,-0.08897635760805121,-0.09081159905717172
139,6.95,-0.1314394811493238,-0.4137130791345185,1.955736735761433,-0.1656600575248448,-1.4707325578036103,-0.14738476840219406,0.470798629466328,0.11738270729464637,0.6265194381959693,2.9342739940840334,-0.06852387553648846,1.603681209728669,148.29287406509312,119.4434920587984,125.5614244492524,96.64413800670219,100.7414147182277,119.51277594314723,123.73629254962388,143.26343774388835,149.0,145.0,125.0,121.0,101.0,145.0,125.0,169.0,0.21030525775367145,-0.46017766597223325,0.45173057170137704,-0.312494646359024,-0.16657559654227871,0.36749749278403704,0.2843274841216999,0.13680018930319993
140,7.0,-0.12974484994080182,-0.41416853445861523,1.9568055444130419,-0.16766134526755527,-1.4717708546606199,-0.14665463106701226,0.47046319454535435,0.11809979840458135,0.6262268680829054,2.9331148667939684,-0.06744201441773093,1.604541360643283,147.91662505320448,120.06785453318847,124.73288070288731,97.16756676498439,100.78451280532911,119.22612994718273,123.34771138249627,143.18336722329636,149.0,145.0,125.0,121.0,101.0,145.0,125.0,169.0,-0.19397402513653847,0.06785453318846602,-0.38191521548003476,0.04256676498438187,-0.15765586936967327,0.04781669417067574,-0.11080390134652268,-0.039340200284411465
141,7.050000000000001,-0.12990150921096344,-0.4134009220030834,1.956666938568798,-0.16870693856286145,-1.4717451938042707,-0.14647544559203718,0.4709516219488796,0.11796447434257758,0.6261062871720716,2.932714494850146,-0.06744144851779549,1.6042395309453954,148.2173580091252,119.87459745645216,125.1300467732687,97.37402067900017,101.27725577477074,119.16104204464439,123.66700181903605,143.43065584998698,149.0,145.0,125.0,121.0,101.0,145.0,125.0,169.0,0.10267911004263017,-0.2584300664836166,0.06989639732885376,0.020637220353551124,0.39376062913966803,-0.3074045572973604,0.3075246948530378,-0.01378859445746906
142,7.1000000000000005,-0.13000181950642542,-0.4128957730094154,1.956733207664631,-0.16984415350934245,-1.4717530520693405,-0.14637399295403064,0.471298289295192,0.11787085866554108,0.6259735837523259,2.9321648830307714,-0.06736544848607973,1.6040746576540492,147.47801666357225,119.85593356871965,125.35583434573776,97.60850308130227,100.67991065013636,119.74343908457502,123.01595321232011,143.70725420174955,149.0,145.0,125.0,121.0,101.0,145.0,125.0,169.0,-0.6806040260829299,-0.40613539679759053,0.2804574613156483,0.053226699392726534,-0.12972790408050083,0.09042703638223921,-0.31155770471045086,0.09590048995913815
143,7.15,-0.12802066898507558,-0.41372966371668873,1.9584361771182452,-0.17233356202732475,-1.473106122461271,-0.14554650596578877,0.4707345535185869,0.11872019247321103,0.6254719149685445,2.9308263728801283,-0.06596040355504777,1.6050748202172636,148.04956370856343,120.4808535377421,125.0162209537653,97.40852297464113,100.89079420044938,119.86048014791025,123.43768359591701,144.13527542460488,149.0,145.0,125.0,121.0,101.0,145.0,125.0,169.0,-0.16832619969347115,0.01984436343018477,-0.07949693036568446,-0.16578433014475538,0.042236508141686294,0.14413399406409297,0.09637924809093115,0.43962325069185326
144,7.2,-0.12829693298482647,-0.41445052574214314,1.9588687133904985,-0.17338899562916543,-1.4727518210451889,-0.14594030053915752,0.470467657151822,0.11866020537731951,0.6256335924553698,2.9294123341257587,-0.06600568739672648,1.6053450499184436,148.4632795202213,120.4461676817969,125.27109390037062,97.31990273864496,100.94972706290413,119.3332510436574,123.56732255018589,144.33858400970547,149.0,145.0,125.0,121.0,101.0,145.0,125.0,169.0,0.31155538229027524,-0.3630277205019608,0.08563024122274628,-0.45954588290892434,0.10838090905797575,-0.522518187111824,0.2128367733806397,0.49613324384115115
145,7.25,-0.12919502265427818,-0.414419388297107,1.9584648310993336,-0.17393833326031727,-1.4720185411743447,-0.1463230680273715,0.4706610704182883,0.11829362877593035,0.625974109004291,2.9283609395176544,-0.06648906241199747,1.6050336368971367,148.23912244584955,120.6403811028688,125.03396335002395,98.25934188784669,100.8794595509376,120.17131941432272,123.47805787278007,144.35120262566508,149.0,145.0,125.0,121.0,101.0,145.0,125.0,169.0,0.19755200705047493,-0.33652420890950024,-0.003915437854822637,0.15833178683658314,-0.007013879014102564,0.007068206593266264,0.13165264402190144,0.08540741869340342
146,7.300000000000001,-0.12809487746881132,-0.41329619566480114,1.958617195830116,-0.1755056604557068,-1.472922358878943,-0.14534995278505214,0.47119626984269375,0.11864381517529089,0.625548050840285,2.9282858352627463,-0.06577061246011044,1.6050109460548632,148.07148499170106,120.90391378112209,124.79034576581286,98.45931984720644,101.03472818400365,120.02424005978965,122.9858709353117,145.05410168497295,149.0,145.0,125.0,121.0,101.0,145.0,125.0,169.0,0.043835222115793514,-0.1928604124262985,-0.20965423418714166,0.1934970623963132,0.25560197041141436,-0.3010026586569495,-0.32853954503765015,0.6327043050602847
147,7.3500000000000005,-0.12805900194699227,-0.4131924692695286,1.9587893439932262,-0.17665989555198092,-1.4729426693102932,-0.145219602264544,0.47132167623528615,0.11864353100020347,0.6255273363446436,2.927427486547334,-0.06563660173824439,1.6049721997058286,148.02945795878406,121.08047112428758,124.99762513514199,98.92724645687002,101.19142566233252,120.03818359931483,123.38623999185003,144.62470230421107,149.0,145.0,125.0,121.0,101.0,145.0,125.0,169.0,-0.007323650411336929,-0.11723002513770019,-0.04508843269721687,0.4599097734529358,0.46261210301048666,-0.4920827445108393,0.10239719709020612,0.04173287189668083
148,7.4,-0.12812704181941648,-0.41174998076305913,1.9584817072610683,-0.17776551877322921,-1.4731715353498354,-0.14470811316260557,0.4721432163534096,0.11848541904843758,0.6252239539182733,2.9275295362007565,-0.06553052791672326,1.604352074814386,147.45290175602824,122.02053046349982,125.10765971097887,98.77674210288593,100.81034413861224,121.0909984923264,123.35299513148861,144.71165855251988,149.0,145.0,125.0,121.0,101.0,145.0,125.0,169.0,-0.3548785643378856,0.32258996006733126,0.1678100869187152,0.13012556153255406,0.20362951031486592,0.26605844436477677,0.11615302622544652,-0.014218640462576496
149,7.45,-0.12874972191794942,-0.4124327063286737,1.9590922928107544,-0.17890350711273006,-1.4727477731384697,-0.14521913129194441,0.47192929248997134,0.11826661296750353,0.6252569090369304,2.926227525086125,-0.06563703394388701,1.6043978952005469,147.5070403824641,121.73312689328104,124.88536983029613,98.69025033836336,100.59930806739852,121.11375494358649,123.19785177615444,144.56412027722033,149.0,145.0,125.0,121.0,101.0,145.0,125.0,169.0,-0.33999158100622906,-0.09564023000663484,-0.028116174792934594,-0.17743414000815222,0.05665403896250251,0.20380233695141306,-0.004762602930527667,-0.4576662151543917
150,7.5,-0.12830741164567172,-0.4125149250701692,1.9597866543209017,-0.1804449485525037,-1.4731168855499135,-0.14498991154178853,0.4719079303355404,0.11843701055215211,0.6250033859277264,2.9253795286258972,-0.06517710866940775,1.6045987469076397,147.88422817568645,121.53213362545141,124.71053395076247,99.29525415781539,99.79509310438694,120.94656238761229,122.68524555318061,145.58936774245254,149.0,145.0,125.0,121.0,101.0,145.0,125.0,169.0,0.05585288964526276,-0.42667644319847836,-0.08134422182637334,0.19626938624179693,-0.6348356367057029,-0.14132359813592235,-0.3906763557130905,0.32906405481697293
151,7.550000000000001,-0.12597552645124388,-0.4101841366334269,1.9596047265294034,-0.1823443709832473,-1.4750077848987049,-0.14281447803061864,0.4729328101833644,0.11920089425567595,0.6242950051107596,2.9260708903102794,-0.06385088005906017,1.6043848361678035,148.23135394885804,121.8101443858292,124.52192210675024,98.86710590221497,100.66727816762173,121.04646846110673,123.08382840835039,145.0702997850887,149.0,145.0,125.0,121.0,101.0,145.0,125.0,169.0,0.44044485794896965,-0.23758288689806198,-0.2684819336537993,-0.28693450182542446,0.39455089489446393,-0.13534972071146587,0.10974633491626692,-0.3314280766823494
152,7.6000000000000005,-0.12489041562493242,-0.40884280601263967,1.9595701356867847,-0.1838062910602991,-1.4759259345841231,-0.14173676260289314,0.47357581666498677,0.11953192156733802,0.6238872224935064,2.9261286611572936,-0.06316964898616739,1.6042296568359113,147.16409572014155,122.55096074708274,124.69090610276083,99.61143520707452,99.84002436678632,122.0748037930649,122.755512293968,145.5238775866492,149.0,145.0,125.0,121.0,101.0,145.0,125.0,169.0,-0.5427224616766475,0.3918698379918274,-0.07231807859937031,0.38977273856066263,-0.37340488980839914,0.679120339827497,-0.18375017891704368,-0.0010681834158633354
153,7.65,-0.12342446852650468,-0.4083594552814942,1.9602963593864793,-0.18570326593950348,-1.4770744882417004,-0.14071701822047844,0.47372976431146513,0.12007582003899663,0.6233961641575944,2.9256836019438115,-0.06216901484268517,1.6044968005150357,147.851882862816,122.40158125829612,124.96170776180837,99.12502862471793,99.73008802097925,121.42366859683241,122.58699768204272,145.80843996286123,149.0,145.0,125.0,121.0,101.0,145.0,125.0,169.0,0.1571220427704507,0.14645597355808077,0.19035097788876298,-0.16140353608609737,-0.4646235174822822,-0.033062172398354156,-0.2925722104303882,0.17833243597950196
154,7.7,-0.12182390690530642,-0.40762577803065625,1.9605701038203494,-0.18745342145582677,-1.4782658510910531,-0.13938438748870263,0.4740087695788478,0.12066584420176032,0.6230863510361805,2.925209543570008,-0.06118628951422091,1.604585611870307,147.83283881404012,122.6275484241917,125.0508786139415,99.59639458572688,100.33403285539495,121.23208408123732,123.61229570999099,145.79841152031517,149.0,145.0,125.0,121.0,101.0,145.0,125.0,169.0,0.15029913150045707,0.09920375298989888,0.26695901595155486,0.16172121889270435,0.196265634492328,-0.34273777149427753,0.7818236069866943,0.05806817267569712
155,7.75,-0.123032441771183,-0.4058452396564891,1.9593101864488078,-0.18765427652922329,-1.4776211776286639,-0.13931691915354172,0.4751287223173689,0.12003236284003213,0.6231787432100431,2.9254371300555295,-0.06188117290123949,1.603425274210707,147.87057234739603,122.60627895191976,124.54306457527446,99.73055239909456,100.16093280884311,122.32182863697498,122.62200241460229,146.27085061333372,149.0,145.0,125.0,121.0,101.0,145.0,125.0,169.0,0.23768946451315895,-0.16624357060276537,0.010401258691537947,0.03959762522521058,0.12751992101495208,0.3266019066647183,-0.053322260722380894,0.04574238822551619
156,7.800000000000001,-0.12060383562542087,-0.40556466905573973,1.9603254652000066,-0.18989105082815527,-1.4793578469643673,-0.13785688885758995,0.4750727792545129,0.12099575287556646,0.6226169299590553,2.9248525126611873,-0.06036417480205606,1.604114919490933,147.44860255445866,122.68858951588669,124.37646509727874,99.35490207302597,99.7170771435302,122.45248535358324,122.49268946269132,146.29822918726518,149.0,145.0,125.0,121.0,101.0,145.0,125.0,169.0,-0.2173116667603023,-0.1556542764383691,-0.20418006401157487,-0.4044031378921478,-0.3233029039757298,0.4168558999015349,-0.18765610966289079,-0.021425240380608966
157,7.8500000000000005,-0.11898395748051094,-0.40628965951323925,1.9614147729150568,-0.19176181181405783,-1.4803167258609973,-0.1371830408830208,0.47458658463265024,0.12171113222575249,0.6224243483176151,2.923536827343188,-0.05934837283780976,1.6049618320556582,147.63019167118543,123.61958513066091,124.36045240973375,99.60236461859085,99.75989274151218,121.74787777409168,122.6359255018834,146.73430354129215,149.0,145.0,125.0,121.0,101.0,145.0,125.0,169.0,-0.13225176772859187,0.6150602437830737,-0.32626438224619597,-0.29237222351440956,-0.34224502570871385,-0.366136477689799,-0.15332180994456462,0.32140031548571507
158,7.9,-0.12057581599642697,-0.40546233329379744,1.9601713733822672,-0.19171360442221808,-1.4791728058085907,-0.13750496645678334,0.4752681369813893,0.12100246900529732,0.6229127564089025,2.9229857911395034,-0.060337952023098405,1.6039482355083783,147.63414829661627,123.74340706931551,124.45538314209932,99.93675963307908,100.71798885749045,122.67513321973985,122.68954983909308,146.31180407969313,149.0,145.0,125.0,121.0,101.0,145.0,125.0,169.0,0.01142102388900145,0.47749797840642555,-0.16270731016199563,-0.3521850905390131,0.5995054451681749,0.22963558940809173,-0.07439865876099312,-0.34914012631545455
159,7.95,-0.12038764819774528,-0.4062713686658581,1.9610336577057383,-0.1931514803250507,-1.479274068579584,-0.13756486224630038,0.47490028533330153,0.12112234249533244,0.6228641544180519,2.921624030623613,-0.06001431572463766,1.604256160916439,147.34675669410777,123.72510836932946,125.08155995475204,100.35419886767144,100.00602070692304,122.74685418455289,122.43154976784498,146.5592677128067,149.0,145.0,125.0,121.0,101.0,145.0,125.0,169.0,-0.25688795281706833,0.25130426910166737,0.4860825678173564,-0.05283630820795872,-0.04887189450895089,0.10007614159345715,-0.25862117232595827,-0.27192886838988
160,8.0,-0.11882912012522162,-0.4068013213795991,1.9622950350785855,-0.19531938975324614,-1.480440873517356,-0.13667703584084379,0.4745270807519294,0.12177764331554508,0.6224953907722467,2.920425992184268,-0.05885548299884739,1.6047808795325882,147.35104871608848,123.98464561254322,124.58219310876922,100.72311163552598,100.06200547427694,122.6264847742071,123.06980833369796,147.19108584578595,149.0,145.0,125.0,121.0,101.0,145.0,125.0,169.0,-0.30732232463549464,0.34663656276946464,-0.08697982356160341,0.22937729968637863,0.0453783958921473,-0.1146078623724707,0.4202356841253203,0.2765559312560431
161,8.05,-0.12025971094122001,-0.40603047392085756,1.961469185126684,-0.1955154642062613,-1.4795025119034646,-0.13704793622853417,0.47515276971094783,0.12113202205865783,0.6227467025249376,2.9200210412560845,-0.05964884155872814,1.6039289132278354,147.3518876547522,123.73577182938156,124.43802132655784,100.8578150289198,99.97801943155419,123.16786223109875,122.35386319906297,147.06427660359998,149.0,145.0,125.0,121.0,101.0,145.0,125.0,169.0,-0.22083961797506185,-0.19604635243662674,0.0370188202921743,0.053303750724311816,-0.021980568445817753,0.16786223109875828,-0.2603609388680603,-0.2158958101931451
162,8.1,-0.11832126636115259,-0.4058167439691003,1.9624861033596668,-0.19764246201490776,-1.4809785970307585,-0.13583358636618037,0.47511281775123027,0.12189179144026821,0.6222001077668549,2.9194242750250807,-0.05834886524096997,1.6044126772960137,147.54690248441648,123.8737738278894,124.57950748062773,100.70614564166526,100.05264452028214,123.61609257603928,122.85535361500985,147.25558442773362,149.0,145.0,125.0,121.0,101.0,145.0,125.0,169.0,-0.01772336592367915,-0.08314227188383878,0.15950748062772196,-0.11885435833473786,0.0621231932679193,0.5900262253283752,0.2647352781228541,-0.11754990062458884
