AI-SPARC/uncalibrated-visual-servoing/results/data/4_feat_ibvs_r.csv
,t,q_1,q_2,q_3,q_4,q_5,q_6,camera_x,camera_y,camera_z,camera_roll,camera_pitch,camera_yaw,f_1,f_2,f_3,f_4,f_5,f_6,f_7,f_8,desired_f_1,desired_f_2,desired_f_3,desired_f_4,desired_f_5,desired_f_6,desired_f_7,desired_f_8
0,0.0,8.58306884765625e-06,0.00015425682067871094,1.570796251296997,0.0001308917999267578,-1.5707952976226807,1.1920928955078125e-06,0.6808194518089294,0.16908100247383118,0.6382140517234802,-3.1409236307315758,0.000142941057518954,1.5708374245447392,149.61725663716814,145.28982300884957,125.56984478935698,121.2350332594235,101.5,145.27631578947367,125.59823399558499,169.33112582781456,125.0,121.0,101.0,145.0,125.0,169.0,149.0,145.0
1,0.05,0.0028831958770751953,0.005686521530151367,1.5390007495880127,0.02510356903076172,-1.5738956928253174,0.02691030502319336,0.6835540533065796,0.17094749212265015,0.6534415483474731,3.1408193429647975,0.0032133513872305494,1.5468029069358284,149.49422632794457,145.47344110854505,125.47926267281106,122.53225806451613,102.5,146.55299539170508,126.55299539170507,169.5,125.0,121.0,101.0,145.0,125.0,169.0,149.0,145.0
2,0.1,0.00561070442199707,0.011914491653442383,1.506256341934204,0.05023980140686035,-1.577033281326294,0.05418825149536133,0.6863461136817932,0.17273223400115967,0.6687345504760742,3.139163569910088,0.006248239305907985,1.522241365082882,149.31051344743275,145.71393643031786,125.41019417475728,123.87135922330097,103.50855745721272,147.9242053789731,127.61557177615572,169.77372262773721,125.0,121.0,101.0,145.0,125.0,169.0,149.0,145.0
3,0.15000000000000002,0.008284807205200195,0.018826007843017578,1.472895860671997,0.07539653778076172,-1.5803301334381104,0.08196210861206055,0.6891825199127197,0.17448891699314117,0.6839072108268738,3.1374412099264672,0.009360650197916744,1.497120232680343,149.28316326530611,145.76785714285714,125.2824427480916,125.20356234096693,104.5,149.2070707070707,128.56313131313132,169.86868686868686,125.0,121.0,101.0,145.0,125.0,169.0,149.0,145.0
4,0.2,0.01052999496459961,0.026371479034423828,1.4390270709991455,0.10059523582458496,-1.583446741104126,0.10979104042053223,0.6920739412307739,0.1759844273328781,0.6989165544509888,3.1357314729034016,0.012216965299074789,1.4715066066632605,149.0,146.0,125.1260053619303,126.3887399463807,105.41361256544502,150.41361256544502,129.38814016172506,170.06738544474393,125.0,121.0,101.0,145.0,125.0,169.0,149.0,145.0
5,0.25,0.012785911560058594,0.0346071720123291,1.4046270847320557,0.1257789134979248,-1.5867903232574463,0.13817214965820312,0.6949909925460815,0.17748592793941498,0.7137275338172913,3.1339662981662872,0.01522485323221386,1.4453427226854056,148.9022346368715,146.10614525139664,124.98614958448753,127.58448753462604,106.24931506849315,151.56438356164384,130.3030303030303,170.11019283746558,125.0,121.0,101.0,145.0,125.0,169.0,149.0,145.0
6,0.30000000000000004,0.014639854431152344,0.04321742057800293,1.3700206279754639,0.15082049369812012,-1.589977502822876,0.16656184196472168,0.697830855846405,0.17873629927635193,0.7283378839492798,3.132075653968139,0.017988405147593187,1.4187608822624862,148.78901734104045,146.1878612716763,124.84302325581395,128.71802325581396,107.17378917378917,152.74643874643874,131.17630057803467,170.22543352601156,125.0,121.0,101.0,145.0,125.0,169.0,149.0,145.0
7,0.35000000000000003,0.016260623931884766,0.052374839782714844,1.335221529006958,0.17567801475524902,-1.5931775569915771,0.19513964653015137,0.7006862163543701,0.17983512580394745,0.7426040768623352,3.1301854039923995,0.02069879364007009,1.3917514246305844,148.58231707317074,146.41768292682926,124.61329305135952,129.71601208459214,108.0,153.79821958456972,132.04819277108433,170.32530120481928,125.0,121.0,101.0,145.0,125.0,169.0,149.0,145.0
8,0.4,0.017966270446777344,0.061810970306396484,1.3004381656646729,0.2001650333404541,-1.5966503620147705,0.2242145538330078,0.7033718824386597,0.18098101019859314,0.7565847635269165,3.127985349127388,0.023556361899249065,1.3643165890859714,148.42679127725856,146.38629283489095,124.5,130.8176100628931,108.73684210526316,154.76780185758514,132.79623824451411,170.52351097178683,125.0,121.0,101.0,145.0,125.0,169.0,149.0,145.0
9,0.45,0.019362211227416992,0.07173514366149902,1.2655651569366455,0.22447490692138672,-1.6000454425811768,0.2532782554626465,0.7060827016830444,0.18192577362060547,0.7701650857925415,3.125845997383044,0.026281038892412983,1.3365787408538132,148.30844155844156,146.53571428571428,124.37942122186494,131.86495176848874,109.6070287539936,155.8594249201278,133.59935897435898,170.53205128205127,125.0,121.0,101.0,145.0,125.0,169.0,149.0,145.0
10,0.5,0.02049422264099121,0.0819096565246582,1.2309401035308838,0.24835991859436035,-1.6034138202667236,0.2824208736419678,0.7087129950523376,0.18269182741641998,0.783305823802948,3.123614063567133,0.028890920923595974,1.3084912461547171,148.11409395973155,146.56375838926175,124.13087248322148,132.84563758389262,110.27242524916943,156.89036544850498,134.33223684210526,170.62828947368422,125.0,121.0,101.0,145.0,125.0,169.0,149.0,145.0
11,0.55,0.02136969566345215,0.09226155281066895,1.1967341899871826,0.2717299461364746,-1.6067407131195068,0.31149816513061523,0.7112532258033752,0.1832832396030426,0.7959492206573486,3.1213091454755375,0.0313765909498453,1.2802053793052064,148.0,146.6982456140351,124.05923344947735,133.85365853658536,111.01369863013699,157.90753424657535,135.08275862068965,170.76896551724138,125.0,121.0,101.0,145.0,125.0,169.0,149.0,145.0
12,0.6000000000000001,0.021976232528686523,0.10279703140258789,1.1629517078399658,0.2946293354034424,-1.6100127696990967,0.3404989242553711,0.7137327194213867,0.1836906373500824,0.8080770373344421,3.1189959272087813,0.033745683357253635,1.2517249553365948,147.76173285198556,146.74368231046932,123.92142857142858,134.72142857142856,111.822695035461,158.77659574468086,135.82269503546098,170.77659574468086,125.0,121.0,101.0,145.0,125.0,169.0,149.0,145.0
13,0.65,0.02258920669555664,0.11352300643920898,1.12984299659729,0.316866397857666,-1.613464117050171,0.3697690963745117,0.7161721587181091,0.18409092724323273,0.81954026222229,3.1166428541685107,0.03624062564855549,1.222975982092934,147.5318352059925,146.72284644194755,123.73234200743494,135.55762081784385,112.49090909090908,159.5818181818182,136.44444444444446,170.76666666666668,125.0,121.0,101.0,145.0,125.0,169.0,149.0,145.0
14,0.7000000000000001,0.023026466369628906,0.12427616119384766,1.0975711345672607,0.33841443061828613,-1.6169102191925049,0.39900660514831543,0.7185396552085876,0.18436649441719055,0.8303548693656921,3.114289831246312,0.03868757790374844,1.194083051837983,147.36121673003802,146.63878326996198,123.5,136.3587786259542,113.09293680297398,160.4907063197026,137.0634328358209,170.69776119402985,125.0,121.0,101.0,145.0,125.0,169.0,149.0,145.0
15,0.75,0.0230255126953125,0.13480377197265625,1.066535234451294,0.3590829372406006,-1.6201088428497314,0.42775750160217285,0.7207919359207153,0.18434205651283264,0.8404738306999207,3.112015305338979,0.040866280532006985,1.1652417027186641,147.22178988326849,146.6887159533074,123.34108527131782,137.24031007751938,113.63878326996198,161.36121673003802,137.68199233716476,170.68199233716476,125.0,121.0,101.0,145.0,125.0,169.0,149.0,145.0
16,0.8,0.022611141204833984,0.1448352336883545,1.0369079113006592,0.37878966331481934,-1.6230685710906982,0.45603251457214355,0.7227908968925476,0.18402941524982452,0.8500062227249146,3.109672819299473,0.042719827706384196,1.1364613787915399,147.0,146.724,123.20481927710843,137.96385542168676,114.35135135135135,162.1003861003861,138.27237354085602,170.67315175097275,125.0,121.0,101.0,145.0,125.0,169.0,149.0,145.0
17,0.8500000000000001,0.022196292877197266,0.15478205680847168,1.0085642337799072,0.3975677490234375,-1.6261417865753174,0.48436689376831055,0.7247801423072815,0.18370620906352997,0.8587419390678406,3.1073868337704234,0.044699622526461466,1.1076244002879834,146.7520325203252,146.60162601626016,123.0,138.79435483870967,114.932,162.812,138.93927125506073,170.74493927125505,125.0,121.0,101.0,145.0,125.0,169.0,149.0,145.0
18,0.9,0.021682262420654297,0.16429734230041504,0.9820048809051514,0.41515159606933594,-1.6292016506195068,0.5124595165252686,0.7266504764556885,0.1833069771528244,0.8666602373123169,3.1051193486916597,0.046658906679580385,1.078932759082198,146.57201646090536,146.69135802469137,122.7469387755102,139.465306122449,115.5,163.5,139.4655870445344,170.67611336032388,125.0,121.0,101.0,145.0,125.0,169.0,149.0,145.0
19,0.9500000000000001,0.021262168884277344,0.1732470989227295,0.9572122097015381,0.43157124519348145,-1.6323797702789307,0.5405642986297607,0.7282983064651489,0.18295755982398987,0.8738934993743896,3.1026831767885388,0.0486433566315364,1.0503162444201173,146.3361344537815,146.58823529411765,122.59832635983264,140.092050209205,116.0204081632653,164.20408163265307,139.97489539748955,170.6276150627615,125.0,121.0,101.0,145.0,125.0,169.0,149.0,145.0
20,1.0,0.020543575286865234,0.18175792694091797,0.9342591762542725,0.4468502998352051,-1.6353461742401123,0.5681278705596924,0.7299274206161499,0.18240220844745636,0.8803163766860962,3.100469276520405,0.05050744484590572,1.0219565546925278,146.03404255319148,146.51489361702127,122.36864406779661,140.8771186440678,116.62083333333334,164.87916666666666,140.53526970954357,170.56846473029046,125.0,121.0,101.0,145.0,125.0,169.0,149.0,145.0
21,1.05,0.019757747650146484,0.18947243690490723,0.9138638973236084,0.4605226516723633,-1.6382768154144287,0.5954017639160156,0.7314215302467346,0.1817912459373474,0.8858189582824707,3.0982880544698275,0.052355419247832526,0.9938234767912048,146.0,146.42672413793105,122.09787234042552,141.39574468085107,117.0672268907563,165.57142857142858,141.00851063829788,170.46382978723403,125.0,121.0,101.0,145.0,125.0,169.0,149.0,145.0
22,1.1,0.018743276596069336,0.19630122184753418,0.8955652713775635,0.4729459285736084,-1.640979528427124,0.6219847202301025,0.7326590418815613,0.18102110922336578,0.8907436728477478,3.0961109517168364,0.053940017135943964,0.9661570798148135,145.85526315789474,146.25,121.98297872340426,142.11489361702127,117.56837606837607,166.0897435897436,141.5938864628821,170.2882096069869,125.0,121.0,101.0,145.0,125.0,169.0,149.0,145.0
23,1.1500000000000001,0.01750349998474121,0.20180249214172363,0.8801519870758057,0.48362159729003906,-1.6434767246246338,0.6479556560516357,0.733505129814148,0.1800888031721115,0.8950063586235046,3.093824715473197,0.05519156718885808,0.9388751613691262,145.60714285714286,146.15625,121.84649122807018,142.6798245614035,118.0,166.74891774891776,142.0,170.25108225108224,125.0,121.0,101.0,145.0,125.0,169.0,149.0,145.0
24,1.2000000000000002,0.01589679718017578,0.20658135414123535,0.867011308670044,0.4929530620574951,-1.6456596851348877,0.6731226444244385,0.7343360185623169,0.1789069026708603,0.8985105752944946,3.091848742948134,0.0562840648599586,0.9120498268054655,145.44594594594594,146.1216216216216,121.67543859649123,143.08333333333334,118.51965065502183,167.21397379912665,142.48458149779736,170.0704845814978,125.0,121.0,101.0,145.0,125.0,169.0,149.0,145.0
25,1.25,0.014493227005004883,0.21065115928649902,0.856072187423706,0.5009415149688721,-1.6479623317718506,0.6981852054595947,0.7350738048553467,0.17785966396331787,0.9013087749481201,3.08983099730619,0.05750791430561838,0.8855344395444807,145.16216216216216,146.01351351351352,121.42477876106194,143.7566371681416,118.97413793103448,167.77586206896552,142.87610619469027,170.0796460176991,125.0,121.0,101.0,145.0,125.0,169.0,149.0,145.0
26,1.3,0.013006210327148438,0.2138383388519287,0.8477373123168945,0.5073721408843994,-1.6501343250274658,0.7226927280426025,0.7357383370399475,0.17675721645355225,0.9033221006393433,3.0879612599127335,0.05870511932320889,0.8595027117073076,145.0,146.0,121.22026431718062,144.16740088105726,119.37280701754386,168.2982456140351,143.30263157894737,169.96929824561403,125.0,121.0,101.0,145.0,125.0,169.0,149.0,145.0
27,1.35,0.011634588241577148,0.21629738807678223,0.8414433002471924,0.5125935077667236,-1.6523091793060303,0.7468781471252441,0.7362947463989258,0.1757315993309021,0.9047545194625854,3.0860947394766085,0.05993333548702451,0.8339121678382752,144.76470588235293,145.77828054298644,121.03508771929825,144.68859649122808,119.84482758620689,168.8448275862069,143.73660714285714,169.79464285714286,125.0,121.0,101.0,145.0,125.0,169.0,149.0,145.0
28,1.4000000000000001,0.00998687744140625,0.2177126407623291,0.8378958702087402,0.5161845684051514,-1.6541693210601807,0.7701423168182373,0.7367375493049622,0.17452113330364227,0.9054630994796753,3.084466300003843,0.06098027487009069,0.808982495901113,144.5767441860465,145.58139534883722,120.77533039647577,145.09691629955947,120.17030567685589,169.22270742358077,144.10176991150442,169.69911504424778,125.0,121.0,101.0,145.0,125.0,169.0,149.0,145.0
29,1.4500000000000002,0.008398771286010742,0.21841692924499512,0.8362472057342529,0.5186529159545898,-1.6559646129608154,0.7929294109344482,0.7370732426643372,0.17335309088230133,0.9056673049926758,3.0828802139745415,0.0620105347514535,0.7845945453513522,144.42990654205607,145.5,120.68468468468468,145.5,120.57522123893806,169.7566371681416,144.5,169.42201834862385,125.0,121.0,101.0,145.0,125.0,169.0,149.0,145.0
30,1.5,0.006575822830200195,0.21799945831298828,0.8370506763458252,0.5196704864501953,-1.657468557357788,0.8148846626281738,0.7371612787246704,0.1720309555530548,0.9053730964660645,3.0813984519210966,0.06275982080519799,0.7608104902728015,144.2398190045249,145.289592760181,120.41777777777777,145.94666666666666,120.93886462882097,170.16157205240174,144.88986784140968,169.26431718061673,125.0,121.0,101.0,145.0,125.0,169.0,149.0,145.0
31,1.55,0.004821062088012695,0.21675801277160645,0.8398752212524414,0.5194656848907471,-1.6589033603668213,0.8362720012664795,0.7370846271514893,0.17075930535793304,0.9045957922935486,3.079925287751599,0.06344208094361468,0.7376653893892214,144.0,145.0,120.16740088105728,146.2202643171806,121.26521739130435,170.5086956521739,145.2907488986784,169.0660792951542,125.0,121.0,101.0,145.0,125.0,169.0,149.0,145.0
32,1.6,0.0031020641326904297,0.21505045890808105,0.8442208766937256,0.518333911895752,-1.6602394580841064,0.8570363521575928,0.7370056509971619,0.16952015459537506,0.9033352136611938,3.078595218397325,0.06416492575964146,0.7151892216055232,143.85135135135135,144.92342342342343,120.0,146.6768558951965,121.72727272727273,170.95670995670994,145.53333333333333,168.98222222222222,125.0,121.0,101.0,145.0,125.0,169.0,149.0,145.0
33,1.6500000000000001,0.0012221336364746094,0.21273255348205566,0.8503363132476807,0.5161340236663818,-1.6613433361053467,0.877082109451294,0.7368969321250916,0.16817791759967804,0.9015597105026245,3.077493863119383,0.06482679057752283,0.6932825867917864,143.59633027522935,144.75688073394497,119.79039301310044,147.0,122.02586206896552,171.22413793103448,145.93449781659388,168.7816593886463,125.0,121.0,101.0,145.0,125.0,169.0,149.0,145.0
34,1.7000000000000002,-0.00037169456481933594,0.21001982688903809,0.857752799987793,0.5131139755249023,-1.6625382900238037,0.8968827724456787,0.7367388010025024,0.1670365035533905,0.8993654847145081,3.0763372132381552,0.06561029683496196,0.6719082991297615,143.5,144.5,119.66375545851528,147.1877729257642,122.23931623931624,171.5,146.1718061674009,168.5374449339207,125.0,121.0,101.0,145.0,125.0,169.0,149.0,145.0
35,1.75,-0.002185821533203125,0.20670104026794434,0.8662807941436768,0.5094318389892578,-1.6634390354156494,0.9158856868743896,0.7363895177841187,0.16575515270233154,0.897003173828125,3.0753148611241965,0.0661185914913346,0.6511170784613236,143.22072072072072,144.25675675675674,119.41777777777777,147.72,122.74358974358974,171.8846153846154,146.52,168.20888888888888,125.0,121.0,101.0,145.0,125.0,169.0,149.0,145.0
36,1.8,-0.003994464874267578,0.2025153636932373,0.8769328594207764,0.5043849945068359,-1.6642062664031982,0.9340946674346924,0.7358514070510864,0.16448497772216797,0.8941121697425842,3.0743468711696575,0.06649698438063396,0.6311253415730708,143.02678571428572,144.09821428571428,119.20434782608696,147.9,122.99163179916317,172.05020920502093,146.83982683982683,168.1125541125541,125.0,121.0,101.0,145.0,125.0,169.0,149.0,145.0
37,1.85,-0.005479574203491211,0.1985466480255127,0.8877828121185303,0.499178409576416,-1.6651074886322021,0.9522135257720947,0.7354577779769897,0.16344207525253296,0.8909323215484619,3.073387318044053,0.06716003234095413,0.6115525722812105,142.85087719298247,143.85087719298247,119.06008583690988,148.21030042918454,123.12083333333334,172.37916666666666,147.18965517241378,167.9094827586207,125.0,121.0,101.0,145.0,125.0,169.0,149.0,145.0
38,1.9000000000000001,-0.00700831413269043,0.19405269622802734,0.8994090557098389,0.4934718608856201,-1.6658384799957275,0.9696218967437744,0.734816312789917,0.162380188703537,0.8876957297325134,3.0724286034875163,0.0675512986648904,0.5926432362573929,142.75,143.71052631578948,118.94871794871794,148.30769230769232,123.46938775510205,172.64897959183673,147.375,167.68965517241378,125.0,121.0,101.0,145.0,125.0,169.0,149.0,145.0
39,1.9500000000000002,-0.00869607925415039,0.18948769569396973,0.9115598201751709,0.4874131679534912,-1.6663496494293213,0.9863893985748291,0.7342325448989868,0.1612163931131363,0.8841983079910278,3.071721455101966,0.06793737050553922,0.5742281303591952,142.4646017699115,143.2787610619469,118.78389830508475,148.61864406779662,123.89958158995816,172.90376569037656,147.8127659574468,167.40425531914894,125.0,121.0,101.0,145.0,125.0,169.0,149.0,145.0
40,2.0,-0.010483503341674805,0.18475604057312012,0.9245293140411377,0.48076844215393066,-1.6666529178619385,1.0022222995758057,0.7336899042129517,0.1599946916103363,0.8803482055664062,3.0712587154061604,0.06833125128008276,0.5566564678475351,142.28879310344828,143.07758620689654,118.47280334728033,148.89121338912133,123.98347107438016,173.03305785123968,147.96610169491527,167.114406779661,125.0,121.0,101.0,145.0,125.0,169.0,149.0,145.0
41,2.0500000000000003,-0.011931180953979492,0.17965340614318848,0.9379408359527588,0.4737889766693115,-1.6670939922332764,1.0179245471954346,0.7328757047653198,0.1590140163898468,0.8765052556991577,3.070513582587561,0.06858067655351548,0.5395417867420688,142.17446808510638,142.94468085106382,118.2510460251046,149.02928870292888,124.28744939271255,173.36032388663966,148.14830508474577,166.97033898305085,125.0,121.0,101.0,145.0,125.0,169.0,149.0,145.0
42,2.1,-0.013443946838378906,0.17469239234924316,0.9513728618621826,0.4667479991912842,-1.6673839092254639,1.0330326557159424,0.7321447134017944,0.15799717605113983,0.8725181221961975,3.0699670402892694,0.06887592698803444,0.5229643437951139,141.94849785407726,142.72961373390558,118.0495867768595,149.15289256198346,124.5,173.5,148.46502057613168,166.7448559670782,125.0,121.0,101.0,145.0,125.0,169.0,149.0,145.0
43,2.15,-0.014718770980834961,0.16999602317810059,0.9646704196929932,0.45972180366516113,-1.667750597000122,1.047910451889038,0.7315170764923096,0.15714401006698608,0.8683855533599854,3.069418419819157,0.06935325792716417,0.5068564110778573,141.8625,142.45,117.90573770491804,149.4016393442623,124.6984126984127,173.6468253968254,148.827868852459,166.5,125.0,121.0,101.0,145.0,125.0,169.0,149.0,145.0
44,2.2,-0.015758514404296875,0.1651599407196045,0.9780242443084717,0.45259618759155273,-1.6681835651397705,1.0624945163726807,0.7307248711585999,0.15645821392536163,0.8643023371696472,3.0687102681547427,0.06972087062933661,0.4912691062916159,141.6198347107438,142.19421487603304,117.69076305220884,149.570281124498,124.9839357429719,173.8273092369478,148.97142857142856,166.19591836734693,125.0,121.0,101.0,145.0,125.0,169.0,149.0,145.0
45,2.25,-0.016868114471435547,0.16028118133544922,0.9916908740997314,0.44519615173339844,-1.6684629917144775,1.0764286518096924,0.7299365401268005,0.15573114156723022,0.8600515723228455,3.0681566838395207,0.07005196135195116,0.4762655512239713,141.40248962655602,141.97510373443984,117.5515873015873,149.60714285714286,125.18897637795276,174.06692913385828,149.0655737704918,166.01639344262296,125.0,121.0,101.0,145.0,125.0,169.0,149.0,145.0
46,2.3000000000000003,-0.018318891525268555,0.1555168628692627,1.0053770542144775,0.43773484230041504,-1.6684024333953857,1.0895211696624756,0.729246973991394,0.15478059649467468,0.8556758761405945,3.0679797817988894,0.0703519838236292,0.46177417180473335,141.22540983606558,141.6844262295082,117.33984375,149.7578125,125.42857142857143,174.26640926640925,149.31075697211156,165.6812749003984,125.0,121.0,101.0,145.0,125.0,169.0,149.0,145.0
47,2.35,-0.019730329513549805,0.15070891380310059,1.019085168838501,0.43018150329589844,-1.6682751178741455,1.1020605564117432,0.7284836769104004,0.15386535227298737,0.8512986898422241,3.0678274173310873,0.07056665093040211,0.44787356855411864,141.08097165991902,141.47368421052633,117.19607843137256,149.90588235294118,125.60687022900764,174.34732824427482,149.56692913385828,165.5,125.0,121.0,101.0,145.0,125.0,169.0,149.0,145.0
48,2.4000000000000004,-0.020953655242919922,0.14610052108764648,1.0325214862823486,0.4227321147918701,-1.6682088375091553,1.1144077777862549,0.7277485132217407,0.15308304131031036,0.8469064235687256,3.0676277547578117,0.07085964329110307,0.4343520079727487,140.99196787148594,141.24096385542168,117.03488372093024,150.07364341085272,125.78326996197718,174.47148288973384,149.71764705882353,165.31764705882352,125.0,121.0,101.0,145.0,125.0,169.0,149.0,145.0
49,2.45,-0.022142410278320312,0.14147305488586426,1.0458624362945557,0.4152848720550537,-1.6680901050567627,1.1263763904571533,0.7269389033317566,0.15233129262924194,0.8425595164299011,3.0674357332516835,0.07106069001437898,0.4212404035992111,140.796,141.0,116.72972972972973,150.27027027027026,126.00375939849624,174.52255639097746,149.93333333333334,165.01568627450982,125.0,121.0,101.0,145.0,125.0,169.0,149.0,145.0
50,2.5,-0.02295660972595215,0.1370546817779541,1.058915376663208,0.407928466796875,-1.6681716442108154,1.1382763385772705,0.7261412739753723,0.15183186531066895,0.8382065296173096,3.0670550418979823,0.0713680227186292,0.4085657641000481,140.55859375,140.66796875,116.63878326996198,150.36121673003802,126.182156133829,174.6542750929368,150.2015503875969,164.76356589147287,125.0,121.0,101.0,145.0,125.0,169.0,149.0,145.0
51,2.5500000000000003,-0.02389073371887207,0.13274574279785156,1.0718047618865967,0.40060973167419434,-1.6680872440338135,1.149533987045288,0.7253746390342712,0.1512570083141327,0.8338481187820435,3.066849025477046,0.07164153866565709,0.3964160053741148,140.5,140.5,116.47940074906367,150.38202247191012,126.45220588235294,174.88970588235293,150.319391634981,164.5703422053232,125.0,121.0,101.0,145.0,125.0,169.0,149.0,145.0
52,2.6,-0.02498912811279297,0.12857770919799805,1.0844557285308838,0.39339423179626465,-1.667816400527954,1.1602141857147217,0.7246530055999756,0.15057575702667236,0.8295026421546936,3.0668454547018276,0.07189285188905513,0.3846842606883861,140.31800766283524,140.31800766283524,116.31598513011153,150.47583643122675,126.52189781021897,174.95255474452554,150.46768060836501,164.31558935361215,125.0,121.0,101.0,145.0,125.0,169.0,149.0,145.0
53,2.6500000000000004,-0.025930404663085938,0.12448716163635254,1.0968897342681885,0.38625431060791016,-1.667602777481079,1.1707313060760498,0.723893940448761,0.1500045210123062,0.8252097368240356,3.066759186284506,0.0721269821344868,0.3732691439800097,140.1931818181818,140.08333333333334,116.11029411764706,150.54779411764707,126.61870503597122,174.9748201438849,150.55762081784385,164.07434944237917,125.0,121.0,101.0,145.0,125.0,169.0,149.0,145.0
54,2.7,-0.026741981506347656,0.12047100067138672,1.1090757846832275,0.3792154788970947,-1.6674306392669678,1.1810719966888428,0.7230949401855469,0.1495247185230255,0.8209894895553589,3.0666057847300565,0.07232866415232528,0.36215556866685616,139.94756554307116,139.73033707865167,115.9963768115942,150.6485507246377,126.84561403508772,175.06315789473683,150.69372693726936,163.85977859778598,125.0,121.0,101.0,145.0,125.0,169.0,149.0,145.0
55,2.75,-0.027797222137451172,0.11653685569763184,1.1212046146392822,0.3721468448638916,-1.66701340675354,1.1906673908233643,0.7223460674285889,0.14888721704483032,0.816726803779602,3.066722529290166,0.07249576666967514,0.3515487969306252,139.77153558052436,139.49812734082397,115.79359430604983,150.7935943060498,126.9859649122807,175.13684210526316,150.97058823529412,163.6139705882353,125.0,121.0,101.0,145.0,125.0,169.0,149.0,145.0
56,2.8000000000000003,-0.02858757972717285,0.11284875869750977,1.1328465938568115,0.3653261661529541,-1.6667425632476807,1.2001636028289795,0.7216261029243469,0.14842583239078522,0.812554657459259,3.066701332476277,0.0727401046070283,0.3413012732604164,139.55555555555554,139.23333333333332,115.7517730496454,150.86170212765958,127.12152777777777,175.13888888888889,151.09420289855072,163.31884057971016,125.0,121.0,101.0,145.0,125.0,169.0,149.0,145.0
57,2.85,-0.029446125030517578,0.10912942886352539,1.1445252895355225,0.3584134578704834,-1.6663691997528076,1.2092182636260986,0.7208688855171204,0.14792555570602417,0.8083719611167908,3.066765979075376,0.07290445386532873,0.331426349981579,139.49084249084248,139.03296703296704,115.49295774647888,150.8661971830986,127.26896551724138,175.2551724137931,151.26690391459076,163.1103202846975,125.0,121.0,101.0,145.0,125.0,169.0,149.0,145.0
58,2.9000000000000004,-0.03015303611755371,0.10569906234741211,1.155602216720581,0.351851224899292,-1.6660683155059814,1.2181451320648193,0.7201715707778931,0.1475246399641037,0.8043176531791687,3.0667752619894286,0.0731465019908641,0.3218302724297449,139.34172661870502,138.85611510791367,115.20069204152249,150.9031141868512,127.32203389830508,175.3593220338983,151.40287769784172,162.94244604316546,125.0,121.0,101.0,145.0,125.0,169.0,149.0,145.0
59,2.95,-0.030680179595947266,0.10257482528686523,1.1660735607147217,0.3456451892852783,-1.6658613681793213,1.227003812789917,0.7195456027984619,0.14724142849445343,0.8003833293914795,3.0667089872897564,0.0734855667627262,0.3124792043807669,139.1290322580645,138.64874551971326,115.0618556701031,151.0,127.59197324414716,175.45150501672242,151.5,162.6950354609929,125.0,121.0,101.0,145.0,125.0,169.0,149.0,145.0
60,3.0,-0.031308650970458984,0.09958696365356445,1.1764447689056396,0.33943676948547363,-1.6655290126800537,1.2353479862213135,0.718987226486206,0.14689260721206665,0.796402096748352,3.0668010289293006,0.07385888147376317,0.3035446030892913,139.01408450704224,138.2711267605634,115.0,151.0,127.77181208053692,175.41275167785236,151.65625,162.43402777777777,125.0,121.0,101.0,145.0,125.0,169.0,149.0,145.0
61,3.0500000000000003,-0.032044172286987305,0.09663558006286621,1.186657190322876,0.3332858085632324,-1.6650774478912354,1.2432434558868408,0.7184194326400757,0.14647552371025085,0.7924785614013672,3.06700746874672,0.07417153133629013,0.29495089153984905,138.9134948096886,138.0865051903114,114.95593220338984,151.04406779661016,127.84488448844884,175.53135313531354,151.86851211072664,162.10726643598616,125.0,121.0,101.0,145.0,125.0,169.0,149.0,145.0
62,3.1,-0.03270578384399414,0.09359121322631836,1.1967189311981201,0.32718825340270996,-1.6646482944488525,1.2509090900421143,0.7177336812019348,0.14611341059207916,0.788703441619873,3.067139239304505,0.07433234252194185,0.2866564861385039,138.85365853658536,137.94076655052265,114.79069767441861,151.1029900332226,127.97385620915033,175.55882352941177,151.96917808219177,161.98972602739727,125.0,121.0,101.0,145.0,125.0,169.0,149.0,145.0
63,3.1500000000000004,-0.03325819969177246,0.09075665473937988,1.2064025402069092,0.3213043212890625,-1.664271593093872,1.2585055828094482,0.7171019911766052,0.14582312107086182,0.7849891781806946,3.067231057817406,0.07456588950778605,0.27853782380770137,138.7,137.68965517241378,114.57704918032788,151.04918032786884,128.01618122977345,175.58899676375404,151.996632996633,161.87205387205387,125.0,121.0,101.0,145.0,125.0,169.0,149.0,145.0
64,3.2,-0.03389573097229004,0.08812499046325684,1.215714693069458,0.3156425952911377,-1.6638023853302002,1.265810251235962,0.7165482044219971,0.1454768180847168,0.781339168548584,3.0674439558406905,0.0748519399406556,0.2706291246300371,138.5810810810811,137.4189189189189,114.42718446601941,151.11974110032364,128.08116883116884,175.58766233766235,152.1295681063123,161.5282392026578,125.0,121.0,101.0,145.0,125.0,169.0,149.0,145.0
65,3.25,-0.03437638282775879,0.08542871475219727,1.224844217300415,0.31005382537841797,-1.6634256839752197,1.2729885578155518,0.715888500213623,0.1452362835407257,0.7778377532958984,3.0675173071608577,0.07501225688791807,0.2629970908729488,138.36026936026937,137.17508417508418,114.33440514469453,151.13183279742765,128.26433121019107,175.5859872611465,152.1627906976744,161.30232558139534,125.0,121.0,101.0,145.0,125.0,169.0,149.0,145.0
66,3.3000000000000003,-0.03502178192138672,0.08282017707824707,1.2339270114898682,0.3044440746307373,-1.6628921031951904,1.2796804904937744,0.7152829766273499,0.14488989114761353,0.774296224117279,3.0677778809755543,0.07518861169253789,0.25568876709813243,138.13377926421404,137.0,114.21153846153847,151.21153846153845,128.35220125786162,175.66666666666666,152.33222591362127,161.09966777408638,125.0,121.0,101.0,145.0,125.0,169.0,149.0,145.0
67,3.35,-0.03563284873962402,0.08037090301513672,1.2427136898040771,0.29898905754089355,-1.6623585224151611,1.2861278057098389,0.7147247195243835,0.14456510543823242,0.7708093523979187,3.068056650716337,0.07540805694220476,0.2486598091737713,138.0730897009967,136.77740863787375,114.03525641025641,151.30128205128204,128.4875,175.684375,152.43648208469057,160.87947882736157,125.0,121.0,101.0,145.0,125.0,169.0,149.0,145.0
68,3.4000000000000004,-0.03612160682678223,0.07797551155090332,1.2512266635894775,0.29368090629577637,-1.6618969440460205,1.2924635410308838,0.7141358852386475,0.1443219929933548,0.7674427032470703,3.068246741355694,0.07559034745714795,0.24186059786589648,137.98371335504885,136.52768729641693,113.80877742946709,151.3166144200627,128.51401869158877,175.70093457943926,152.55016181229774,160.6601941747573,125.0,121.0,101.0,145.0,125.0,169.0,149.0,145.0
69,3.45,-0.03646683692932129,0.07568168640136719,1.2593367099761963,0.2886207103729248,-1.6615288257598877,1.298760175704956,0.713532567024231,0.1441720873117447,0.7642359733581543,3.0683294089838857,0.07575432770205026,0.23524150653185658,137.93870967741935,136.36774193548388,113.69875776397515,151.30745341614906,128.62654320987653,175.7037037037037,152.63022508038586,160.475884244373,125.0,121.0,101.0,145.0,125.0,169.0,149.0,145.0
70,3.5,-0.03676462173461914,0.07347726821899414,1.2672207355499268,0.28368568420410156,-1.6611807346343994,1.3049485683441162,0.7129415273666382,0.14405253529548645,0.761094331741333,3.0683939369148434,0.07592484715616131,0.22877553520756652,137.69677419354838,136.1258064516129,113.54968944099379,151.3198757763975,128.68711656441718,175.74539877300614,152.71428571428572,160.2952380952381,125.0,121.0,101.0,145.0,125.0,169.0,149.0,145.0
71,3.5500000000000003,-0.03714704513549805,0.07139754295349121,1.2748711109161377,0.27887845039367676,-1.6607487201690674,1.3107926845550537,0.7124028205871582,0.14387674629688263,0.7579982876777649,3.068567374458272,0.0761221184702638,0.22257090254733577,137.60256410256412,135.89102564102564,113.47076923076924,151.3446153846154,128.72948328267478,175.7598784194529,152.72698412698412,160.0857142857143,125.0,121.0,101.0,145.0,125.0,169.0,149.0,145.0
72,3.6,-0.03759145736694336,0.0691835880279541,1.282520055770874,0.2740437984466553,-1.660254716873169,1.3163635730743408,0.7117714285850525,0.14366529881954193,0.7549957633018494,3.068775349794175,0.07616873852964808,0.21657549989531813,137.51898734177215,135.75,113.38461538461539,151.3446153846154,128.8343373493976,175.79518072289156,152.77044025157232,159.78616352201257,125.0,121.0,101.0,145.0,125.0,169.0,149.0,145.0
73,3.6500000000000004,-0.03800225257873535,0.06690812110900879,1.290118932723999,0.26920604705810547,-1.6597731113433838,1.321758508682251,0.7110780477523804,0.14347869157791138,0.7520641088485718,3.068952373641183,0.07612354517583937,0.21078581209139424,137.309375,135.54375,113.21987951807229,151.25903614457832,128.96439169139467,175.8219584569733,152.90851735015772,159.57413249211356,125.0,121.0,101.0,145.0,125.0,169.0,149.0,145.0
74,3.7,-0.03846025466918945,0.06492185592651367,1.2973310947418213,0.26460909843444824,-1.6592419147491455,1.3268892765045166,0.7105247974395752,0.1432575285434723,0.7491515874862671,3.069231719024295,0.07623215609796843,0.20521649071401407,137.296875,135.3625,113.03283582089553,151.23880597014926,129.0,175.858407079646,153.09148264984228,159.4858044164038,125.0,121.0,101.0,145.0,125.0,169.0,149.0,145.0
75,3.75,-0.03878188133239746,0.06316304206848145,1.304025411605835,0.26036882400512695,-1.6588118076324463,1.3320891857147217,0.710036039352417,0.1431211680173874,0.7463803291320801,3.0694198326392303,0.07642814403234265,0.1997139069933429,137.21052631578948,135.21671826625388,112.97041420118343,151.21005917159763,129.07647058823528,175.84117647058824,153.19325153374234,159.30368098159508,125.0,121.0,101.0,145.0,125.0,169.0,149.0,145.0
76,3.8000000000000003,-0.039072275161743164,0.06149792671203613,1.3105318546295166,0.25623488426208496,-1.6583936214447021,1.3371903896331787,0.7095740437507629,0.1430041790008545,0.7436530590057373,3.06960171126739,0.07665054516581343,0.19433988810378017,137.0,134.9388379204893,112.90029325513197,151.2375366568915,129.15116279069767,175.8343023255814,153.1939393939394,159.04242424242423,125.0,121.0,101.0,145.0,125.0,169.0,149.0,145.0
77,3.85,-0.03949713706970215,0.059712886810302734,1.3171045780181885,0.25202035903930664,-1.6578576564788818,1.3418753147125244,0.7090487480163574,0.14280381798744202,0.7409713268280029,3.069897127188085,0.07674671156470603,0.18924717639644625,136.82926829268294,134.73170731707316,112.6840579710145,151.2405797101449,129.22608695652173,175.81159420289856,153.2749244712991,158.9214501510574,125.0,121.0,101.0,145.0,125.0,169.0,149.0,145.0
78,3.9000000000000004,-0.039887189865112305,0.05817699432373047,1.323296308517456,0.24805283546447754,-1.6573402881622314,1.3464481830596924,0.7086309790611267,0.1426216959953308,0.7383370399475098,3.0702062245387447,0.07697342490411839,0.1843030895219314,136.66666666666666,134.56880733944953,112.62390670553935,151.24198250728864,129.29394812680115,175.8155619596542,153.34848484848484,158.71515151515152,125.0,121.0,101.0,145.0,125.0,169.0,149.0,145.0
79,3.95,-0.04030418395996094,0.05667734146118164,1.32938551902771,0.24412965774536133,-1.6567904949188232,1.3508083820343018,0.7082210779190063,0.1424228399991989,0.7357369661331177,3.070554381963129,0.07719179960165681,0.17954328840893258,136.57142857142858,134.4468085106383,112.45797101449276,151.22898550724636,129.30172413793105,175.8448275862069,153.4164133738602,158.51671732522797,125.0,121.0,101.0,145.0,125.0,169.0,149.0,145.0
80,4.0,-0.04061293601989746,0.055257320404052734,1.3352158069610596,0.2403709888458252,-1.6563193798065186,1.3551723957061768,0.7078157663345337,0.14229288697242737,0.7332342267036438,3.070818463253419,0.07741580597716595,0.17488700882899832,136.57530120481928,134.2379518072289,112.30285714285715,151.19714285714286,129.323782234957,175.865329512894,153.4865671641791,158.4089552238806,125.0,121.0,101.0,145.0,125.0,169.0,149.0,145.0
81,4.05,-0.04088854789733887,0.053870439529418945,1.3407914638519287,0.23679113388061523,-1.6558706760406494,1.3594920635223389,0.7073971033096313,0.142184317111969,0.7308570146560669,3.0710514689191126,0.07760920208188371,0.17030598057858456,136.39762611275964,134.10385756676558,112.23295454545455,151.19602272727272,129.37037037037038,175.9002849002849,153.44542772861357,158.25073746312685,125.0,121.0,101.0,145.0,125.0,169.0,149.0,145.0
82,4.1000000000000005,-0.0412900447845459,0.05244088172912598,1.3464038372039795,0.23316168785095215,-1.65531325340271,1.363501787185669,0.7069627046585083,0.14199671149253845,0.728487491607666,3.0714021516797674,0.07775073332205648,0.1659090020722419,136.30473372781066,133.8698224852071,112.08169014084507,151.21408450704226,129.4872521246459,175.88101983002832,153.47197640117994,158.0117994100295,125.0,121.0,101.0,145.0,125.0,169.0,149.0,145.0
83,4.15,-0.041680097579956055,0.05100369453430176,1.3518927097320557,0.2295970916748047,-1.6547605991363525,1.367333173751831,0.7065056562423706,0.1418170928955078,0.7261961102485657,3.0717453777060566,0.07784492859031801,0.1617014313427816,136.18367346938774,133.76384839650146,111.99154929577465,151.1943661971831,129.55182072829132,175.84313725490196,153.54651162790697,157.81976744186048,125.0,121.0,101.0,145.0,125.0,169.0,149.0,145.0
84,4.2,-0.04200291633605957,0.049690961837768555,1.3571922779083252,0.22614336013793945,-1.654254674911499,1.3711235523223877,0.7060950398445129,0.1416788399219513,0.7239291667938232,3.0720531162489495,0.07800134237076962,0.1576009880806254,136.07267441860466,133.52906976744185,111.93016759776536,151.1927374301676,129.62222222222223,175.81666666666666,153.57602339181287,157.76900584795322,125.0,121.0,101.0,145.0,125.0,169.0,149.0,145.0
85,4.25,-0.04246187210083008,0.04840731620788574,1.3624131679534912,0.22273707389831543,-1.6536352634429932,1.3746368885040283,0.7057061791419983,0.14145362377166748,0.7216874957084656,3.0724921459372916,0.07815644129401675,0.15364263563943012,135.99135446685878,133.36887608069165,111.83888888888889,151.11944444444444,129.66391184573004,175.79338842975207,153.61095100864554,157.55043227665706,125.0,121.0,101.0,145.0,125.0,169.0,149.0,145.0
86,4.3,-0.042913198471069336,0.047141075134277344,1.3675215244293213,0.21939611434936523,-1.6530191898345947,1.3780491352081299,0.7053117752075195,0.1412336826324463,0.7194998264312744,3.0729279582005797,0.07829355276997556,0.14979214345079322,135.88728323699422,133.15028901734104,111.6361111111111,151.05277777777778,129.7336956521739,175.76902173913044,153.69452449567723,157.3170028818444,125.0,121.0,101.0,145.0,125.0,169.0,149.0,145.0
87,4.3500000000000005,-0.04330015182495117,0.04600858688354492,1.372323751449585,0.2162642478942871,-1.652454137802124,1.3814051151275635,0.7049623727798462,0.14105252921581268,0.7173996567726135,3.073323262365421,0.07848325642573502,0.14606318689552208,135.82234957020057,133.04297994269342,111.56473829201101,151.04683195592287,129.75405405405405,175.75405405405405,153.68767908309457,157.17478510028653,125.0,121.0,101.0,145.0,125.0,169.0,149.0,145.0
88,4.4,-0.043673038482666016,0.04485368728637695,1.377082109451294,0.2131485939025879,-1.6518957614898682,1.384688138961792,0.7045891880989075,0.14088119566440582,0.715341329574585,3.073705479312583,0.07863334494186884,0.14241842312673383,135.74220963172806,132.87535410764872,111.4390243902439,151.0569105691057,129.75405405405405,175.75405405405405,153.79142857142858,157.04857142857142,125.0,121.0,101.0,145.0,125.0,169.0,149.0,145.0
89,4.45,-0.04397249221801758,0.043767690658569336,1.3816020488739014,0.21019816398620605,-1.6513950824737549,1.3879683017730713,0.7042266130447388,0.14075514674186707,0.7133762240409851,3.0740281589694995,0.07879414798624458,0.1388497900165646,135.64102564102564,132.86039886039887,111.27792915531334,151.06811989100817,129.78494623655914,175.70967741935485,153.7774647887324,156.91830985915493,125.0,121.0,101.0,145.0,125.0,169.0,149.0,145.0
90,4.5,-0.04414486885070801,0.04283714294433594,1.3859212398529053,0.20737099647521973,-1.650989294052124,1.3913319110870361,0.703924298286438,0.1407066285610199,0.7114213109016418,3.0742630618489946,0.0790456647176124,0.13532446106431775,135.51830985915493,132.62535211267607,111.26086956521739,151.0923913043478,129.82620320855614,175.69251336898395,153.8507042253521,156.82535211267606,125.0,121.0,101.0,145.0,125.0,169.0,149.0,145.0
91,4.55,-0.04441523551940918,0.04187273979187012,1.3902013301849365,0.20456480979919434,-1.6505029201507568,1.3944499492645264,0.7036060094833374,0.14059635996818542,0.7095133066177368,3.074586000985943,0.07925111850971672,0.13194546254632264,135.35754189944134,132.45810055865923,111.1078167115903,151.1078167115903,129.85333333333332,175.68266666666668,153.875,156.55555555555554,125.0,121.0,101.0,145.0,125.0,169.0,149.0,145.0
92,4.6000000000000005,-0.04462003707885742,0.04090690612792969,1.3943560123443604,0.2018275260925293,-1.6500694751739502,1.3974792957305908,0.703266978263855,0.14052705466747284,0.7076826095581055,3.074851767176319,0.07941683161439225,0.12872011688374357,135.18156424581005,132.2094972067039,111.04032258064517,151.06989247311827,129.84574468085106,175.65425531914894,153.86666666666667,156.5,125.0,121.0,101.0,145.0,125.0,169.0,149.0,145.0
93,4.65,-0.04499483108520508,0.0399322509765625,1.3984858989715576,0.19910645484924316,-1.6494982242584229,1.4002091884613037,0.7029373645782471,0.14035123586654663,0.7058719992637634,3.0752733683024114,0.07956412539354354,0.125625265800342,135.17270194986074,132.09192200557104,110.93899204244032,151.0610079575597,129.85411140583554,175.6259946949602,153.9196675900277,156.31578947368422,125.0,121.0,101.0,145.0,125.0,169.0,149.0,145.0
94,4.7,-0.04524874687194824,0.038954973220825195,1.4024736881256104,0.19647884368896484,-1.6490261554718018,1.403015375137329,0.702579140663147,0.14025156199932098,0.7041471004486084,3.0755804925874837,0.0796752413017098,0.12257290213753297,135.13019390581718,132.04986149584488,110.85978835978835,151.05555555555554,129.85411140583554,175.6259946949602,153.9065934065934,156.26373626373626,125.0,121.0,101.0,145.0,125.0,169.0,149.0,145.0
95,4.75,-0.04548192024230957,0.03801321983337402,1.4063808917999268,0.19390249252319336,-1.6485669612884521,1.405813455581665,0.7022311091423035,0.1401655226945877,0.7024455666542053,3.075874757895591,0.07979730797904701,0.11954832915985926,134.9696132596685,131.84806629834253,110.71204188481676,151.01570680628274,129.82368421052632,175.58157894736843,153.95580110497238,156.02762430939225,125.0,121.0,101.0,145.0,125.0,169.0,149.0,145.0
96,4.800000000000001,-0.04565715789794922,0.03710436820983887,1.4101183414459229,0.19143962860107422,-1.6481573581695557,1.4085643291473389,0.7018829584121704,0.14011435210704803,0.7008214592933655,3.076118965197159,0.07991013501762277,0.1166291922206285,134.9283746556474,131.71625344352617,110.58961038961039,150.9948051948052,129.80156657963445,175.52741514360312,153.9368131868132,155.8956043956044,125.0,121.0,101.0,145.0,125.0,169.0,149.0,145.0
97,4.8500000000000005,-0.04576849937438965,0.03619050979614258,1.4137623310089111,0.18903756141662598,-1.6478002071380615,1.4113438129425049,0.7015156149864197,0.14010366797447205,0.6992573142051697,3.076301765150434,0.07999354796869601,0.11374356740336412,134.90463215258856,131.65395095367847,110.52061855670104,150.94845360824743,129.88311688311688,175.53246753246754,153.92602739726027,155.75890410958905,125.0,121.0,101.0,145.0,125.0,169.0,149.0,145.0
98,4.9,-0.04589080810546875,0.03529047966003418,1.4173595905303955,0.1866598129272461,-1.647432565689087,1.4140398502349854,0.701152503490448,0.14008529484272003,0.6977105736732483,3.0764994585392036,0.08007458896932257,0.11092914962049495,134.75537634408602,131.4247311827957,110.43846153846154,150.9102564102564,129.88311688311688,175.53246753246754,154.0,155.5570652173913,125.0,121.0,101.0,145.0,125.0,169.0,149.0,145.0
99,4.95,-0.0460507869720459,0.03436422348022461,1.4208629131317139,0.18434715270996094,-1.6470401287078857,1.416565179824829,0.7007708549499512,0.14004312455654144,0.696238100528717,3.076727218411222,0.08010943664075072,0.10824902767163387,134.64611260053618,131.33512064343162,110.34948979591837,150.90051020408163,129.92746113989637,175.46113989637306,154.0,155.5,125.0,121.0,101.0,145.0,125.0,169.0,149.0,145.0
100,5.0,-0.04621410369873047,0.03356051445007324,1.4242441654205322,0.1821134090423584,-1.6466419696807861,1.4190342426300049,0.7004525661468506,0.13999629020690918,0.69475257396698,3.0769757125214525,0.08022861093361386,0.10562201187433526,134.56763925729442,131.26259946949602,110.2984693877551,150.87755102040816,130.02564102564102,175.44871794871796,153.95945945945945,155.4,125.0,121.0,101.0,145.0,125.0,169.0,149.0,145.0
101,5.050000000000001,-0.04645037651062012,0.03277873992919922,1.4276282787322998,0.17986512184143066,-1.6461818218231201,1.421330213546753,0.7001529335975647,0.13990309834480286,0.6932504177093506,3.0773003276112423,0.08036196590860244,0.10309521574196208,134.46380697050938,131.13404825737265,110.22335025380711,150.83502538071065,130.01526717557252,175.42239185750637,154.0,155.35752688172042,125.0,121.0,101.0,145.0,125.0,169.0,149.0,145.0
102,5.1000000000000005,-0.046723127365112305,0.03207850456237793,1.4308826923370361,0.17771339416503906,-1.6456925868988037,1.4235479831695557,0.6998955011367798,0.1397855579853058,0.6917687654495239,3.07766674206222,0.08054538866430919,0.10061126930132044,134.38814016172506,130.93261455525607,110.11928934010152,150.83756345177665,129.99238578680203,175.40609137055839,153.94919786096256,155.1149732620321,125.0,121.0,101.0,145.0,125.0,169.0,149.0,145.0
103,5.15,-0.04697728157043457,0.031206369400024414,1.4341838359832764,0.17551612854003906,-1.64522385597229,1.425666093826294,0.6995359063148499,0.13968336582183838,0.6903806924819946,3.077993768482186,0.08056937372503803,0.09824364354955298,134.352,130.78933333333333,109.97481108312343,150.8287153652393,129.94949494949495,175.37878787878788,154.0,155.0,125.0,121.0,101.0,145.0,125.0,169.0,149.0,145.0
104,5.2,-0.04713106155395508,0.030365705490112305,1.4372990131378174,0.17345738410949707,-1.6448414325714111,1.4278686046600342,0.6991716623306274,0.13964353501796722,0.6890803575515747,3.0782256802482113,0.0805861989275287,0.09589104699033155,134.23015873015873,130.67195767195767,109.89,150.79,129.97732997481108,175.38287153652394,154.0,154.9122340425532,125.0,121.0,101.0,145.0,125.0,169.0,149.0,145.0
105,5.25,-0.04735255241394043,0.029564857482910156,1.440345048904419,0.1714468002319336,-1.6444036960601807,1.429917573928833,0.6988338232040405,0.13955995440483093,0.6877918243408203,3.0785273494550127,0.08062641667536725,0.09362450076892316,134.2037037037037,130.56349206349208,109.74626865671642,150.81094527363183,129.97989949748742,175.35427135678393,154.03968253968253,154.76190476190476,125.0,121.0,101.0,145.0,125.0,169.0,149.0,145.0
106,5.300000000000001,-0.047446250915527344,0.028792858123779297,1.4432222843170166,0.1695551872253418,-1.6440751552581787,1.4320623874664307,0.698488712310791,0.1395549476146698,0.6865846514701843,3.0787096440412585,0.0806566254019951,0.09138860082298535,134.04473684210527,130.4657894736842,109.6425,150.8425,129.9775,175.2975,154.0372340425532,154.625,125.0,121.0,101.0,145.0,125.0,169.0,149.0,145.0
107,5.3500000000000005,-0.04749417304992676,0.028075218200683594,1.44600510597229,0.16771864891052246,-1.6437838077545166,1.4341700077056885,0.6981636881828308,0.13957688212394714,0.6853973269462585,3.0788592037858167,0.08070975809747107,0.08923513835288399,133.81627296587928,130.41469816272965,109.535,150.7275,130.02985074626866,175.27860696517413,154.0263852242744,154.51187335092348,125.0,121.0,101.0,145.0,125.0,169.0,149.0,145.0
108,5.4,-0.04764127731323242,0.027551651000976562,1.4486520290374756,0.16597557067871094,-1.6434080600738525,1.4360854625701904,0.6979547739028931,0.13953174650669098,0.6841553449630737,3.0791289357737712,0.080916344814547,0.0871767876134443,133.76178010471205,130.31151832460733,109.48379052369077,150.713216957606,130.06435643564356,175.26980198019803,154.0,154.4763157894737,125.0,121.0,101.0,145.0,125.0,169.0,149.0,145.0
109,5.45,-0.04785799980163574,0.027021169662475586,1.4512927532196045,0.16423559188842773,-1.6429765224456787,1.437873125076294,0.6977474689483643,0.13944320380687714,0.6829222440719604,3.079462750493265,0.08111503176100329,0.08517835992148125,133.71948051948053,130.26493506493506,109.43424317617865,150.7394540942928,130.06913580246913,175.24197530864197,153.96052631578948,154.29473684210527,125.0,121.0,101.0,145.0,125.0,169.0,149.0,145.0
110,5.5,-0.048000335693359375,0.02641463279724121,1.4539597034454346,0.1624586582183838,-1.642606496810913,1.439671277999878,0.6974874138832092,0.13940304517745972,0.6817290782928467,3.079720885493001,0.08123483305882455,0.08324080258251611,133.67525773195877,130.09536082474227,109.3731343283582,150.69402985074626,130.064039408867,175.21428571428572,154.0,154.2539267015707,125.0,121.0,101.0,145.0,125.0,169.0,149.0,145.0
111,5.550000000000001,-0.04818606376647949,0.02581787109375,1.4565460681915283,0.16074872016906738,-1.6422045230865479,1.441392183303833,0.6972327828407288,0.1393357515335083,0.680575966835022,3.080016754082154,0.0813532373737895,0.08133820431970819,133.54219948849104,129.9309462915601,109.23095823095824,150.65356265356266,130.0,175.1711491442543,154.0,154.10966057441254,125.0,121.0,101.0,145.0,125.0,169.0,149.0,145.0
112,5.6000000000000005,-0.04834461212158203,0.025240659713745117,1.4590156078338623,0.15912508964538574,-1.6418287754058838,1.4430882930755615,0.6969801187515259,0.1392841339111328,0.6794782876968384,3.0802855278574954,0.08146623887024451,0.07948662464733501,133.49872122762147,129.81329923273657,109.18092909535453,150.63325183374084,130.01951219512196,175.15121951219513,154.0,154.0,125.0,121.0,101.0,145.0,125.0,169.0,149.0,145.0
113,5.65,-0.048516035079956055,0.024628162384033203,1.4614689350128174,0.15751075744628906,-1.6414458751678467,1.4447133541107178,0.6967074871063232,0.13922525942325592,0.6784147620201111,3.0805622309626437,0.08154204863491772,0.07769374853522097,133.4128205128205,129.66410256410256,109.09245742092457,150.61800486618006,130.04368932038835,175.10194174757282,153.97150259067357,153.88860103626942,125.0,121.0,101.0,145.0,125.0,169.0,149.0,145.0
114,5.7,-0.04871249198913574,0.02400517463684082,1.4638917446136475,0.1559147834777832,-1.641045331954956,1.4462387561798096,0.6964297294616699,0.13915053009986877,0.6773772239685059,3.080861145580897,0.08160018617420069,0.07597378756019678,133.3846153846154,129.6153846153846,109.02189781021897,150.56934306569343,130.04368932038835,175.10194174757282,153.91794871794872,153.8230769230769,125.0,121.0,101.0,145.0,125.0,169.0,149.0,145.0
115,5.75,-0.04893207550048828,0.023369789123535156,1.4663093090057373,0.15432095527648926,-1.6406261920928955,1.4477159976959229,0.6961462497711182,0.13906188309192657,0.6763507127761841,3.0811803478848376,0.08164517152857827,0.07427953414242579,133.35294117647058,129.5601023017903,108.94660194174757,150.5509708737864,130.03864734299518,175.09178743961354,153.9,153.67435897435897,125.0,121.0,101.0,145.0,125.0,169.0,149.0,145.0
116,5.800000000000001,-0.049097537994384766,0.02270340919494629,1.4686949253082275,0.15274405479431152,-1.6402547359466553,1.4492113590240479,0.6958367824554443,0.13900771737098694,0.6753652095794678,3.081444707548022,0.08164945502139878,0.072621456934415,133.29007633587787,129.4885496183206,108.88377723970945,150.58111380145277,130.01201923076923,175.04567307692307,153.9492385786802,153.62182741116752,125.0,121.0,101.0,145.0,125.0,169.0,149.0,145.0
117,5.8500000000000005,-0.04919242858886719,0.022091150283813477,1.4709618091583252,0.15125155448913574,-1.6399424076080322,1.4507644176483154,0.6955446600914001,0.13899588584899902,0.6744128465652466,3.081646915393077,0.08167952127933746,0.07097505683509808,133.13350125944584,129.38287153652394,108.78883495145631,150.59223300970874,129.99040767386091,175.02877697841726,153.89672544080605,153.56675062972292,125.0,121.0,101.0,145.0,125.0,169.0,149.0,145.0
118,5.9,-0.04934096336364746,0.021488189697265625,1.4732081890106201,0.14977002143859863,-1.639587163925171,1.4521863460540771,0.6952625513076782,0.13894984126091003,0.6734663248062134,3.0819032528183876,0.0817126287642478,0.06940612376647544,133.02267002518892,129.38287153652394,108.77053140096618,150.54347826086956,129.92583732057417,174.98325358851676,153.9345088161209,153.4256926952141,125.0,121.0,101.0,145.0,125.0,169.0,149.0,145.0
119,5.95,-0.049416303634643555,0.020944833755493164,1.4753777980804443,0.14833498001098633,-1.6392920017242432,1.4536707401275635,0.6950024366378784,0.13894742727279663,0.6725253462791443,3.0820977498208557,0.08177895541221347,0.06784810177132969,132.94763092269326,129.26184538653368,108.66826923076923,150.45673076923077,129.92583732057417,174.98325358851676,153.92151898734178,153.38227848101266,125.0,121.0,101.0,145.0,125.0,169.0,149.0,145.0
120,6.0,-0.04956626892089844,0.020444154739379883,1.4774720668792725,0.14696526527404785,-1.63893723487854,1.4550468921661377,0.6947710514068604,0.1388978213071823,0.6715989708900452,3.0823634934335433,0.0818781835353029,0.06632426942053542,132.85714285714286,129.13533834586465,108.5547619047619,150.38571428571427,129.90887290167865,174.96163069544363,153.94458438287154,153.27959697733,125.0,121.0,101.0,145.0,125.0,169.0,149.0,145.0
121,6.050000000000001,-0.04972195625305176,0.019998788833618164,1.479442834854126,0.1456928253173828,-1.638582468032837,1.4563844203948975,0.6945666074752808,0.13884253799915314,0.6707072257995605,3.082636300905191,0.08200994590010839,0.06483311231013558,132.7450495049505,128.98267326732673,108.39667458432304,150.33254156769596,129.9354066985646,174.95454545454547,153.83709273182959,153.1654135338346,125.0,121.0,101.0,145.0,125.0,169.0,149.0,145.0
122,6.1000000000000005,-0.04996323585510254,0.019528865814208984,1.4814088344573975,0.1444246768951416,-1.6381609439849854,1.4575459957122803,0.6943572759628296,0.1387346386909485,0.6698359251022339,3.082986653309066,0.08211928188857065,0.06343330205219429,132.66417910447763,128.92537313432837,108.31666666666666,150.31666666666666,129.9354066985646,174.95454545454547,153.88308457711443,153.10945273631842,125.0,121.0,101.0,145.0,125.0,169.0,149.0,145.0
123,6.15,-0.050188302993774414,0.01913762092590332,1.4832470417022705,0.14325451850891113,-1.6377546787261963,1.4586999416351318,0.6941854357719421,0.1386345475912094,0.6689857244491577,3.083327074638272,0.08228082028065122,0.06205797099781429,132.59203980099502,128.8582089552239,108.26904761904763,150.29285714285714,129.93601895734596,174.85545023696682,153.84039900249377,153.0,125.0,121.0,101.0,145.0,125.0,169.0,149.0,145.0
124,6.2,-0.050383806228637695,0.018769502639770508,1.4850690364837646,0.14208412170410156,-1.6373722553253174,1.459850549697876,0.6940217614173889,0.13855257630348206,0.6681303977966309,3.0836440575111332,0.08245352385948611,0.06071493681785509,132.56930693069307,128.76732673267327,108.19431279620854,150.239336492891,129.89336492890996,174.85071090047393,153.83582089552237,152.8855721393035,125.0,121.0,101.0,145.0,125.0,169.0,149.0,145.0
125,6.25,-0.05055403709411621,0.01836228370666504,1.4868547916412354,0.1409440040588379,-1.6370155811309814,1.4610116481781006,0.693831741809845,0.1384868174791336,0.6673235893249512,3.0839295988652724,0.08258271089622753,0.059385788792889034,132.54228855721394,128.72388059701493,108.1090047393365,150.25355450236967,129.89336492890996,174.85071090047393,153.78855721393035,152.83084577114428,125.0,121.0,101.0,145.0,125.0,169.0,149.0,145.0
126,6.300000000000001,-0.05070662498474121,0.01793670654296875,1.4886209964752197,0.139815092086792,-1.6366746425628662,1.4621641635894775,0.693628191947937,0.13843223452568054,0.6665416955947876,3.084196314390154,0.0826889816645514,0.0580836072818146,132.46,128.5925,108.0635294117647,150.22823529411764,129.86997635933807,174.8368794326241,153.80246913580248,152.71851851851852,125.0,121.0,101.0,145.0,125.0,169.0,149.0,145.0
127,6.3500000000000005,-0.050878047943115234,0.017469406127929688,1.4903714656829834,0.13869833946228027,-1.6363227367401123,1.4632408618927002,0.6934033632278442,0.1383664458990097,0.6657972931861877,3.084475253368001,0.08275418816879952,0.05683648272136253,132.40100250626566,128.48370927318297,107.99765258215963,150.18309859154928,129.81132075471697,174.81132075471697,153.80693069306932,152.69059405940595,125.0,121.0,101.0,145.0,125.0,169.0,149.0,145.0
128,6.4,-0.051065921783447266,0.01701068878173828,1.4920680522918701,0.13762950897216797,-1.6359598636627197,1.4642980098724365,0.6931825876235962,0.13828998804092407,0.6650782823562622,3.0847667874801368,0.08282209031201766,0.05559313193765947,132.2605459057072,128.43424317617865,107.95774647887323,150.14788732394365,129.81132075471697,174.81132075471697,153.7741935483871,152.59801488833747,125.0,121.0,101.0,145.0,125.0,169.0,149.0,145.0
129,6.45,-0.05131363868713379,0.01656484603881836,1.493769884109497,0.1365501880645752,-1.635547399520874,1.465221643447876,0.6929758787155151,0.13817620277404785,0.6643476486206055,3.085119450102896,0.0829021643764567,0.05442343168040917,132.21515892420538,128.32518337408314,107.95081967213115,150.12177985948477,129.81132075471697,174.81132075471697,153.8138957816377,152.5012406947891,125.0,121.0,101.0,145.0,125.0,169.0,149.0,145.0
130,6.5,-0.051584482192993164,0.016074657440185547,1.4954664707183838,0.13547682762145996,-1.6351206302642822,1.4660742282867432,0.6927468776702881,0.1380489319562912,0.6636500954627991,3.0854875603719827,0.08294109726342781,0.05330198606878355,132.18872549019608,128.31617647058823,107.88139534883722,150.11627906976744,129.81176470588235,174.7835294117647,153.81234567901234,152.44444444444446,125.0,121.0,101.0,145.0,125.0,169.0,149.0,145.0
131,6.550000000000001,-0.05179905891418457,0.015636920928955078,1.4970829486846924,0.1344602108001709,-1.6347410678863525,1.4669840335845947,0.692537784576416,0.13795557618141174,0.662964940071106,3.0858068647151846,0.08301102346122215,0.052180043823429556,132.0995145631068,128.20388349514562,107.82284382284382,150.12121212121212,129.7887323943662,174.71596244131456,153.7156862745098,152.2941176470588,125.0,121.0,101.0,145.0,125.0,169.0,149.0,145.0
132,6.6000000000000005,-0.05201244354248047,0.015106201171875,1.4987761974334717,0.13337302207946777,-1.6343657970428467,1.4678223133087158,0.6922789812088013,0.13786466419696808,0.6622989177703857,3.0861183201205433,0.08299964486448516,0.051129817751961855,132.0266990291262,128.13834951456312,107.69837587006961,150.10208816705335,129.7704918032787,174.69555035128806,153.65601965601965,152.24815724815724,125.0,121.0,101.0,145.0,125.0,169.0,149.0,145.0
133,6.65,-0.05222773551940918,0.014605283737182617,1.5004112720489502,0.13232970237731934,-1.6339905261993408,1.4686367511749268,0.6920353770256042,0.1377716064453125,0.6616467237472534,3.0864334298266574,0.08300610638268403,0.050101120863856395,131.9354066985646,128.04545454545453,107.60969976905312,150.0715935334873,129.75524475524475,174.64335664335664,153.64547677261615,152.19804400977995,125.0,121.0,101.0,145.0,125.0,169.0,149.0,145.0
134,6.7,-0.05244851112365723,0.014161825180053711,1.501967191696167,0.13134765625,-1.633612871170044,1.4694225788116455,0.6918220520019531,0.13767358660697937,0.6610022783279419,3.0867576576845326,0.08305370326739946,0.049096701041549645,131.90887290167865,128.03836930455637,107.49769585253456,150.07603686635946,129.7226107226107,174.6013986013986,153.54901960784315,152.12745098039215,125.0,121.0,101.0,145.0,125.0,169.0,149.0,145.0
135,6.75,-0.05260515213012695,0.013715982437133789,1.5035021305084229,0.1303720474243164,-1.6332886219024658,1.4702727794647217,0.6915993690490723,0.13761483132839203,0.6603721976280212,3.0870208771477023,0.08308791147437312,0.048091171705243865,131.8653846153846,127.92788461538461,107.45370370370371,150.05092592592592,129.7226107226107,174.6013986013986,153.57107843137254,152.07598039215685,125.0,121.0,101.0,145.0,125.0,169.0,149.0,145.0
136,6.800000000000001,-0.05279374122619629,0.013255596160888672,1.5050060749053955,0.1294260025024414,-1.6329419612884521,1.4710566997528076,0.6913709044456482,0.13753663003444672,0.6597706079483032,3.0873106479717793,0.08310661435598296,0.04711957404716743,131.78708133971293,127.85885167464114,107.31264367816092,150.01379310344828,129.66125290023203,174.53596287703016,153.5341463414634,152.03658536585365,125.0,121.0,101.0,145.0,125.0,169.0,149.0,145.0
137,6.8500000000000005,-0.05293750762939453,0.012875080108642578,1.5063908100128174,0.1285715103149414,-1.632633924484253,1.4719011783599854,0.6911787986755371,0.1374836415052414,0.6591846346855164,3.0875620444494127,0.0831789514033596,0.046132765119648596,131.7421686746988,127.8144578313253,107.22298850574713,150.02988505747126,129.61981566820276,174.5115207373272,153.5133819951338,151.9221411192214,125.0,121.0,101.0,145.0,125.0,169.0,149.0,145.0
138,6.9,-0.053000688552856445,0.012476682662963867,1.5077269077301025,0.1277482509613037,-1.6323964595794678,1.4728095531463623,0.6909663081169128,0.13748027384281158,0.6586406230926514,3.0877335284567304,0.08321968029374925,0.04516153060362372,131.72397094430994,127.76271186440678,107.14814814814815,150.04861111111111,129.57142857142858,174.50230414746545,153.5133819951338,151.9221411192214,125.0,121.0,101.0,145.0,125.0,169.0,149.0,145.0
139,6.95,-0.05302596092224121,0.01208353042602539,1.509000539779663,0.12697553634643555,-1.6321923732757568,1.4737670421600342,0.6907508373260498,0.1374996155500412,0.6581287384033203,3.0878669611147953,0.08325526931738512,0.044178648198229316,131.60386473429952,127.73429951690821,107.07373271889401,150.01382488479263,129.5448275862069,174.50574712643677,153.5,151.89756097560976,125.0,121.0,101.0,145.0,125.0,169.0,149.0,145.0
140,7.0,-0.05308341979980469,0.011760711669921875,1.510206937789917,0.12625503540039062,-1.6319611072540283,1.4746677875518799,0.690576434135437,0.13749690353870392,0.6576099395751953,3.088037922435082,0.08334700814387302,0.04322087850918761,131.50359712230215,127.65947242206235,107.04827586206896,150.02298850574712,129.53333333333333,174.4528735632184,153.5,151.89756097560976,125.0,121.0,101.0,145.0,125.0,169.0,149.0,145.0
141,7.050000000000001,-0.053171396255493164,0.011480569839477539,1.5113813877105713,0.12555742263793945,-1.6317050457000732,1.4755074977874756,0.6904278993606567,0.1374741941690445,0.6570801734924316,3.0882422629872175,0.08347405513948876,0.0422946802231192,131.40714285714284,127.53809523809524,107.0,150.0,129.50688073394497,174.44954128440367,153.4963503649635,151.82968369829683,125.0,121.0,101.0,145.0,125.0,169.0,149.0,145.0
142,7.1000000000000005,-0.05330920219421387,0.011170148849487305,1.51255202293396,0.12486743927001953,-1.6314117908477783,1.4762451648712158,0.6902679204940796,0.13742105662822723,0.6565736532211304,3.0884892300588955,0.08357516095551737,0.04142000691369372,131.28400954653938,127.45584725536993,107.0,150.0,129.50688073394497,174.44954128440367,153.4769975786925,151.6949152542373,125.0,121.0,101.0,145.0,125.0,169.0,149.0,145.0
143,7.15,-0.05349373817443848,0.010792255401611328,1.5137836933135986,0.12412333488464355,-1.6310837268829346,1.476844072341919,0.690077543258667,0.13734100759029388,0.6560777425765991,3.0887766807929085,0.08362122802762342,0.04063811101794687,131.26794258373207,127.34210526315789,106.94239631336406,149.9516129032258,129.4678899082569,174.42201834862385,153.41105769230768,151.59375,125.0,121.0,101.0,145.0,125.0,169.0,149.0,145.0
144,7.2,-0.05369424819946289,0.010320186614990234,1.5150701999664307,0.1233370304107666,-1.6307475566864014,1.4774010181427002,0.6898388862609863,0.13725319504737854,0.6556135416030884,3.08906801688484,0.08358802063850611,0.039881156553769816,131.17183770883054,127.25775656324582,106.9284064665127,149.9284064665127,129.44164759725402,174.41647597254004,153.38516746411483,151.50478468899522,125.0,121.0,101.0,145.0,125.0,169.0,149.0,145.0
145,7.25,-0.05394315719604492,0.009793996810913086,1.5164029598236084,0.1225137710571289,-1.6303741931915283,1.4778516292572021,0.6895771622657776,0.1371372640132904,0.6551586389541626,3.0894008839680867,0.08351153723067678,0.03918204375590791,131.15952380952382,127.23333333333333,106.80365296803653,149.8972602739726,129.42369020501138,174.39635535307517,153.36124401913875,151.42105263157896,125.0,121.0,101.0,145.0,125.0,169.0,149.0,145.0
146,7.300000000000001,-0.05412101745605469,0.009309053421020508,1.517637014389038,0.1217660903930664,-1.6300623416900635,1.4783856868743896,0.6893279552459717,0.13706333935260773,0.6547344923019409,3.0896665257254368,0.08345524925397829,0.03847051831414095,131.12056737588654,127.19385342789599,106.75854214123007,149.8610478359909,129.37045454545455,174.34318181818182,153.3117505995204,151.37649880095924,125.0,121.0,101.0,145.0,125.0,169.0,149.0,145.0
147,7.3500000000000005,-0.054284095764160156,0.008820772171020508,1.518871545791626,0.12101387977600098,-1.6297633647918701,1.4789397716522217,0.6890754699707031,0.1369989663362503,0.6543118953704834,3.0899175592680477,0.08339348628713573,0.03775386365294006,131.04716981132074,127.06367924528301,106.62780269058295,149.8251121076233,129.36073059360731,174.2945205479452,153.2829736211031,151.2757793764988,125.0,121.0,101.0,145.0,125.0,169.0,149.0,145.0
148,7.4,-0.05443739891052246,0.008350610733032227,1.5200316905975342,0.12032175064086914,-1.6294782161712646,1.4794723987579346,0.6888309121131897,0.1369391530752182,0.6539212465286255,3.090157289997991,0.08333674534930487,0.037068364648987745,131.04716981132074,127.06367924528301,106.54954954954955,149.75900900900902,129.31050228310502,174.31050228310502,153.23205741626793,151.20095693779905,125.0,121.0,101.0,145.0,125.0,169.0,149.0,145.0
149,7.45,-0.054564714431762695,0.00786137580871582,1.5211784839630127,0.11964058876037598,-1.6292164325714111,1.480046033859253,0.688572347164154,0.13689583539962769,0.6535513401031494,3.090367946621274,0.0832593187017369,0.03636713999506472,131.02364066193854,127.04964539007092,106.5,149.71300448430495,129.2648401826484,174.28995433789953,153.23205741626793,151.20095693779905,125.0,121.0,101.0,145.0,125.0,169.0,149.0,145.0
150,7.5,-0.05467653274536133,0.007421016693115234,1.5222628116607666,0.11901092529296875,-1.628967523574829,1.4806630611419678,0.6883370876312256,0.13686077296733856,0.6531834602355957,3.0905658471497888,0.08321927327756658,0.035638204905390665,130.91294117647058,126.98588235294118,106.46412556053812,149.7152466367713,129.2196796338673,174.23112128146454,153.2177033492823,151.16267942583733,125.0,121.0,101.0,145.0,125.0,169.0,149.0,145.0
151,7.550000000000001,-0.054788827896118164,0.0070073604583740234,1.523322343826294,0.11839628219604492,-1.628718614578247,1.4812538623809814,0.6881165504455566,0.13682414591312408,0.652813732624054,3.0907672459238045,0.083197646617694,0.034934979077737335,130.87822014051523,126.95081967213115,106.41741071428571,149.73883928571428,129.1258581235698,174.18993135011442,153.13809523809525,151.10238095238094,125.0,121.0,101.0,145.0,125.0,169.0,149.0,145.0
152,7.6000000000000005,-0.05485177040100098,0.006513833999633789,1.5244343280792236,0.11773324012756348,-1.6285126209259033,1.4818923473358154,0.6878483891487122,0.13682004809379578,0.6524674892425537,3.0909147968646438,0.08310196356367758,0.03423315783937869,130.82588235294116,126.95058823529412,106.33632286995515,149.695067264574,129.09655172413792,174.1448275862069,153.12114014251782,151.08076009501187,125.0,121.0,101.0,145.0,125.0,169.0,149.0,145.0
153,7.65,-0.05487990379333496,0.006111860275268555,1.525451898574829,0.1171419620513916,-1.6283342838287354,1.4825870990753174,0.6876238584518433,0.1368345469236374,0.6521146297454834,3.091036371111465,0.08307495589368559,0.03351036303384939,130.7872340425532,126.91252955082743,106.31011235955056,149.68988764044943,129.07110091743118,174.15366972477065,153.11163895486936,151.00950118764845,125.0,121.0,101.0,145.0,125.0,169.0,149.0,145.0
154,7.7,-0.05490231513977051,0.005669832229614258,1.5264804363250732,0.11654114723205566,-1.6281635761260986,1.4832618236541748,0.687377393245697,0.13685312867164612,0.6517832279205322,3.091148983114834,0.08301057140152354,0.03281170929330216,130.74170616113744,126.84597156398104,106.27964205816555,149.65548098434004,129.0481651376147,174.05045871559633,153.11163895486936,150.95724465558195,125.0,121.0,101.0,145.0,125.0,169.0,149.0,145.0
155,7.75,-0.05489063262939453,0.0052754878997802734,1.5274584293365479,0.11597466468811035,-1.6280219554901123,1.483976125717163,0.6871519088745117,0.13689111173152924,0.6514491438865662,3.091232357958617,0.08297960065583182,0.03210876341417706,130.6267605633803,126.77699530516432,106.21205357142857,149.59375,129.0481651376147,174.05045871559633,153.04728132387706,150.8770685579196,125.0,121.0,101.0,145.0,125.0,169.0,149.0,145.0
156,7.800000000000001,-0.054955482482910156,0.004881381988525391,1.5284512042999268,0.11539697647094727,-1.6278183460235596,1.484555959701538,0.6869361400604248,0.13688188791275024,0.6511061191558838,3.091389378654429,0.0829540007616999,0.03146368600695211,130.5175644028103,126.74941451990632,106.14253897550111,149.58797327394208,129.0481651376147,174.05045871559633,153.04728132387706,150.8770685579196,125.0,121.0,101.0,145.0,125.0,169.0,149.0,145.0
157,7.8500000000000005,-0.05504941940307617,0.0045697689056396484,1.5293633937835693,0.1148834228515625,-1.6275908946990967,1.4850800037384033,0.6867664456367493,0.1368524581193924,0.6507545709609985,3.091580479296713,0.08299524510059145,0.030845480690387395,130.43691588785046,126.67523364485982,106.0957683741648,149.57238307349667,129.02517162471395,174.0366132723112,153.04728132387706,150.8770685579196,125.0,121.0,101.0,145.0,125.0,169.0,149.0,145.0
158,7.9,-0.055182456970214844,0.004286289215087891,1.5302388668060303,0.11440277099609375,-1.6273324489593506,1.485546350479126,0.6866157054901123,0.13679832220077515,0.6504056453704834,3.0918090026597476,0.08306128464425777,0.030246777770401873,130.42424242424244,126.62237762237763,106.04697986577182,149.55704697986576,129.0,174.0,153.02122641509433,150.88443396226415,125.0,121.0,101.0,145.0,125.0,169.0,149.0,145.0
159,7.95,-0.05531620979309082,0.004012346267700195,1.5310938358306885,0.11394095420837402,-1.6270740032196045,1.4860222339630127,0.6864697933197021,0.13674381375312805,0.6500629186630249,3.0920373026339854,0.08313390288742634,0.029638033937455253,130.33488372093024,126.56976744186046,105.98214285714286,149.515625,129.0,174.0,152.9265402843602,150.77014218009478,125.0,121.0,101.0,145.0,125.0,169.0,149.0,145.0
160,8.0,-0.05549955368041992,0.003690958023071289,1.5320045948028564,0.11343121528625488,-1.6267764568328857,1.486384630203247,0.6863042712211609,0.13666002452373505,0.6497188806533813,3.0923107895160227,0.0831699427159296,0.029093402830551722,130.3170163170163,126.51515151515152,105.90044247787611,149.47566371681415,129.0,173.97260273972603,152.93127962085308,150.71563981042655,125.0,121.0,101.0,145.0,125.0,169.0,149.0,145.0
161,8.05,-0.05565667152404785,0.003412008285522461,1.5328328609466553,0.11298847198486328,-1.6265037059783936,1.4867770671844482,0.6861578822135925,0.13659091293811798,0.6493946313858032,3.0925590218019416,0.083233327211304,0.028544757833292817,130.26511627906976,126.46046511627907,105.80400890868597,149.456570155902,128.97482837528605,173.9633867276888,152.8841607565012,150.65484633569739,125.0,121.0,101.0,145.0,125.0,169.0,149.0,145.0
162,8.1,-0.055806636810302734,0.0031304359436035156,1.5336315631866455,0.11256837844848633,-1.626239538192749,1.487159013748169,0.686008870601654,0.13652609288692474,0.6490905284881592,3.0927983497910367,0.0832892904598513,0.028013553297805277,130.16317016317015,126.42657342657343,105.75723830734967,149.43652561247217,128.954233409611,173.92219679633868,152.84976525821597,150.58215962441315,125.0,121.0,101.0,145.0,125.0,169.0,149.0,145.0
163,8.15,-0.05595827102661133,0.002876758575439453,1.5344102382659912,0.11215829849243164,-1.6259753704071045,1.4875075817108154,0.6858749389648438,0.13645923137664795,0.6487791538238525,3.0930430936041873,0.08336484087020453,0.02751495628307015,130.1139534883721,126.37209302325581,105.75723830734967,149.43652561247217,128.95205479452054,173.89497716894977,152.84272300469485,150.5305164319249,125.0,121.0,101.0,145.0,125.0,169.0,149.0,145.0
164,8.200000000000001,-0.05612444877624512,0.0026013851165771484,1.5352089405059814,0.11173081398010254,-1.6257007122039795,1.487809419631958,0.6857311129570007,0.13638387620449066,0.6484715342521667,3.0932995764235938,0.08342170667058253,0.02704803202975845,130.0677570093458,126.23130841121495,105.66150442477876,149.41814159292036,128.95205479452054,173.89497716894977,152.7981220657277,150.5,125.0,121.0,101.0,145.0,125.0,169.0,149.0,145.0
165,8.25,-0.0563511848449707,0.002285003662109375,1.5360071659088135,0.11131119728088379,-1.625380277633667,1.488011121749878,0.6855720281600952,0.13627207279205322,0.6481910943984985,3.0936073948620595,0.08344803468821901,0.026620559716728453,130.0,126.17209302325581,105.61453744493392,149.41850220264317,128.8733031674208,173.8212669683258,152.78922716627633,150.4262295081967,125.0,121.0,101.0,145.0,125.0,169.0,149.0,145.0
166,8.3,-0.056514739990234375,0.001970052719116211,1.536769151687622,0.11091399192810059,-1.6251156330108643,1.4882776737213135,0.6854066252708435,0.13619883358478546,0.6479315757751465,3.093853223737216,0.08346238225056624,0.026190816035129166,130.0,126.14452214452214,105.57743362831859,149.38716814159292,128.7982062780269,173.7645739910314,152.78688524590163,150.37236533957847,125.0,121.0,101.0,145.0,125.0,169.0,149.0,145.0
167,8.35,-0.05660581588745117,0.0016553401947021484,1.5374948978424072,0.11054277420043945,-1.6249125003814697,1.4886505603790283,0.6852331161499023,0.13616952300071716,0.6476937532424927,3.0940273727232768,0.08346696321817748,0.025727469883032525,129.97429906542055,126.1355140186916,105.56953642384106,149.36203090507726,128.76733780760625,173.7158836689038,152.7353629976581,150.3559718969555,125.0,121.0,101.0,145.0,125.0,169.0,149.0,145.0
168,8.4,-0.05669856071472168,0.0013377666473388672,1.5382497310638428,0.11014413833618164,-1.624706506729126,1.4890248775482178,0.68505859375,0.1361396312713623,0.6474406719207764,3.094204743329329,0.08347080268969208,0.02526088202468294,129.91183294663574,126.08816705336427,105.45575221238938,149.34734513274336,128.703125,173.71428571428572,152.7096018735363,150.31381733021078,125.0,121.0,101.0,145.0,125.0,169.0,149.0,145.0
169,8.450000000000001,-0.056760549545288086,0.0010378360748291016,1.5389339923858643,0.10980343818664551,-1.6245291233062744,1.4894330501556396,0.6848891973495483,0.13612693548202515,0.6472170352935791,3.094350711907621,0.08347990623713616,0.024790374372982156,129.88837209302326,126.07441860465116,105.40969162995594,149.33920704845815,128.62971175166297,173.70066518847005,152.68309859154928,150.31924882629107,125.0,121.0,101.0,145.0,125.0,169.0,149.0,145.0
170,8.5,-0.056798458099365234,0.0007355213165283203,1.5396015644073486,0.10947656631469727,-1.6243722438812256,1.4898884296417236,0.684715747833252,0.1361294686794281,0.6470046639442444,3.09447167812417,0.08348360085232327,0.024297407958535296,129.87935034802786,126.04872389791183,105.35242290748899,149.33259911894274,128.56666666666666,173.6977777777778,152.67840375586854,150.21361502347418,125.0,121.0,101.0,145.0,125.0,169.0,149.0,145.0
171,8.55,-0.056760549545288086,0.00038695335388183594,1.5402486324310303,0.10916280746459961,-1.6242830753326416,1.4904234409332275,0.68450927734375,0.13617853820323944,0.6468365788459778,3.094514266449249,0.0834346728816057,0.02379978136714549,129.8259860788863,126.05568445475637,105.35242290748899,149.33259911894274,128.5501113585746,173.67706013363028,152.60093896713616,150.15962441314554,125.0,121.0,101.0,145.0,125.0,169.0,149.0,145.0
172,8.6,-0.056737661361694336,-4.0531158447265625e-06,1.540971040725708,0.1087806224822998,-1.624180555343628,1.4909098148345947,0.6842827200889587,0.13621944189071655,0.6466529369354248,3.094571877987365,0.0833524042039519,0.023334932726120413,129.77441860465117,126.0046511627907,105.32671081677704,149.32671081677705,128.5501113585746,173.67706013363028,152.58962264150944,150.1179245283019,125.0,121.0,101.0,145.0,125.0,169.0,149.0,145.0
173,8.65,-0.056740522384643555,-0.0004100799560546875,1.5416991710662842,0.10839486122131348,-1.6240589618682861,1.4913384914398193,0.6840513944625854,0.13624460995197296,0.6464762091636658,3.0946527070630476,0.08325844718184137,0.02290259321358694,129.65429234338748,125.9860788863109,105.30616740088105,149.34361233480178,128.52561247216036,173.6325167037862,152.52482269503545,150.096926713948,125.0,121.0,101.0,145.0,125.0,169.0,149.0,145.0
174,8.700000000000001,-0.05677318572998047,-0.0008022785186767578,1.542454481124878,0.10797953605651855,-1.6239111423492432,1.491697072982788,0.6838313341140747,0.1362513154745102,0.6462741494178772,3.0947662414547317,0.08317820228285087,0.02251072422246925,129.61484918793502,125.94895591647332,105.23580786026201,149.27292576419214,128.5,173.62666666666667,152.40284360189574,150.07109004739337,125.0,121.0,101.0,145.0,125.0,169.0,149.0,145.0
175,8.75,-0.05687427520751953,-0.0012271404266357422,1.5432722568511963,0.10751724243164062,-1.6237056255340576,1.4919712543487549,0.6836022734642029,0.1362178921699524,0.6460565328598022,3.0949426882462845,0.0830802642059692,0.022134627480308915,129.49769585253455,125.92396313364056,105.1101321585903,149.30396475770925,128.5,173.62666666666667,152.33806146572104,150.0212765957447,125.0,121.0,101.0,145.0,125.0,169.0,149.0,145.0
176,8.8,-0.05697202682495117,-0.0016112327575683594,1.544032335281372,0.10709595680236816,-1.6235058307647705,1.4922044277191162,0.683394193649292,0.13618485629558563,0.6458467245101929,3.0951196960239407,0.08300811253565987,0.021803194112881983,129.4334862385321,125.87614678899082,105.03736263736263,149.2989010989011,128.47661469933186,173.61469933184856,152.24,150.0,125.0,121.0,101.0,145.0,125.0,169.0,149.0,145.0
177,8.85,-0.05711030960083008,-0.002026081085205078,1.5448334217071533,0.10664153099060059,-1.6232726573944092,1.4923665523529053,0.6831748485565186,0.13612818717956543,0.6456338167190552,3.0953333111791985,0.08291416511809112,0.021502632377087168,129.36697247706422,125.82798165137615,104.98454746136865,149.3002207505519,128.36363636363637,173.58980044345898,152.21830985915494,149.98356807511738,125.0,121.0,101.0,145.0,125.0,169.0,149.0,145.0
178,8.9,-0.05721926689147949,-0.002460002899169922,1.5456187725067139,0.1062002182006836,-1.6230666637420654,1.4925715923309326,0.6829414367675781,0.13608992099761963,0.6454429626464844,3.095514583791047,0.08279747867450918,0.021188582582375676,129.33179723502303,125.80645161290323,104.86563876651982,149.2863436123348,128.36363636363637,173.58980044345898,152.20843091334893,149.95784543325527,125.0,121.0,101.0,145.0,125.0,169.0,149.0,145.0
179,8.950000000000001,-0.057295799255371094,-0.0028264522552490234,1.546294927597046,0.10584592819213867,-1.6228892803192139,1.492814302444458,0.6827400326728821,0.13606888055801392,0.6452702283859253,3.0956675516713315,0.08272863215718214,0.020869294066346734,129.30574712643678,125.74942528735632,104.77827050997783,149.22172949002217,128.33777777777777,173.58444444444444,152.19392523364485,149.93457943925233,125.0,121.0,101.0,145.0,125.0,169.0,149.0,145.0
180,9.0,-0.057383060455322266,-0.0031599998474121094,1.546910047531128,0.10554695129394531,-1.6227056980133057,1.4930579662322998,0.6825568675994873,0.13604037463665009,0.6451108455657959,3.09582944874287,0.08268594936880823,0.020538317267426318,129.2551724137931,125.73793103448276,104.75831485587584,149.1840354767184,128.2806236080178,173.54788418708242,152.19392523364485,149.93457943925233,125.0,121.0,101.0,145.0,125.0,169.0,149.0,145.0
181,9.05,-0.05746150016784668,-0.003448486328125,1.5474865436553955,0.10527873039245605,-1.622528314590454,1.4933288097381592,0.6823959946632385,0.13601583242416382,0.6449440121650696,3.095985380156138,0.08267931321762285,0.020188505452337493,129.19585253456222,125.67972350230414,104.71302428256071,149.16114790286974,128.24833702882484,173.51441241685143,152.15887850467288,149.9018691588785,125.0,121.0,101.0,145.0,125.0,169.0,149.0,145.0
182,9.1,-0.05755472183227539,-0.0037374496459960938,1.5480597019195557,0.10501337051391602,-1.6223399639129639,1.493572473526001,0.6822366118431091,0.13598240911960602,0.6447796821594238,3.0961545701401683,0.08267241917466159,0.019853143368405223,129.16859122401848,125.67898383371825,104.69603524229075,149.1409691629956,128.24833702882484,173.51441241685143,152.1448598130841,149.85046728971963,125.0,121.0,101.0,145.0,125.0,169.0,149.0,145.0
183,9.15,-0.05764651298522949,-0.004026651382446289,1.5486323833465576,0.10474610328674316,-1.6221535205841064,1.493802785873413,0.6820770502090454,0.1359495371580124,0.644615650177002,3.096322593562467,0.08266340369702792,0.01953043749254952,129.13793103448276,125.64367816091954,104.67252747252748,149.07252747252747,128.19426048565123,173.44812362030905,152.13286713286712,149.78787878787878,125.0,121.0,101.0,145.0,125.0,169.0,149.0,145.0
184,9.200000000000001,-0.05771040916442871,-0.004295825958251953,1.5491821765899658,0.10449433326721191,-1.621990442276001,1.4940788745880127,0.6819249391555786,0.135933056473732,0.6444521546363831,3.096464329540135,0.08266707687346554,0.019190610336228712,129.06849315068493,125.57534246575342,104.63676148796499,149.054704595186,128.16814159292036,173.4513274336283,152.1002331002331,149.71095571095572,125.0,121.0,101.0,145.0,125.0,169.0,149.0,145.0
185,9.25,-0.05780458450317383,-0.004613637924194336,1.5497629642486572,0.1042180061340332,-1.6218063831329346,1.49428391456604,0.6817501783370972,0.1358993500471115,0.644302487373352,3.0966306224773468,0.08263056063018759,0.018891654280566394,129.01601830663617,125.52173913043478,104.58643326039387,149.03938730853392,128.16814159292036,173.4513274336283,152.07441860465116,149.7186046511628,125.0,121.0,101.0,145.0,125.0,169.0,149.0,145.0
186,9.3,-0.057945966720581055,-0.004915475845336914,1.5503284931182861,0.10395932197570801,-1.6215832233428955,1.4944226741790771,0.6815897226333618,0.13583631813526154,0.644151508808136,3.096842022830908,0.08261156948877768,0.01861177058315555,128.9954128440367,125.53899082568807,104.54803493449782,148.97816593886463,128.1419068736142,173.450110864745,152.07407407407408,149.66435185185185,125.0,121.0,101.0,145.0,125.0,169.0,149.0,145.0
187,9.35,-0.05806303024291992,-0.0051801204681396484,1.550846815109253,0.10373687744140625,-1.6213810443878174,1.494600534439087,0.6814456582069397,0.13578711450099945,0.6440028548240662,3.0970313272965955,0.0826194506955794,0.01831629803102668,128.94736842105263,125.51716247139588,104.52297592997812,148.98687089715537,128.06236080178175,173.42093541202672,152.04387990762126,149.60508083140877,125.0,121.0,101.0,145.0,125.0,169.0,149.0,145.0
188,9.4,-0.05813765525817871,-0.005486011505126953,1.5513837337493896,0.10349440574645996,-1.621216058731079,1.4948184490203857,0.6812755465507507,0.13576483726501465,0.6438719630241394,3.0971765627576686,0.08258503597590348,0.01802460026733436,128.90160183066362,125.48970251716247,104.49890590809628,148.9737417943107,127.99111111111111,173.41555555555556,151.98152424942262,149.554272517321,125.0,121.0,101.0,145.0,125.0,169.0,149.0,145.0
189,9.450000000000001,-0.058217763900756836,-0.005859375,1.5519826412200928,0.10320043563842773,-1.6210482120513916,1.4950168132781982,0.6810705661773682,0.1357409507036209,0.6437501311302185,3.0973224508502857,0.08249465498886203,0.017745834942764726,128.872437357631,125.44874715261959,104.47598253275109,148.93449781659388,127.94013303769401,173.3569844789357,151.97921478060047,149.51732101616628,125.0,121.0,101.0,145.0,125.0,169.0,149.0,145.0
190,9.5,-0.05827069282531738,-0.0062160491943359375,1.5525543689727783,0.10292649269104004,-1.620903730392456,1.4952576160430908,0.6808711886405945,0.13573291897773743,0.6436325311660767,3.097442054511993,0.08241386845945378,0.01745205343737502,128.82915717539862,125.43963553530752,104.41484716157206,148.882096069869,127.93141592920354,173.33185840707964,151.95852534562212,149.5,125.0,121.0,101.0,145.0,125.0,169.0,149.0,145.0
191,9.55,-0.05832481384277344,-0.006505489349365234,1.5530645847320557,0.10270166397094727,-1.6207573413848877,1.4955060482025146,0.6807079315185547,0.13572187721729279,0.6435056924819946,3.09756713381699,0.08238815459557337,0.017148878281749668,128.7648401826484,125.40639269406392,104.3646288209607,148.86681222707423,127.91130820399113,173.31485587583148,151.8726851851852,149.45833333333334,125.0,121.0,101.0,145.0,125.0,169.0,149.0,145.0
192,9.600000000000001,-0.05841255187988281,-0.006821870803833008,1.553619146347046,0.10243988037109375,-1.6205837726593018,1.4956905841827393,0.680534303188324,0.13569138944149017,0.6433713436126709,3.0977235283507016,0.08234312954844633,0.016876998963243385,128.67198177676536,125.38041002277905,104.35448577680525,148.84245076586433,127.88495575221239,173.31415929203538,151.8726851851852,149.45833333333334,125.0,121.0,101.0,145.0,125.0,169.0,149.0,145.0
193,9.65,-0.058547258377075195,-0.00710296630859375,1.554157018661499,0.10219335556030273,-1.620370626449585,1.4958088397979736,0.68038409948349,0.13563156127929688,0.6432226896286011,3.097927600959938,0.08233269110473154,0.016623991156564783,128.62272727272727,125.35454545454546,104.33333333333333,148.8267543859649,127.8470066518847,173.27050997782706,151.85416666666666,149.40740740740742,125.0,121.0,101.0,145.0,125.0,169.0,149.0,145.0
194,9.700000000000001,-0.05866122245788574,-0.007380485534667969,1.5546882152557373,0.10194802284240723,-1.6201756000518799,1.495943307876587,0.6802339553833008,0.13558396697044373,0.6430763602256775,3.098111685079195,0.08232009637618759,0.016375879926717195,128.60681818181817,125.31590909090909,104.28571428571429,148.7868131868132,127.8470066518847,173.27050997782706,151.82909930715937,149.3972286374134,125.0,121.0,101.0,145.0,125.0,169.0,149.0,145.0
195,9.75,-0.05880475044250488,-0.007647991180419922,1.5552055835723877,0.10171842575073242,-1.6199572086334229,1.496044397354126,0.6800920963287354,0.1355186551809311,0.6429309844970703,3.098322975213315,0.08231944367847248,0.01613220648121449,128.5452488687783,125.24660633484163,104.24835164835164,148.74945054945056,127.80931263858093,173.2439024390244,151.78290993071593,149.36951501154735,125.0,121.0,101.0,145.0,125.0,169.0,149.0,145.0
196,9.8,-0.058989524841308594,-0.007931947708129883,1.5557444095611572,0.10147452354431152,-1.6197054386138916,1.4960873126983643,0.6799459457397461,0.13542866706848145,0.6427836418151855,3.098571351464458,0.08230956816800211,0.015905405294256676,128.5452488687783,125.24660633484163,104.21318681318681,148.71428571428572,127.78318584070796,173.24778761061947,151.76958525345623,149.33870967741936,125.0,121.0,101.0,145.0,125.0,169.0,149.0,145.0
197,9.850000000000001,-0.0591588020324707,-0.008214712142944336,1.5562670230865479,0.10124373435974121,-1.6194679737091064,1.4961578845977783,0.6797987818717957,0.13534799218177795,0.642645001411438,3.098803499303938,0.08229776100762018,0.0156650923330596,128.5,125.22171945701358,104.1159737417943,148.68271334792124,127.75831485587584,173.23946784922396,151.76036866359448,149.28801843317973,125.0,121.0,101.0,145.0,125.0,169.0,149.0,145.0
198,9.9,-0.05929446220397949,-0.008449792861938477,1.556703805923462,0.10108184814453125,-1.619260549545288,1.496267557144165,0.6796724200248718,0.13528604805469513,0.642525315284729,3.099003906594597,0.08231700582741552,0.015421097540706244,128.48299319727892,125.14739229024943,104.08951965065502,148.6812227074236,127.70222222222222,173.21777777777777,151.73563218390805,149.29885057471265,125.0,121.0,101.0,145.0,125.0,169.0,149.0,145.0
199,9.950000000000001,-0.05944561958312988,-0.00872802734375,1.5571653842926025,0.10090422630310059,-1.6190426349639893,1.4963648319244385,0.6795254945755005,0.13521596789360046,0.6424195766448975,3.099213962878507,0.08230230302630152,0.015173615861687948,128.4162895927602,125.15610859728507,104.02178649237473,148.66666666666666,127.65929203539822,173.18805309734512,151.67972350230414,149.26497695852535,125.0,121.0,101.0,145.0,125.0,169.0,149.0,145.0
200,10.0,-0.05957221984863281,-0.008972644805908203,1.5575969219207764,0.10074543952941895,-1.6188442707061768,1.4964864253997803,0.6793935298919678,0.13515961170196533,0.6423091292381287,3.0994035657812575,0.08231000370491476,0.014925661636899557,128.3514739229025,125.13832199546485,103.97385620915033,148.64923747276688,127.62030905077263,173.1280353200883,151.6712643678161,149.23908045977012,125.0,121.0,101.0,145.0,125.0,169.0,149.0,145.0
201,10.05,-0.0596623420715332,-0.009155035018920898,1.5579636096954346,0.10063338279724121,-1.6186764240264893,1.4966542720794678,0.6792902946472168,0.13512328267097473,0.642195463180542,3.0995626639825886,0.08236303846582885,0.01466824153315818,128.2654462242563,125.09839816933638,103.85281385281385,148.6818181818182,127.62030905077263,173.1280353200883,151.64449541284404,149.2408256880734,125.0,121.0,101.0,145.0,125.0,169.0,149.0,145.0
202,10.100000000000001,-0.059746503829956055,-0.009275197982788086,1.5582377910614014,0.10059571266174316,-1.6185152530670166,1.496807336807251,0.6792190074920654,0.13508830964565277,0.6420947313308716,3.099719001075828,0.08246085923217665,0.014431752299302339,128.24145785876993,125.0501138952164,103.82646420824295,148.68112798264642,127.56167400881057,173.12334801762114,151.6183908045977,149.183908045977,125.0,121.0,101.0,145.0,125.0,169.0,149.0,145.0
203,10.15,-0.05981755256652832,-0.009463310241699219,1.5585477352142334,0.10052871704101562,-1.61836838722229,1.4969627857208252,0.6791104078292847,0.13506285846233368,0.6420190334320068,3.0998565555543287,0.0824979293354988,0.0142056011690888,128.19679633867275,125.03203661327231,103.82034632034632,148.65584415584416,127.53947368421052,173.0811403508772,151.54166666666666,149.15972222222223,125.0,121.0,101.0,145.0,125.0,169.0,149.0,145.0
204,10.200000000000001,-0.05992007255554199,-0.009672164916992188,1.5589182376861572,0.10041022300720215,-1.6181938648223877,1.497070550918579,0.6789947152137756,0.13501927256584167,0.6419218182563782,3.1000253732818304,0.08252278010691369,0.013996147743897017,128.12442396313364,125.0,103.77223427331887,148.60303687635576,127.5219298245614,173.0328947368421,151.3810623556582,149.13856812933025,125.0,121.0,101.0,145.0,125.0,169.0,149.0,145.0
205,10.25,-0.060105323791503906,-0.009907960891723633,1.559387445449829,0.10021018981933594,-1.6179468631744385,1.4970643520355225,0.6788751482963562,0.13492675125598907,0.6417843103408813,3.100274655755438,0.082538568410327,0.013817882421773208,128.10114942528736,124.98620689655172,103.74025974025975,148.6125541125541,127.49671772428884,173.0262582056893,151.36405529953916,149.11751152073734,125.0,121.0,101.0,145.0,125.0,169.0,149.0,145.0
206,10.3,-0.06027388572692871,-0.010152816772460938,1.5598504543304443,0.10001349449157715,-1.6177160739898682,1.4970715045928955,0.6787484884262085,0.13484472036361694,0.6416569948196411,3.100506298185862,0.08254248909936476,0.013642776178933277,128.02522935779817,124.9908256880734,103.66884531590414,148.599128540305,127.4780701754386,172.9671052631579,151.35334872979215,149.09237875288684,125.0,121.0,101.0,145.0,125.0,169.0,149.0,145.0
207,10.350000000000001,-0.0603945255279541,-0.010295629501342773,1.5602104663848877,0.09989190101623535,-1.6175243854522705,1.4971354007720947,0.6786702275276184,0.1347886323928833,0.6415224671363831,3.1006995412714544,0.08262170406454655,0.013459680281003021,128.0,125.0,103.66884531590414,148.599128540305,127.47483588621444,172.94091903719914,151.2046511627907,149.0,125.0,121.0,101.0,145.0,125.0,169.0,149.0,145.0
208,10.4,-0.06054210662841797,-0.010549545288085938,1.560730218887329,0.09963154792785645,-1.6173088550567627,1.4971201419830322,0.6785376071929932,0.13471974432468414,0.6413691639900208,3.100915759248135,0.08261179195386185,0.013327904925130606,128.0,125.0,103.58747300215983,148.58747300215984,127.43763676148797,172.93216630196937,151.2046511627907,149.0,125.0,121.0,101.0,145.0,125.0,169.0,149.0,145.0
209,10.450000000000001,-0.06063389778137207,-0.010757684707641602,1.561164140701294,0.09944033622741699,-1.6171414852142334,1.497194528579712,0.6784225106239319,0.1346827894449234,0.6412359476089478,3.1010790873024456,0.08263003833889374,0.013162661630971732,128.0,124.97260273972603,103.58747300215983,148.58747300215984,127.41538461538461,172.8901098901099,151.19025522041764,148.9767981438515,125.0,121.0,101.0,145.0,125.0,169.0,149.0,145.0
210,10.5,-0.06070542335510254,-0.010987043380737305,1.561614751815796,0.09923267364501953,-1.6169912815093994,1.497290849685669,0.6782939434051514,0.1346585750579834,0.6411074995994568,3.1012216462512505,0.08262851975557213,0.012994629121659253,128.0091533180778,124.94736842105263,103.58747300215983,148.58747300215984,127.3898678414097,172.89647577092512,151.146511627907,148.94418604651162,125.0,121.0,101.0,145.0,125.0,169.0,149.0,145.0
211,10.55,-0.06078958511352539,-0.011297225952148438,1.5621392726898193,0.09896612167358398,-1.6168315410614014,1.4973604679107666,0.6781244277954102,0.13462916016578674,0.6409886479377747,3.101370766824692,0.08256114263244511,0.01284028636044817,127.9816933638444,124.90160183066362,103.50755939524838,148.52483801295895,127.3568281938326,172.8590308370044,151.146511627907,148.94418604651162,125.0,121.0,101.0,145.0,125.0,169.0,149.0,145.0
212,10.600000000000001,-0.06086158752441406,-0.011534690856933594,1.5625722408294678,0.09877729415893555,-1.6166832447052002,1.4974730014801025,0.6779916882514954,0.13460442423820496,0.6408758759498596,3.1015105332003063,0.08255205430575198,0.012656297852610113,127.86332574031891,124.74715261958998,103.5,148.5,127.31497797356828,172.84801762114537,151.12064965197214,148.95127610208817,125.0,121.0,101.0,145.0,125.0,169.0,149.0,145.0
213,10.65,-0.06106376647949219,-0.011818170547485352,1.5630652904510498,0.09855198860168457,-1.6164295673370361,1.4974048137664795,0.6778490543365479,0.1345028430223465,0.6407567858695984,3.1017689016384957,0.08252102442738643,0.01252350300542152,127.86332574031891,124.74715261958998,103.46320346320347,148.53679653679654,127.24282560706402,172.75717439293598,151.12037037037038,148.92361111111111,125.0,121.0,101.0,145.0,125.0,169.0,149.0,145.0
214,10.700000000000001,-0.06114077568054199,-0.012084245681762695,1.563502550125122,0.09836030006408691,-1.6162807941436768,1.4974992275238037,0.6777019500732422,0.13447584211826324,0.6406596899032593,3.1019070956212245,0.08248525768928011,0.012351481965162597,127.76801801801801,124.68243243243244,103.38311688311688,148.47402597402598,127.21681415929204,172.75221238938053,151.12037037037038,148.92361111111111,125.0,121.0,101.0,145.0,125.0,169.0,149.0,145.0
215,10.75,-0.0612635612487793,-0.012271642684936523,1.5638549327850342,0.09824466705322266,-1.6160948276519775,1.4975440502166748,0.6776010394096375,0.1344192624092102,0.6405593156814575,3.102092806814874,0.08251905990545548,0.012185305783478281,127.74266365688487,124.69074492099323,103.35,148.45652173913044,127.21681415929204,172.75221238938053,151.09907834101384,148.88248847926266,125.0,121.0,101.0,145.0,125.0,169.0,149.0,145.0
216,10.8,-0.061377763748168945,-0.012445926666259766,1.5641915798187256,0.09813904762268066,-1.6159164905548096,1.497589349746704,0.6775059700012207,0.13436679542064667,0.6404592990875244,3.1022710660424186,0.08256132248200783,0.012026362476538252,127.71621621621621,124.69369369369369,103.3030303030303,148.4805194805195,127.2114537444934,172.70264317180616,151.09885057471266,148.80459770114942,125.0,121.0,101.0,145.0,125.0,169.0,149.0,145.0
217,10.850000000000001,-0.06140542030334473,-0.012594938278198242,1.564471960067749,0.09806704521179199,-1.6158125400543213,1.4977152347564697,0.6774150729179382,0.1343655288219452,0.6403782367706299,3.102368506303313,0.08260762326619625,0.011872614056459153,127.68988764044944,124.68988764044944,103.3030303030303,148.4805194805195,127.15929203539822,172.70353982300884,151.06004618937644,148.77136258660508,125.0,121.0,101.0,145.0,125.0,169.0,149.0,145.0
218,10.9,-0.0614323616027832,-0.01279902458190918,1.5648066997528076,0.09794902801513672,-1.6157095432281494,1.497833013534546,0.6772950887680054,0.13436612486839294,0.640300989151001,3.1024620904777107,0.082607663752549,0.011728612556369918,127.65765765765765,124.62612612612612,103.25541125541126,148.45887445887445,127.14128035320088,172.68432671081678,151.01154734411085,148.74826789838338,125.0,121.0,101.0,145.0,125.0,169.0,149.0,145.0
219,10.950000000000001,-0.06148862838745117,-0.013026714324951172,1.5651609897613525,0.09781765937805176,-1.615584135055542,1.4979069232940674,0.6771661043167114,0.13434939086437225,0.6402280330657959,3.1025811504792524,0.08259092934132883,0.011598573268687157,127.60585585585585,124.62387387387388,103.22077922077922,148.42207792207793,127.14128035320088,172.68432671081678,151.00691244239633,148.72119815668202,125.0,121.0,101.0,145.0,125.0,169.0,149.0,145.0
220,11.0,-0.06155681610107422,-0.013206720352172852,1.5654733180999756,0.09772086143493652,-1.615448236465454,1.4979612827301025,0.6770634651184082,0.13432399928569794,0.6401478052139282,3.1027147088380227,0.08261389210325881,0.0114761251876845,127.5427927927928,124.57882882882883,103.22077922077922,148.42207792207793,127.09492273730685,172.66887417218544,151.0,148.6697247706422,125.0,121.0,101.0,145.0,125.0,169.0,149.0,145.0
221,11.05,-0.061631202697753906,-0.013422727584838867,1.5658113956451416,0.09760141372680664,-1.6153099536895752,1.497986078262329,0.6769429445266724,0.13429592549800873,0.6400766372680664,3.1028510050849283,0.08260580177976343,0.011376941694794985,127.52370203160271,124.55981941309255,103.12931034482759,148.39439655172413,127.06858407079646,172.66814159292036,150.98169336384439,148.64988558352402,125.0,121.0,101.0,145.0,125.0,169.0,149.0,145.0
222,11.100000000000001,-0.06167936325073242,-0.013604402542114258,1.5660812854766846,0.09753918647766113,-1.6151955127716064,1.4980528354644775,0.6768373847007751,0.13428229093551636,0.6400226354598999,3.1029616485553975,0.08262008655764763,0.011262786584225668,127.52370203160271,124.55981941309255,103.10129310344827,148.38793103448276,127.0021978021978,172.63736263736263,150.98169336384439,148.64988558352402,125.0,121.0,101.0,145.0,125.0,169.0,149.0,145.0
223,11.15,-0.06167292594909668,-0.013776779174804688,1.5663182735443115,0.09750056266784668,-1.6151268482208252,1.49820876121521,0.6767305135726929,0.13430114090442657,0.6399821639060974,3.1030186535961155,0.0826350680917431,0.011113356223269503,127.46412556053812,124.53587443946188,103.07775377969763,148.39956803455723,127.0021978021978,172.63736263736263,150.91363636363636,148.65681818181818,125.0,121.0,101.0,145.0,125.0,169.0,149.0,145.0
224,11.200000000000001,-0.061722517013549805,-0.013967275619506836,1.5666029453277588,0.09742450714111328,-1.6150104999542236,1.4982740879058838,0.6766204833984375,0.1342868208885193,0.6399250030517578,3.1031306432407373,0.08264167641121543,0.01099869242119564,127.44044943820225,124.52359550561798,103.02580645161291,148.4,126.92543859649123,172.5482456140351,150.83561643835617,148.60502283105023,125.0,121.0,101.0,145.0,125.0,169.0,149.0,145.0
225,11.25,-0.061699628829956055,-0.014178276062011719,1.5669009685516357,0.09732627868652344,-1.614955186843872,1.498429536819458,0.6764923930168152,0.13431663811206818,0.6398748159408569,3.103172447938782,0.08262057322007849,0.01086614643147414,127.42792792792793,124.5,102.97408207343412,148.40172786177106,126.87719298245614,172.53728070175438,150.83561643835617,148.60502283105023,125.0,121.0,101.0,145.0,125.0,169.0,149.0,145.0
226,11.3,-0.061641693115234375,-0.014381647109985352,1.567157506942749,0.09726214408874512,-1.6149299144744873,1.4986374378204346,0.6763644814491272,0.1343669593334198,0.639844536781311,3.1031789113208195,0.08259922910586692,0.01071562017238612,127.38288288288288,124.48648648648648,102.96753246753246,148.37662337662337,126.83039647577093,172.5418502202643,150.77803203661327,148.56064073226545,125.0,121.0,101.0,145.0,125.0,169.0,149.0,145.0
