AI-SPARC/uncalibrated-visual-servoing/results/data/4_feat_ibvs_tr.csv
,t,q_1,q_2,q_3,q_4,q_5,q_6,camera_x,camera_y,camera_z,camera_roll,camera_pitch,camera_yaw,f_1,f_2,f_3,f_4,f_5,f_6,f_7,f_8,desired_f_1,desired_f_2,desired_f_3,desired_f_4,desired_f_5,desired_f_6,desired_f_7,desired_f_8
0,0.0,9.298324584960938e-06,-0.39263248443603516,1.963494062423706,7.200241088867188e-05,-1.5707952976226807,2.384185791015625e-07,0.4463264048099518,0.16906212270259857,0.5921618342399597,-3.141307778251266,0.00012221750102738726,1.5708379755145234,151.4127579737336,65.55722326454034,125.41947565543072,39.58052434456929,99.43609022556392,65.56390977443608,125.41275797373358,91.55722326454034,125.0,121.0,101.0,145.0,125.0,169.0,149.0,145.0
1,0.05,0.00379180908203125,-0.3909633159637451,1.9372875690460205,0.019928455352783203,-1.5718739032745361,0.02624058723449707,0.4468497335910797,0.1708519458770752,0.6071367263793945,3.1371203404247403,0.0010732468534580793,1.5483764007560192,149.82965931863728,67.84769539078157,123.97782258064517,43.104838709677416,99.22937625754527,68.95975855130784,125.06024096385542,93.75502008032129,125.0,121.0,101.0,145.0,125.0,169.0,149.0,145.0
2,0.1,0.007695198059082031,-0.3885929584503174,1.910426378250122,0.03945136070251465,-1.573256254196167,0.05314755439758301,0.44743186235427856,0.1726824939250946,0.6222350001335144,3.1320455947722268,0.0020685255104249773,1.5253567513751347,148.3787234042553,70.12340425531914,122.57446808510639,46.69787234042553,99.07838983050847,72.35593220338983,124.77215189873418,95.68565400843882,125.0,121.0,101.0,145.0,125.0,169.0,149.0,145.0
3,0.15000000000000002,0.011976480484008789,-0.38546156883239746,1.8831989765167236,0.058530569076538086,-1.5751287937164307,0.08093976974487305,0.4480709433555603,0.17465366423130035,0.6372652053833008,3.126842946368608,0.0032670721604120805,1.5018128179763761,146.73214285714286,72.36830357142857,121.20674157303371,50.17977528089887,98.77111111111111,75.59555555555555,124.50332594235033,97.8270509977827,125.0,121.0,101.0,145.0,125.0,169.0,149.0,145.0
4,0.2,0.01640605926513672,-0.3816092014312744,1.8556029796600342,0.07726740837097168,-1.5773627758026123,0.10942697525024414,0.4487795829772949,0.17667284607887268,0.6522295475006104,3.1215393602285344,0.0045219725417546324,1.4777016245897512,145.22823529411764,74.6,119.9,53.635714285714286,98.72641509433963,78.91745283018868,124.1355140186916,99.97429906542057,125.0,121.0,101.0,145.0,125.0,169.0,149.0,145.0
5,0.25,0.020867109298706055,-0.3772857189178467,1.8279435634613037,0.0954892635345459,-1.579918622970581,0.13854527473449707,0.4494664967060089,0.1786898821592331,0.6670428514480591,3.116001696000366,0.005763597965872718,1.4529688267040173,143.87128712871288,76.72277227722772,118.48641975308642,56.92098765432099,98.48648648648648,82.02457002457002,123.81508515815085,102.0,125.0,121.0,101.0,145.0,125.0,169.0,149.0,145.0
6,0.30000000000000004,0.025556325912475586,-0.37229037284851074,1.8000938892364502,0.11329436302185059,-1.5829112529754639,0.16831040382385254,0.4502200782299042,0.1807854026556015,0.6816795468330383,3.110366843924693,0.007106290308781802,1.4277895488976957,142.47792207792207,78.76883116883117,117.24869109947645,60.15183246073298,98.2609819121447,85.16795865633075,123.51275510204081,104.05102040816327,125.0,121.0,101.0,145.0,125.0,169.0,149.0,145.0
7,0.35000000000000003,0.030396461486816406,-0.36690831184387207,1.7724077701568604,0.1304924488067627,-1.586315393447876,0.19863367080688477,0.4509313404560089,0.18292421102523804,0.6960418224334717,3.104492270041966,0.008487242913876434,1.4021709043791228,141.1198910081744,80.96185286103542,115.97229916897507,63.3185595567867,98.0,88.13623978201635,123.22432432432433,106.0,125.0,121.0,101.0,145.0,125.0,169.0,149.0,145.0
8,0.4,0.03544116020202637,-0.3608427047729492,1.7445447444915771,0.14736509323120117,-1.5901572704315186,0.22957134246826172,0.4517557919025421,0.18513469398021698,0.7101865410804749,3.098581251800824,0.009955496916872593,1.3761082815286927,139.76770538243625,83.04532577903683,114.80635838150289,66.36127167630057,97.76966292134831,91.1067415730337,122.85915492957747,108.0,125.0,121.0,101.0,145.0,125.0,169.0,149.0,145.0
9,0.45,0.040540218353271484,-0.35446906089782715,1.716907262802124,0.16371393203735352,-1.5943634510040283,0.2609524726867676,0.452546089887619,0.1873500943183899,0.7240276336669922,3.0924606972993396,0.011394768705913267,1.3496195538828368,138.43026706231453,85.1513353115727,113.5,69.5,97.57478005865103,94.09970674486803,122.63112391930835,109.95677233429394,125.0,121.0,101.0,145.0,125.0,169.0,149.0,145.0
10,0.5,0.045697927474975586,-0.3475987911224365,1.689485788345337,0.17957282066345215,-1.5989525318145752,0.2927708625793457,0.45343536138534546,0.1895759105682373,0.7374750375747681,3.086309964638058,0.012861347922305866,1.3227159901968473,137.16615384615383,87.1876923076923,112.32298136645963,72.4472049689441,97.25679758308156,96.94259818731118,122.30211480362537,111.83987915407855,125.0,121.0,101.0,145.0,125.0,169.0,149.0,145.0
11,0.55,0.05104684829711914,-0.3403165340423584,1.6623284816741943,0.19495725631713867,-1.6039822101593018,0.3250279426574707,0.4543755054473877,0.19186797738075256,0.7505300641059875,3.0800668776921425,0.014397484197618509,1.2955230898856787,135.79611650485438,89.07766990291262,111.13592233009709,75.33333333333333,96.97777777777777,99.73650793650793,122.0,113.59748427672956,125.0,121.0,101.0,145.0,125.0,169.0,149.0,145.0
12,0.6000000000000001,0.056487321853637695,-0.33283543586730957,1.6358163356781006,0.2096691131591797,-1.6094133853912354,0.3576502799987793,0.45531439781188965,0.1941816508769989,0.7630569338798523,3.0736858702975165,0.015948703495245634,1.268014309803007,134.74172185430464,91.0,109.96938775510205,78.01360544217687,96.72025723472669,102.53054662379421,121.66019417475728,115.53074433656958,125.0,121.0,101.0,145.0,125.0,169.0,149.0,145.0
13,0.65,0.06194114685058594,-0.32526230812072754,1.6099283695220947,0.22382092475891113,-1.6151564121246338,0.3903622627258301,0.45621412992477417,0.19648471474647522,0.775107204914093,3.0671673016405694,0.017433158567951735,1.2403908229193383,133.52249134948096,92.93425605536332,108.96206896551725,80.97241379310344,96.52861952861953,105.20538720538721,121.38,117.39333333333333,125.0,121.0,101.0,145.0,125.0,169.0,149.0,145.0
14,0.7000000000000001,0.0675058364868164,-0.3175632953643799,1.5848019123077393,0.2373216152191162,-1.6213018894195557,0.42340970039367676,0.45712101459503174,0.19881851971149445,0.7865873575210571,3.060529245700629,0.01893756125329357,1.2124998279274515,132.23758865248226,94.78014184397163,107.84532374100719,83.62230215827338,96.17708333333333,107.92708333333333,121.01724137931035,119.0896551724138,125.0,121.0,101.0,145.0,125.0,169.0,149.0,145.0
15,0.75,0.07320618629455566,-0.3099637031555176,1.5607669353485107,0.2500162124633789,-1.6278374195098877,0.4566476345062256,0.45795029401779175,0.20118969678878784,0.7974064350128174,3.0537060708766486,0.020430022255534724,1.184509751631667,131.13553113553112,96.57142857142857,106.70260223048327,86.37174721189591,96.51624548736461,110.99638989169675,120.83450704225352,120.96830985915493,125.0,121.0,101.0,145.0,125.0,169.0,149.0,145.0
16,0.8,0.07838916778564453,-0.30363988876342773,1.5393860340118408,0.2610204219818115,-1.6344516277313232,0.48948121070861816,0.45828306674957275,0.2032799869775772,0.807208240032196,3.0463940419689837,0.02143746621075484,1.1563770221795622,130.04887218045113,98.39097744360902,105.51711026615969,88.83269961977186,95.68248175182482,113.02919708029196,120.5,122.65925925925926,125.0,121.0,101.0,145.0,125.0,169.0,149.0,145.0
17,0.8500000000000001,0.08363223075866699,-0.29596996307373047,1.5171611309051514,0.27256226539611816,-1.641298532485962,0.5223281383514404,0.4592819809913635,0.20543847978115082,0.816794753074646,3.039718141753507,0.022703137624865664,1.1282775857270357,128.98443579766536,100.13618677042801,104.53307392996109,91.4863813229572,95.38022813688212,115.59315589353612,120.12962962962963,124.47777777777777,125.0,121.0,101.0,145.0,125.0,169.0,149.0,145.0
18,0.9,0.08913612365722656,-0.28856515884399414,1.4962823390960693,0.28325986862182617,-1.6485426425933838,0.5552749633789062,0.460171103477478,0.20768983662128448,0.8256597518920898,3.0328486400423937,0.02399717510226348,1.100299775420949,127.86,101.884,103.56349206349206,93.91269841269842,95.19083969465649,117.98473282442748,119.82264150943396,126.03018867924528,125.0,121.0,101.0,145.0,125.0,169.0,149.0,145.0
19,0.9500000000000001,0.09444022178649902,-0.2814805507659912,1.4768002033233643,0.29315948486328125,-1.6559288501739502,0.5880568027496338,0.4610212743282318,0.2098405659198761,0.8338025808334351,3.0259423602024125,0.025145113445242753,1.072272550000405,126.81376518218623,103.53441295546558,102.5,96.304,94.75968992248062,120.34108527131782,119.5813953488372,127.6046511627907,125.0,121.0,101.0,145.0,125.0,169.0,149.0,145.0
20,1.0,0.0997323989868164,-0.2742311954498291,1.4582154750823975,0.30259227752685547,-1.663484811782837,0.6205871105194092,0.46207356452941895,0.21199950575828552,0.8412825465202332,3.019242554654652,0.026374354637505308,1.0444754359033928,125.90376569037657,105.10041841004184,101.58847736625515,98.75720164609054,94.58167330677291,122.62549800796813,119.31225296442688,129.31225296442688,125.0,121.0,101.0,145.0,125.0,169.0,149.0,145.0
21,1.05,0.10499978065490723,-0.2673323154449463,1.4410803318023682,0.3112480640411377,-1.6711976528167725,0.6528759002685547,0.4630788266658783,0.21413947641849518,0.8480351567268372,3.0125101894203437,0.02753926112766608,1.0168860170864376,124.91101694915254,106.80932203389831,100.57203389830508,101.0,94.35341365461848,125.02409638554217,119.0,130.8658536585366,125.0,121.0,101.0,145.0,125.0,169.0,149.0,145.0
22,1.1,0.10997962951660156,-0.26090574264526367,1.4254896640777588,0.31911635398864746,-1.6788952350616455,0.6846745014190674,0.46403056383132935,0.21614548563957214,0.8540707230567932,3.0058232175815887,0.028522521624466324,0.9895076282540302,123.93103448275862,108.24568965517241,99.6880341880342,103.21367521367522,94.09836065573771,127.2172131147541,118.65725806451613,132.43548387096774,125.0,121.0,101.0,145.0,125.0,169.0,149.0,145.0
23,1.1500000000000001,0.11506390571594238,-0.25517702102661133,1.4117510318756104,0.3259861469268799,-1.6867725849151611,0.7162315845489502,0.46476250886917114,0.21817047894001007,0.8593400120735168,2.9989502923365694,0.029372081614351613,0.9624662543199634,123.0,109.77682403433477,98.91304347826087,105.4304347826087,93.80566801619433,129.4251012145749,118.5,133.88429752066116,125.0,121.0,101.0,145.0,125.0,169.0,149.0,145.0
24,1.2000000000000002,0.12022137641906738,-0.24964356422424316,1.399379014968872,0.33216404914855957,-1.6947839260101318,0.747490406036377,0.4655664265155792,0.22023595869541168,0.8638826012611389,2.992161249726182,0.030281383690915913,0.9358026906672914,122.0,111.32314410480349,97.94690265486726,107.54867256637168,93.5650406504065,131.5081300813008,118.20833333333333,135.20833333333334,125.0,121.0,101.0,145.0,125.0,169.0,149.0,145.0
25,1.25,0.12490105628967285,-0.24442338943481445,1.3884384632110596,0.3376595973968506,-1.7026121616363525,0.7780735492706299,0.4664892852306366,0.22210374474525452,0.8677178621292114,2.98564186853543,0.0310727803109468,0.9093751470885041,121.10087719298245,112.72368421052632,96.98222222222222,109.53333333333333,93.28512396694215,133.56611570247935,117.94514767932489,136.7594936708861,125.0,121.0,101.0,145.0,125.0,169.0,149.0,145.0
26,1.3,0.1290595531463623,-0.2399284839630127,1.3790509700775146,0.3424253463745117,-1.7101662158966064,0.8077847957611084,0.4672648310661316,0.22372469305992126,0.8709874153137207,2.9792305866335944,0.03150925978324289,0.8833395190674325,120.25221238938053,114.07522123893806,96.03139013452915,111.5201793721973,93.7016806722689,135.92436974789916,117.75641025641026,138.07692307692307,125.0,121.0,101.0,145.0,125.0,169.0,149.0,145.0
27,1.35,0.13292670249938965,-0.23762106895446777,1.3734982013702393,0.3450131416320801,-1.7176258563995361,0.8366060256958008,0.4672369062900543,0.22510533034801483,0.8731421828269958,2.9723987987699685,0.031272344453641326,0.8579152168373382,119.36697247706422,115.37614678899082,95.14349775784753,113.51121076233184,92.8702928870293,137.5857740585774,117.46473029045643,139.32365145228215,125.0,121.0,101.0,145.0,125.0,169.0,149.0,145.0
28,1.4000000000000001,0.13663959503173828,-0.2339327335357666,1.3671238422393799,0.3482511043548584,-1.7249624729156494,0.864910364151001,0.4680870771408081,0.22653891146183014,0.8750505447387695,2.9663462786054526,0.03161324126958792,0.8329104951707679,118.63302752293578,116.62385321100918,94.36818181818182,115.47272727272727,92.51867219917013,139.39834024896265,117.13983050847457,140.76271186440678,125.0,121.0,101.0,145.0,125.0,169.0,149.0,145.0
29,1.4500000000000002,0.1405012607574463,-0.23026514053344727,1.3615663051605225,0.3511500358581543,-1.732337236404419,0.8928849697113037,0.46904751658439636,0.22806398570537567,0.8764835000038147,2.960405772380953,0.03207747349735604,0.8084125278758487,117.83555555555556,117.94222222222223,93.70588235294117,117.31221719457014,92.2510460251046,141.18828451882845,116.97916666666667,141.97083333333333,125.0,121.0,101.0,145.0,125.0,169.0,149.0,145.0
30,1.5,0.14405608177185059,-0.22675609588623047,1.3570005893707275,0.3536102771759033,-1.7394983768463135,0.9202020168304443,0.4701404273509979,0.22947897017002106,0.8774123191833496,2.9547315954029747,0.03253837431961407,0.784316289086067,117.0,119.20091324200914,92.86160714285714,119.01339285714286,92.0886075949367,143.10970464135022,116.8119658119658,143.0897435897436,125.0,121.0,101.0,145.0,125.0,169.0,149.0,145.0
31,1.55,0.14718246459960938,-0.2239077091217041,1.3539807796478271,0.3552851676940918,-1.7463343143463135,0.9465711116790771,0.47113659977912903,0.23069602251052856,0.8777767419815063,2.9492517639360774,0.032784272201697204,0.7607932396133547,116.24090909090908,120.39545454545454,92.12556053811659,120.76233183856502,91.87711864406779,144.8771186440678,116.6468085106383,144.27659574468086,125.0,121.0,101.0,145.0,125.0,169.0,149.0,145.0
32,1.6,0.15000629425048828,-0.2214069366455078,1.3520634174346924,0.3564267158508301,-1.7529079914093018,0.9721519947052002,0.47215306758880615,0.23179006576538086,0.8776735067367554,2.94399787032127,0.032955806291047315,0.7378072915803568,115.5,121.5,91.24090909090908,122.50454545454545,91.65702479338843,146.599173553719,116.35983263598327,145.46443514644352,125.0,121.0,101.0,145.0,125.0,169.0,149.0,145.0
33,1.6500000000000001,0.15259528160095215,-0.21918916702270508,1.351137399673462,0.3570852279663086,-1.7592289447784424,0.996941328048706,0.4732024669647217,0.2327953577041626,0.8771359920501709,2.938970470339572,0.03309495710457597,0.71542764684002,114.82272727272728,122.56363636363636,90.65486725663717,124.08407079646018,91.38333333333334,148.15,116.09787234042552,146.60425531914893,125.0,121.0,101.0,145.0,125.0,169.0,149.0,145.0
34,1.7000000000000002,0.15534162521362305,-0.21711230278015137,1.3509857654571533,0.35738253593444824,-1.7655360698699951,1.021418809890747,0.4742605686187744,0.2338874340057373,0.8762193322181702,2.933978410973434,0.033295770784266085,0.69355074487612,114.10810810810811,123.5945945945946,89.94690265486726,125.54867256637168,91.11934156378601,149.90946502057614,115.97033898305085,147.6228813559322,125.0,121.0,101.0,145.0,125.0,169.0,149.0,145.0
35,1.75,0.15815186500549316,-0.21523714065551758,1.3516066074371338,0.35730552673339844,-1.7717139720916748,1.0452663898468018,0.4752986431121826,0.23502345383167267,0.8749552965164185,2.9290858163307285,0.0335120959301734,0.6724050657621337,113.36697247706422,124.62385321100918,89.17180616740089,127.12775330396475,91.08677685950413,151.31404958677686,115.87916666666666,148.62083333333334,125.0,121.0,101.0,145.0,125.0,169.0,149.0,145.0
36,1.8,0.1598522663116455,-0.21416664123535156,1.3535397052764893,0.35651516914367676,-1.7771556377410889,1.0676825046539307,0.4762326180934906,0.23563911020755768,0.8733389973640442,2.9246681088828077,0.03328904642196634,0.6516550791732553,112.78733031674209,125.57918552036199,88.51327433628319,128.57079646017698,90.89539748953975,152.8744769874477,115.78600823045268,149.65020576131687,125.0,121.0,101.0,145.0,125.0,169.0,149.0,145.0
37,1.85,0.16140007972717285,-0.21320366859436035,1.355931043624878,0.3555135726928711,-1.7823536396026611,1.089364767074585,0.4771987199783325,0.23620262742042542,0.8715059161186218,2.920459544008317,0.03306106563596828,0.6315278544271725,112.09049773755656,126.56108597285068,87.8995633187773,130.07423580786025,90.65217391304348,154.34782608695653,115.53061224489795,150.5795918367347,125.0,121.0,101.0,145.0,125.0,169.0,149.0,145.0
38,1.9000000000000001,0.16296720504760742,-0.2121725082397461,1.3588240146636963,0.35425329208374023,-1.7874290943145752,1.110541582107544,0.4782993495464325,0.23681186139583588,0.8693438768386841,2.9164204920529175,0.03301078829531723,0.6119605252567615,111.5,127.5,87.21491228070175,131.4078947368421,90.54761904761905,155.71825396825398,115.38306451612904,151.4516129032258,125.0,121.0,101.0,145.0,125.0,169.0,149.0,145.0
39,1.9500000000000002,0.16402053833007812,-0.2114887237548828,1.362377405166626,0.3526313304901123,-1.7920715808868408,1.1307733058929443,0.4793713092803955,0.237189382314682,0.8669718503952026,2.9126913610647156,0.03279377912521867,0.5928723634659762,111.01777777777778,128.46666666666667,86.68376068376068,132.8034188034188,90.41269841269842,157.1706349206349,115.2326530612245,152.35102040816327,125.0,121.0,101.0,145.0,125.0,169.0,149.0,145.0
40,2.0,0.16502785682678223,-0.2105863094329834,1.3660557270050049,0.3509671688079834,-1.7965366840362549,1.1504566669464111,0.4806218147277832,0.2375873327255249,0.864406943321228,2.909180773258273,0.03277319827192952,0.5743186653482225,110.3406113537118,129.19213973799125,86.10212765957446,134.0936170212766,90.26666666666667,158.50980392156862,115.12244897959184,153.20408163265307,125.0,121.0,101.0,145.0,125.0,169.0,149.0,145.0
41,2.0500000000000003,0.1661393642425537,-0.20994877815246582,1.3704016208648682,0.3489093780517578,-1.8008906841278076,1.1695902347564697,0.48176735639572144,0.23803266882896423,0.8615922331809998,2.9057053641978987,0.0327229339781937,0.5564426952533509,109.78165938864629,130.06550218340612,85.50420168067227,135.26470588235293,90.21875,159.70703125,115.03305785123968,153.98347107438016,125.0,121.0,101.0,145.0,125.0,169.0,149.0,145.0
42,2.1,0.16664743423461914,-0.20989656448364258,1.3755199909210205,0.34638524055480957,-1.8047702312469482,1.1877577304840088,0.4827468693256378,0.23817601799964905,0.8586282134056091,2.902520735238373,0.032343969765710766,0.5389661145299043,109.22077922077922,130.82251082251082,84.957805907173,136.65400843881858,89.95785440613027,160.88505747126436,114.96385542168674,154.79518072289156,125.0,121.0,101.0,145.0,125.0,169.0,149.0,145.0
43,2.15,0.16662073135375977,-0.2094721794128418,1.3803608417510986,0.3440234661102295,-1.8081872463226318,1.2049753665924072,0.48404455184936523,0.23813210427761078,0.8556175231933594,2.8998295516072186,0.03217233312037724,0.5219421347093811,108.83620689655173,131.625,84.48535564853556,137.76987447698744,89.74712643678161,162.26053639846742,114.81027667984189,155.52173913043478,125.0,121.0,101.0,145.0,125.0,169.0,149.0,145.0
44,2.2,0.16682052612304688,-0.20839953422546387,1.384650468826294,0.3420138359069824,-1.8115570545196533,1.2218921184539795,0.485640287399292,0.23826099932193756,0.8525769710540771,2.897276719278811,0.032404607176610555,0.5054660598700645,108.17021276595744,132.23829787234044,83.89211618257261,138.85892116182572,89.73384030418251,163.35361216730038,114.73725490196078,156.2627450980392,125.0,121.0,101.0,145.0,125.0,169.0,149.0,145.0
45,2.25,0.16692399978637695,-0.20810341835021973,1.3899805545806885,0.339339017868042,-1.8147151470184326,1.2381360530853271,0.48686733841896057,0.23829522728919983,0.849341094493866,2.8947403110353345,0.03226980498976397,0.48957767585302997,107.80672268907563,132.89495798319328,83.46558704453442,140.01214574898785,89.64528301886793,164.43396226415095,114.64728682170542,156.86434108527132,125.0,121.0,101.0,145.0,125.0,169.0,149.0,145.0
46,2.3000000000000003,0.16678595542907715,-0.20730233192443848,1.3949096202850342,0.33688902854919434,-1.817582368850708,1.2537119388580322,0.4884166717529297,0.23827946186065674,0.8460635542869568,2.892545734241345,0.03245522372729384,0.4741403733016668,107.34297520661157,133.56611570247935,82.92712550607287,141.00404858299595,89.54477611940298,165.544776119403,114.55813953488372,157.46124031007753,125.0,121.0,101.0,145.0,125.0,169.0,149.0,145.0
47,2.35,0.1663968563079834,-0.20651578903198242,1.399873971939087,0.33439111709594727,-1.8201463222503662,1.268592119216919,0.4899980127811432,0.23816049098968506,0.8427647948265076,2.8905925375587893,0.032640690225166136,0.45916301213343064,106.94979079497908,134.17573221757323,82.5,142.0,89.56877323420075,166.56877323420073,114.55133079847909,158.26235741444867,125.0,121.0,101.0,145.0,125.0,169.0,149.0,145.0
48,2.4000000000000004,0.16606855392456055,-0.20614981651306152,1.4053089618682861,0.3315868377685547,-1.8226039409637451,1.2830798625946045,0.4913270175457001,0.23803895711898804,0.8394103646278381,2.888622563976708,0.03259372914688377,0.4446455094429483,106.58775510204082,134.82448979591837,82.12252964426878,142.94466403162056,89.53676470588235,167.60294117647058,114.5,158.73684210526315,125.0,121.0,101.0,145.0,125.0,169.0,149.0,145.0
49,2.45,0.1655271053314209,-0.20554661750793457,1.4105651378631592,0.3288567066192627,-1.824800729751587,1.2969486713409424,0.4928203821182251,0.23785242438316345,0.8360280990600586,2.8869100988539476,0.0327154293881741,0.4305465999509336,106.14693877551021,135.35102040816327,81.6171875,143.91796875,89.46739130434783,168.55072463768116,114.52830188679245,159.28301886792454,125.0,121.0,101.0,145.0,125.0,169.0,149.0,145.0
50,2.5,0.164536714553833,-0.20504140853881836,1.4158146381378174,0.3260812759399414,-1.826587438583374,1.309943437576294,0.4943239092826843,0.2374611496925354,0.8326934576034546,2.8855364324657824,0.03277002804107697,0.4168806132690441,105.67479674796748,135.8861788617886,81.34615384615384,144.76538461538462,89.45744680851064,169.38652482269504,114.48339483394834,159.9040590405904,125.0,121.0,101.0,145.0,125.0,169.0,149.0,145.0
51,2.5500000000000003,0.16379880905151367,-0.2048802375793457,1.421604871749878,0.3229389190673828,-1.8284122943878174,1.3227784633636475,0.4956005811691284,0.23716062307357788,0.8292261362075806,2.8840446115689984,0.03267726773723047,0.40362725029449553,105.41832669322709,136.37450199203187,80.8689138576779,145.65168539325842,89.36236933797909,170.3275261324042,114.48175182481752,160.3978102189781,125.0,121.0,101.0,145.0,125.0,169.0,149.0,145.0
52,2.6,0.16264843940734863,-0.204359769821167,1.4267776012420654,0.3201467990875244,-1.8298523426055908,1.3348486423492432,0.49709758162498474,0.2367076277732849,0.8259173035621643,2.882936257049725,0.03275230256311399,0.3907333942174097,104.94820717131473,136.91235059760956,80.5,146.5,89.4,171.16206896551725,114.55474452554745,160.8941605839416,125.0,121.0,101.0,145.0,125.0,169.0,149.0,145.0
53,2.6500000000000004,0.16124963760375977,-0.2043595314025879,1.4324982166290283,0.31694912910461426,-1.8310329914093018,1.3462598323822021,0.4983580708503723,0.23610062897205353,0.8225632905960083,2.8819835140514867,0.03254787495830152,0.37824722594174753,104.62162162162163,137.3127413127413,80.16236162361623,147.3210332103321,89.4061433447099,172.02047781569965,114.4695340501792,161.28673835125448,125.0,121.0,101.0,145.0,125.0,169.0,149.0,145.0
54,2.7,0.15997695922851562,-0.2039647102355957,1.437864065170288,0.3139338493347168,-1.8321621417999268,1.3573391437530518,0.4997895359992981,0.2355905920267105,0.81920325756073,2.8811075514111897,0.03262118120117605,0.3662162631415388,104.37837837837837,137.6872586872587,79.87132352941177,148.15073529411765,89.43389830508474,172.91186440677967,114.54642857142858,161.74285714285713,125.0,121.0,101.0,145.0,125.0,169.0,149.0,145.0
55,2.75,0.1587231159210205,-0.20318150520324707,1.4427196979522705,0.3112070560455322,-1.8331668376922607,1.3679955005645752,0.5013876557350159,0.23512445390224457,0.8159289360046387,2.880367529282472,0.03292974780910232,0.3546261698162624,103.99239543726236,138.22433460076044,79.55839416058394,148.82846715328466,89.41914191419141,173.6105610561056,114.52482269503547,162.11702127659575,125.0,121.0,101.0,145.0,125.0,169.0,149.0,145.0
56,2.8000000000000003,0.1571948528289795,-0.20273947715759277,1.4479196071624756,0.30820679664611816,-1.8339192867279053,1.3781101703643799,0.5028452277183533,0.23450522124767303,0.8126339316368103,2.8798095469867064,0.033050931009314305,0.34329963680582637,103.7175572519084,138.53053435114504,79.16187050359713,149.4928057553957,89.50974025974025,174.3603896103896,114.5909090909091,162.5174825174825,125.0,121.0,101.0,145.0,125.0,169.0,149.0,145.0
57,2.85,0.15569281578063965,-0.20244431495666504,1.4531347751617432,0.30515503883361816,-1.8345682621002197,1.3878185749053955,0.5041803121566772,0.2338855266571045,0.809407114982605,2.8793049867753964,0.03306876565754272,0.3323976685983445,103.5056603773585,138.96603773584906,78.95744680851064,150.24113475177305,89.6038961038961,175.10714285714286,114.68070175438596,162.89473684210526,125.0,121.0,101.0,145.0,125.0,169.0,149.0,145.0
58,2.9000000000000004,0.1540219783782959,-0.20206665992736816,1.4581983089447021,0.3021526336669922,-1.8350193500518799,1.397033452987671,0.5055701732635498,0.23319697380065918,0.8062204122543335,2.8789849773861134,0.03315792487572901,0.3218156458381263,103.20074349442379,139.37546468401487,78.72377622377623,150.93006993006992,89.57234726688102,175.66237942122186,114.73972602739725,163.17465753424656,125.0,121.0,101.0,145.0,125.0,169.0,149.0,145.0
59,2.95,0.15181183815002441,-0.20181727409362793,1.463294267654419,0.29906439781188965,-1.8350708484649658,1.405501127243042,0.5069786310195923,0.23224987089633942,0.8030787706375122,2.8790337193277478,0.03319496189984091,0.3114321502191158,102.99632352941177,139.5625,78.34965034965035,151.71678321678323,89.61587301587302,176.42222222222222,114.74829931972789,163.58503401360545,125.0,121.0,101.0,145.0,125.0,169.0,149.0,145.0
60,3.0,0.14966225624084473,-0.20108366012573242,1.4677069187164307,0.2963829040527344,-1.8350346088409424,1.413602590560913,0.5085867643356323,0.2313685417175293,0.8000744581222534,2.879192596852753,0.03352359439882055,0.3014683730340346,102.74007220216606,139.9494584837545,78.13148788927336,152.20415224913495,89.71383647798743,176.9811320754717,114.84406779661018,163.9186440677966,125.0,121.0,101.0,145.0,125.0,169.0,149.0,145.0
61,3.0500000000000003,0.14750051498413086,-0.20082879066467285,1.472569227218628,0.29337143898010254,-1.8349153995513916,1.4214208126068115,0.5099225640296936,0.23044276237487793,0.7970642447471619,2.8793680733867917,0.033559758947815425,0.2917658066214079,102.49632352941177,140.29044117647058,77.9795918367347,152.7891156462585,89.74375,177.609375,114.88590604026845,164.11409395973155,125.0,121.0,101.0,145.0,125.0,169.0,149.0,145.0
62,3.1,0.14517951011657715,-0.20032906532287598,1.4771268367767334,0.2905092239379883,-1.8346178531646729,1.428797960281372,0.5113991498947144,0.2294618785381317,0.7940987944602966,2.879732341818052,0.03378024188980295,0.2823368851477224,102.26258992805755,140.44604316546761,77.79530201342281,153.33892617449663,89.81733746130031,178.23219814241486,114.92786885245901,164.44262295081967,125.0,121.0,101.0,145.0,125.0,169.0,149.0,145.0
63,3.1500000000000004,0.1432650089263916,-0.19947338104248047,1.481273889541626,0.28789496421813965,-1.834465742111206,1.4361903667449951,0.5129578113555908,0.2286951094865799,0.7911820411682129,2.879957324804816,0.034216987488511784,0.2732938177313796,102.08960573476702,140.84587813620072,77.53198653198653,153.989898989899,89.91331269349845,178.72445820433435,115.0326797385621,164.66666666666666,125.0,121.0,101.0,145.0,125.0,169.0,149.0,145.0
64,3.2,0.14063167572021484,-0.19900989532470703,1.4856584072113037,0.28505492210388184,-1.8338134288787842,1.442683458328247,0.5144245624542236,0.22756193578243256,0.7883340120315552,2.880645766267664,0.03444776016730275,0.26441368164249357,101.93006993006993,141.0034965034965,77.33224755700326,154.442996742671,90.14848484848486,179.27575757575758,115.06312292358804,164.8405315614618,125.0,121.0,101.0,145.0,125.0,169.0,149.0,145.0
65,3.25,0.1383194923400879,-0.19839072227478027,1.4898788928985596,0.2822892665863037,-1.8332698345184326,1.449098825454712,0.5158909559249878,0.22658726572990417,0.78550124168396,2.881221216920497,0.034786978963818764,0.25592456859144425,101.76388888888889,141.29861111111111,77.14144736842105,154.93421052631578,90.20597014925373,179.78805970149253,115.0909090909091,165.23376623376623,125.0,121.0,101.0,145.0,125.0,169.0,149.0,145.0
66,3.3000000000000003,0.1361701488494873,-0.19786787033081055,1.4941356182098389,0.2794809341430664,-1.8327577114105225,1.4554564952850342,0.5172510147094727,0.2256806194782257,0.782697856426239,2.8817403547825777,0.03505143495113553,0.24765162825661535,101.53125,141.53819444444446,76.97385620915033,155.44444444444446,90.31927710843374,180.1987951807229,115.1624203821656,165.36942675159236,125.0,121.0,101.0,145.0,125.0,169.0,149.0,145.0
67,3.35,0.13380146026611328,-0.19750690460205078,1.4985191822052002,0.276531457901001,-1.8320505619049072,1.4613244533538818,0.5185538530349731,0.22465693950653076,0.7799079418182373,2.8824395091846116,0.035252565361232197,0.23963535185364468,101.33447098976109,141.75767918088738,76.81612903225806,155.9774193548387,90.37278106508876,180.77810650887574,115.26433121019109,165.5859872611465,125.0,121.0,101.0,145.0,125.0,169.0,149.0,145.0
68,3.4000000000000004,0.1313643455505371,-0.19691085815429688,1.5025150775909424,0.2738053798675537,-1.8312265872955322,1.4668476581573486,0.5199642181396484,0.22361496090888977,0.7772165536880493,2.883263946491109,0.03561087846235211,0.2318835949336604,101.20136518771331,141.96587030716722,76.60828025477707,156.39171974522293,90.5,181.1094674556213,115.44339622641509,165.72955974842768,125.0,121.0,101.0,145.0,125.0,169.0,149.0,145.0
69,3.45,0.1285405158996582,-0.19684219360351562,1.5068938732147217,0.27077507972717285,-1.8301136493682861,1.471785306930542,0.5211442708969116,0.22235125303268433,0.7745864391326904,2.884343098626117,0.0356508962306379,0.22431506762991762,101.0582191780822,142.0445205479452,76.6,156.7111111111111,90.57434402332362,181.63556851311952,115.45625,165.9,125.0,121.0,101.0,145.0,125.0,169.0,149.0,145.0
70,3.5,0.12624478340148926,-0.1959850788116455,1.5104377269744873,0.26830315589904785,-1.8292524814605713,1.4769761562347412,0.522615909576416,0.2213880568742752,0.772017240524292,2.8851992494857575,0.03617521484088742,0.21702386223809958,100.90169491525424,142.20338983050848,76.40880503144655,157.26100628930817,90.68011527377521,182.05475504322766,115.54347826086956,166.03726708074535,125.0,121.0,101.0,145.0,125.0,169.0,149.0,145.0
71,3.5500000000000003,0.1235959529876709,-0.19510483741760254,1.513810396194458,0.2658989429473877,-1.8281114101409912,1.4815762042999268,0.5241444110870361,0.22025707364082336,0.7695342302322388,2.886338407302107,0.03675370994651665,0.20995386857240197,100.86622073578596,142.35785953177256,76.41744548286604,157.52959501557632,90.84285714285714,182.30857142857144,115.66666666666667,166.24382716049382,125.0,121.0,101.0,145.0,125.0,169.0,149.0,145.0
72,3.6,0.12112188339233398,-0.1943356990814209,1.5173017978668213,0.2634000778198242,-1.8270342350006104,1.486196756362915,0.5255659818649292,0.21919624507427216,0.7670443654060364,2.887395361009736,0.03725387322995219,0.20303261942296466,100.74834437086092,142.50331125827816,76.27554179566563,157.89783281733747,90.94632768361582,182.80225988700565,115.70212765957447,166.37993920972644,125.0,121.0,101.0,145.0,125.0,169.0,149.0,145.0
73,3.6500000000000004,0.11871981620788574,-0.1932218074798584,1.520320177078247,0.2612011432647705,-1.8259379863739014,1.490659475326538,0.5271300673484802,0.2181888371706009,0.7646428346633911,2.888480392939653,0.03797538882625769,0.19633646525858717,100.59803921568627,142.7450980392157,76.09480122324159,158.37003058103974,91.0532212885154,183.02240896358543,115.85365853658537,166.45426829268294,125.0,121.0,101.0,145.0,125.0,169.0,149.0,145.0
74,3.7,0.11563324928283691,-0.19282793998718262,1.5239717960357666,0.25850963592529297,-1.8243820667266846,1.4942796230316162,0.5284301042556763,0.21680651605129242,0.7622621655464172,2.8900047726259785,0.038300627140397725,0.18977518881055028,100.49025974025975,142.85714285714286,76.009009009009,158.55855855855856,91.1551246537396,183.42936288088643,115.99096385542168,166.59638554216866,125.0,121.0,101.0,145.0,125.0,169.0,149.0,145.0
75,3.75,0.11284756660461426,-0.19235849380493164,1.5274393558502197,0.255939245223999,-1.8229587078094482,1.497992753982544,0.5296854376792908,0.21556821465492249,0.7599490880966187,2.891385787106128,0.038637649394535074,0.18342023361200363,100.42394822006473,142.94822006472492,75.86011904761905,158.98214285714286,91.30532212885154,183.73949579831933,116.17159763313609,166.73076923076923,125.0,121.0,101.0,145.0,125.0,169.0,149.0,145.0
76,3.8000000000000003,0.10979151725769043,-0.19213318824768066,1.5309951305389404,0.2532768249511719,-1.8213202953338623,1.501234769821167,0.5308389663696289,0.21418416500091553,0.7577167749404907,2.892977312733674,0.038838520302875414,0.17725143867544,100.37299035369774,143.03536977491962,75.80415430267063,159.3353115727003,91.44903581267218,184.05785123966942,116.26331360946746,166.77514792899407,125.0,121.0,101.0,145.0,125.0,169.0,149.0,145.0
77,3.85,0.10651254653930664,-0.19176435470581055,1.534303903579712,0.25075650215148926,-1.8195006847381592,1.504089117050171,0.532090961933136,0.21269819140434265,0.7555491328239441,2.8947639834781413,0.03917309362726745,0.1712353104966404,100.29523809523809,143.1238095238095,75.81194029850747,159.53731343283582,91.71428571428571,184.4065934065934,116.35588235294118,166.84411764705882,125.0,121.0,101.0,145.0,125.0,169.0,149.0,145.0
78,3.9000000000000004,0.10369586944580078,-0.19113826751708984,1.537369966506958,0.24839115142822266,-1.8179223537445068,1.5071418285369873,0.5333808064460754,0.21144574880599976,0.7533859014511108,2.8963058701334554,0.03965578328943811,0.16548462540422884,100.25867507886436,143.2334384858044,75.67448680351906,159.9325513196481,91.79347826086956,184.6413043478261,116.47953216374269,166.9093567251462,125.0,121.0,101.0,145.0,125.0,169.0,149.0,145.0
79,3.95,0.10029792785644531,-0.19082331657409668,1.5405981540679932,0.2458808422088623,-1.815946340560913,1.509507417678833,0.5345923900604248,0.20989303290843964,0.7512961626052856,2.8982522089374942,0.0399932443310538,0.15982020539021943,100.165625,143.31875,75.64035087719299,160.13742690058479,91.95135135135135,184.76216216216216,116.60349854227405,166.95626822157433,125.0,121.0,101.0,145.0,125.0,169.0,149.0,145.0
80,4.0,0.09694552421569824,-0.1908740997314453,1.544220209121704,0.2430722713470459,-1.8139698505401611,1.5117404460906982,0.5355933308601379,0.20833900570869446,0.7491783499717712,2.900184747502176,0.04010035310757723,0.15432878541394157,100.08385093167702,143.3975155279503,75.61046511627907,160.38953488372093,92.04864864864865,185.23783783783784,116.78840579710145,167.04347826086956,125.0,121.0,101.0,145.0,125.0,169.0,149.0,145.0
81,4.05,0.09365272521972656,-0.19057512283325195,1.5473015308380127,0.24063801765441895,-1.8119828701019287,1.5138604640960693,0.5367385745048523,0.20682989060878754,0.7471844553947449,2.9021400283625685,0.04042834083151538,0.1490051665593742,99.984520123839,143.43343653250773,75.52011494252874,160.70114942528735,92.16085790884719,185.36997319034853,116.89971346704871,167.04297994269342,125.0,121.0,101.0,145.0,125.0,169.0,149.0,145.0
82,4.1000000000000005,0.09004712104797363,-0.19061017036437988,1.5506675243377686,0.23797392845153809,-1.8097708225250244,1.5155055522918701,0.5377519130706787,0.20514972507953644,0.7452066540718079,2.904323123580758,0.04058408772273284,0.14383024955646337,99.91743119266054,143.5137614678899,75.432664756447,160.945558739255,92.38786279683377,185.58047493403694,116.97435897435898,167.07977207977208,125.0,121.0,101.0,145.0,125.0,169.0,149.0,145.0
83,4.15,0.08656644821166992,-0.190826416015625,1.554215669631958,0.23515892028808594,-1.8076059818267822,1.5170562267303467,0.5386355519294739,0.2035190612077713,0.7432249784469604,2.906452398545723,0.04062094373544947,0.13886890808071012,99.86585365853658,143.59146341463415,75.40226628895184,161.1586402266289,92.51047120418848,185.81151832460733,117.03682719546742,167.17847025495752,125.0,121.0,101.0,145.0,125.0,169.0,149.0,145.0
84,4.2,0.08320426940917969,-0.19098496437072754,1.5576746463775635,0.23239827156066895,-1.8054859638214111,1.5185930728912354,0.539514422416687,0.20194706320762634,0.7412635087966919,2.9085365288627285,0.04069289549911958,0.13403804275154588,99.83685800604229,143.6132930513595,75.3781512605042,161.34453781512605,92.640625,186.0859375,117.24011299435028,167.20056497175142,125.0,121.0,101.0,145.0,125.0,169.0,149.0,145.0
85,4.25,0.07979869842529297,-0.19115948677062988,1.5610158443450928,0.22971463203430176,-1.8033063411712646,1.5199434757232666,0.5403704047203064,0.20035067200660706,0.7393804788589478,2.910685274013114,0.040755465775420434,0.1293442772424317,99.80722891566265,143.6234939759036,75.33798882681565,161.60614525139664,92.80678851174935,186.3159268929504,117.3172804532578,167.1728045325779,125.0,121.0,101.0,145.0,125.0,169.0,149.0,145.0
86,4.3,0.07618355751037598,-0.1912546157836914,1.5641968250274658,0.2271270751953125,-1.8009650707244873,1.5209429264068604,0.5412898063659668,0.19865307211875916,0.7375462055206299,2.9130099630032156,0.04091064107727211,0.12478174791983217,99.80722891566265,143.6234939759036,75.30555555555556,161.8361111111111,93.0,186.5,117.46218487394958,167.17927170868347,125.0,121.0,101.0,145.0,125.0,169.0,149.0,145.0
87,4.3500000000000005,0.07248091697692871,-0.19146013259887695,1.5674183368682861,0.22449946403503418,-1.798541784286499,1.5217020511627197,0.5421497225761414,0.19690656661987305,0.7357497215270996,2.9154212992183957,0.041009721149772034,0.12036735547938537,99.78378378378379,143.6036036036036,75.28531855955679,162.0831024930748,93.12144702842377,186.55297157622738,117.6927374301676,167.20670391061452,125.0,121.0,101.0,145.0,125.0,169.0,149.0,145.0
88,4.4,0.06861376762390137,-0.19218921661376953,1.5711205005645752,0.22151589393615723,-1.7959926128387451,1.5221445560455322,0.5427475571632385,0.19505897164344788,0.7339605093002319,2.917951243416892,0.040775720873753425,0.11609553883456905,99.7603550295858,143.698224852071,75.30958904109589,162.16712328767125,93.29411764705883,186.7826086956522,117.83379501385042,167.2409972299169,125.0,121.0,101.0,145.0,125.0,169.0,149.0,145.0
89,4.45,0.06504011154174805,-0.19290494918823242,1.5747849941253662,0.21855592727661133,-1.7936060428619385,1.522737741470337,0.5432877540588379,0.19335496425628662,0.7321869134902954,2.920311325863198,0.04051909315037094,0.11196817042520317,99.7603550295858,143.698224852071,75.26145552560646,162.33692722371967,93.40759493670886,186.9367088607595,117.9475138121547,167.30662983425415,125.0,121.0,101.0,145.0,125.0,169.0,149.0,145.0
90,4.5,0.06152033805847168,-0.19371294975280762,1.5784742832183838,0.2155771255493164,-1.7912323474884033,1.5232770442962646,0.5437551140785217,0.19167396426200867,0.7304483652114868,2.922656998788602,0.04019163508219331,0.10794727962067661,99.67543859649123,143.7514619883041,75.30540540540541,162.5162162162162,93.58040201005025,187.12311557788945,117.97245179063361,167.32231404958677,125.0,121.0,101.0,145.0,125.0,169.0,149.0,145.0
91,4.55,0.05818819999694824,-0.19425606727600098,1.5819170475006104,0.21275973320007324,-1.7889573574066162,1.5238606929779053,0.5443227291107178,0.1900923252105713,0.7287112474441528,2.924910371871438,0.040042629769206396,0.10406839411183148,99.67930029154519,143.78134110787173,75.26756756756757,162.66216216216216,93.69113924050633,187.27848101265823,118.06849315068493,167.27945205479452,125.0,121.0,101.0,145.0,125.0,169.0,149.0,145.0
92,4.6000000000000005,0.0546877384185791,-0.19496822357177734,1.5854756832122803,0.2098534107208252,-1.7865569591522217,1.524181604385376,0.5448167324066162,0.1884227693080902,0.7269977927207947,2.9272940038137962,0.03980394070678158,0.10027799219386095,99.60982658959537,143.8063583815029,75.3475935828877,162.82620320855614,93.77918781725889,187.3223350253807,118.16304347826087,167.29076086956522,125.0,121.0,101.0,145.0,125.0,169.0,149.0,145.0
93,4.65,0.05122208595275879,-0.19576311111450195,1.589160680770874,0.20684266090393066,-1.7841646671295166,1.524432897567749,0.5452550649642944,0.18676751852035522,0.7252574563026428,2.9296698361583946,0.039520236571491105,0.09658989384388748,99.63112391930835,143.8270893371758,75.3048128342246,163.00802139037432,94.03553299492386,187.53807106598984,118.32975871313673,167.2573726541555,125.0,121.0,101.0,145.0,125.0,169.0,149.0,145.0
94,4.7,0.047838449478149414,-0.19666075706481934,1.5928690433502197,0.20380568504333496,-1.7818024158477783,1.5245773792266846,0.5456100106239319,0.1851501166820526,0.7235602140426636,2.932014710349651,0.039154883280109395,0.09308742346412303,99.51420454545455,143.7755681818182,75.26790450928382,163.19098143236073,94.26130653266331,187.7110552763819,118.48533333333333,167.26933333333332,125.0,121.0,101.0,145.0,125.0,169.0,149.0,145.0
95,4.75,0.044854164123535156,-0.19741058349609375,1.5963499546051025,0.20091629028320312,-1.7796709537506104,1.5248830318450928,0.5459621548652649,0.1837323158979416,0.7219201326370239,2.9341239883834818,0.03883678213208313,0.08982495784961073,99.5070821529745,143.80453257790367,75.24137931034483,163.24137931034483,94.31094527363184,187.7860696517413,118.58090185676393,167.3236074270557,125.0,121.0,101.0,145.0,125.0,169.0,149.0,145.0
96,4.800000000000001,0.04205632209777832,-0.1982734203338623,1.5999109745025635,0.1979684829711914,-1.7776458263397217,1.5253055095672607,0.5462138652801514,0.18240264058113098,0.7202966213226318,2.9361190664886725,0.03840815428723203,0.0866323166773949,99.5070821529745,143.80453257790367,75.24607329842932,163.3979057591623,94.43283582089552,187.86069651741295,118.67733333333334,167.26933333333332,125.0,121.0,101.0,145.0,125.0,169.0,149.0,145.0
97,4.8500000000000005,0.039139747619628906,-0.1993095874786377,1.6036288738250732,0.19489717483520508,-1.7755320072174072,1.5255067348480225,0.546386182308197,0.18101118505001068,0.7186751961708069,2.938206622642795,0.037882747088327756,0.08353757715254828,99.5070821529745,143.80453257790367,75.29242819843343,163.4621409921671,94.5,188.0,118.80533333333334,167.17066666666668,125.0,121.0,101.0,145.0,125.0,169.0,149.0,145.0
98,4.9,0.036034584045410156,-0.20038843154907227,1.6073343753814697,0.19183683395385742,-1.7732856273651123,1.5254695415496826,0.5465549826622009,0.17952725291252136,0.7170811295509338,2.94043449028825,0.03735567413645524,0.08048763687276932,99.54084507042253,143.7549295774648,75.32987012987013,163.55584415584417,94.62745098039215,188.0343137254902,118.96296296296296,167.18783068783068,125.0,121.0,101.0,145.0,125.0,169.0,149.0,145.0
99,4.95,0.03305196762084961,-0.20154261589050293,1.6110742092132568,0.1887497901916504,-1.7711069583892822,1.5254671573638916,0.5466538071632385,0.1781039983034134,0.7155090570449829,2.9425898967191646,0.03675699040260494,0.07752654651287232,99.50837988826815,143.71787709497207,75.31524547803618,163.65116279069767,94.74264705882354,188.07843137254903,119.01058201058201,167.18783068783068,125.0,121.0,101.0,145.0,125.0,169.0,149.0,145.0
100,5.0,0.03022170066833496,-0.20264840126037598,1.6147444248199463,0.18570518493652344,-1.769014596939087,1.5255177021026611,0.5467457175254822,0.1767578274011612,0.7139525413513184,2.9446567114270326,0.036172915152030506,0.07466556462348246,99.52066115702479,143.65840220385675,75.32474226804123,163.6778350515464,94.9247572815534,188.14563106796118,119.1522309711286,167.16797900262466,125.0,121.0,101.0,145.0,125.0,169.0,149.0,145.0
101,5.050000000000001,0.02767181396484375,-0.20364856719970703,1.6182386875152588,0.18278241157531738,-1.7670905590057373,1.5257322788238525,0.5468373894691467,0.17555122077465057,0.7124435901641846,2.9465515097464325,0.035617205642961614,0.07192174436282939,99.55342465753425,143.62191780821917,75.36923076923077,163.76410256410256,95.1138014527845,188.20338983050848,119.29015544041451,167.0777202072539,125.0,121.0,101.0,145.0,125.0,169.0,149.0,145.0
102,5.1000000000000005,0.025133848190307617,-0.20470023155212402,1.6217529773712158,0.17983746528625488,-1.7651636600494385,1.5258452892303467,0.5468925833702087,0.17435038089752197,0.7109519243240356,2.948451156490391,0.03502684222379383,0.06928915940196484,99.53678474114442,143.56675749318802,75.35805626598466,163.89514066496164,95.20913461538461,188.3125,119.38501291989664,167.02325581395348,125.0,121.0,101.0,145.0,125.0,169.0,149.0,145.0
103,5.15,0.022489070892333984,-0.20577096939086914,1.6252210140228271,0.1769251823425293,-1.7631561756134033,1.5257704257965088,0.5469439625740051,0.17309799790382385,0.7094966173171997,2.9504372656215336,0.034437496947552375,0.06673431369730548,99.54471544715447,143.5528455284553,75.34526854219949,163.97953964194375,95.36319612590799,188.37530266343825,119.5,167.0,125.0,121.0,101.0,145.0,125.0,169.0,149.0,145.0
104,5.2,0.01999974250793457,-0.20688939094543457,1.6286909580230713,0.17400288581848145,-1.7612388134002686,1.5257351398468018,0.5469379425048828,0.17192259430885315,0.7080673575401306,2.952328799847401,0.033787572417280316,0.06429562545212095,99.52830188679245,143.5067385444744,75.36132315521628,164.03307888040712,95.46153846153847,188.46153846153845,119.51653944020356,167.0229007633588,125.0,121.0,101.0,145.0,125.0,169.0,149.0,145.0
105,5.25,0.017601490020751953,-0.207749605178833,1.6318590641021729,0.17130184173583984,-1.7593719959259033,1.525758981704712,0.547045111656189,0.17079570889472961,0.7066749334335327,2.954175448917102,0.03330769826437899,0.06188927180070713,99.53619302949062,143.46916890080428,75.38324873096447,164.1776649746193,95.53237410071942,188.56594724220622,119.70769230769231,166.92564102564103,125.0,121.0,101.0,145.0,125.0,169.0,149.0,145.0
106,5.300000000000001,0.014988422393798828,-0.2088623046875,1.6352155208587646,0.16846537590026855,-1.7573554515838623,1.5254781246185303,0.5470432043075562,0.1695626676082611,0.7053076028823853,2.956174263855421,0.03267674075676341,0.05956833522110352,99.52266666666667,143.38133333333334,75.42025316455697,164.25063291139242,95.66746411483254,188.64114832535884,119.79539641943734,166.91815856777492,125.0,121.0,101.0,145.0,125.0,169.0,149.0,145.0
107,5.3500000000000005,0.01245737075805664,-0.20976853370666504,1.6383025646209717,0.16582655906677246,-1.755382776260376,1.525216817855835,0.5471274852752686,0.16837263107299805,0.703987181186676,2.9581332902505206,0.032177812048985704,0.05731019960527271,99.55053191489361,143.37234042553192,75.45843828715365,164.28967254408062,95.80997624703087,188.65083135391924,119.90537084398977,166.84910485933503,125.0,121.0,101.0,145.0,125.0,169.0,149.0,145.0
108,5.4,0.010016202926635742,-0.2107558250427246,1.6414620876312256,0.16312527656555176,-1.7534611225128174,1.5249521732330322,0.5471504926681519,0.16722756624221802,0.7026689648628235,2.9600380145797587,0.031610193594561915,0.05514457004060823,99.55968169761273,143.3448275862069,75.45340050377834,164.34256926952142,95.89598108747045,188.66903073286053,120.09113924050632,166.77721518987343,125.0,121.0,101.0,145.0,125.0,169.0,149.0,145.0
109,5.45,0.0076673030853271484,-0.21197199821472168,1.6447961330413818,0.16028904914855957,-1.7515900135040283,1.5246670246124268,0.547031581401825,0.16612780094146729,0.7013744115829468,2.9618831927409057,0.03085690890423253,0.053091094173656296,99.55968169761273,143.3448275862069,75.45340050377834,164.34256926952142,95.94588235294118,188.6870588235294,120.2258883248731,166.76395939086294,125.0,121.0,101.0,145.0,125.0,169.0,149.0,145.0
110,5.5,0.005507946014404297,-0.2132704257965088,1.6481640338897705,0.1574230194091797,-1.7498362064361572,1.524501085281372,0.5468347072601318,0.16512171924114227,0.7001046538352966,2.9636035743629012,0.030008763831290586,0.05110854960571738,99.53562005277045,143.29287598944592,75.49246231155779,164.38442211055278,96.096018735363,188.7377049180328,120.29367088607594,166.6886075949367,125.0,121.0,101.0,145.0,125.0,169.0,149.0,145.0
111,5.550000000000001,0.003415822982788086,-0.21442365646362305,1.6513526439666748,0.15468239784240723,-1.748119592666626,1.5243237018585205,0.5466985702514648,0.1641504168510437,0.6988620758056641,2.9652911094009147,0.029256405654714237,0.04920546929825153,99.5774278215223,143.251968503937,75.51371571072319,164.45137157107231,96.21545667447307,188.80093676814988,120.37721518987341,166.62025316455697,125.0,121.0,101.0,145.0,125.0,169.0,149.0,145.0
112,5.6000000000000005,0.0012526512145996094,-0.21559977531433105,1.6545288562774658,0.15195345878601074,-1.7463500499725342,1.5240232944488525,0.5465555191040039,0.16314557194709778,0.697637677192688,2.9670341003150114,0.02849830753816116,0.0473516653482169,99.58947368421053,143.16842105263157,75.5,164.5,96.3035294117647,188.76705882352942,120.44810126582279,166.56708860759494,125.0,121.0,101.0,145.0,125.0,169.0,149.0,145.0
113,5.65,-0.0008640289306640625,-0.21684002876281738,1.6577379703521729,0.14919495582580566,-1.7446057796478271,1.5236990451812744,0.5463659763336182,0.1621648669242859,0.6964291334152222,2.968749790813144,0.02768409935626847,0.04556739240060001,99.5984251968504,143.10761154855643,75.5,164.5,96.52941176470588,188.8729411764706,120.54060913705584,166.502538071066,125.0,121.0,101.0,145.0,125.0,169.0,149.0,145.0
114,5.7,-0.0028007030487060547,-0.21782851219177246,1.6606037616729736,0.1466841697692871,-1.7429721355438232,1.5234649181365967,0.5462740659713745,0.16127341985702515,0.6952878832817078,2.9703580802480327,0.027015576132226184,0.04387391012643641,99.64921465968587,143.0523560209424,75.5,164.5,96.64622641509433,188.87028301886792,120.61868686868686,166.48232323232324,125.0,121.0,101.0,145.0,125.0,169.0,149.0,145.0
115,5.75,-0.004622697830200195,-0.21878695487976074,1.663395643234253,0.1442263126373291,-1.7414090633392334,1.5232994556427002,0.5461760759353638,0.16043870151042938,0.6941750049591064,2.9718941459962327,0.02634593498794641,0.04222705664362468,99.70418848167539,142.9109947643979,75.5,164.5,96.72,188.84941176470588,120.7375,166.405,125.0,121.0,101.0,145.0,125.0,169.0,149.0,145.0
116,5.800000000000001,-0.006479501724243164,-0.21979713439941406,1.666172742843628,0.14178681373596191,-1.7398197650909424,1.5230662822723389,0.5460482239723206,0.15958817303180695,0.6930983662605286,2.9734566493348518,0.025637276206015087,0.04061253883162356,99.72559366754618,142.83641160949867,75.5,164.5,96.82476635514018,188.84112149532712,120.86913580246913,166.34814814814814,125.0,121.0,101.0,145.0,125.0,169.0,149.0,145.0
117,5.8500000000000005,-0.008214712142944336,-0.22082829475402832,1.6689064502716064,0.1393747329711914,-1.7383053302764893,1.5228826999664307,0.5458865761756897,0.15879735350608826,0.6920593976974487,2.974940213685181,0.02488682847859319,0.03906970369724457,99.72845953002611,142.7284595300261,75.63118811881188,164.509900990099,96.91879350348027,188.85614849187934,120.9753086419753,166.35308641975308,125.0,121.0,101.0,145.0,125.0,169.0,149.0,145.0
118,5.9,-0.009929656982421875,-0.2216191291809082,1.6713626384735107,0.1371746063232422,-1.736802339553833,1.5227224826812744,0.5458430647850037,0.15801659226417542,0.6910526156425476,2.976419921641484,0.024307756670607035,0.0375239084346024,99.72845953002611,142.7284595300261,75.72303921568627,164.5563725490196,97.01616628175519,188.86143187066975,121.0909090909091,166.2211302211302,125.0,121.0,101.0,145.0,125.0,169.0,149.0,145.0
119,5.95,-0.01170659065246582,-0.22252249717712402,1.6739466190338135,0.1348726749420166,-1.7352526187896729,1.5224230289459229,0.545747697353363,0.15720723569393158,0.690031886100769,2.977945812337991,0.023662197459402196,0.03605408277183088,99.77662337662338,142.71948051948053,75.73414634146341,164.609756097561,97.08735632183908,188.83448275862068,121.19756097560976,166.13658536585365,125.0,121.0,101.0,145.0,125.0,169.0,149.0,145.0
120,6.0,-0.01349782943725586,-0.22365140914916992,1.676750898361206,0.1324021816253662,-1.7336885929107666,1.5220363140106201,0.5455331802368164,0.15639369189739227,0.6890035271644592,2.9794801357492138,0.022853570936574554,0.03465680642514712,99.83120204603581,142.61125319693096,75.78536585365853,164.62682926829268,97.16781609195402,188.83448275862068,121.33088235294117,166.07107843137254,125.0,121.0,101.0,145.0,125.0,169.0,149.0,145.0
121,6.050000000000001,-0.015338659286499023,-0.22480463981628418,1.6795294284820557,0.1299588680267334,-1.732088327407837,1.5215752124786377,0.5453073382377625,0.15555769205093384,0.6880013346672058,2.9810497068329718,0.022031379198742446,0.033282739679720424,99.84478371501272,142.55725190839695,75.85956416464892,164.62227602905568,97.25512528473804,188.81548974943053,121.45232273838631,166.04156479217605,125.0,121.0,101.0,145.0,125.0,169.0,149.0,145.0
122,6.1000000000000005,-0.017081737518310547,-0.22590327262878418,1.6822216510772705,0.12757587432861328,-1.7305495738983154,1.5211718082427979,0.5450928211212158,0.15477047860622406,0.687020480632782,2.982556614102532,0.021231730260915446,0.031948651606907685,99.87817258883248,142.51522842639594,75.88968824940048,164.56354916067147,97.36529680365297,188.79680365296804,121.5,166.0,125.0,121.0,101.0,145.0,125.0,169.0,149.0,145.0
123,6.15,-0.018703222274780273,-0.22689270973205566,1.6847813129425049,0.1252880096435547,-1.7290894985198975,1.5208652019500732,0.5449156761169434,0.15404196083545685,0.6860600709915161,2.983985276582756,0.020490862176923263,0.030641731145518505,99.95674300254453,142.40712468193385,75.91626794258373,164.5693779904306,97.52631578947368,188.7574370709382,121.51338199513383,165.9221411192214,125.0,121.0,101.0,145.0,125.0,169.0,149.0,145.0
124,6.2,-0.02036309242248535,-0.22782158851623535,1.6872732639312744,0.12305188179016113,-1.7276017665863037,1.520493745803833,0.5447725057601929,0.1532955914735794,0.6851063966751099,2.9854455035033887,0.01980266755845623,0.02935952474413788,99.98477157360406,142.41116751269035,75.93809523809524,164.57619047619048,97.67667436489607,188.76674364896073,121.5873786407767,165.89320388349515,125.0,121.0,101.0,145.0,125.0,169.0,149.0,145.0
125,6.25,-0.021871566772460938,-0.22869586944580078,1.689683198928833,0.1208653450012207,-1.7262098789215088,1.5202052593231201,0.5446341037750244,0.15262262523174286,0.684174120426178,2.9868082950456185,0.019127587612898615,0.028147070896155077,99.98740554156171,142.3551637279597,75.96437054631829,164.56769596199524,97.82151029748283,188.7254004576659,121.76144578313253,165.85060240963855,125.0,121.0,101.0,145.0,125.0,169.0,149.0,145.0
126,6.300000000000001,-0.023133039474487305,-0.22954511642456055,1.6919963359832764,0.11873435974121094,-1.7249772548675537,1.520056962966919,0.5444706082344055,0.15206947922706604,0.6832886338233948,2.9880080355600467,0.018421767782211728,0.027042026473195577,100.00503778337531,142.3148614609572,76.01654846335697,164.4775413711584,97.86926605504587,188.75229357798165,121.84210526315789,165.76315789473685,125.0,121.0,101.0,145.0,125.0,169.0,149.0,145.0
127,6.3500000000000005,-0.024385929107666016,-0.23032164573669434,1.6942031383514404,0.11668777465820312,-1.723750352859497,1.51991868019104,0.5443407297134399,0.15151990950107574,0.6824259757995605,2.9892050042518905,0.017765305788414867,0.02593482358379615,100.06030150753769,142.19346733668343,76.04255319148936,164.43262411347519,97.9590909090909,188.74772727272727,121.98076923076923,165.73557692307693,125.0,121.0,101.0,145.0,125.0,169.0,149.0,145.0
128,6.4,-0.025569438934326172,-0.23102355003356934,1.6962530612945557,0.11476445198059082,-1.7225687503814697,1.519836187362671,0.5442347526550293,0.15100276470184326,0.6816161274909973,2.9903569869940814,0.01714306863984403,0.024841598893233008,100.1125,142.11,76.08571428571429,164.3761904761905,98.0204081632653,188.71655328798187,122.01201923076923,165.64903846153845,125.0,121.0,101.0,145.0,125.0,169.0,149.0,145.0
129,6.45,-0.026814699172973633,-0.23169875144958496,1.6982710361480713,0.11287140846252441,-1.7213466167449951,1.5197021961212158,0.5441491603851318,0.1504559963941574,0.6808095574378967,2.9915524337823283,0.016551671566854054,0.023737360934163013,100.285,142.015,76.13270142180095,164.37440758293837,98.12925170068027,188.68934240362813,122.11270983213429,165.4748201438849,125.0,121.0,101.0,145.0,125.0,169.0,149.0,145.0
130,6.5,-0.028296709060668945,-0.2326056957244873,1.7005226612091064,0.11082029342651367,-1.7199642658233643,1.519322156906128,0.5439718961715698,0.1497991532087326,0.6799866557121277,2.9929047429017923,0.01583116457273489,0.02264117279718717,100.3142144638404,141.95760598503742,76.21698113207547,164.35141509433961,98.21348314606742,188.7258426966292,122.21342925659472,165.38129496402877,125.0,121.0,101.0,145.0,125.0,169.0,149.0,145.0
131,6.550000000000001,-0.02983999252319336,-0.23346686363220215,1.7027041912078857,0.10882925987243652,-1.7185394763946533,1.5188710689544678,0.5438230037689209,0.149113267660141,0.6791789531707764,2.9943010263709664,0.015153893091872216,0.021554170225246045,100.3575,141.89,76.22931442080379,164.32624113475177,98.31531531531532,188.6689189189189,122.22248803827752,165.30382775119617,125.0,121.0,101.0,145.0,125.0,169.0,149.0,145.0
132,6.6000000000000005,-0.03136873245239258,-0.2343142032623291,1.70487380027771,0.10684347152709961,-1.7171223163604736,1.5184061527252197,0.5436780452728271,0.14843547344207764,0.6783705949783325,2.9956895121540676,0.014486052896947344,0.020495745041931992,100.3975,141.7775,76.25355450236967,164.3127962085308,98.42696629213484,188.63370786516853,122.37320574162679,165.22727272727272,125.0,121.0,101.0,145.0,125.0,169.0,149.0,145.0
133,6.65,-0.03282618522644043,-0.23517370223999023,1.7069885730743408,0.10489773750305176,-1.7157495021820068,1.5179531574249268,0.543512761592865,0.14779353141784668,0.6776021718978882,2.9970305506839168,0.013789503269763205,0.01949664178768473,100.38190954773869,141.7286432160804,76.29691211401425,164.2541567695962,98.50224215246637,188.60986547085201,122.55502392344498,165.19617224880383,125.0,121.0,101.0,145.0,125.0,169.0,149.0,145.0
134,6.7,-0.034065961837768555,-0.23597335815429688,1.708965539932251,0.1030435562133789,-1.7145206928253174,1.5176537036895752,0.5433467626571655,0.14725616574287415,0.6768854260444641,2.9982254098072327,0.013091759847195277,0.01856239858258346,100.38095238095238,141.64661654135338,76.32380952380953,164.25714285714287,98.64044943820225,188.52134831460674,122.65947242206235,165.1294964028777,125.0,121.0,101.0,145.0,125.0,169.0,149.0,145.0
135,6.75,-0.035153865814208984,-0.23675322532653809,1.7108871936798096,0.10121488571166992,-1.7133891582489014,1.5174143314361572,0.5431690216064453,0.14679203927516937,0.6761932969093323,2.9993213717443554,0.012379364992841006,0.017720420612533944,100.40350877192982,141.59899749373434,76.34597156398104,164.22985781990522,98.8018018018018,188.50675675675674,122.7517730496454,165.04728132387706,125.0,121.0,101.0,145.0,125.0,169.0,149.0,145.0
136,6.800000000000001,-0.03612518310546875,-0.23746895790100098,1.712700605392456,0.0994572639465332,-1.7123324871063232,1.517218828201294,0.5430077314376831,0.14638255536556244,0.6755324602127075,3.0003435138277728,0.011691036221712489,0.01695035437275051,100.51507537688443,141.51507537688443,76.48235294117647,164.13882352941175,98.87837837837837,188.50225225225225,122.82863849765258,165.0093896713615,125.0,121.0,101.0,145.0,125.0,169.0,149.0,145.0
137,6.8500000000000005,-0.03718256950378418,-0.23807430267333984,1.7144033908843994,0.09780001640319824,-1.7112224102020264,1.5170042514801025,0.542913019657135,0.14592982828617096,0.6748758554458618,3.0014246725859124,0.01110311710470144,0.01611278222597607,100.5775,141.4225,76.62823529411764,164.13647058823528,98.93959731543625,188.47203579418345,122.93617021276596,164.96690307328606,125.0,121.0,101.0,145.0,125.0,169.0,149.0,145.0
138,6.9,-0.03834080696105957,-0.23865222930908203,1.7160861492156982,0.09616923332214355,-1.710045576095581,1.5167129039764404,0.5428439378738403,0.1454281359910965,0.6742141246795654,3.002575490155763,0.010556304752249323,0.015252225431280143,100.61904761904762,141.35338345864662,76.69953051643192,164.10798122065728,99.03125,188.41964285714286,123.0,164.90117647058824,125.0,121.0,101.0,145.0,125.0,169.0,149.0,145.0
139,6.95,-0.03949451446533203,-0.23920273780822754,1.717740774154663,0.0945596694946289,-1.7088706493377686,1.5164082050323486,0.5427871346473694,0.14492855966091156,0.6735546588897705,3.003725012944851,0.010029818955501174,0.01440859355237336,100.67412935323384,141.32587064676616,76.76,164.1129411764706,99.06919642857143,188.42633928571428,123.04918032786885,164.87822014051523,125.0,121.0,101.0,145.0,125.0,169.0,149.0,145.0
140,7.0,-0.04071354866027832,-0.23976778984069824,1.7194139957427979,0.09294366836547852,-1.7076513767242432,1.5160534381866455,0.5427296161651611,0.14439913630485535,0.6728910803794861,3.004919149484846,0.009505798327502861,0.013550119679700106,100.67487684729063,141.2487684729064,76.82863849765258,164.1150234741784,99.13870246085011,188.46085011185681,123.11320754716981,164.83254716981133,125.0,121.0,101.0,145.0,125.0,169.0,149.0,145.0
141,7.050000000000001,-0.04198813438415527,-0.24023818969726562,1.7209703922271729,0.09142422676086426,-1.7063934803009033,1.5156428813934326,0.5427257418632507,0.14384104311466217,0.6722452044487,3.0061554941814737,0.009059782801741027,0.012691538456564946,100.80339805825243,141.14077669902912,76.86416861826697,164.03981264637002,99.35412026726058,188.4075723830735,123.24355971896955,164.68384074941451,125.0,121.0,101.0,145.0,125.0,169.0,149.0,145.0
142,7.1000000000000005,-0.043213844299316406,-0.2407207489013672,1.7224905490875244,0.08992981910705566,-1.7051665782928467,1.5152208805084229,0.5427063703536987,0.14330732822418213,0.6716278791427612,3.007359628098389,0.00859269324278324,0.011892383083482744,100.85609756097561,141.0609756097561,76.97429906542057,164.00934579439252,99.46563192904657,188.32372505543236,123.37062937062937,164.56876456876458,125.0,121.0,101.0,145.0,125.0,169.0,149.0,145.0
143,7.15,-0.0444340705871582,-0.2412407398223877,1.7240493297576904,0.08840322494506836,-1.70393967628479,1.5147607326507568,0.5426658391952515,0.14277774095535278,0.6710085868835449,3.0085609757435705,0.008098125683450245,0.011137510721431444,100.89756097560975,141.02439024390245,76.97429906542057,164.00934579439252,99.56888888888889,188.28444444444443,123.46744186046512,164.53023255813955,125.0,121.0,101.0,145.0,125.0,169.0,149.0,145.0
144,7.2,-0.045548200607299805,-0.24179291725158691,1.7255990505218506,0.08687329292297363,-1.7027809619903564,1.5143449306488037,0.5425933599472046,0.1423002928495407,0.6704126596450806,3.0096912692886826,0.00755653102140959,0.010443513376814198,100.92530120481928,140.9301204819277,77.0,164.0,99.6815144766147,188.27616926503342,123.55324074074075,164.44675925925927,125.0,121.0,101.0,145.0,125.0,169.0,149.0,145.0
145,7.25,-0.046660661697387695,-0.24231553077697754,1.7270781993865967,0.08539867401123047,-1.7016212940216064,1.513892412185669,0.5425335168838501,0.14182330667972565,0.669843316078186,3.010823503459812,0.007032266313991867,0.009788632569843279,100.91566265060241,140.88192771084337,77.01631701631702,163.96503496503496,99.734375,188.24776785714286,123.66821345707656,164.40139211136892,125.0,121.0,101.0,145.0,125.0,169.0,149.0,145.0
146,7.300000000000001,-0.04766201972961426,-0.24282431602478027,1.7284915447235107,0.08396553993225098,-1.7005345821380615,1.5135018825531006,0.5424646735191345,0.14139951765537262,0.6693066954612732,3.011880497847311,0.006493410726318614,0.009182081392091765,101.0289156626506,140.7710843373494,77.06712962962963,163.90046296296296,99.7897091722595,188.20581655480984,123.78654292343387,164.26218097447796,125.0,121.0,101.0,145.0,125.0,169.0,149.0,145.0
147,7.3500000000000005,-0.048768043518066406,-0.24344873428344727,1.7299988269805908,0.08247590065002441,-1.6993768215179443,1.5130102634429932,0.542346715927124,0.14092864096164703,0.6687747836112976,3.013005011102984,0.005884021023157511,0.008572979707000099,101.11650485436893,140.6771844660194,77.13023255813954,163.8139534883721,99.91741071428571,188.078125,123.87645687645687,164.13286713286712,125.0,121.0,101.0,145.0,125.0,169.0,149.0,145.0
148,7.4,-0.049823760986328125,-0.2441093921661377,1.731539011001587,0.08095502853393555,-1.6982519626617432,1.5125291347503662,0.5422031879425049,0.14048314094543457,0.6682422757148743,3.0140940037506723,0.005239941907779268,0.008002166059644497,101.11893203883496,140.626213592233,77.20554272517322,163.7390300230947,100.00444444444445,187.97333333333333,123.95081967213115,164.12177985948477,125.0,121.0,101.0,145.0,125.0,169.0,149.0,145.0
149,7.45,-0.05071091651916504,-0.2446584701538086,1.7329556941986084,0.0795130729675293,-1.6972424983978271,1.5121877193450928,0.5420962572097778,0.14011597633361816,0.6677262783050537,3.015069837342355,0.00465091442877685,0.007461734584266848,101.14425427872861,140.55745721271393,77.24193548387096,163.7188940092166,100.07795100222717,187.89532293986636,124.0,164.0278422273782,125.0,121.0,101.0,145.0,125.0,169.0,149.0,145.0
150,7.5,-0.05159354209899902,-0.24524235725402832,1.7344086170196533,0.07803964614868164,-1.6962330341339111,1.511812448501587,0.5419703125953674,0.1397518813610077,0.6672073602676392,3.016043582542526,0.0040355043971134884,0.006958491944434966,101.20924574209246,140.43552311435522,77.34018264840182,163.662100456621,100.16888888888889,187.76444444444445,124.09699769053118,164.0,125.0,121.0,101.0,145.0,125.0,169.0,149.0,145.0
151,7.550000000000001,-0.052414655685424805,-0.24577546119689941,1.7358028888702393,0.07660770416259766,-1.6952669620513916,1.5114943981170654,0.5418626666069031,0.13941583037376404,0.6666967868804932,3.016975338491384,0.003448232566316434,0.006460450794787916,101.2764423076923,140.33173076923077,77.3972602739726,163.58447488584474,100.2688888888889,187.76888888888888,124.12064965197216,163.95127610208817,125.0,121.0,101.0,145.0,125.0,169.0,149.0,145.0
152,7.6000000000000005,-0.053287506103515625,-0.24617648124694824,1.7370493412017822,0.07530021667480469,-1.6942694187164307,1.5111629962921143,0.5418277978897095,0.13905131816864014,0.6662019491195679,3.017944695397931,0.002969576800785454,0.0059241626035168,101.35748792270532,140.22705314009661,77.53211009174312,163.52981651376146,100.33111111111111,187.7,124.2175925925926,163.86342592592592,125.0,121.0,101.0,145.0,125.0,169.0,149.0,145.0
153,7.65,-0.05424809455871582,-0.24658417701721191,1.738318681716919,0.07398700714111328,-1.6932141780853271,1.510765790939331,0.5417992472648621,0.13864512741565704,0.6656954288482666,3.0189732469327635,0.002505177866696541,0.005364779992657912,101.4140435835351,140.181598062954,77.5766590389016,163.48512585812358,100.43141592920354,187.70353982300884,124.32027649769586,163.73502304147465,125.0,121.0,101.0,145.0,125.0,169.0,149.0,145.0
154,7.7,-0.05523204803466797,-0.24703049659729004,1.7396023273468018,0.07266545295715332,-1.6921403408050537,1.5103113651275635,0.5417514443397522,0.13822941482067108,0.6652016043663025,3.020017678311016,0.0020124980953947474,0.004839654042643628,101.4927536231884,140.09661835748793,77.65747126436781,163.4528735632184,100.570796460177,187.60619469026548,124.44724770642202,163.61009174311926,125.0,121.0,101.0,145.0,125.0,169.0,149.0,145.0
155,7.75,-0.05619025230407715,-0.24753522872924805,1.7409331798553467,0.07130289077758789,-1.6910803318023682,1.5098249912261963,0.5416696667671204,0.13782823085784912,0.6647111177444458,3.0210444809892163,0.0014710043587351886,0.0043715622345622054,101.59661835748793,140.07729468599032,77.77625570776256,163.3675799086758,100.60398230088495,187.56415929203538,124.558352402746,163.58352402745996,125.0,121.0,101.0,145.0,125.0,169.0,149.0,145.0
156,7.800000000000001,-0.05714535713195801,-0.24805426597595215,1.742285966873169,0.06992983818054199,-1.6900250911712646,1.5093748569488525,0.541579008102417,0.13742941617965698,0.6642143726348877,3.022065226584141,0.0009218974840539129,0.0038712135498504786,101.67788461538461,139.96153846153845,77.8329519450801,163.3432494279176,100.77262693156733,187.5121412803532,124.61784897025171,163.52402745995423,125.0,121.0,101.0,145.0,125.0,169.0,149.0,145.0
157,7.8500000000000005,-0.05809521675109863,-0.24849700927734375,1.7435429096221924,0.06863093376159668,-1.6889727115631104,1.5089123249053955,0.5415260791778564,0.13703091442584991,0.6637336015701294,3.023085923682278,0.0004286804330982321,0.003388876253753656,101.74463007159905,139.88066825775655,77.8329519450801,163.3432494279176,100.83259911894272,187.5022026431718,124.72477064220183,163.44954128440367,125.0,121.0,101.0,145.0,125.0,169.0,149.0,145.0
158,7.9,-0.059073686599731445,-0.2490215301513672,1.7448360919952393,0.06731057167053223,-1.687898874282837,1.508394479751587,0.5414319038391113,0.13662172853946686,0.6632741689682007,3.0241239733109695,-0.00012739169608351063,0.0029323880219474514,101.73571428571428,139.85476190476192,77.91954022988506,163.22528735632184,100.94065934065934,187.4021978021978,124.82379862700229,163.37070938215103,125.0,121.0,101.0,145.0,125.0,169.0,149.0,145.0
159,7.95,-0.05987071990966797,-0.2494494915008545,1.7460176944732666,0.0660555362701416,-1.6869490146636963,1.508004903793335,0.5413662195205688,0.13629630208015442,0.6628329753875732,3.0250403898948064,-0.0006429668856508589,0.0025294023229323736,101.8547619047619,139.7357142857143,77.97018348623853,163.16743119266056,100.95374449339207,187.37885462555067,124.89220183486239,163.26605504587155,125.0,121.0,101.0,145.0,125.0,169.0,149.0,145.0
160,8.0,-0.06083369255065918,-0.2499685287475586,1.7472879886627197,0.0647575855255127,-1.6858875751495361,1.5074965953826904,0.5412709712982178,0.13589471578598022,0.6623837947845459,3.026065242112257,-0.0011963011551307543,0.002078704888398698,101.9047619047619,139.73095238095237,78.04629629629629,163.0625,101.0709534368071,187.3880266075388,125.0,163.22685185185185,125.0,121.0,101.0,145.0,125.0,169.0,149.0,145.0
161,8.05,-0.06168770790100098,-0.25037574768066406,1.7484104633331299,0.06356596946716309,-1.6849029064178467,1.5070874691009521,0.5412196516990662,0.13554154336452484,0.6619644165039062,3.0270172046762793,-0.001686671240269329,0.001638849678961921,101.91626794258373,139.6818181818182,78.0715935334873,163.0715935334873,101.19256017505471,187.33916849015318,125.05747126436782,163.0758620689655,125.0,121.0,101.0,145.0,125.0,169.0,149.0,145.0
162,8.1,-0.06255006790161133,-0.25084424018859863,1.7495920658111572,0.06232166290283203,-1.6839048862457275,1.5065906047821045,0.5411369204521179,0.1351870447397232,0.6615433692932129,3.0279782214930786,-0.0022240162501788174,0.0012775111835617813,101.99043062200957,139.55263157894737,78.1264367816092,162.9977011494253,101.29912663755458,187.2117903930131,125.09699769053118,163.0,125.0,121.0,101.0,145.0,125.0,169.0,149.0,145.0
163,8.15,-0.06339478492736816,-0.2512795925140381,1.7507412433624268,0.06110215187072754,-1.682920217514038,1.506105661392212,0.5410691499710083,0.1348397433757782,0.6611236333847046,3.0289273614135688,-0.00273791914290176,0.0009223109566022731,102.10952380952381,139.35476190476192,78.16247139588101,162.96109839816933,101.40958605664488,187.11546840958604,125.12442396313364,163.0,125.0,121.0,101.0,145.0,125.0,169.0,149.0,145.0
164,8.200000000000001,-0.06428408622741699,-0.2516360282897949,1.7517921924591064,0.05996990203857422,-1.6819102764129639,1.5056164264678955,0.5410451889038086,0.13446864485740662,0.6607186794281006,3.0299056401423754,-0.003184151839850803,0.0005260374281964277,102.12114014251782,139.27790973871734,78.26363636363637,162.8659090909091,101.44444444444444,187.0261437908497,125.27522935779817,162.86697247706422,125.0,121.0,101.0,145.0,125.0,169.0,149.0,145.0
165,8.25,-0.06513762474060059,-0.2520277500152588,1.7528612613677979,0.05882000923156738,-1.6809241771697998,1.505131483078003,0.5409983396530151,0.13411583006381989,0.6603226661682129,3.030857580608216,-0.003665610025952308,0.0001621523932501467,102.20094562647755,139.2127659574468,78.3310502283105,162.75570776255708,101.5304347826087,186.98043478260868,125.41363636363636,162.76363636363635,125.0,121.0,101.0,145.0,125.0,169.0,149.0,145.0
166,8.3,-0.06594657897949219,-0.2524256706237793,1.7539007663726807,0.0576939582824707,-1.6799695491790771,1.5046765804290771,0.540941596031189,0.13378477096557617,0.65994793176651,3.031776172286854,-0.004163003586877688,-0.000187139350791287,102.239336492891,139.19431279620852,78.38775510204081,162.7278911564626,101.59002169197397,186.93709327548808,125.5,162.68778280542986,125.0,121.0,101.0,145.0,125.0,169.0,149.0,145.0
167,8.35,-0.06673383712768555,-0.2528700828552246,1.7549822330474854,0.056531667709350586,-1.6790268421173096,1.5042102336883545,0.54085773229599,0.13346590101718903,0.6595731377601624,3.0326797609884513,-0.004698826063708306,-0.0005040589582626165,102.27790973871734,139.12114014251782,78.43792325056434,162.65237020316027,101.63340563991324,186.85683297180043,125.60317460317461,162.65759637188208,125.0,121.0,101.0,145.0,125.0,169.0,149.0,145.0
168,8.4,-0.06743931770324707,-0.25329136848449707,1.7560102939605713,0.05540609359741211,-1.6781423091888428,1.503816843032837,0.5407752990722656,0.13318508863449097,0.659218966960907,3.0335255568594883,-0.0052336938905986185,-0.0008117987548106239,102.36342042755345,139.083135391924,78.53047404063206,162.58013544018058,101.7516339869281,186.72766884531592,125.68934240362812,162.56916099773244,125.0,121.0,101.0,145.0,125.0,169.0,149.0,145.0
169,8.450000000000001,-0.06807160377502441,-0.2537400722503662,1.7570807933807373,0.05423593521118164,-1.6773064136505127,1.5034592151641846,0.5406707525253296,0.13294018805027008,0.6588552594184875,3.0343212609381083,-0.0057983075898281385,-0.0010817070751719816,102.46445497630332,138.97156398104266,78.62727272727273,162.49772727272727,101.92494481236203,186.6269315673289,125.76818181818182,162.5,125.0,121.0,101.0,145.0,125.0,169.0,149.0,145.0
170,8.5,-0.06866073608398438,-0.2541050910949707,1.7580602169036865,0.05313229560852051,-1.6765015125274658,1.5031335353851318,0.5406040549278259,0.1327126920223236,0.6585012078285217,3.0350888230212085,-0.0063052297183279335,-0.0013410725735062024,102.59004739336493,138.89099526066352,78.6938775510204,162.43537414965985,102.04625550660793,186.62114537444933,125.8629213483146,162.43595505617978,125.0,121.0,101.0,145.0,125.0,169.0,149.0,145.0
171,8.55,-0.06928730010986328,-0.25445127487182617,1.7589986324310303,0.05207085609436035,-1.6756737232208252,1.5027859210968018,0.5405501127243042,0.13246652483940125,0.6581608653068542,3.035881082339789,-0.00679251341566803,-0.001615668286015023,102.70685579196217,138.806146572104,78.80681818181819,162.38636363636363,102.05934065934066,186.5978021978022,125.91628959276018,162.3846153846154,125.0,121.0,101.0,145.0,125.0,169.0,149.0,145.0
172,8.6,-0.0700681209564209,-0.25483250617980957,1.760002851486206,0.05098390579223633,-1.674743890762329,1.5023539066314697,0.5404947996139526,0.13214817643165588,0.6577965617179871,3.0367750041881663,-0.007272969854142224,-0.001960300454644428,102.77488151658768,138.77488151658767,78.86104783599089,162.38268792710707,102.12008733624454,186.57205240174673,126.04772727272727,162.34545454545454,125.0,121.0,101.0,145.0,125.0,169.0,149.0,145.0
173,8.65,-0.07082605361938477,-0.25527477264404297,1.7610399723052979,0.04987168312072754,-1.673827886581421,1.5019190311431885,0.5404039621353149,0.13184334337711334,0.6574456691741943,3.0376500816326124,-0.0078076152808236226,-0.002278463785919839,102.78199052132702,138.72037914691944,78.91571753986332,162.30296127562642,102.23296703296704,186.47472527472527,126.12072892938497,162.21640091116174,125.0,121.0,101.0,145.0,125.0,169.0,149.0,145.0
174,8.700000000000001,-0.07150101661682129,-0.25569725036621094,1.762047529220581,0.04876708984375,-1.6729662418365479,1.5015060901641846,0.5403137803077698,0.13157789409160614,0.6571027636528015,3.0384710373736543,-0.008342410485667941,-0.0025361523868930548,102.80188679245283,138.625,79.01590909090909,162.24318181818182,102.30131004366812,186.43886462882097,126.125284738041,162.13211845102506,125.0,121.0,101.0,145.0,125.0,169.0,149.0,145.0
175,8.75,-0.07226133346557617,-0.25603556632995605,1.7630012035369873,0.047715187072753906,-1.6720468997955322,1.5010340213775635,0.5402771830558777,0.1312684416770935,0.6567466259002686,3.0393537665003416,-0.00879324917838679,-0.002820500405693847,102.87793427230046,138.43896713615024,79.03890160183066,162.1716247139588,102.40522875816994,186.32897603485839,126.20045558086561,162.09339407744875,125.0,121.0,101.0,145.0,125.0,169.0,149.0,145.0
176,8.8,-0.07298946380615234,-0.25630664825439453,1.7638423442840576,0.046751976013183594,-1.671154260635376,1.500598669052124,0.5402700304985046,0.130971759557724,0.6564213633537292,3.040212795551086,-0.00920271634646118,-0.003108479414137428,102.94131455399061,138.3661971830986,79.07142857142857,162.09907834101384,102.49126637554585,186.25327510917032,126.313769751693,161.97516930022573,125.0,121.0,101.0,145.0,125.0,169.0,149.0,145.0
177,8.85,-0.07367587089538574,-0.25662875175476074,1.7647035121917725,0.045769453048706055,-1.670288324356079,1.5001633167266846,0.5402304530143738,0.1306970715522766,0.6561121344566345,3.041041067887529,-0.009662515486733398,-0.0033558659952874046,103.01179245283019,138.22641509433961,79.1264367816092,161.9977011494253,102.54923413566739,186.19912472647704,126.44295302013423,161.85458612975393,125.0,121.0,101.0,145.0,125.0,169.0,149.0,145.0
178,8.9,-0.07439041137695312,-0.25696301460266113,1.7655351161956787,0.044818878173828125,-1.6694066524505615,1.4997031688690186,0.5401858687400818,0.1304093897342682,0.6558259725570679,3.0418846165668474,-0.010130915856613442,-0.0036054795892614924,103.07058823529412,138.2,79.1986301369863,161.92465753424656,102.63398692810458,186.11546840958604,126.50337078651685,161.7932584269663,125.0,121.0,101.0,145.0,125.0,169.0,149.0,145.0
179,8.950000000000001,-0.07504820823669434,-0.25728797912597656,1.7663662433624268,0.04386138916015625,-1.6685631275177002,1.4992825984954834,0.5401403307914734,0.13014838099479675,0.655536413192749,3.0426889662062133,-0.010599677574110363,-0.0038381297968942928,103.11214953271028,138.14953271028037,79.29024943310658,161.8639455782313,102.68627450980392,186.05882352941177,126.58558558558559,161.70945945945945,125.0,121.0,101.0,145.0,125.0,169.0,149.0,145.0
180,9.0,-0.0757143497467041,-0.25762057304382324,1.7672111988067627,0.042894840240478516,-1.6677134037017822,1.498847246170044,0.5400913953781128,0.12988385558128357,0.655241847038269,3.043499260766435,-0.01107059818234777,-0.0040651073985192585,103.17564402810305,138.11943793911007,79.3922902494331,161.78004535147392,102.7527114967462,186.01301518438177,126.68680089485458,161.6890380313199,125.0,121.0,101.0,145.0,125.0,169.0,149.0,145.0
181,9.05,-0.07632613182067871,-0.2579019069671631,1.7679975032806396,0.04197096824645996,-1.6669046878814697,1.4984767436981201,0.5400621891021729,0.12964263558387756,0.6549557447433472,3.04427166416673,-0.011510753730621114,-0.0043021581273199345,103.1830985915493,137.99765258215962,79.41891891891892,161.731981981982,102.92105263157895,185.91228070175438,126.796875,161.58705357142858,125.0,121.0,101.0,145.0,125.0,169.0,149.0,145.0
182,9.1,-0.07682228088378906,-0.25811767578125,1.7686636447906494,0.0411226749420166,-1.6661732196807861,1.4981410503387451,0.5400533080101013,0.129454106092453,0.6547090411186218,3.044968156415051,-0.011928307136668464,-0.004457596338502833,103.25882352941177,137.97411764705882,79.48873873873873,161.66216216216216,103.02649006622516,185.78807947019868,126.88340807174887,161.54708520179372,125.0,121.0,101.0,145.0,125.0,169.0,149.0,145.0
183,9.15,-0.07719969749450684,-0.2583346366882324,1.7693283557891846,0.04025840759277344,-1.665522813796997,1.4978888034820557,0.540030837059021,0.1293216347694397,0.6544654369354248,3.0455828419763606,-0.012365929399009462,-0.004578504844996775,103.35362997658079,137.87587822014052,79.61224489795919,161.5668934240363,103.09471365638767,185.69603524229075,126.92152466367713,161.4596412556054,125.0,121.0,101.0,145.0,125.0,169.0,149.0,145.0
184,9.200000000000001,-0.07764863967895508,-0.2585337162017822,1.770015001296997,0.03938889503479004,-1.6648261547088623,1.4976022243499756,0.5400259494781494,0.12915438413619995,0.6541985273361206,3.046246503484462,-0.012770461956979094,-0.004737727495308305,103.49767441860465,137.72790697674418,79.68934240362812,161.53061224489795,103.13436123348018,185.65859030837004,127.01573033707865,161.37752808988765,125.0,121.0,101.0,145.0,125.0,169.0,149.0,145.0
185,9.25,-0.07825493812561035,-0.25881147384643555,1.770777940750122,0.03848910331726074,-1.6640236377716064,1.4972078800201416,0.5399958491325378,0.12891505658626556,0.6539238691329956,3.0470117797181646,-0.013205583725687229,-0.004945834248958532,103.55244755244755,137.6993006993007,79.84162895927602,161.42307692307693,103.22368421052632,185.625,127.09706546275395,161.36117381489842,125.0,121.0,101.0,145.0,125.0,169.0,149.0,145.0
186,9.3,-0.07882404327392578,-0.25896167755126953,1.7714269161224365,0.037676334381103516,-1.6632530689239502,1.4968817234039307,0.5400278568267822,0.12868797779083252,0.6536495685577393,3.047753257454644,-0.013544157081136494,-0.005184061115867575,103.64733178654292,137.61716937354987,79.84162895927602,161.42307692307693,103.31947483588621,185.56236323851203,127.18693693693693,161.30180180180182,125.0,121.0,101.0,145.0,125.0,169.0,149.0,145.0
187,9.35,-0.07938218116760254,-0.2591843605041504,1.7721145153045654,0.03683328628540039,-1.662487268447876,1.4965317249298096,0.5400197505950928,0.12846988439559937,0.653391420841217,3.0484839169637374,-0.013944857093041217,-0.005387940551032787,103.72790697674418,137.49767441860465,79.88636363636364,161.3909090909091,103.41921397379913,185.52620087336246,127.24269662921348,161.19101123595505,125.0,121.0,101.0,145.0,125.0,169.0,149.0,145.0
188,9.4,-0.08002424240112305,-0.2594258785247803,1.7728135585784912,0.03599429130554199,-1.6616623401641846,1.4960954189300537,0.5400104522705078,0.12821251153945923,0.6531347036361694,3.049272325289255,-0.014346516334934563,-0.005589664672066313,103.72453703703704,137.45138888888889,80.00452488687783,161.29185520361992,103.51859956236324,185.44420131291028,127.40311804008908,161.11581291759467,125.0,121.0,101.0,145.0,125.0,169.0,149.0,145.0
189,9.450000000000001,-0.08053326606750488,-0.25959086418151855,1.7734029293060303,0.03522205352783203,-1.6609299182891846,1.4957444667816162,0.5400258302688599,0.1280151605606079,0.6529048681259155,3.0499713140213927,-0.014715588256833,-0.0057437948474951496,103.85981308411215,137.33177570093457,80.01590909090909,161.24318181818182,103.60434782608695,185.3891304347826,127.41964285714286,161.0,125.0,121.0,101.0,145.0,125.0,169.0,149.0,145.0
190,9.5,-0.08115577697753906,-0.2598285675048828,1.774071455001831,0.03440690040588379,-1.6601192951202393,1.495298147201538,0.5400152206420898,0.1277671903371811,0.6526643633842468,3.0507446229095208,-0.01511939950770059,-0.0059158898265292414,103.95581395348837,137.18372093023257,80.05949656750572,161.17848970251717,103.62800875273523,185.32603938730853,127.5,160.90178571428572,125.0,121.0,101.0,145.0,125.0,169.0,149.0,145.0
191,9.55,-0.08187484741210938,-0.26012611389160156,1.7747862339019775,0.03357529640197754,-1.6592447757720947,1.4947845935821533,0.5399829149246216,0.12747564911842346,0.6524255275726318,3.0515781636485073,-0.015552898372881862,-0.006116411942812342,103.97429906542057,137.1355140186916,80.1080459770115,161.04597701149424,103.71397379912663,185.264192139738,127.57238307349665,160.7839643652561,125.0,121.0,101.0,145.0,125.0,169.0,149.0,145.0
192,9.600000000000001,-0.0825204849243164,-0.26037168502807617,1.7754294872283936,0.032788991928100586,-1.6584217548370361,1.4943177700042725,0.5399690866470337,0.12721692025661469,0.652203381061554,3.0523612883720688,-0.01596096236942826,-0.00629118032966408,104.02325581395348,137.13023255813954,80.18949771689498,160.96118721461187,103.83114035087719,185.25877192982455,127.65548098434004,160.72035794183446,125.0,121.0,101.0,145.0,125.0,169.0,149.0,145.0
193,9.65,-0.08311200141906738,-0.2605476379394531,1.7759907245635986,0.03206038475036621,-1.6576378345489502,1.4938900470733643,0.5399855971336365,0.12698090076446533,0.6519936919212341,3.053109918057829,-0.016324903837739813,-0.006450935448269485,104.09722222222223,137.0625,80.31519274376417,160.89342403628117,103.88131868131867,185.18241758241757,127.75,160.66071428571428,125.0,121.0,101.0,145.0,125.0,169.0,149.0,145.0
194,9.700000000000001,-0.0837254524230957,-0.2607264518737793,1.77657151222229,0.031322479248046875,-1.6568400859832764,1.4934570789337158,0.5400023460388184,0.12673451006412506,0.6517734527587891,3.053872004027726,-0.016683364972745224,-0.006627297794924424,104.13023255813954,137.02325581395348,80.36794582392777,160.82844243792326,104.01754385964912,185.01973684210526,127.796875,160.58705357142858,125.0,121.0,101.0,145.0,125.0,169.0,149.0,145.0
195,9.75,-0.08419966697692871,-0.2608816623687744,1.777134656906128,0.03057241439819336,-1.656134843826294,1.493096113204956,0.5400165915489197,0.12655307352542877,0.6515544652938843,3.054542016100814,-0.017046888559584056,-0.006736414237837402,104.1355140186916,136.97429906542055,80.42212189616252,160.7584650112867,104.08078602620087,184.9235807860262,127.8993288590604,160.52572706935123,125.0,121.0,101.0,145.0,125.0,169.0,149.0,145.0
196,9.8,-0.08456897735595703,-0.261016845703125,1.7776520252227783,0.029842853546142578,-1.6555025577545166,1.4927966594696045,0.5400300025939941,0.12642045319080353,0.651354193687439,3.0551400459007043,-0.017416932725878104,-0.006802097916862097,104.22969837587007,136.86774941995358,80.49551569506727,160.695067264574,104.21304347826087,184.8304347826087,127.97772828507794,160.48552338530067,125.0,121.0,101.0,145.0,125.0,169.0,149.0,145.0
197,9.850000000000001,-0.08490371704101562,-0.26110029220581055,1.7781040668487549,0.029161930084228516,-1.6548960208892822,1.4925272464752197,0.5400656461715698,0.12630128860473633,0.6511650681495667,3.05571500047606,-0.01775233925192093,-0.006864095073255121,104.35565819861432,136.74826789838338,80.6433408577878,160.60496613995485,104.2292576419214,184.74890829694323,128.07589285714286,160.46428571428572,125.0,121.0,101.0,145.0,125.0,169.0,149.0,145.0
198,9.9,-0.08531737327575684,-0.26117968559265137,1.7785742282867432,0.028486013412475586,-1.6542432308197021,1.492253065109253,0.540111780166626,0.12614387273788452,0.6509613990783691,3.0563388951241035,-0.018063518429630075,-0.00699982435273623,104.4367816091954,136.64827586206897,80.68934240362812,160.53061224489795,104.33842794759825,184.69213973799125,128.17897091722594,160.36017897091722,125.0,121.0,101.0,145.0,125.0,169.0,149.0,145.0
199,9.950000000000001,-0.08572530746459961,-0.2612624168395996,1.7790167331695557,0.027834177017211914,-1.653595209121704,1.4919664859771729,0.540154218673706,0.1259893923997879,0.6507759094238281,3.056957131299864,-0.018381898100441482,-0.007117014169374126,104.47356321839081,136.55862068965519,80.77977528089887,160.43370786516854,104.3646288209607,184.64847161572052,128.25,160.33928571428572,125.0,121.0,101.0,145.0,125.0,169.0,149.0,145.0
200,10.0,-0.08613467216491699,-0.2612648010253906,1.7793724536895752,0.02725529670715332,-1.6529533863067627,1.4917185306549072,0.540237545967102,0.12582996487617493,0.6505988836288452,3.0575745364202245,-0.01863605219197089,-0.007274257167079441,104.57931034482759,136.55632183908045,80.86681715575621,160.431151241535,104.45434782608696,184.56521739130434,128.33258928571428,160.24776785714286,125.0,121.0,101.0,145.0,125.0,169.0,149.0,145.0
201,10.05,-0.08655738830566406,-0.2613835334777832,1.7798717021942139,0.026563644409179688,-1.6522953510284424,1.491420030593872,0.5402629971504211,0.1256699562072754,0.6503980159759521,3.0582002781736883,-0.018973298252146147,-0.007395215070488672,104.64827586206897,136.4367816091954,80.89140271493213,160.44117647058823,104.5349344978166,184.53930131004367,128.4,160.14222222222222,125.0,121.0,101.0,145.0,125.0,169.0,149.0,145.0
202,10.100000000000001,-0.08707475662231445,-0.2615625858306885,1.780414342880249,0.025852441787719727,-1.6515686511993408,1.4910123348236084,0.5402661561965942,0.1254681646823883,0.6502013206481934,3.058889855192629,-0.019344157078927445,-0.007501282903902065,104.71494252873563,136.39080459770116,81.00678733031674,160.34162895927602,104.640522875817,184.48366013071896,128.44911504424778,160.05309734513276,125.0,121.0,101.0,145.0,125.0,169.0,149.0,145.0
203,10.15,-0.0875999927520752,-0.2616865634918213,1.7809269428253174,0.025165796279907227,-1.6508371829986572,1.4906065464019775,0.5402990579605103,0.12526005506515503,0.6499936580657959,3.0595868842211233,-0.019665541762795388,-0.0076162077220765945,104.80875576036867,136.24884792626727,81.03167420814479,160.2941176470588,104.7280701754386,184.38377192982455,128.55088495575222,159.94690265486724,125.0,121.0,101.0,145.0,125.0,169.0,149.0,145.0
204,10.200000000000001,-0.08814024925231934,-0.2618696689605713,1.7814676761627197,0.02446269989013672,-1.6500952243804932,1.4901630878448486,0.5403014421463013,0.1250477284193039,0.6498000621795654,3.0602902279923496,-0.020034160093558535,-0.00770927539520304,104.86342592592592,136.16435185185185,81.05949656750572,160.17848970251717,104.7964989059081,184.39168490153173,128.6,159.85777777777778,125.0,121.0,101.0,145.0,125.0,169.0,149.0,145.0
205,10.25,-0.08870673179626465,-0.2619922161102295,1.7819221019744873,0.023835420608520508,-1.6493399143218994,1.4897172451019287,0.5403375625610352,0.12481984496116638,0.6496247053146362,3.061010222775696,-0.02035325429558852,-0.007825819089073077,104.92558139534884,136.11162790697674,81.12385321100918,160.14449541284404,104.85274725274725,184.32967032967034,128.63636363636363,159.79822616407984,125.0,121.0,101.0,145.0,125.0,169.0,149.0,145.0
206,10.3,-0.08930230140686035,-0.26213526725769043,1.7824156284332275,0.023182392120361328,-1.6485636234283447,1.4892442226409912,0.5403659343719482,0.12457916885614395,0.6494360566139221,3.0617496649047293,-0.020679787200948405,-0.00794464227823427,105.0625,136.09722222222223,81.2159090909091,159.98636363636365,104.90528634361233,184.30396475770925,128.75,159.66071428571428,125.0,121.0,101.0,145.0,125.0,169.0,149.0,145.0
207,10.350000000000001,-0.08992266654968262,-0.26233863830566406,1.782970666885376,0.0224912166595459,-1.6477735042572021,1.488769769668579,0.5403650999069214,0.1243295967578888,0.6492415070533752,3.062499998024268,-0.021045081544868584,-0.00808566821423875,105.0715935334873,136.0715935334873,81.289592760181,159.8868778280543,105.03956043956045,184.15384615384616,128.79464285714286,159.63839285714286,125.0,121.0,101.0,145.0,125.0,169.0,149.0,145.0
208,10.4,-0.09035754203796387,-0.2624242305755615,1.78340744972229,0.021860599517822266,-1.647113561630249,1.488433599472046,0.5404062867164612,0.12416227161884308,0.6490592956542969,3.0631272523070003,-0.021351136648872518,-0.008180328221998,105.10648148148148,135.97453703703704,81.36853932584269,159.84044943820226,105.14660831509846,184.07002188183807,128.93333333333334,159.57333333333332,125.0,121.0,101.0,145.0,125.0,169.0,149.0,145.0
209,10.450000000000001,-0.090728759765625,-0.2624797821044922,1.7837774753570557,0.02127361297607422,-1.6464974880218506,1.4881212711334229,0.5404552817344666,0.12402341514825821,0.6489017009735107,3.063711352983542,-0.021649102009817033,-0.008235365654398431,105.11162790697675,135.92558139534884,81.43595505617978,159.79550561797754,105.2472885032538,183.93926247288502,128.97782705099777,159.51441241685143,125.0,121.0,101.0,145.0,125.0,169.0,149.0,145.0
210,10.5,-0.09101009368896484,-0.2624967098236084,1.7841169834136963,0.0206911563873291,-1.6459410190582275,1.4878499507904053,0.540515661239624,0.12392519414424896,0.6487441658973694,3.064237982933822,-0.021932345235292843,-0.008242680380424812,105.20046082949308,135.82718894009216,81.50896860986548,159.73991031390133,105.29934924078091,183.8872017353579,129.06904231625836,159.48997772828508,125.0,121.0,101.0,145.0,125.0,169.0,149.0,145.0
211,10.55,-0.09131169319152832,-0.26250386238098145,1.7844336032867432,0.02013540267944336,-1.6453754901885986,1.487583875656128,0.5405824780464172,0.1238163486123085,0.6485943794250488,3.0647755510917727,-0.022203956483222945,-0.008274809950807788,105.3302752293578,135.6880733944954,81.56696428571429,159.65625,105.35589519650655,183.80786026200875,129.1826280623608,159.42984409799556,125.0,121.0,101.0,145.0,125.0,169.0,149.0,145.0
212,10.600000000000001,-0.09164571762084961,-0.2625420093536377,1.784754991531372,0.019588947296142578,-1.6447927951812744,1.487313985824585,0.5406357049942017,0.12369303405284882,0.6484569907188416,3.065328401509507,-0.022494450186563254,-0.008335051074164365,105.41095890410959,135.58904109589042,81.6808988764045,159.60449438202247,105.41703056768559,183.73799126637556,129.26385809312637,159.3880266075388,125.0,121.0,101.0,145.0,125.0,169.0,149.0,145.0
213,10.65,-0.09202194213867188,-0.26256465911865234,1.7850725650787354,0.01905512809753418,-1.6441833972930908,1.487027883529663,0.5407009124755859,0.12354886531829834,0.6483122110366821,3.065909052428875,-0.022761227862040243,-0.008421595958185221,105.46100917431193,135.58256880733944,81.75395033860045,159.51693002257338,105.4650655021834,183.6943231441048,129.33928571428572,159.30580357142858,125.0,121.0,101.0,145.0,125.0,169.0,149.0,145.0
214,10.700000000000001,-0.09237384796142578,-0.26259899139404297,1.7854053974151611,0.018506288528442383,-1.6435916423797607,1.4867584705352783,0.540757417678833,0.12341669946908951,0.6481651067733765,3.0664718183374635,-0.02304006802223688,-0.008500540910286807,105.558352402746,135.52631578947367,81.88513513513513,159.45045045045046,105.56427015250544,183.5838779956427,129.39467849223948,159.2039911308204,125.0,121.0,101.0,145.0,125.0,169.0,149.0,145.0
215,10.75,-0.09275674819946289,-0.26265811920166016,1.785808801651001,0.01790595054626465,-1.6429755687713623,1.4864566326141357,0.5408048629760742,0.12327131628990173,0.6479886174201965,3.0670567714144648,-0.023324759634963086,-0.008578128779859341,105.58904109589041,135.41095890410958,81.9097065462754,159.46049661399547,105.66521739130435,183.5304347826087,129.46035242290748,159.13436123348018,125.0,121.0,101.0,145.0,125.0,169.0,149.0,145.0
216,10.8,-0.0931558609008789,-0.26271486282348633,1.786184549331665,0.017328500747680664,-1.642345666885376,1.4861056804656982,0.5408545732498169,0.12311816215515137,0.6478271484375,3.0676546664763156,-0.023609173275611642,-0.008622997724208555,105.66132723112128,135.3913043478261,82.01131221719457,159.3846153846154,105.70742358078603,183.5,129.5253863134658,159.05960264900662,125.0,121.0,101.0,145.0,125.0,169.0,149.0,145.0
217,10.850000000000001,-0.09359002113342285,-0.2627866268157959,1.786597490310669,0.016729116439819336,-1.6416923999786377,1.4857375621795654,0.5408998727798462,0.12294929474592209,0.6476505398750305,3.068275206505695,-0.023894406908783267,-0.008685035690491812,105.76027397260275,135.2648401826484,82.04966139954853,159.313769751693,105.78993435448578,183.42669584245075,129.55187637969095,158.97350993377484,125.0,121.0,101.0,145.0,125.0,169.0,149.0,145.0
218,10.9,-0.09408378601074219,-0.2628614902496338,1.787018060684204,0.01613593101501465,-1.6409995555877686,1.4853298664093018,0.5409493446350098,0.12275207787752151,0.6474696397781372,3.068934738995185,-0.02417015463672062,-0.008766609006376137,105.85219399538106,135.189376443418,82.05215419501134,159.2766439909297,105.87527352297593,183.37636761487965,129.6230598669623,158.84478935698448,125.0,121.0,101.0,145.0,125.0,169.0,149.0,145.0
219,10.950000000000001,-0.09460902214050293,-0.26302647590637207,1.7875072956085205,0.015494585037231445,-1.6402809619903564,1.4848597049713135,0.5409548282623291,0.12254470586776733,0.6472951769828796,3.0696124633497193,-0.024513756086419956,-0.008818112051927871,105.91183294663573,135.08816705336426,82.08237986270022,159.17848970251717,105.90131578947368,183.37938596491227,129.72949002217294,158.78048780487805,125.0,121.0,101.0,145.0,125.0,169.0,149.0,145.0
220,11.0,-0.09515547752380371,-0.263171911239624,1.787931203842163,0.014915227890014648,-1.6395542621612549,1.4843943119049072,0.5409716367721558,0.12232600152492523,0.6471483707427979,3.0702993748679632,-0.02484316023086566,-0.008895693971297504,105.95852534562212,135.02534562211983,82.13729977116705,159.07322654462243,105.94713656387665,183.3259911894273,129.82079646017698,158.73230088495575,125.0,121.0,101.0,145.0,125.0,169.0,149.0,145.0
221,11.05,-0.09565424919128418,-0.2632791996002197,1.7882912158966064,0.01438283920288086,-1.6388657093048096,1.4839837551116943,0.5410028696060181,0.1221277192234993,0.6470194458961487,3.0709501434720226,-0.025152084010735994,-0.008979027720399695,106.0,135.0,82.26590909090909,158.975,106.06843267108168,183.23620309050773,129.8852097130243,158.69315673289182,125.0,121.0,101.0,145.0,125.0,169.0,149.0,145.0
222,11.100000000000001,-0.09607172012329102,-0.26328468322753906,1.7885677814483643,0.013901472091674805,-1.6382367610931396,1.4836452007293701,0.5410783290863037,0.12196270376443863,0.6468879580497742,3.071549716755631,-0.025391551802426023,-0.009054444955741729,106.02522935779817,135.0091743119266,82.38513513513513,158.9189189189189,106.20915032679738,183.11764705882354,129.94678492239467,158.59645232815964,125.0,121.0,101.0,145.0,125.0,169.0,149.0,145.0
223,11.15,-0.09640002250671387,-0.26326489448547363,1.7888500690460205,0.013394355773925781,-1.6376640796661377,1.4833333492279053,0.5411584377288818,0.12183879315853119,0.6467422842979431,3.072094070767489,-0.025623855968943385,-0.00906752230384917,106.08816705336427,134.91183294663574,82.4372197309417,158.86322869955157,106.34482758620689,183.0,130.0,158.5,125.0,121.0,101.0,145.0,125.0,169.0,149.0,145.0
224,11.200000000000001,-0.0966949462890625,-0.2632310390472412,1.7891156673431396,0.012893199920654297,-1.6371119022369385,1.4830176830291748,0.5412424802780151,0.12172985076904297,0.6466003060340881,3.0726179389173836,-0.025851520356223998,-0.009043527254432599,106.17281105990783,134.7995391705069,82.49103139013452,158.78251121076232,106.3709327548807,182.93926247288502,130.14666666666668,158.5,125.0,121.0,101.0,145.0,125.0,169.0,149.0,145.0
225,11.25,-0.09695196151733398,-0.2631833553314209,1.7893145084381104,0.012447118759155273,-1.6365950107574463,1.4827616214752197,0.5413286685943604,0.12163744866847992,0.646490216255188,3.073108263821424,-0.026077940721871716,-0.009041688592890023,106.26651480637813,134.73348519362187,82.53139013452915,158.6928251121076,106.41521739130435,182.8586956521739,130.23503325942352,158.43015521064302,125.0,121.0,101.0,145.0,125.0,169.0,149.0,145.0
226,11.3,-0.09718775749206543,-0.26317644119262695,1.7895362377166748,0.011983633041381836,-1.6360957622528076,1.4825289249420166,0.541391134262085,0.1215566098690033,0.6463879942893982,3.0735788133764723,-0.02634002913414207,-0.009041592922074883,106.36529680365297,134.6118721461187,82.66216216216216,158.62387387387386,106.4400871459695,182.7995642701525,130.26385809312637,158.3880266075388,125.0,121.0,101.0,145.0,125.0,169.0,149.0,145.0
