AI-SPARC/uncalibrated-visual-servoing/results/data/4_feat_mckf_tr2.csv
,t,q_1,q_2,q_3,q_4,q_5,q_6,camera_x,camera_y,camera_z,camera_roll,camera_pitch,camera_yaw,f_1,f_2,f_3,f_4,f_5,f_6,f_7,f_8,desired_f_1,desired_f_2,desired_f_3,desired_f_4,desired_f_5,desired_f_6,desired_f_7,desired_f_8
0,0.0,9.298324584960938e-06,-0.39263248443603516,1.963494062423706,7.200241088867188e-05,-1.5707952976226807,2.384185791015625e-07,0.4463264048099518,0.16906212270259857,0.5921618342399597,-3.141307778251266,0.00012221750102738726,1.5708379755145234,151.4127579737336,65.55722326454034,125.41947565543072,39.58052434456929,99.43609022556392,65.56390977443608,125.41275797373358,91.55722326454034,125.0,121.0,101.0,145.0,125.0,169.0,149.0,145.0
1,0.05,-0.00020241737365722656,-0.3858320713043213,1.9672815799713135,-0.009199380874633789,-1.5790927410125732,-0.005040168762207031,0.45008981227874756,0.16808126866817474,0.587547242641449,-3.1399117706956576,0.008416895053741701,1.5756788776950983,149.82584269662922,66.26779026217228,123.79252336448599,39.79252336448598,97.40968342644321,65.74674115456239,123.56505576208178,92.34758364312268,125.0,121.0,101.0,145.0,125.0,169.0,149.0,145.0
2,0.1,-0.00012254714965820312,-0.3869462013244629,1.9693939685821533,-0.010621786117553711,-1.5814344882965088,-0.0041217803955078125,0.4494744539260864,0.16788610816001892,0.586786150932312,-3.140350816014971,0.010759526552938882,1.5748407259012724,149.29588014981275,66.0692883895131,123.27323420074349,39.60408921933085,96.71217712177122,65.61808118081181,122.94280442804428,92.1309963099631,125.0,121.0,101.0,145.0,125.0,169.0,149.0,145.0
3,0.15000000000000002,0.000324249267578125,-0.3884453773498535,1.971864938735962,-0.012150287628173828,-1.5837252140045166,-0.002777576446533203,0.4485836923122406,0.16786378622055054,0.5859676003456116,-3.1409374722871006,0.013051975801303581,1.5739402178278927,148.7289719626168,65.72897196261682,122.58627087198516,39.33580705009276,96.30202578268877,65.40147329650092,122.4574074074074,91.71851851851852,125.0,121.0,101.0,145.0,125.0,169.0,149.0,145.0
4,0.2,0.0006921291351318359,-0.3907017707824707,1.9754998683929443,-0.014090538024902344,-1.5860273838043213,-0.0012936592102050781,0.4472856819629669,0.16780558228492737,0.5847305059432983,-3.141520657646557,0.015356210612911024,1.5728173829470018,148.33766233766235,65.33766233766234,122.12407407407407,38.79259259259259,95.63235294117646,64.87132352941177,121.87962962962963,91.39074074074074,125.0,121.0,101.0,145.0,125.0,169.0,149.0,145.0
5,0.25,0.0015521049499511719,-0.3942286968231201,1.9806396961212158,-0.01628899574279785,-1.5887205600738525,0.0011878013610839844,0.445187509059906,0.16793367266654968,0.5830641388893127,3.141031220650794,0.01805051146820708,1.5711860492608227,147.66605166051662,64.50738007380073,121.37269372693727,37.8690036900369,94.96357012750455,64.16575591985428,121.41881918819188,90.68081180811808,125.0,121.0,101.0,145.0,125.0,169.0,149.0,145.0
6,0.30000000000000004,0.003812551498413086,-0.4044020175933838,1.994170904159546,-0.017844438552856445,-1.5939037799835205,0.0075647830963134766,0.43883758783340454,0.1684456169605255,0.5785732269287109,-3.1405264772713286,0.023248722266276542,1.5671102131976051,146.67948717948718,61.353479853479854,120.16036036036036,34.556756756756755,93.47227191413238,61.06440071556351,120.33514492753623,87.80253623188406,125.0,121.0,101.0,145.0,125.0,169.0,149.0,145.0
7,0.35000000000000003,0.0036704540252685547,-0.4030601978302002,1.9921295642852783,-0.018296003341674805,-1.594123125076294,0.007405757904052734,0.43974775075912476,0.16835616528987885,0.5794125199317932,3.141525400408465,0.023451649792583972,1.5670962483163762,146.6965265082267,61.9926873857404,120.09584086799276,35.31826401446654,93.5072202166065,61.75451263537906,120.36313868613139,88.45985401459853,125.0,121.0,101.0,145.0,125.0,169.0,149.0,145.0
8,0.4,0.0035123825073242188,-0.401914119720459,1.9902174472808838,-0.018697738647460938,-1.5943305492401123,0.007312297821044922,0.4405563175678253,0.16826124489307404,0.5802457928657532,3.1403709882726565,0.023645367609209912,1.5670010933642686,146.5414364640884,62.55616942909761,120.0,36.0,93.47186932849365,62.40834845735027,120.16817359855335,89.03435804701627,125.0,121.0,101.0,145.0,125.0,169.0,149.0,145.0
9,0.45,0.0035452842712402344,-0.4009213447570801,1.9884684085845947,-0.019155025482177734,-1.5944797992706299,0.00749969482421875,0.44124168157577515,0.1682644635438919,0.5810467600822449,3.1391518639841247,0.023785121902432448,1.5668176314140436,146.49261992619927,63.33394833948339,119.92700729927007,36.67153284671533,93.48021582733813,63.07913669064748,120.22752293577982,89.59633027522936,125.0,121.0,101.0,145.0,125.0,169.0,149.0,145.0
10,0.5,0.0034711360931396484,-0.4002847671508789,1.9869825839996338,-0.019681215286254883,-1.5945918560028076,0.0076673030853271484,0.4417586326599121,0.16822364926338196,0.58183354139328,3.1377705804560385,0.023886113144895377,1.566543060518646,146.39591078066914,63.726765799256505,119.86296296296297,37.333333333333336,93.50182481751825,63.60766423357664,120.10036496350365,90.12591240875912,125.0,121.0,101.0,145.0,125.0,169.0,149.0,145.0
11,0.55,0.003615140914916992,-0.3997611999511719,1.9856712818145752,-0.02028656005859375,-1.594656229019165,0.008164405822753906,0.44217678904533386,0.16828687489032745,0.5825604796409607,3.136364003330955,0.023937787638765196,1.5661566044114774,146.3692022263451,64.3747680890538,119.90073529411765,37.92830882352941,93.51371115173674,64.27239488117002,120.22752293577982,90.59633027522936,125.0,121.0,101.0,145.0,125.0,169.0,149.0,145.0
12,0.6000000000000001,0.0039212703704833984,-0.3996729850769043,1.9846241474151611,-0.020958900451660156,-1.5946924686431885,0.008858919143676758,0.4423471987247467,0.1684257835149765,0.5833076238632202,3.134713463225585,0.02395649586173647,1.5657292189832783,146.30467289719627,64.77943925233645,119.8584729981378,38.50837988826816,93.56985294117646,64.64889705882354,120.15101289134438,91.09208103130756,125.0,121.0,101.0,145.0,125.0,169.0,149.0,145.0
13,0.65,0.004218578338623047,-0.3997528553009033,1.9838411808013916,-0.021769046783447266,-1.5946910381317139,0.009789466857910156,0.4424259066581726,0.16856589913368225,0.5839635729789734,3.1330175318001907,0.023932191282514153,1.565056068113546,146.3550185873606,65.35501858736059,119.83858998144713,39.11317254174397,93.62846580406655,65.26617375231054,120.3339483394834,91.49261992619927,125.0,121.0,101.0,145.0,125.0,169.0,149.0,145.0
14,0.7000000000000001,0.004520893096923828,-0.4005146026611328,1.9836351871490479,-0.0226895809173584,-1.5946390628814697,0.010688543319702148,0.44214051961898804,0.16871140897274017,0.5845423340797424,3.131104807973776,0.023852323952905367,1.5644148564187417,146.33145009416197,65.65913370998116,119.8796992481203,39.48872180451128,93.65313653136532,65.54428044280442,120.28731343283582,91.79664179104478,125.0,121.0,101.0,145.0,125.0,169.0,149.0,145.0
15,0.75,0.005096435546875,-0.40161943435668945,1.9838230609893799,-0.023891687393188477,-1.5945370197296143,0.012078285217285156,0.44163787364959717,0.16898609697818756,0.5850344896316528,3.1289509543225518,0.023710037116168182,1.563552310696596,146.3504761904762,65.95619047619047,119.98487712665407,39.89792060491494,93.85528756957328,65.98886827458256,120.35074626865672,92.16417910447761,125.0,121.0,101.0,145.0,125.0,169.0,149.0,145.0
16,0.8,0.00603795051574707,-0.4025142192840576,1.983933687210083,-0.024993896484375,-1.5945584774017334,0.013897895812988281,0.44116947054862976,0.1694134920835495,0.5854748487472534,3.127019969648438,0.023682838611873955,1.5626297474926178,146.45386064030131,66.3352165725047,120.04174573055029,40.34914611005693,93.96846011131726,66.291280148423,120.5,92.45353159851301,125.0,121.0,101.0,145.0,125.0,169.0,149.0,145.0
17,0.8500000000000001,0.00678706169128418,-0.40407538414001465,1.9848382472991943,-0.02651691436767578,-1.594604730606079,0.015689611434936523,0.44038450717926025,0.16974952816963196,0.5857151746749878,3.124794925201883,0.023668227132015936,1.5615343997742994,146.41917293233084,66.53383458646617,120.12167300380229,40.606463878327,94.1310861423221,66.59176029962546,120.52327746741155,92.55307262569832,125.0,121.0,101.0,145.0,125.0,169.0,149.0,145.0
18,0.9,0.008208274841308594,-0.4057629108428955,1.9864904880523682,-0.02882075309753418,-1.594618558883667,0.018134355545043945,0.43942975997924805,0.17038901150226593,0.5855859518051147,3.122395869648441,0.023598847068833792,1.5604561499030538,146.5132075471698,66.64339622641509,120.28462998102466,40.81024667931689,94.28330206378988,66.73545966228893,120.73408239700375,92.75280898876404,125.0,121.0,101.0,145.0,125.0,169.0,149.0,145.0
19,0.9500000000000001,0.009503364562988281,-0.407271146774292,1.9876835346221924,-0.030797481536865234,-1.5949528217315674,0.020604610443115234,0.4385928213596344,0.17093846201896667,0.5856547355651855,3.120038085794599,0.02383742776546128,1.5592203039382826,146.588122605364,66.92528735632185,120.30343511450381,41.04389312977099,94.3954802259887,67.06026365348399,120.74624060150376,93.0,125.0,121.0,101.0,145.0,125.0,169.0,149.0,145.0
20,1.0,0.010923385620117188,-0.4090263843536377,1.9891297817230225,-0.03277754783630371,-1.5953400135040283,0.0232393741607666,0.4375952482223511,0.1715347021818161,0.5856603384017944,3.117674975757501,0.024113366698997742,1.5579419382280357,146.6007677543186,67.00767754318618,120.33269598470363,41.29254302103251,94.43551401869159,67.38130841121496,120.90823970037454,93.18164794007491,125.0,121.0,101.0,145.0,125.0,169.0,149.0,145.0
21,1.05,0.012708425521850586,-0.41042017936706543,1.9897024631500244,-0.03381991386413574,-1.5958192348480225,0.02585744857788086,0.43670040369033813,0.17228063941001892,0.58599853515625,3.115734942729008,0.02448063609766647,1.5570522844082388,146.6494252873563,67.183908045977,120.40684410646388,41.58745247148289,94.58082706766918,67.46616541353383,121.17481203007519,93.2687969924812,125.0,121.0,101.0,145.0,125.0,169.0,149.0,145.0
22,1.1,0.013699769973754883,-0.41201019287109375,1.9906256198883057,-0.03509354591369629,-1.5963995456695557,0.027783870697021484,0.4358343780040741,0.172659233212471,0.5862092971801758,3.1137309712307255,0.02495415988523187,1.5560539247338352,146.66095238095238,67.2552380952381,120.37044145873321,41.83109404990403,94.56660412757974,67.60037523452158,121.12121212121212,93.41477272727273,125.0,121.0,101.0,145.0,125.0,169.0,149.0,145.0
23,1.1500000000000001,0.014852046966552734,-0.41358470916748047,1.9916322231292725,-0.03641533851623535,-1.596933126449585,0.029886484146118164,0.43494412302970886,0.17311306297779083,0.586359977722168,3.111772637412745,0.02537038492981901,1.5550404420672197,146.7118320610687,67.40458015267176,120.40776699029126,41.94368932038835,94.61596958174906,67.82319391634981,121.12121212121212,93.5,125.0,121.0,101.0,145.0,125.0,169.0,149.0,145.0
24,1.2000000000000002,0.01668238639831543,-0.415576696395874,1.9930956363677979,-0.03802347183227539,-1.5975377559661865,0.032588958740234375,0.4337286055088043,0.17385528981685638,0.5864127278327942,3.1095452471955745,0.02582423583644721,1.5540964267607642,146.8050193050193,67.47104247104247,120.47195357833655,42.050290135396516,94.7319391634981,67.92205323193916,121.31698113207547,93.49056603773585,125.0,121.0,101.0,145.0,125.0,169.0,149.0,145.0
25,1.25,0.018233060836791992,-0.4176959991455078,1.994722604751587,-0.039758920669555664,-1.598254919052124,0.03481340408325195,0.4324982762336731,0.17445537447929382,0.5864224433898926,3.1072329349770333,0.026388993000272323,1.5533412512210534,146.8217054263566,67.51744186046511,120.46899224806202,42.11821705426357,94.73804971319312,68.01529636711281,121.37476459510358,93.55932203389831,125.0,121.0,101.0,145.0,125.0,169.0,149.0,145.0
26,1.3,0.019819021224975586,-0.419919490814209,1.9961535930633545,-0.04123353958129883,-1.5990498065948486,0.037044525146484375,0.43120837211608887,0.1750575751066208,0.5865804553031921,3.1048763294306365,0.027020201577770287,1.552608192419164,146.810546875,67.630859375,120.48832684824903,42.217898832684824,94.76908396946565,68.05343511450381,121.36792452830188,93.61320754716981,125.0,121.0,101.0,145.0,125.0,169.0,149.0,145.0
27,1.35,0.021456003189086914,-0.42274045944213867,1.9983603954315186,-0.043341636657714844,-1.59995436668396,0.03961038589477539,0.42961829900741577,0.17566387355327606,0.5865368247032166,3.1020458015826224,0.027718211362898093,1.5515714820514974,146.75638506876228,67.7229862475442,120.42941176470588,42.40588235294118,94.78585086042065,68.17973231357553,121.36981132075472,93.66037735849056,125.0,121.0,101.0,145.0,125.0,169.0,149.0,145.0
28,1.4000000000000001,0.02289724349975586,-0.4255506992340088,2.0008671283721924,-0.0456697940826416,-1.6006944179534912,0.04195141792297363,0.42805877327919006,0.17619605362415314,0.5863022208213806,3.099317657798691,0.028251191337549907,1.5505696308316923,146.75739644970415,67.7731755424063,120.47740667976424,42.55992141453831,94.85412667946257,68.24184261036469,121.36981132075472,93.66037735849056,125.0,121.0,101.0,145.0,125.0,169.0,149.0,145.0
29,1.4500000000000002,0.024550914764404297,-0.42836737632751465,2.0039865970611572,-0.04876542091369629,-1.6014354228973389,0.044544219970703125,0.4264746904373169,0.17681771516799927,0.5857326984405518,3.0964190646554446,0.02875360650482881,1.5495208077994493,146.75739644970415,67.7731755424063,120.48622047244095,42.66732283464567,94.92145593869732,68.3639846743295,121.47348484848484,93.7159090909091,125.0,121.0,101.0,145.0,125.0,169.0,149.0,145.0
30,1.5,0.02611851692199707,-0.43068957328796387,2.00636887550354,-0.051303863525390625,-1.6022083759307861,0.04688572883605957,0.4251520335674286,0.17739850282669067,0.5853891372680664,3.0938386546233687,0.029299515933460547,1.5486406564224369,146.7795275590551,67.78543307086615,120.44400785854617,42.80157170923379,94.95,68.40384615384616,121.48387096774194,93.7381404174573,125.0,121.0,101.0,145.0,125.0,169.0,149.0,145.0
31,1.55,0.027486562728881836,-0.43295836448669434,2.008885622024536,-0.05401110649108887,-1.6029140949249268,0.04900979995727539,0.42389124631881714,0.1778963953256607,0.5849468111991882,3.091283715704826,0.02977703274835179,1.547779100838646,146.82772277227724,67.83168316831683,120.47740667976424,42.90569744597249,94.97504798464492,68.49904030710172,121.48183556405354,93.82217973231357,125.0,121.0,101.0,145.0,125.0,169.0,149.0,145.0
32,1.6,0.02921319007873535,-0.4353454113006592,2.0115396976470947,-0.05687403678894043,-1.6037147045135498,0.05150008201599121,0.42251506447792053,0.1785353422164917,0.5844776630401611,3.088572669232175,0.030313354903021054,1.5468990249975123,146.8284023668639,67.87573964497041,120.475442043222,42.946954813359525,95.05,68.5,121.59847036328871,93.8604206500956,125.0,121.0,101.0,145.0,125.0,169.0,149.0,145.0
33,1.6500000000000001,0.03031611442565918,-0.4377937316894531,2.0141470432281494,-0.059714317321777344,-1.6045997142791748,0.05355954170227051,0.42122113704681396,0.17889347672462463,0.5840626358985901,3.085781855133869,0.030937133081286153,1.545814280596996,146.74308300395256,67.94861660079052,120.37154150197628,43.10079051383399,94.94980694980696,68.64478764478764,121.56513409961686,93.955938697318,125.0,121.0,101.0,145.0,125.0,169.0,149.0,145.0
34,1.7000000000000002,0.031442880630493164,-0.44022393226623535,2.016390085220337,-0.06200814247131348,-1.6053516864776611,0.055576324462890625,0.4199150502681732,0.1792718768119812,0.5838239192962646,3.0831976157726646,0.03143091666781588,1.544806179316343,146.66862745098038,68.0,120.28942115768463,43.17165668662675,94.8621359223301,68.84271844660194,121.52198852772466,94.01147227533461,125.0,121.0,101.0,145.0,125.0,169.0,149.0,145.0
35,1.75,0.033156394958496094,-0.4428877830505371,2.0185635089874268,-0.06403112411499023,-1.6060631275177002,0.05797863006591797,0.4183811843395233,0.17989790439605713,0.5836991667747498,3.0805665644374045,0.031849568480652735,1.5439991508428708,146.73767258382642,68.00197238658777,120.31673306772909,43.266932270916335,95.0,68.86407766990291,121.55258126195028,93.97705544933078,125.0,121.0,101.0,145.0,125.0,169.0,149.0,145.0
36,1.8,0.03490042686462402,-0.4456355571746826,2.0215132236480713,-0.0670008659362793,-1.6067931652069092,0.060393571853637695,0.41681942343711853,0.18052931129932404,0.5831807255744934,3.077679234760505,0.0322577638592604,1.5431985136841282,146.81510934393637,68.06958250497019,120.38955823293173,43.4277108433735,95.11821705426357,68.88953488372093,121.70057581573896,94.0172744721689,125.0,121.0,101.0,145.0,125.0,169.0,149.0,145.0
37,1.85,0.03594517707824707,-0.4481697082519531,2.024319887161255,-0.06994271278381348,-1.6075952053070068,0.06220698356628418,0.4154900908470154,0.18085554242134094,0.5826636552810669,3.0749049106183515,0.0327671654571594,1.5422935679654486,146.72475247524753,68.12673267326733,120.33603238866397,43.530364372469634,95.01550387596899,69.01937984496124,121.6468330134357,94.09213051823417,125.0,121.0,101.0,145.0,125.0,169.0,149.0,145.0
38,1.9000000000000001,0.03731703758239746,-0.45076441764831543,2.026907205581665,-0.07256627082824707,-1.60835862159729,0.06432223320007324,0.41406670212745667,0.1813201606273651,0.5822843909263611,3.072157193394148,0.033210344787823046,1.5414157344734476,146.72673267326732,68.18019801980198,120.28861788617886,43.540650406504064,95.064453125,69.107421875,121.66283524904215,94.11111111111111,125.0,121.0,101.0,145.0,125.0,169.0,149.0,145.0
39,1.9500000000000002,0.03893089294433594,-0.454021692276001,2.0303242206573486,-0.07583212852478027,-1.6091926097869873,0.06667041778564453,0.4122796356678009,0.1818644255399704,0.5816841125488281,3.0689180810832943,0.03366316255758034,1.5405240422519377,146.75198412698413,68.17857142857143,120.29817444219067,43.649087221095336,95.11284046692607,69.15953307392996,121.68260038240918,94.12619502868068,125.0,121.0,101.0,145.0,125.0,169.0,149.0,145.0
40,2.0,0.04060554504394531,-0.45709967613220215,2.033799886703491,-0.07933282852172852,-1.6100313663482666,0.06903553009033203,0.41058140993118286,0.1824316531419754,0.5809898972511292,3.0656802217348686,0.03410381899009115,1.539672106612534,146.8622754491018,68.249500998004,120.29411764705883,43.7606490872211,95.14980544747081,69.17898832684826,121.70610687022901,94.11832061068702,125.0,121.0,101.0,145.0,125.0,169.0,149.0,145.0
41,2.0500000000000003,0.04191923141479492,-0.4607119560241699,2.038200616836548,-0.08359313011169434,-1.6108677387237549,0.07101202011108398,0.408688485622406,0.18283167481422424,0.5799660086631775,3.062084670891808,0.034529375373657786,1.5388306998571921,146.8393574297189,68.30522088353413,120.18126272912424,43.824847250509166,95.072265625,69.23046875,121.70610687022901,94.11832061068702,125.0,121.0,101.0,145.0,125.0,169.0,149.0,145.0
42,2.1,0.04286360740661621,-0.4650874137878418,2.043177366256714,-0.08795809745788574,-1.6115458011627197,0.07250618934631348,0.4064715504646301,0.18307194113731384,0.5788677334785461,3.058223437723813,0.03479925204400807,1.5380999252528484,146.76540755467198,68.15109343936382,120.09631147540983,43.846311475409834,95.0,69.21526418786692,121.70610687022901,94.11832061068702,125.0,121.0,101.0,145.0,125.0,169.0,149.0,145.0
43,2.15,0.04362607002258301,-0.4677133560180664,2.0455782413482666,-0.09038233757019043,-1.6120965480804443,0.07378697395324707,0.405147910118103,0.18328258395195007,0.5785840153694153,3.0554952992374056,0.035034535749318745,1.537446042885175,146.66465863453814,68.33935742971887,120.07739307535641,44.0122199592668,94.974609375,69.291015625,121.69465648854961,94.16412213740458,125.0,121.0,101.0,145.0,125.0,169.0,149.0,145.0
44,2.2,0.04413580894470215,-0.4708073139190674,2.0485832691192627,-0.09318161010742188,-1.6125833988189697,0.07500481605529785,0.40363550186157227,0.18338558077812195,0.5781174898147583,3.05253396592718,0.03518618231184326,1.5365976607620946,146.5722891566265,68.39759036144578,120.06748466257669,44.0961145194274,94.9296875,69.359375,121.6469465648855,94.17748091603053,125.0,121.0,101.0,145.0,125.0,169.0,149.0,145.0
45,2.25,0.04484987258911133,-0.47391200065612793,2.0516440868377686,-0.0960698127746582,-1.6130306720733643,0.07648158073425293,0.40208446979522705,0.18357625603675842,0.5776229500770569,3.049520321100815,0.03526498991502459,1.5356970276609596,146.5472837022133,68.45070422535211,120.03092783505154,44.29072164948454,94.94921875,69.5,121.6412213740458,94.25954198473282,125.0,121.0,101.0,145.0,125.0,169.0,149.0,145.0
46,2.3000000000000003,0.045614004135131836,-0.47672271728515625,2.054492235183716,-0.09880876541137695,-1.6134207248687744,0.07795834541320801,0.4006655514240265,0.18379724025726318,0.5771319270133972,3.0467423897999955,0.03529621551930452,1.5348594735458367,146.5766129032258,68.5,120.03512396694215,44.37809917355372,94.87866927592955,69.63209393346379,121.65774378585085,94.32122370936902,125.0,121.0,101.0,145.0,125.0,169.0,149.0,145.0
47,2.35,0.04665184020996094,-0.4795985221862793,2.057072401046753,-0.10119462013244629,-1.6138560771942139,0.07954716682434082,0.3991630971431732,0.1841202974319458,0.5768082737922668,3.043974897634996,0.03535476710361139,1.5341793819160705,146.58383838383838,68.55151515151515,120.02674897119341,44.458847736625515,94.92337917485266,69.69744597249509,121.7074569789675,94.38049713193116,125.0,121.0,101.0,145.0,125.0,169.0,149.0,145.0
48,2.4000000000000004,0.04762578010559082,-0.4827280044555664,2.059870481491089,-0.10372161865234375,-1.6143348217010498,0.0811314582824707,0.39755138754844666,0.18440453708171844,0.5764502286911011,3.0410263180305797,0.03543213795774515,1.533427574198695,146.56275303643724,68.59716599190283,120.04573804573805,44.55925155925156,94.9744094488189,69.73622047244095,121.72900763358778,94.39312977099236,125.0,121.0,101.0,145.0,125.0,169.0,149.0,145.0
49,2.45,0.04850959777832031,-0.48578691482543945,2.062791585922241,-0.10648036003112793,-1.614816427230835,0.08271217346191406,0.39599862694740295,0.184651717543602,0.576000988483429,3.038040595432766,0.035499879603124396,1.5325866733118672,146.57200811359027,68.62068965517241,120.02494802494803,44.64033264033264,94.95049504950495,69.78415841584159,121.79158699808795,94.4302103250478,125.0,121.0,101.0,145.0,125.0,169.0,149.0,145.0
50,2.5,0.04914689064025879,-0.4886820316314697,2.0652220249176025,-0.10874772071838379,-1.615307092666626,0.08402156829833984,0.39456707239151,0.1847994476556778,0.5757623910903931,3.0352272484742153,0.0356088405114837,1.5317726212882603,146.57606490872212,68.70385395537525,119.95188284518828,44.76569037656904,94.92475247524753,69.94455445544554,121.83109404990402,94.51631477927063,125.0,121.0,101.0,145.0,125.0,169.0,149.0,145.0
51,2.5500000000000003,0.049768924713134766,-0.49190735816955566,2.067728281021118,-0.11082124710083008,-1.6157677173614502,0.08519363403320312,0.39296674728393555,0.18493279814720154,0.5755778551101685,3.032359910911313,0.03569121250557148,1.5310806401029815,146.4766734279919,68.77484787018255,119.94947368421053,44.92842105263158,94.9003984063745,70.06573705179282,121.78846153846153,94.56538461538462,125.0,121.0,101.0,145.0,125.0,169.0,149.0,145.0
52,2.6,0.05060863494873047,-0.49474573135375977,2.0699779987335205,-0.11280059814453125,-1.6161754131317139,0.08661127090454102,0.39151743054389954,0.18516704440116882,0.5753984451293945,3.029713150623178,0.035707008415921886,1.5303746803332243,146.4340770791075,68.8498985801217,119.88702928870293,45.12970711297071,94.9121756487026,70.13572854291417,121.84139264990328,94.5899419729207,125.0,121.0,101.0,145.0,125.0,169.0,149.0,145.0
53,2.6500000000000004,0.05096912384033203,-0.4971582889556885,2.071854829788208,-0.11448264122009277,-1.6164743900299072,0.08755993843078613,0.3903537392616272,0.1852286159992218,0.5752658843994141,3.027443463855471,0.03569250812425414,1.529679097982403,146.33196721311475,68.94672131147541,119.82142857142857,45.27100840336134,94.90674603174604,70.19642857142857,121.78143133462282,94.65183752417795,125.0,121.0,101.0,145.0,125.0,169.0,149.0,145.0
54,2.7,0.05120253562927246,-0.4995701313018799,2.073848009109497,-0.11626577377319336,-1.6166961193084717,0.08853292465209961,0.3892118036746979,0.18524815142154694,0.5750625133514404,3.0251948731834695,0.03559540184914424,1.5288416564534824,146.22540983606558,68.9938524590164,119.77589852008457,45.3276955602537,94.86507936507937,70.30753968253968,121.70576923076923,94.775,125.0,121.0,101.0,145.0,125.0,169.0,149.0,145.0
55,2.75,0.05168414115905762,-0.5021853446960449,2.075897455215454,-0.11802983283996582,-1.616924524307251,0.08992719650268555,0.3879268765449524,0.18536193668842316,0.5748963952064514,3.0228015951226257,0.035439017177653444,1.5278288330935972,146.18940936863544,69.05498981670061,119.75949367088607,45.44303797468354,94.83903420523139,70.48088531187123,121.7007722007722,94.83783783783784,125.0,121.0,101.0,145.0,125.0,169.0,149.0,145.0
56,2.8000000000000003,0.05249619483947754,-0.5048582553863525,2.077937364578247,-0.11973142623901367,-1.6171538829803467,0.0915229320526123,0.386553019285202,0.18560269474983215,0.5747484564781189,3.020396659460365,0.03525223960493871,1.5269467141615343,146.19018404907976,69.1042944785276,119.81012658227849,45.51054852320675,94.88128772635815,70.5010060362173,121.71953578336557,94.8220502901354,125.0,121.0,101.0,145.0,125.0,169.0,149.0,145.0
57,2.85,0.05328226089477539,-0.5075216293334961,2.0801289081573486,-0.12168359756469727,-1.6174042224884033,0.09314489364624023,0.3851986825466156,0.18582963943481445,0.5745185613632202,3.0179001984885114,0.0350672975859737,1.5260069338721534,146.18852459016392,69.12909836065573,119.8286937901499,45.71306209850107,94.96184738955823,70.55622489959839,121.76653696498055,94.86186770428016,125.0,121.0,101.0,145.0,125.0,169.0,149.0,145.0
58,2.9000000000000004,0.05381464958190918,-0.5096926689147949,2.0820181369781494,-0.12356019020080566,-1.617652177810669,0.09453845024108887,0.3841317594051361,0.18596811592578888,0.5742909908294678,3.0156792056966673,0.03492506504170865,1.5250501347076288,146.1262939958592,69.2919254658385,119.71982758620689,45.89224137931034,94.98588709677419,70.72177419354838,121.74757281553399,94.87766990291261,125.0,121.0,101.0,145.0,125.0,169.0,149.0,145.0
59,2.95,0.0542302131652832,-0.5121715068817139,2.0845258235931396,-0.12584638595581055,-1.617743730545044,0.09576678276062012,0.38293004035949707,0.18606716394424438,0.5738024115562439,3.013380275057428,0.03463331861599852,1.524156600343338,146.1614906832298,69.32505175983437,119.7505376344086,45.95913978494624,95.02016129032258,70.75806451612904,121.75968992248062,94.89922480620154,125.0,121.0,101.0,145.0,125.0,169.0,149.0,145.0
60,3.0,0.05469155311584473,-0.5148000717163086,2.087272882461548,-0.12838172912597656,-1.617863416671753,0.09707975387573242,0.3816547989845276,0.1861771047115326,0.5732346773147583,3.0109156925925338,0.034336807853710724,1.5232170938580172,146.1614906832298,69.32505175983437,119.7274678111588,45.972103004291846,95.03030303030303,70.86262626262626,121.77864077669904,94.88349514563107,125.0,121.0,101.0,145.0,125.0,169.0,149.0,145.0
61,3.0500000000000003,0.05549478530883789,-0.5178606510162354,2.0905845165252686,-0.13137578964233398,-1.617969274520874,0.09857010841369629,0.3801174461841583,0.18640828132629395,0.5724965929985046,3.0081221007739543,0.03396329966141099,1.5224359056004912,146.23651452282158,69.31742738589212,119.73763440860215,45.99569892473118,95.03030303030303,70.86262626262626,121.91389432485323,94.84344422700588,125.0,121.0,101.0,145.0,125.0,169.0,149.0,145.0
62,3.1,0.055857181549072266,-0.5208513736724854,2.0934131145477295,-0.13387203216552734,-1.618129014968872,0.09949803352355957,0.37869271636009216,0.1864607334136963,0.572002112865448,3.005427345745513,0.03371813310333289,1.521767481050432,146.23651452282158,69.31742738589212,119.70842332613391,46.114470842332615,94.9959349593496,70.97560975609755,121.93529411764706,94.85686274509804,125.0,121.0,101.0,145.0,125.0,169.0,149.0,145.0
63,3.1500000000000004,0.05632638931274414,-0.5235302448272705,2.095787286758423,-0.13599252700805664,-1.6182787418365479,0.10036087036132812,0.3773970603942871,0.1865614950656891,0.5716522336006165,3.0029687925806385,0.03349128094458947,1.52128007402358,146.25571725571726,69.35550935550935,119.69396551724138,46.1573275862069,95.0,71.0,121.99608610567515,94.90019569471625,125.0,121.0,101.0,145.0,125.0,169.0,149.0,145.0
64,3.2,0.05658888816833496,-0.5264160633087158,2.098153829574585,-0.13800597190856934,-1.61844801902771,0.10107994079589844,0.3760395050048828,0.18657465279102325,0.57137131690979,3.00040637351557,0.03328883378962261,1.5207224423834056,146.21621621621622,69.41995841995842,119.70689655172414,46.25431034482759,95.0040650406504,71.02439024390245,121.9744094488189,95.0,125.0,121.0,101.0,145.0,125.0,169.0,149.0,145.0
65,3.25,0.05678153038024902,-0.5292608737945557,2.1004183292388916,-0.13997697830200195,-1.6186506748199463,0.10200643539428711,0.37471842765808105,0.1865605264902115,0.5711366534233093,2.997814836363453,0.03308295497865214,1.519884439714767,146.18619246861925,69.52510460251047,119.68478260869566,46.493478260869566,95.04722792607802,71.22792607802874,121.93700787401575,95.03346456692914,125.0,121.0,101.0,145.0,125.0,169.0,149.0,145.0
66,3.3000000000000003,0.05721926689147949,-0.531982421875,2.102998971939087,-0.1423032283782959,-1.6187689304351807,0.10298657417297363,0.37341341376304626,0.18665042519569397,0.5706731677055359,2.995316192926549,0.032791639263309205,1.5192548364767027,146.19874476987448,69.56694560669456,119.72747252747253,46.637362637362635,95.05316973415133,71.29856850715747,121.96850393700787,95.11417322834646,125.0,121.0,101.0,145.0,125.0,169.0,149.0,145.0
67,3.35,0.057601213455200195,-0.5342528820037842,2.1049644947052,-0.14418959617614746,-1.618955373764038,0.10398387908935547,0.37233448028564453,0.18672406673431396,0.5704078674316406,2.993085136109015,0.03258937810346155,1.518551450320159,146.18658280922432,69.58909853249476,119.62197802197802,46.82637362637362,95.06339468302659,71.41104294478528,122.00394477317555,95.15581854043393,125.0,121.0,101.0,145.0,125.0,169.0,149.0,145.0
68,3.4000000000000004,0.057798147201538086,-0.536341667175293,2.106748342514038,-0.14588522911071777,-1.619070291519165,0.10473108291625977,0.37136921286582947,0.186737522482872,0.5701737403869629,2.99105853386471,0.03237014800704913,1.5179272969160778,146.19368421052633,69.63578947368421,119.61978021978022,46.87472527472527,95.04508196721312,71.5061475409836,122.01775147928994,95.23076923076923,125.0,121.0,101.0,145.0,125.0,169.0,149.0,145.0
69,3.45,0.05809450149536133,-0.53861403465271,2.108572244644165,-0.14754319190979004,-1.6192138195037842,0.10558080673217773,0.3702985346317291,0.1867806315422058,0.569975733757019,2.988920739264109,0.03214885006793487,1.5172940829527952,146.13894736842104,69.70105263157895,119.52759381898454,47.0,95.10061601642711,71.64065708418892,122.0,95.26429980276134,125.0,121.0,101.0,145.0,125.0,169.0,149.0,145.0
70,3.5,0.05842185020446777,-0.541196346282959,2.110943078994751,-0.14961528778076172,-1.6192677021026611,0.1064143180847168,0.36907538771629333,0.18683534860610962,0.5695632696151733,2.9866156684894825,0.03181838081588779,1.516716856656461,146.11603375527426,69.71308016877637,119.53421633554083,47.04635761589404,95.09856262833675,71.66324435318275,122.07086614173228,95.26771653543307,125.0,121.0,101.0,145.0,125.0,169.0,149.0,145.0
71,3.5500000000000003,0.058621883392333984,-0.5436794757843018,2.1130621433258057,-0.15148520469665527,-1.6193463802337646,0.1071481704711914,0.36792418360710144,0.1868414580821991,0.5692604184150696,2.984362037994277,0.03152954846886936,1.5161093048296752,146.09322033898306,69.8072033898305,119.46,47.126666666666665,95.09278350515464,71.70927835051546,122.0749506903353,95.29191321499013,125.0,121.0,101.0,145.0,125.0,169.0,149.0,145.0
72,3.6,0.058551788330078125,-0.5465497970581055,2.115586519241333,-0.15354633331298828,-1.6193220615386963,0.10766744613647461,0.36663514375686646,0.1867457926273346,0.5688419342041016,2.981954675607367,0.031150520726521337,1.5154547584405567,146.08085106382978,69.85531914893618,119.38888888888889,47.23111111111111,95.0,71.7892561983471,122.02173913043478,95.32608695652173,125.0,121.0,101.0,145.0,125.0,169.0,149.0,145.0
73,3.6500000000000004,0.058559417724609375,-0.5494070053100586,2.1179211139678955,-0.1553478240966797,-1.6192309856414795,0.10820341110229492,0.36533302068710327,0.1866859346628189,0.5685149431228638,2.979636799335318,0.03070969423632644,1.5148768187073771,146.05531914893618,69.88723404255319,119.34228187919463,47.313199105145415,94.97938144329896,71.85773195876288,122.02173913043478,95.32608695652173,125.0,121.0,101.0,145.0,125.0,169.0,149.0,145.0
74,3.7,0.05854344367980957,-0.5523169040679932,2.1202962398529053,-0.1571502685546875,-1.6190812587738037,0.10865640640258789,0.36401069164276123,0.18662136793136597,0.5681743025779724,2.9773163165963243,0.030221088857919142,1.514366807894787,146.05756929637528,69.91257995735607,119.37697516930022,47.401805869074494,95.02282157676349,71.90248962655602,122.07114624505928,95.31620553359684,125.0,121.0,101.0,145.0,125.0,169.0,149.0,145.0
75,3.75,0.058504581451416016,-0.5550305843353271,2.122563600540161,-0.1589949131011963,-1.6189734935760498,0.10907602310180664,0.36279335618019104,0.18654978275299072,0.5678371787071228,2.9750381099028202,0.029783566434104288,1.5138639376778749,146.0723404255319,69.93404255319149,119.3710407239819,47.509049773755656,95.07276507276508,72.06444906444906,122.06930693069307,95.34059405940594,125.0,121.0,101.0,145.0,125.0,169.0,149.0,145.0
76,3.8000000000000003,0.058793067932128906,-0.5579805374145508,2.1252663135528564,-0.16123127937316895,-1.6188576221466064,0.10962319374084473,0.36141258478164673,0.18659286201000214,0.5673295259475708,2.972566627366685,0.0292919353953708,1.5135593626570891,146.12179487179486,69.94017094017094,119.54897494305239,47.55353075170843,95.09812108559498,72.08141962421712,122.12252964426878,95.3695652173913,125.0,121.0,101.0,145.0,125.0,169.0,149.0,145.0
77,3.85,0.05922293663024902,-0.5602056980133057,2.1270081996917725,-0.16293668746948242,-1.6189892292022705,0.11048340797424316,0.360359787940979,0.18668413162231445,0.5671536922454834,2.970351925655357,0.029020341885342443,1.5130557809971346,146.11563169164882,70.03426124197001,119.49774774774775,47.788288288288285,95.15800415800416,72.1891891891892,122.16071428571429,95.50396825396825,125.0,121.0,101.0,145.0,125.0,169.0,149.0,145.0
78,3.9000000000000004,0.05939960479736328,-0.5623083114624023,2.128675699234009,-0.16454124450683594,-1.6190845966339111,0.11119389533996582,0.35940513014793396,0.18668849766254425,0.5669695734977722,2.9682945029841212,0.028752777439287308,1.5124574306979608,146.01068376068375,70.16666666666667,119.50896860986548,47.955156950672645,95.1652719665272,72.29916317991632,122.19521912350598,95.57171314741036,125.0,121.0,101.0,145.0,125.0,169.0,149.0,145.0
79,3.95,0.05949592590332031,-0.5642735958099365,2.130211591720581,-0.16603565216064453,-1.619168996810913,0.11191487312316895,0.3585268557071686,0.18666888773441315,0.5668110847473145,2.966352955876959,0.028483055408074793,1.5117742242663683,146.0042735042735,70.26282051282051,119.40582959641256,48.04260089686099,95.16945606694561,72.40794979079497,122.14653465346535,95.67722772277227,125.0,121.0,101.0,145.0,125.0,169.0,149.0,145.0
80,4.0,0.05956315994262695,-0.5668210983276367,2.1323626041412354,-0.16787409782409668,-1.6191699504852295,0.11266851425170898,0.3573777973651886,0.18663135170936584,0.5664792656898499,2.9641103343837125,0.02808675360255856,1.5110364747372946,145.98924731182797,70.31397849462365,119.35214446952595,48.19864559819413,95.14853556485356,72.5439330543933,122.11660079051383,95.71739130434783,125.0,121.0,101.0,145.0,125.0,169.0,149.0,145.0
81,4.05,0.05974888801574707,-0.5692312717437744,2.1344077587127686,-0.1696302890777588,-1.6191380023956299,0.11343860626220703,0.3562706410884857,0.1866433322429657,0.566156804561615,2.9619845939244325,0.0276648683116582,1.5104117231018952,145.982869379015,70.36188436830835,119.37899543378995,48.31963470319635,95.22338204592901,72.56367432150313,122.19123505976096,95.73505976095618,125.0,121.0,101.0,145.0,125.0,169.0,149.0,145.0
82,4.1000000000000005,0.05969858169555664,-0.5714852809906006,2.1363842487335205,-0.17140746116638184,-1.6191151142120361,0.11405682563781738,0.35528331995010376,0.18657290935516357,0.5658254623413086,2.959929521319181,0.02728425613647135,1.5097003591835434,145.96145610278373,70.43468950749465,119.3607305936073,48.38356164383562,95.1255230125523,72.72175732217573,122.12103174603175,95.84722222222223,125.0,121.0,101.0,145.0,125.0,169.0,149.0,145.0
83,4.15,0.0600123405456543,-0.5739400386810303,2.1383135318756104,-0.17302393913269043,-1.6191165447235107,0.11501717567443848,0.3541339337825775,0.1866266429424286,0.5655777454376221,2.957775578632821,0.026851839439673335,1.5090120480979798,145.98488120950324,70.52051835853132,119.35469107551488,48.52173913043478,95.16842105263157,72.88421052631578,122.13916500994036,95.86481113320079,125.0,121.0,101.0,145.0,125.0,169.0,149.0,145.0
84,4.2,0.06047368049621582,-0.5765516757965088,2.1405670642852783,-0.17491364479064941,-1.6191093921661377,0.1159670352935791,0.3528875708580017,0.1867283135652542,0.5651924014091492,2.955518421489039,0.0263969566972966,1.5084819528758615,145.99352051835854,70.56803455723542,119.45622119815668,48.57142857142857,95.24,72.91368421052631,122.2410358565737,95.89243027888446,125.0,121.0,101.0,145.0,125.0,169.0,149.0,145.0
85,4.25,0.06087899208068848,-0.5791141986846924,2.1427204608917236,-0.1768026351928711,-1.6192114353179932,0.11696004867553711,0.35168272256851196,0.18680031597614288,0.5648562908172607,2.953198061891541,0.02602791614997283,1.5078329035339912,145.9935064935065,70.64069264069263,119.38515081206496,48.64965197215777,95.26638477801268,72.9830866807611,122.3201581027668,95.93280632411067,125.0,121.0,101.0,145.0,125.0,169.0,149.0,145.0
86,4.3,0.0610044002532959,-0.5821287631988525,2.1452314853668213,-0.17879009246826172,-1.6192471981048584,0.1176612377166748,0.3503139615058899,0.18676415085792542,0.5644442439079285,2.950700903991252,0.02562112357195041,1.5071989052641082,145.99132321041213,70.66594360086768,119.32794457274827,48.73210161662818,95.26114649681529,73.01061571125265,122.3201581027668,95.93280632411067,125.0,121.0,101.0,145.0,125.0,169.0,149.0,145.0
87,4.3500000000000005,0.06096029281616211,-0.5852367877960205,2.1478617191314697,-0.1808478832244873,-1.6192042827606201,0.11818957328796387,0.3489333689212799,0.18667243421077728,0.5639865398406982,2.948174313906731,0.02516170881707967,1.5065802068091567,145.96746203904556,70.70281995661605,119.26976744186047,48.890697674418604,95.26012793176972,73.05756929637526,122.2950495049505,95.93663366336634,125.0,121.0,101.0,145.0,125.0,169.0,149.0,145.0
88,4.4,0.06082010269165039,-0.587902307510376,2.1501991748809814,-0.1827831268310547,-1.6190955638885498,0.1186225414276123,0.34777724742889404,0.18656575679779053,0.563553512096405,2.9459313485380174,0.024688778576230707,1.505979861985344,145.94771241830065,70.74291938997821,119.18663594470046,48.97926267281106,95.27078891257996,73.12579957356077,122.27920792079208,95.97227722772277,125.0,121.0,101.0,145.0,125.0,169.0,149.0,145.0
89,4.45,0.060555219650268555,-0.5909137725830078,2.1529829502105713,-0.18500280380249023,-1.6188757419586182,0.11893582344055176,0.34648406505584717,0.18641720712184906,0.5629643797874451,2.9435216171273613,0.024106102090161025,1.5053913304551607,145.9041394335512,70.76906318082789,119.16091954022988,49.05057471264368,95.22912205567452,73.14775160599572,122.26785714285714,95.99404761904762,125.0,121.0,101.0,145.0,125.0,169.0,149.0,145.0
90,4.5,0.06025886535644531,-0.5937144756317139,2.155409574508667,-0.18694448471069336,-1.618645429611206,0.11929750442504883,0.34529393911361694,0.186265766620636,0.5625109076499939,2.9412426671251755,0.023518528875652957,1.5047312382547395,145.8311403508772,70.78508771929825,119.21064814814815,49.219907407407405,95.22765957446809,73.2531914893617,122.22420634920636,96.06547619047619,125.0,121.0,101.0,145.0,125.0,169.0,149.0,145.0
91,4.55,0.06033039093017578,-0.5958330631256104,2.1571943759918213,-0.18859553337097168,-1.6185386180877686,0.12007021903991699,0.3443601727485657,0.18625205755233765,0.562222957611084,2.9392696152724906,0.02300945558586054,1.5040207427780268,145.8621444201313,70.8402625820569,119.1981351981352,49.333333333333336,95.2,73.33829787234042,122.20675944333996,96.08349900596421,125.0,121.0,101.0,145.0,125.0,169.0,149.0,145.0
92,4.6000000000000005,0.06046462059020996,-0.597825288772583,2.1588046550750732,-0.1901085376739502,-1.618443250656128,0.12081551551818848,0.3434726297855377,0.18626195192337036,0.561993420124054,2.937384640304932,0.02252524917734038,1.5034013019544028,145.88815789473685,70.90350877192982,119.21162790697674,49.43255813953488,95.22388059701493,73.47547974413646,122.31936127744511,96.15369261477046,125.0,121.0,101.0,145.0,125.0,169.0,149.0,145.0
93,4.65,0.06057167053222656,-0.5999279022216797,2.1603758335113525,-0.19150280952453613,-1.6183855533599854,0.12149190902709961,0.3425363600254059,0.1862545609474182,0.5618139505386353,2.9354658566092717,0.022084271031687103,1.502815670627995,145.90174672489084,70.9825327510917,119.2004662004662,49.54079254079254,95.27741935483871,73.61935483870968,122.31388329979879,96.27967806841046,125.0,121.0,101.0,145.0,125.0,169.0,149.0,145.0
94,4.7,0.060797929763793945,-0.6024110317230225,2.1623623371124268,-0.19316816329956055,-1.61832594871521,0.12232637405395508,0.3414055407047272,0.18627876043319702,0.5615112781524658,2.9333092004476087,0.021577206363660964,1.5021908727437843,145.88646288209608,71.0174672489083,119.26463700234191,49.63231850117096,95.36695278969957,73.78755364806867,122.36947791164658,96.33734939759036,125.0,121.0,101.0,145.0,125.0,169.0,149.0,145.0
95,4.75,0.061367034912109375,-0.6050500869750977,2.164626359939575,-0.19514894485473633,-1.6183693408966064,0.1234276294708252,0.3401520848274231,0.18640753626823425,0.5611063838005066,2.9309421244456426,0.02108493572573521,1.5016242311126442,145.96263736263737,71.07692307692308,119.28605200945627,49.730496453900706,95.45299145299145,73.83974358974359,122.39034205231388,96.35211267605634,125.0,121.0,101.0,145.0,125.0,169.0,149.0,145.0
96,4.800000000000001,0.06185746192932129,-0.6079819202423096,2.1674530506134033,-0.19765710830688477,-1.6184074878692627,0.1244511604309082,0.3387896716594696,0.18650014698505402,0.5604739785194397,2.9283234221047785,0.020564943116935762,1.501052151944885,145.96263736263737,71.07692307692308,119.31839622641509,49.801886792452834,95.5,73.89102564102564,122.48080808080807,96.37171717171717,125.0,121.0,101.0,145.0,125.0,169.0,149.0,145.0
97,4.8500000000000005,0.06229424476623535,-0.6106832027435303,2.169952630996704,-0.19997453689575195,-1.6185276508331299,0.1254138946533203,0.3375473618507385,0.1865711212158203,0.559963047504425,2.9257897118430582,0.0201442264355738,1.5004720979466248,145.98017621145374,71.09691629955947,119.33412887828162,49.985680190930786,95.50967741935484,73.9763440860215,122.5,96.38866396761134,125.0,121.0,101.0,145.0,125.0,169.0,149.0,145.0
98,4.9,0.06263232231140137,-0.6126837730407715,2.1716864109039307,-0.2017519474029541,-1.6186630725860596,0.12624239921569824,0.3366398215293884,0.1866246461868286,0.5596717596054077,2.923731195966151,0.01982549924673196,1.4999309442444115,145.99333333333334,71.28888888888889,119.32458233890215,50.15751789976134,95.4978448275862,74.04741379310344,122.48686868686869,96.47878787878788,125.0,121.0,101.0,145.0,125.0,169.0,149.0,145.0
99,4.95,0.06271958351135254,-0.6147475242614746,2.1734259128570557,-0.20341086387634277,-1.6187336444854736,0.12694287300109863,0.3357406556606293,0.18659675121307373,0.5593817234039307,2.9217432292096825,0.019476046162964656,1.4992809490182217,145.94666666666666,71.3711111111111,119.27207637231504,50.315035799522676,95.4752688172043,74.14623655913978,122.5,96.5,125.0,121.0,101.0,145.0,125.0,169.0,149.0,145.0
100,5.0,0.06272149085998535,-0.6166741847991943,2.175002336502075,-0.20490241050720215,-1.6187536716461182,0.1275341510772705,0.3349149525165558,0.18654805421829224,0.5591351389884949,2.919903733437325,0.019118378649699355,1.4986658890371682,145.95089285714286,71.50669642857143,119.29216152019002,50.475059382422806,95.46969696969697,74.28787878787878,122.5,96.61133603238866,125.0,121.0,101.0,145.0,125.0,169.0,149.0,145.0
101,5.050000000000001,0.06277012825012207,-0.6185891628265381,2.176504373550415,-0.20628714561462402,-1.6187946796417236,0.1281895637512207,0.33408311009407043,0.18651369214057922,0.5589213371276855,2.9181042403812247,0.018770737349886726,1.4980324591065994,145.88539325842697,71.54831460674157,119.22142857142858,50.569047619047616,95.48695652173913,74.3804347826087,122.5,96.61133603238866,125.0,121.0,101.0,145.0,125.0,169.0,149.0,145.0
102,5.1000000000000005,0.06279897689819336,-0.620650053024292,2.1782586574554443,-0.2078697681427002,-1.6187760829925537,0.1288154125213623,0.33319053053855896,0.18647457659244537,0.5586049556732178,2.916221734715115,0.01835758167417943,1.4974203713130905,145.8881431767338,71.59955257270694,119.21377672209026,50.68408551068884,95.46739130434783,74.59347826086956,122.5,96.65853658536585,125.0,121.0,101.0,145.0,125.0,169.0,149.0,145.0
103,5.15,0.06308817863464355,-0.6227755546569824,2.1800577640533447,-0.20947670936584473,-1.6187975406646729,0.12954187393188477,0.33222338557243347,0.18651731312274933,0.558280348777771,2.9142892271006575,0.01795212118857864,1.496962923682518,145.85267857142858,71.70758928571429,119.20476190476191,50.75952380952381,95.54466230936819,74.67320261437908,122.51926977687627,96.67545638945234,125.0,121.0,101.0,145.0,125.0,169.0,149.0,145.0
104,5.2,0.0633859634399414,-0.6253261566162109,2.182551622390747,-0.21165990829467773,-1.6187727451324463,0.13028383255004883,0.33107003569602966,0.18655534088611603,0.5576868057250977,2.9120586837153892,0.017453536281346955,1.496504739919384,145.89237668161434,71.71748878923766,119.26570048309179,50.88405797101449,95.56739130434782,74.73913043478261,122.54453441295547,96.68218623481782,125.0,121.0,101.0,145.0,125.0,169.0,149.0,145.0
105,5.25,0.06366276741027832,-0.6272890567779541,2.184316873550415,-0.2133622169494629,-1.6188318729400635,0.13100790977478027,0.3301873803138733,0.18659372627735138,0.5573384165763855,2.910156161746752,0.017083482211708908,1.496030543074691,145.84375,71.796875,119.2179176755448,51.0,95.64859002169197,74.82212581344902,122.62348178137651,96.74089068825911,125.0,121.0,101.0,145.0,125.0,169.0,149.0,145.0
106,5.300000000000001,0.06384396553039551,-0.6295328140258789,2.1865222454071045,-0.21540021896362305,-1.6188485622406006,0.13166332244873047,0.3291982412338257,0.1865958273410797,0.5568184852600098,2.9080865257093467,0.016661644982876242,1.4955354041095024,145.84375,71.796875,119.22815533980582,51.05339805825243,95.62391304347825,74.87608695652175,122.62474645030426,96.8133874239351,125.0,121.0,101.0,145.0,125.0,169.0,149.0,145.0
107,5.3500000000000005,0.06412100791931152,-0.6317768096923828,2.1885569095611572,-0.21728181838989258,-1.618912935256958,0.13246607780456543,0.3281923830509186,0.18662574887275696,0.5563963055610657,2.905993344823717,0.016245958543821985,1.494982998112175,145.86666666666667,71.84444444444445,119.27737226277372,51.1338199513382,95.5938864628821,74.9650655021834,122.62068965517241,96.93711967545639,125.0,121.0,101.0,145.0,125.0,169.0,149.0,145.0
108,5.4,0.06453967094421387,-0.634016752243042,2.1903340816497803,-0.21889805793762207,-1.619065523147583,0.13349652290344238,0.3271612823009491,0.18669429421424866,0.5561184883117676,2.903895782151744,0.015859519154661137,1.4943311713038412,145.88839285714286,71.96428571428571,119.24757281553399,51.31553398058252,95.70897155361051,75.04595185995623,122.62474645030426,97.06490872210954,125.0,121.0,101.0,145.0,125.0,169.0,149.0,145.0
109,5.45,0.06479167938232422,-0.6365208625793457,2.1926186084747314,-0.22091126441955566,-1.6191718578338623,0.1345374584197998,0.3260439932346344,0.18670499324798584,0.5556215643882751,2.9016535388475817,0.015400771501349332,1.4935126828335477,145.8612975391499,71.95749440715883,119.16058394160584,51.44525547445255,95.69162995594714,75.13436123348018,122.6219512195122,97.08943089430895,125.0,121.0,101.0,145.0,125.0,169.0,149.0,145.0
110,5.5,0.06499338150024414,-0.6387028694152832,2.194509744644165,-0.22260737419128418,-1.6192209720611572,0.13543152809143066,0.32507768273353577,0.18671245872974396,0.5552483201026917,2.8996663361980426,0.014952023787944259,1.4928045169437765,145.8581081081081,72.02252252252252,119.11219512195122,51.5,95.70860927152317,75.21854304635761,122.65714285714286,97.17551020408163,125.0,121.0,101.0,145.0,125.0,169.0,149.0,145.0
111,5.550000000000001,0.06513237953186035,-0.6412689685821533,2.1966936588287354,-0.22440719604492188,-1.6192457675933838,0.13632559776306152,0.32394838333129883,0.18669050931930542,0.5548096895217896,2.8974894018707347,0.014448220857976665,1.4920382442519933,145.83710407239818,72.05203619909503,119.09268292682927,51.58780487804878,95.68222222222222,75.28,122.65714285714286,97.17551020408163,125.0,121.0,101.0,145.0,125.0,169.0,149.0,145.0
112,5.6000000000000005,0.0652916431427002,-0.6437382698059082,2.1987416744232178,-0.22611212730407715,-1.619255781173706,0.13720226287841797,0.32285988330841064,0.18667882680892944,0.5544192790985107,2.8953700182070485,0.013938933046768508,1.4913149494512759,145.81900452488688,72.09954751131222,119.11519607843137,51.78186274509804,95.65333333333334,75.41333333333333,122.70408163265306,97.19795918367348,125.0,121.0,101.0,145.0,125.0,169.0,149.0,145.0
113,5.65,0.06547665596008301,-0.6456258296966553,2.2001020908355713,-0.2273237705230713,-1.6193106174468994,0.13799524307250977,0.3220246732234955,0.18668678402900696,0.5542506575584412,2.893631678786089,0.013546233308582994,1.4906941279263568,145.8192219679634,72.29061784897026,119.05159705159706,51.85995085995086,95.65771812080537,75.5413870246085,122.6849593495935,97.28048780487805,125.0,121.0,101.0,145.0,125.0,169.0,149.0,145.0
114,5.7,0.06563711166381836,-0.648186206817627,2.202167272567749,-0.2289133071899414,-1.6192905902862549,0.1387934684753418,0.3208905756473541,0.18667446076869965,0.5538589358329773,2.8915600377721455,0.013026942335175625,1.4900586077339286,145.82110091743118,72.31651376146789,119.0343137254902,51.94117647058823,95.68609865470852,75.54035874439462,122.7326530612245,97.27142857142857,125.0,121.0,101.0,145.0,125.0,169.0,149.0,145.0
115,5.75,0.06557917594909668,-0.6506130695343018,2.204087972640991,-0.23041105270385742,-1.6192386150360107,0.13940715789794922,0.3198563754558563,0.18659758567810059,0.5535088777542114,2.8895761891909557,0.01253066141354495,1.4893938725238485,145.77981651376146,72.38302752293578,119.0,52.11793611793612,95.6837416481069,75.59688195991092,122.68098159509202,97.3640081799591,125.0,121.0,101.0,145.0,125.0,169.0,149.0,145.0
116,5.800000000000001,0.06549859046936035,-0.6527435779571533,2.2057440280914307,-0.23174118995666504,-1.619157075881958,0.14011096954345703,0.3189581632614136,0.18652579188346863,0.5532222390174866,2.8877944439888843,0.012011104231654775,1.4886295117334944,145.75402298850574,72.39310344827587,119.0,52.15308641975309,95.6325167037862,75.728285077951,122.652977412731,97.40451745379877,125.0,121.0,101.0,145.0,125.0,169.0,149.0,145.0
117,5.8500000000000005,0.06568646430969238,-0.6550266742706299,2.2074520587921143,-0.23309016227722168,-1.6191165447235107,0.14103341102600098,0.3179458975791931,0.18653325736522675,0.5529496669769287,2.885885791323582,0.011455656315515195,1.4879133364210475,145.71593533487297,72.42032332563511,118.99253731343283,52.223880597014926,95.64732142857143,75.86607142857143,122.67827868852459,97.41188524590164,125.0,121.0,101.0,145.0,125.0,169.0,149.0,145.0
118,5.9,0.06604433059692383,-0.6574208736419678,2.2093164920806885,-0.2345902919769287,-1.6190993785858154,0.14203524589538574,0.3168585002422333,0.1865898072719574,0.5526220798492432,2.8838683236684997,0.010883274494732247,1.4872844058393369,145.71724137931034,72.46896551724137,118.97,52.2525,95.74330357142857,75.96875,122.67827868852459,97.41188524590164,125.0,121.0,101.0,145.0,125.0,169.0,149.0,145.0
119,5.95,0.06661725044250488,-0.6605219841003418,2.2122766971588135,-0.23703694343566895,-1.6190550327301025,0.14318561553955078,0.31543582677841187,0.1866978257894516,0.5518762469291687,2.8813019977513545,0.01015969221020945,1.4867303596976411,145.83295194508008,72.48970251716247,119.02763819095478,52.311557788944725,95.81069042316258,75.98886414253897,122.76639344262296,97.36270491803279,125.0,121.0,101.0,145.0,125.0,169.0,149.0,145.0
120,6.0,0.06687188148498535,-0.6633639335632324,2.214888334274292,-0.2392725944519043,-1.6190850734710693,0.14394187927246094,0.3141901195049286,0.18670092523097992,0.551259458065033,2.8788517083819394,0.009621262560533467,1.486222667502888,145.83295194508008,72.48970251716247,119.0625,52.5,95.81473214285714,76.0625,122.79260780287474,97.36550308008214,125.0,121.0,101.0,145.0,125.0,169.0,149.0,145.0
121,6.050000000000001,0.06702303886413574,-0.6650955677032471,2.216168165206909,-0.2405385971069336,-1.6191565990447998,0.14463353157043457,0.3134455978870392,0.18669787049293518,0.5510876774787903,2.877139206577876,0.009249323424191902,1.4856708832907142,145.7821100917431,72.58715596330275,118.99748743718592,52.71105527638191,95.79372197309416,76.13677130044843,122.7892561983471,97.45867768595042,125.0,121.0,101.0,145.0,125.0,169.0,149.0,145.0
122,6.1000000000000005,0.06704092025756836,-0.6666486263275146,2.2171757221221924,-0.24150991439819336,-1.619171380996704,0.1452772617340088,0.3127955198287964,0.18666350841522217,0.5510095357894897,2.8756325992481004,0.008863101178729908,1.4850501362690829,145.71954022988507,72.62298850574713,119.0,52.750623441396506,95.81221719457014,76.33031674208145,122.76701030927835,97.55463917525773,125.0,121.0,101.0,145.0,125.0,169.0,149.0,145.0
123,6.15,0.06729602813720703,-0.668442964553833,2.218451738357544,-0.2427060604095459,-1.6192333698272705,0.14615106582641602,0.312000572681427,0.18669380247592926,0.550849974155426,2.873920809542897,0.008430509524014255,1.4844318308909297,145.70344827586206,72.65977011494253,118.98492462311557,52.94221105527638,95.83484162895928,76.39819004524887,122.87966804979253,97.70954356846472,125.0,121.0,101.0,145.0,125.0,169.0,149.0,145.0
124,6.2,0.06738877296447754,-0.67000412940979,2.2192022800445557,-0.24335813522338867,-1.6193068027496338,0.14699435234069824,0.3113257884979248,0.1866776943206787,0.5509114265441895,2.872457897671247,0.00805210061769611,1.483680245662065,145.64814814814815,72.76388888888889,118.82278481012658,53.1493670886076,95.84965831435079,76.52847380410023,122.92116182572614,97.79253112033194,125.0,121.0,101.0,145.0,125.0,169.0,149.0,145.0
125,6.25,0.06723380088806152,-0.6715102195739746,2.219829797744751,-0.24376749992370605,-1.6192619800567627,0.14758825302124023,0.31070882081985474,0.18659532070159912,0.5510085821151733,2.8711875358619583,0.007651736739879624,1.4829547802577443,145.57808857808857,72.92540792540792,118.80555555555556,53.23232323232323,95.85909090909091,76.5840909090909,122.87163561076605,97.81780538302277,125.0,121.0,101.0,145.0,125.0,169.0,149.0,145.0
126,6.300000000000001,0.06707000732421875,-0.6733376979827881,2.2209503650665283,-0.24455857276916504,-1.619149923324585,0.148268461227417,0.30995604395866394,0.18650904297828674,0.5509116053581238,2.8697180745592257,0.0071312913566276065,1.4821545165555214,145.53286384976525,73.09624413145539,118.7741116751269,53.32233502538071,95.78718535469108,76.7345537757437,122.81970649895179,97.94339622641509,125.0,121.0,101.0,145.0,125.0,169.0,149.0,145.0
127,6.3500000000000005,0.06704020500183105,-0.6756455898284912,2.2224342823028564,-0.24544644355773926,-1.6190001964569092,0.1491386890411377,0.3089628517627716,0.18645568192005157,0.5507234930992126,2.8680425481722014,0.006487542543642455,1.481314800463588,145.51650943396226,73.10141509433963,118.71428571428571,53.46683673469388,95.7729357798165,76.80275229357798,122.81970649895179,97.94339622641509,125.0,121.0,101.0,145.0,125.0,169.0,149.0,145.0
128,6.4,0.0669548511505127,-0.6775670051574707,2.2235167026519775,-0.24607038497924805,-1.618821382522583,0.14988923072814941,0.3081483244895935,0.18639793992042542,0.5506570339202881,2.8666192836558984,0.005886032291641751,1.480546434219153,145.51650943396226,73.10141509433963,118.76606683804627,53.55784061696658,95.73226544622426,76.92448512585813,122.78197064989517,97.97693920335429,125.0,121.0,101.0,145.0,125.0,169.0,149.0,145.0
129,6.45,0.06715941429138184,-0.6792263984680176,2.224327325820923,-0.2466108798980713,-1.6187541484832764,0.15084362030029297,0.30740293860435486,0.18642844259738922,0.5506864786148071,2.8652517380469793,0.00534317836416728,1.4798430253929327,145.52235294117648,73.20235294117647,118.769820971867,53.64450127877238,95.78132118451025,77.00683371298406,122.87315010570825,98.0,125.0,121.0,101.0,145.0,125.0,169.0,149.0,145.0
130,6.5,0.06726217269897461,-0.6810107231140137,2.225238084793091,-0.2471780776977539,-1.6186792850494385,0.15169000625610352,0.30661940574645996,0.18642306327819824,0.5506868958473206,2.863835940350581,0.004813192273843631,1.4791449202912468,145.5271867612293,73.24349881796691,118.71867007672634,53.77237851662404,95.79223744292237,77.23744292237443,122.88771186440678,98.02118644067797,125.0,121.0,101.0,145.0,125.0,169.0,149.0,145.0
131,6.550000000000001,0.06748366355895996,-0.6827535629272461,2.226168394088745,-0.2478034496307373,-1.6186397075653076,0.1524655818939209,0.30583640933036804,0.1864512711763382,0.550667405128479,2.8624189588266136,0.0043341616678652375,1.4786248494958774,145.48591549295776,73.29577464788733,118.79691516709512,53.9305912596401,95.86529680365297,77.3013698630137,122.87737843551797,98.04439746300211,125.0,121.0,101.0,145.0,125.0,169.0,149.0,145.0
132,6.6000000000000005,0.06776165962219238,-0.6842436790466309,2.2270123958587646,-0.24851369857788086,-1.6186378002166748,0.15336918830871582,0.3051609396934509,0.18650171160697937,0.5506382584571838,2.8610762745274356,0.00386689055866517,1.4780299426771029,145.53301886792454,73.37028301886792,118.77835051546391,54.08247422680412,95.86270022883295,77.36842105263158,122.92631578947369,98.06526315789473,125.0,121.0,101.0,145.0,125.0,169.0,149.0,145.0
133,6.65,0.06790971755981445,-0.685617208480835,2.2276628017425537,-0.2490251064300537,-1.618614912033081,0.15412402153015137,0.30455482006073,0.18651604652404785,0.5506813526153564,2.859859309595944,0.003437667878496935,1.4774542298918574,145.5188679245283,73.41981132075472,118.73076923076923,54.15897435897436,95.93103448275862,77.48045977011495,122.9493670886076,98.07805907172995,125.0,121.0,101.0,145.0,125.0,169.0,149.0,145.0
134,6.7,0.06805682182312012,-0.6871006488800049,2.2285101413726807,-0.2497110366821289,-1.618582010269165,0.1548480987548828,0.30390429496765137,0.18652763962745667,0.5506431460380554,2.8585563973278627,0.002991409852213623,1.4769112390529926,145.5,73.5,118.70466321243524,54.310880829015545,95.91916859122402,77.51501154734412,123.0,98.29113924050633,125.0,121.0,101.0,145.0,125.0,169.0,149.0,145.0
135,6.75,0.06807875633239746,-0.688666582107544,2.2291548252105713,-0.25002503395080566,-1.6185085773468018,0.15563440322875977,0.30322590470314026,0.18650230765342712,0.5507231950759888,2.8573460332924303,0.002502255281210453,1.4761948790118746,145.43026004728134,73.54137115839244,118.66493506493507,54.407792207792205,95.93533487297921,77.58891454965358,123.0,98.29113924050633,125.0,121.0,101.0,145.0,125.0,169.0,149.0,145.0
136,6.800000000000001,0.06810116767883301,-0.6901779174804688,2.229815721511841,-0.2503933906555176,-1.618408441543579,0.1564185619354248,0.3025737702846527,0.18648162484169006,0.5507808923721313,2.8561564095133987,0.001989132219551997,1.4754904002750755,145.36754176610978,73.67303102625299,118.6413612565445,54.49214659685864,95.94675925925925,77.69212962962963,123.04025423728814,98.32415254237289,125.0,121.0,101.0,145.0,125.0,169.0,149.0,145.0
137,6.8500000000000005,0.0681006908416748,-0.6918296813964844,2.230647325515747,-0.25085902214050293,-1.6182806491851807,0.15717172622680664,0.3018648028373718,0.18645262718200684,0.5507736206054688,2.8549063681968962,0.001445453524587147,1.4748010221961123,145.36754176610978,73.67303102625299,118.60471204188482,54.583769633507856,95.99305555555556,77.76388888888889,123.02972399150742,98.38853503184713,125.0,121.0,101.0,145.0,125.0,169.0,149.0,145.0
138,6.9,0.0680854320526123,-0.6935179233551025,2.231506586074829,-0.25133180618286133,-1.6181352138519287,0.15797019004821777,0.3011423647403717,0.18642008304595947,0.5507577061653137,2.8536437643146315,0.0008679302215279736,1.4740591360827424,145.3732057416268,73.69856459330144,118.63874345549738,54.62565445026178,95.96252927400468,77.86416861826697,123.0,98.5,125.0,121.0,101.0,145.0,125.0,169.0,149.0,145.0
139,6.95,0.06824159622192383,-0.6953325271606445,2.232309579849243,-0.25168633460998535,-1.6180384159088135,0.15901780128479004,0.30033087730407715,0.18643248081207275,0.5508049726486206,2.8523098334504016,0.0002531038378746678,1.473237433874518,145.38516746411483,73.7464114832536,118.6421052631579,54.66842105263158,96.0,78.0,123.0,98.5,125.0,121.0,101.0,145.0,125.0,169.0,149.0,145.0
140,7.0,0.06853437423706055,-0.6972942352294922,2.233398675918579,-0.2523510456085205,-1.6179873943328857,0.16009092330932617,0.2994409203529358,0.18647731840610504,0.5507360696792603,2.8508008207243973,-0.00035628198682194205,1.472516947741105,145.38516746411483,73.7464114832536,118.74074074074075,54.83068783068783,96.06839622641509,78.08962264150944,123.0,98.5,125.0,121.0,101.0,145.0,125.0,169.0,149.0,145.0
141,7.050000000000001,0.06890249252319336,-0.698742151260376,2.2341320514678955,-0.25296521186828613,-1.6180250644683838,0.16123247146606445,0.29876917600631714,0.1865515112876892,0.5507495403289795,2.8494857606032307,-0.0008699618550405755,1.4717820646053033,145.41888619854723,73.86924939467312,118.72845953002611,55.023498694516974,96.10823529411765,78.20470588235294,123.00428265524626,98.52462526766595,125.0,121.0,101.0,145.0,125.0,169.0,149.0,145.0
142,7.1000000000000005,0.0691537857055664,-0.7001135349273682,2.2348620891571045,-0.25357508659362793,-1.6180298328399658,0.1622159481048584,0.29815131425857544,0.186594620347023,0.5507407188415527,2.8482529675744255,-0.0013593894322115026,1.4710917837116246,145.38740920096853,73.96125907990314,118.72584856396867,55.240208877284594,96.15222482435597,78.36768149882904,123.02141327623126,98.56531049250535,125.0,121.0,101.0,145.0,125.0,169.0,149.0,145.0
143,7.15,0.06939458847045898,-0.701310396194458,2.2354938983917236,-0.2541530132293701,-1.6180360317230225,0.1631460189819336,0.29761114716529846,0.1866389811038971,0.5507413744926453,2.8471271925348107,-0.0018152854999656208,1.47044225236751,145.4126213592233,73.97572815533981,118.67716535433071,55.32283464566929,96.15654205607477,78.42056074766356,123.12931034482759,98.79310344827586,125.0,121.0,101.0,145.0,125.0,169.0,149.0,145.0
144,7.2,0.06957244873046875,-0.70265793800354,2.2359602451324463,-0.25439023971557617,-1.6180393695831299,0.16417455673217773,0.29700300097465515,0.18665987253189087,0.5508601665496826,2.846025674312277,-0.0023011683302714453,1.4696376638411592,145.373786407767,74.00728155339806,118.6421052631579,55.44736842105263,96.17990654205607,78.49299065420561,123.11612903225806,98.81505376344086,125.0,121.0,101.0,145.0,125.0,169.0,149.0,145.0
145,7.25,0.06974101066589355,-0.7039134502410889,2.236394166946411,-0.2546417713165283,-1.6180193424224854,0.16520261764526367,0.29643818736076355,0.18668325245380402,0.5509744882583618,2.8449735628282036,-0.0028023264753288175,1.4688309897562488,145.34063260340633,74.04866180048661,118.6058201058201,55.48941798941799,96.19672131147541,78.60889929742389,123.13118279569892,98.84731182795699,125.0,121.0,101.0,145.0,125.0,169.0,149.0,145.0
146,7.300000000000001,0.06996393203735352,-0.7052619457244873,2.2369258403778076,-0.25496602058410645,-1.6180050373077393,0.16626310348510742,0.2958245873451233,0.18671976029872894,0.5510571002960205,2.843854189294517,-0.0033228871954694397,1.4680479350371192,145.30073349633253,74.13447432762837,118.58090185676393,55.55968169761273,96.17298578199052,78.69194312796209,123.16559139784947,98.88602150537635,125.0,121.0,101.0,145.0,125.0,169.0,149.0,145.0
147,7.3500000000000005,0.07018280029296875,-0.7067110538482666,2.2374837398529053,-0.25524449348449707,-1.6179735660552979,0.1673281192779541,0.29516512155532837,0.18675300478935242,0.5511453747749329,2.8427099910017954,-0.00386706569095009,1.4672619765579278,145.3235294117647,74.15196078431373,118.6058201058201,55.62698412698413,96.28095238095239,78.83095238095238,123.18103448275862,98.94612068965517,125.0,121.0,101.0,145.0,125.0,169.0,149.0,145.0
148,7.4,0.07049918174743652,-0.7081902027130127,2.238191843032837,-0.25572991371154785,-1.6180026531219482,0.1684715747833252,0.29448312520980835,0.18680909276008606,0.5511640310287476,2.8414716661290473,-0.004394696928789698,1.4664828827761742,145.30243902439025,74.22926829268293,118.71045576407506,55.76407506702413,96.3076923076923,78.96153846153847,123.23326133909288,99.0,125.0,121.0,101.0,145.0,125.0,169.0,149.0,145.0
149,7.45,0.07090377807617188,-0.7095034122467041,2.2387239933013916,-0.2561318874359131,-1.618109941482544,0.1697099208831787,0.29385823011398315,0.1868886947631836,0.5512440800666809,2.840294075537119,-0.004867319663364582,1.4656787709305756,145.28992628992629,74.39557739557739,118.67837837837838,55.82432432432432,96.31159420289855,79.07246376811594,123.23974082073434,99.02375809935205,125.0,121.0,101.0,145.0,125.0,169.0,149.0,145.0
150,7.5,0.07130956649780273,-0.7111489772796631,2.2396624088287354,-0.25679779052734375,-1.6181871891021729,0.17092561721801758,0.2930929958820343,0.18696069717407227,0.5511731505393982,2.8389349961373775,-0.005397025009806795,1.4649085587088173,145.31051344743275,74.46454767726162,118.53116531165311,56.05962059620596,96.39518072289157,79.08915662650602,123.25324675324676,99.04545454545455,125.0,121.0,101.0,145.0,125.0,169.0,149.0,145.0
151,7.550000000000001,0.07137298583984375,-0.7126939296722412,2.240565538406372,-0.2573816776275635,-1.618117094039917,0.17185759544372559,0.29242849349975586,0.18694768846035004,0.5510842800140381,2.837744781011042,-0.005958544922130777,1.4641099015034942,145.29756097560977,74.48780487804878,118.51881720430107,56.17204301075269,96.35817307692308,79.20913461538461,123.24406047516199,99.06911447084234,125.0,121.0,101.0,145.0,125.0,169.0,149.0,145.0
152,7.6000000000000005,0.07150650024414062,-0.7140803337097168,2.2412455081939697,-0.25780725479125977,-1.6180694103240967,0.17279410362243652,0.2918175160884857,0.18695729970932007,0.5510822534561157,2.83664474134892,-0.006485256890761293,1.4633705418364331,145.26470588235293,74.51960784313725,118.53351206434316,56.32439678284182,96.39328537170263,79.27817745803357,123.31533477321814,99.10583153347733,125.0,121.0,101.0,145.0,125.0,169.0,149.0,145.0
153,7.65,0.07159090042114258,-0.7153065204620361,2.2417242527008057,-0.2580831050872803,-1.6180288791656494,0.17370128631591797,0.2912818193435669,0.1869562566280365,0.5511528253555298,2.8356505641511607,-0.00697916794597295,1.46260872697119,145.23658536585367,74.58780487804879,118.5,56.38770053475936,96.41826923076923,79.38461538461539,123.34924078091106,99.1236442516269,125.0,121.0,101.0,145.0,125.0,169.0,149.0,145.0
154,7.7,0.07166934013366699,-0.7166125774383545,2.2423112392425537,-0.2584383487701416,-1.6179783344268799,0.1745755672454834,0.2907141447067261,0.18695184588432312,0.5511813163757324,2.83460803771225,-0.007482710305929122,1.4618766277174866,145.17603911980441,74.67726161369193,118.49061662198392,56.474530831099194,96.40579710144928,79.50966183574879,123.34557235421167,99.16414686825054,125.0,121.0,101.0,145.0,125.0,169.0,149.0,145.0
155,7.75,0.07181000709533691,-0.7179529666900635,2.2429611682891846,-0.2588493824005127,-1.617929220199585,0.17549419403076172,0.29012176394462585,0.18696486949920654,0.5511825084686279,2.833539111864172,-0.008005450477826003,1.461164773386306,145.15479115479116,74.77395577395578,118.5,56.5,96.44794188861985,79.55932203389831,123.34557235421167,99.16414686825054,125.0,121.0,101.0,145.0,125.0,169.0,149.0,145.0
156,7.800000000000001,0.07196187973022461,-0.7194583415985107,2.2438862323760986,-0.2595043182373047,-1.6178715229034424,0.17644286155700684,0.2894637882709503,0.1869775354862213,0.5510714054107666,2.832341092237926,-0.008571386601784862,1.4604402523327655,145.15479115479116,74.77395577395578,118.50268817204301,56.594086021505376,96.45145631067962,79.63592233009709,123.37117903930131,99.25764192139738,125.0,121.0,101.0,145.0,125.0,169.0,149.0,145.0
157,7.8500000000000005,0.07213997840881348,-0.7209370136260986,2.2446649074554443,-0.25999927520751953,-1.6178319454193115,0.17747282981872559,0.2888079583644867,0.18699675798416138,0.5510326027870178,2.8311808362833735,-0.009139456749406822,1.4596597943591736,145.1851851851852,74.81975308641975,118.45013477088949,56.6388140161725,96.44309927360774,79.70217917675545,123.40869565217392,99.27826086956522,125.0,121.0,101.0,145.0,125.0,169.0,149.0,145.0
158,7.9,0.07225918769836426,-0.7225565910339355,2.2454893589019775,-0.260448694229126,-1.617769479751587,0.1784203052520752,0.28809884190559387,0.1869957447052002,0.5509977340698242,2.8299754417623135,-0.009715558884399195,1.4589075468203272,145.1851851851852,74.81975308641975,118.47411444141689,56.76839237057221,96.46585365853659,79.90243902439025,123.42047930283225,99.30065359477125,125.0,121.0,101.0,145.0,125.0,169.0,149.0,145.0
159,7.95,0.07250237464904785,-0.723931074142456,2.2461187839508057,-0.26085448265075684,-1.6177761554718018,0.17937183380126953,0.2874763607978821,0.18703097105026245,0.5510196685791016,2.8288515355389072,-0.010212323945555853,1.4582541410792769,145.16666666666666,74.86764705882354,118.43093922651934,56.9060773480663,96.44660194174757,79.98058252427184,123.4043956043956,99.37582417582418,125.0,121.0,101.0,145.0,125.0,169.0,149.0,145.0
160,8.0,0.07273578643798828,-0.7252588272094727,2.2466318607330322,-0.2611238956451416,-1.6177618503570557,0.18035006523132324,0.28687137365341187,0.18706682324409485,0.5510903596878052,2.827798180292303,-0.01072767578623713,1.4575727974623547,145.0909090909091,74.9017199017199,118.42936288088643,56.99722991689751,96.47457627118644,79.98789346246973,123.45253863134658,99.45474613686534,125.0,121.0,101.0,145.0,125.0,169.0,149.0,145.0
161,8.05,0.07293891906738281,-0.7265760898590088,2.247062921524048,-0.2612905502319336,-1.6177341938018799,0.18140435218811035,0.2862716019153595,0.1870957911014557,0.5512009263038635,2.826779525121907,-0.011275271016471492,1.4567930323328675,145.03703703703704,74.96049382716049,118.43093922651934,57.06629834254144,96.55990220048899,80.08312958435208,123.44911504424779,99.51106194690266,125.0,121.0,101.0,145.0,125.0,169.0,149.0,145.0
162,8.1,0.07320070266723633,-0.7279603481292725,2.247695207595825,-0.261674165725708,-1.6177136898040771,0.18256282806396484,0.28564006090164185,0.18713967502117157,0.551218569278717,2.8256791425068015,-0.011864951370474412,1.45597288550175,145.02216748768473,74.98275862068965,118.41758241758242,57.21978021978022,96.51842751842752,80.14742014742015,123.55432372505543,99.57427937915743,125.0,121.0,101.0,145.0,125.0,169.0,149.0,145.0
163,8.15,0.0733637809753418,-0.7291469573974609,2.2478911876678467,-0.26162219047546387,-1.617692232131958,0.18361663818359375,0.2850974202156067,0.1871594935655594,0.5514256358146667,2.824772866629769,-0.012389620217862872,1.4551520656194037,144.99503722084367,75.04714640198512,118.35519125683061,57.30327868852459,96.51351351351352,80.27272727272727,123.55043859649123,99.68201754385964,125.0,121.0,101.0,145.0,125.0,169.0,149.0,145.0
164,8.200000000000001,0.07356381416320801,-0.7304320335388184,2.2480928897857666,-0.2614881992340088,-1.6176550388336182,0.18473124504089355,0.28450077772140503,0.187188521027565,0.5516459941864014,2.823860776761991,-0.012950521018447689,1.4543162279221817,145.0174129353234,75.09950248756219,118.35714285714286,57.379120879120876,96.51100244498778,80.42298288508557,123.54824561403508,99.7280701754386,125.0,121.0,101.0,145.0,125.0,169.0,149.0,145.0
165,8.25,0.07385587692260742,-0.731774091720581,2.2483394145965576,-0.26138734817504883,-1.6176531314849854,0.1858839988708496,0.2838636636734009,0.18723848462104797,0.5518561601638794,2.8228980276480207,-0.013502123163712854,1.453527072978902,144.9748743718593,75.15577889447236,118.3489010989011,57.505494505494504,96.50614250614251,80.47420147420148,123.59030837004406,99.7466960352423,125.0,121.0,101.0,145.0,125.0,169.0,149.0,145.0
166,8.3,0.07409143447875977,-0.733018159866333,2.248453378677368,-0.26117491722106934,-1.6176321506500244,0.18699312210083008,0.28327563405036926,0.1872764229774475,0.5521144866943359,2.8220155454513236,-0.014044238123406138,1.4527280068287372,144.97236180904522,75.20603015075378,118.30193905817174,57.62880886426593,96.57920792079207,80.61386138613861,123.63858093126386,99.80266075388026,125.0,121.0,101.0,145.0,125.0,169.0,149.0,145.0
167,8.35,0.07429027557373047,-0.7342498302459717,2.248603105545044,-0.2610008716583252,-1.6176083087921143,0.18802142143249512,0.282700777053833,0.18730366230010986,0.5523485541343689,2.8211422844021183,-0.014563321067147179,1.4519711816316911,144.90680100755668,75.2896725440806,118.25633802816901,57.780281690140846,96.59950248756219,80.7089552238806,123.65044247787611,99.82522123893806,125.0,121.0,101.0,145.0,125.0,169.0,149.0,145.0
168,8.4,0.07445502281188965,-0.7354257106781006,2.248771905899048,-0.2608659267425537,-1.6175520420074463,0.18900632858276367,0.28215736150741577,0.18732598423957825,0.5525568127632141,2.8203102023427467,-0.015093888466654302,1.451231621246448,144.90680100755668,75.2896725440806,118.29014084507043,57.91549295774648,96.63054187192118,80.80049261083744,123.65044247787611,99.82522123893806,125.0,121.0,101.0,145.0,125.0,169.0,149.0,145.0
169,8.450000000000001,0.07465481758117676,-0.7364387512207031,2.2488410472869873,-0.260739803314209,-1.617525339126587,0.19000864028930664,0.281680166721344,0.18736067414283752,0.552788496017456,2.819526958175469,-0.015594451757559753,1.450500692923166,144.86005089058523,75.36132315521628,118.30985915492958,57.946478873239435,96.66997518610422,80.88833746898263,123.65044247787611,99.95353982300885,125.0,121.0,101.0,145.0,125.0,169.0,149.0,145.0
170,8.5,0.07493996620178223,-0.7375590801239014,2.248975992202759,-0.26062726974487305,-1.617518663406372,0.19118499755859375,0.2811402976512909,0.18741507828235626,0.553006649017334,2.8186895305671045,-0.016143325496144792,1.4496857723548722,144.81841432225065,75.44245524296676,118.24645892351275,58.06798866855524,96.76485148514851,81.01485148514851,123.68362831858407,99.9933628318584,125.0,121.0,101.0,145.0,125.0,169.0,149.0,145.0
171,8.55,0.0751791000366211,-0.7387096881866455,2.2492763996124268,-0.260683536529541,-1.6174867153167725,0.19228339195251465,0.28060200810432434,0.18745768070220947,0.5531385540962219,2.8178236221472344,-0.016698627617449207,1.448907876073987,144.81841432225065,75.44245524296676,118.22727272727273,58.09090909090909,96.77915632754342,81.03722084367246,123.70953436807095,100.00221729490022,125.0,121.0,101.0,145.0,125.0,169.0,149.0,145.0
172,8.6,0.07540106773376465,-0.7398898601531982,2.2495644092559814,-0.26071906089782715,-1.617450475692749,0.19338107109069824,0.2800532579421997,0.18749454617500305,0.5532853603363037,2.816937126145002,-0.01726443372135863,1.4481163306452667,144.7923076923077,75.45641025641025,118.20281690140845,58.15211267605634,96.82,81.115,123.76785714285714,100.09598214285714,125.0,121.0,101.0,145.0,125.0,169.0,149.0,145.0
173,8.65,0.07561707496643066,-0.7410578727722168,2.249778985977173,-0.26067161560058594,-1.6174218654632568,0.1944866180419922,0.2795073986053467,0.18752895295619965,0.5534682273864746,2.816072308627977,-0.017823018202754625,1.4473090070104342,144.78571428571428,75.59183673469387,118.22128851540616,58.34453781512605,96.77386934673366,81.15075376884423,123.7897091722595,100.11185682326622,125.0,121.0,101.0,145.0,125.0,169.0,149.0,145.0
174,8.700000000000001,0.07574844360351562,-0.742194414138794,2.2498819828033447,-0.2604644298553467,-1.6173603534698486,0.1955726146697998,0.27898311614990234,0.1875433623790741,0.5536982417106628,2.8152919853742833,-0.0183921797872642,1.4464451512407683,144.77948717948718,75.63076923076923,118.22598870056497,58.41242937853107,96.83291139240507,81.24810126582278,123.76457399103138,100.12331838565022,125.0,121.0,101.0,145.0,125.0,169.0,149.0,145.0
175,8.75,0.07593894004821777,-0.7433679103851318,2.2501447200775146,-0.2604551315307617,-1.6173126697540283,0.1967179775238037,0.27844032645225525,0.1875724196434021,0.5538524985313416,2.8144373880956466,-0.018983252643899703,1.4455827813292483,144.73979591836735,75.71938775510205,118.17231638418079,58.53954802259887,96.81679389312977,81.3384223918575,123.79194630872483,100.1834451901566,125.0,121.0,101.0,145.0,125.0,169.0,149.0,145.0
176,8.8,0.07608842849731445,-0.7445552349090576,2.2503654956817627,-0.26035022735595703,-1.617232084274292,0.19782471656799316,0.2778942584991455,0.18759211897850037,0.5540269613265991,2.8136281490263895,-0.01958723654985981,1.444725856331093,144.71428571428572,75.75510204081633,118.16905444126074,58.69914040114613,96.83333333333333,81.49743589743589,123.78747203579418,100.23266219239373,125.0,121.0,101.0,145.0,125.0,169.0,149.0,145.0
177,8.85,0.07630348205566406,-0.7456042766571045,2.2504918575286865,-0.2602269649505615,-1.6171772480010986,0.19895029067993164,0.27739617228507996,0.18763196468353271,0.55422443151474,2.8128772183148336,-0.02016218329110409,1.4439084233386794,144.72564102564104,75.7897435897436,118.17528735632185,58.7816091954023,96.8632911392405,81.6860759493671,123.78747203579418,100.23266219239373,125.0,121.0,101.0,145.0,125.0,169.0,149.0,145.0
178,8.9,0.0766000747680664,-0.7466421127319336,2.2506887912750244,-0.26022934913635254,-1.6171619892120361,0.20005416870117188,0.27689486742019653,0.1876908838748932,0.5543859004974365,2.812075250034579,-0.020703880820228386,1.4431817843401358,144.72564102564104,75.7897435897436,118.1432664756447,58.83954154727794,96.95165394402035,81.74045801526718,123.82657657657657,100.32207207207207,125.0,121.0,101.0,145.0,125.0,169.0,149.0,145.0
179,8.950000000000001,0.07688283920288086,-0.7477076053619385,2.250908136367798,-0.2602427005767822,-1.6171486377716064,0.2011890411376953,0.27638399600982666,0.1877448707818985,0.5545401573181152,2.8112578880041723,-0.021258685125327303,1.4424125645500923,144.73657289002557,75.86700767263427,118.20461095100865,58.90489913544668,96.95419847328245,81.84478371501272,123.87981859410431,100.37414965986395,125.0,121.0,101.0,145.0,125.0,169.0,149.0,145.0
180,9.0,0.07720732688903809,-0.7488133907318115,2.2511045932769775,-0.2602121829986572,-1.617173433303833,0.20237135887145996,0.2758464515209198,0.1878049075603485,0.5547164678573608,2.810416206820309,-0.02179871958448028,1.441629315398438,144.72820512820513,75.8923076923077,118.20057306590257,59.03724928366762,97.0632911392405,81.90379746835443,123.92922374429224,100.42465753424658,125.0,121.0,101.0,145.0,125.0,169.0,149.0,145.0
181,9.05,0.07747459411621094,-0.7498421669006348,2.2512924671173096,-0.2602198123931885,-1.6171982288360596,0.20352935791015625,0.2753548324108124,0.187851682305336,0.5548809170722961,2.8096049136468224,-0.02232725850546158,1.4408118669445404,144.74807197943446,75.91259640102828,118.17714285714285,59.05714285714286,97.06075949367089,81.99746835443038,123.90432801822324,100.4373576309795,125.0,121.0,101.0,145.0,125.0,169.0,149.0,145.0
182,9.1,0.07779645919799805,-0.7509562969207764,2.251561403274536,-0.26029133796691895,-1.617232084274292,0.20471787452697754,0.2748185992240906,0.18790984153747559,0.5550217628479004,2.808725683439995,-0.022873155784319,1.4400198181233494,144.74102564102563,75.93846153846154,118.22701149425288,59.14080459770115,97.11167512690355,82.05583756345177,123.93424036281179,100.47845804988663,125.0,121.0,101.0,145.0,125.0,169.0,149.0,145.0
183,9.15,0.07814431190490723,-0.7520196437835693,2.2517902851104736,-0.26036715507507324,-1.6172974109649658,0.20597529411315918,0.27430081367492676,0.1879737675189972,0.55517578125,2.807849346941666,-0.023413392464574464,1.439178664043389,144.70103092783506,76.07474226804123,118.16045845272207,59.27220630372493,97.12020460358056,82.1304347826087,124.0,100.5,125.0,121.0,101.0,145.0,125.0,169.0,149.0,145.0
184,9.200000000000001,0.07837414741516113,-0.7531602382659912,2.252086877822876,-0.26043009757995605,-1.6173059940338135,0.20709943771362305,0.27376875281333923,0.18800699710845947,0.555301308631897,2.806985864437177,-0.023963157314736555,1.4383648366242516,144.66666666666666,76.11111111111111,118.13081395348837,59.39244186046512,97.19329896907216,82.17268041237114,124.0615034168565,100.55125284738041,125.0,121.0,101.0,145.0,125.0,169.0,149.0,145.0
185,9.25,0.07852768898010254,-0.7542462348937988,2.2523491382598877,-0.26047205924987793,-1.617295503616333,0.20817875862121582,0.2732735276222229,0.18802258372306824,0.5554323792457581,2.8061656817602976,-0.024509632353562356,1.4375225101918643,144.6328125,76.25260416666667,118.10144927536231,59.59130434782609,97.19329896907216,82.30154639175258,124.07077625570776,100.57534246575342,125.0,121.0,101.0,145.0,125.0,169.0,149.0,145.0
186,9.3,0.07865190505981445,-0.7553050518035889,2.2526276111602783,-0.26051950454711914,-1.6172597408294678,0.20919561386108398,0.27279531955718994,0.18803289532661438,0.5555441975593567,2.805387373714895,-0.02505238204333663,1.436718197738688,144.63446475195823,76.27937336814621,118.13953488372093,59.71220930232558,97.17357512953367,82.47409326424871,124.08944954128441,100.60550458715596,125.0,121.0,101.0,145.0,125.0,169.0,149.0,145.0
187,9.35,0.07886195182800293,-0.7562553882598877,2.2527668476104736,-0.26048994064331055,-1.617272138595581,0.21022796630859375,0.27234572172164917,0.18806514143943787,0.5557131171226501,2.8046455083700685,-0.02554698846291715,1.4359687639775773,144.58376963350784,76.3848167539267,118.13583815028902,59.76589595375722,97.177545691906,82.54046997389034,124.05977011494252,100.65977011494253,125.0,121.0,101.0,145.0,125.0,169.0,149.0,145.0
188,9.4,0.07911014556884766,-0.7573058605194092,2.253034830093384,-0.2605469226837158,-1.6172740459442139,0.21134543418884277,0.27184924483299255,0.18810638785362244,0.5558303594589233,2.8038511884110977,-0.026093905121806395,1.4351824588332311,144.57441253263707,76.40992167101828,118.1159420289855,59.84057971014493,97.1974025974026,82.58441558441558,124.06896551724138,100.66896551724138,125.0,121.0,101.0,145.0,125.0,169.0,149.0,145.0
189,9.450000000000001,0.07934331893920898,-0.7583479881286621,2.2532970905303955,-0.2606070041656494,-1.617267370223999,0.21245837211608887,0.271359384059906,0.18814432621002197,0.5559496879577637,2.8030590993671134,-0.0266490620201329,1.4343895581360975,144.57441253263707,76.40992167101828,118.1137026239067,59.886297376093296,97.21705426356588,82.63049095607235,124.06436781609196,100.71724137931035,125.0,121.0,101.0,145.0,125.0,169.0,149.0,145.0
190,9.5,0.07960820198059082,-0.759406328201294,2.2535488605499268,-0.26065635681152344,-1.61726975440979,0.21365118026733398,0.2708562910556793,0.18818992376327515,0.5560788512229919,2.802252185427289,-0.027227301806285787,1.433550709621291,144.57441253263707,76.40992167101828,118.09565217391304,59.93043478260869,97.25257731958763,82.73453608247422,124.08986175115207,100.72811059907833,125.0,121.0,101.0,145.0,125.0,169.0,149.0,145.0
191,9.55,0.07989788055419922,-0.7604677677154541,2.2538225650787354,-0.2607543468475342,-1.6172878742218018,0.2148265838623047,0.2703500986099243,0.18824025988578796,0.5561999082565308,2.801413257027521,-0.027793059961575127,1.4327502152214262,144.54712041884818,76.47120418848168,118.05539358600583,60.0932944606414,97.30490956072352,82.83462532299741,124.06697459584295,100.74364896073904,125.0,121.0,101.0,145.0,125.0,169.0,149.0,145.0
192,9.600000000000001,0.08016777038574219,-0.7614638805389404,2.2541348934173584,-0.26093173027038574,-1.6172840595245361,0.21596980094909668,0.269879549741745,0.18828950822353363,0.5562849044799805,2.8006033342030765,-0.02836499087347176,1.431966937843328,144.54188481675394,76.51832460732984,117.99416909620992,60.116618075801746,97.360103626943,82.98704663212435,124.12903225806451,100.92857142857143,125.0,121.0,101.0,145.0,125.0,169.0,149.0,145.0
193,9.65,0.08047246932983398,-0.7626264095306396,2.2545454502105713,-0.2611052989959717,-1.6172916889190674,0.21716952323913574,0.2693299353122711,0.18834149837493896,0.5563465356826782,2.799729688606709,-0.028960940396673598,1.4311641510676776,144.55905511811022,76.54068241469817,118.02932551319648,60.193548387096776,97.37209302325581,83.03359173126616,124.14549653579677,100.94919168591224,125.0,121.0,101.0,145.0,125.0,169.0,149.0,145.0
194,9.700000000000001,0.08079266548156738,-0.7637581825256348,2.2548887729644775,-0.2612314224243164,-1.6173207759857178,0.21841907501220703,0.26878875494003296,0.18839624524116516,0.5564411282539368,2.798864978941876,-0.029554249923435156,1.430323568897721,144.5421052631579,76.57631578947368,118.00295857988165,60.319526627218934,97.39018087855297,83.06976744186046,124.19444444444444,101.01851851851852,125.0,121.0,101.0,145.0,125.0,169.0,149.0,145.0
195,9.75,0.08104968070983887,-0.764824390411377,2.255089044570923,-0.2612018585205078,-1.6173326969146729,0.2196512222290039,0.2682800590991974,0.1884370744228363,0.5565954446792603,2.7980806856082583,-0.030142328350369677,1.4294401867797646,144.5421052631579,76.57631578947368,117.97626112759644,60.4272997032641,97.35492227979275,83.18652849740933,124.21678321678321,101.08391608391608,125.0,121.0,101.0,145.0,125.0,169.0,149.0,145.0
196,9.8,0.08133792877197266,-0.7657935619354248,2.255078077316284,-0.26097583770751953,-1.6173584461212158,0.22087574005126953,0.26779839396476746,0.1884870082139969,0.5568448305130005,2.7973748976025905,-0.030697951101415277,1.4285887850754853,144.5026455026455,76.66402116402116,118.02686567164179,60.516417910447764,97.40052356020942,83.36125654450262,124.22144522144522,101.13519813519814,125.0,121.0,101.0,145.0,125.0,169.0,149.0,145.0
197,9.850000000000001,0.08173394203186035,-0.7667849063873291,2.2551825046539307,-0.2608973979949951,-1.617429494857788,0.22218966484069824,0.267294704914093,0.18856193125247955,0.5570386648178101,2.7966090614442276,-0.031257069840030884,1.4277490677408913,144.47229551451187,76.67018469656992,118.04733727810651,60.59171597633136,97.40789473684211,83.39473684210526,124.28403755868544,101.22535211267606,125.0,121.0,101.0,145.0,125.0,169.0,149.0,145.0
198,9.9,0.08213973045349121,-0.7676851749420166,2.2550671100616455,-0.26061010360717773,-1.617523431777954,0.22357606887817383,0.2668182849884033,0.18863937258720398,0.5573338270187378,2.7959196342249912,-0.03180270643543944,1.4268409658359158,144.48010610079575,76.70291777188329,118.00296735905044,60.753709198813056,97.4251968503937,83.46194225721784,124.33962264150944,101.23349056603773,125.0,121.0,101.0,145.0,125.0,169.0,149.0,145.0
199,9.950000000000001,0.08243727684020996,-0.7684934139251709,2.254852533340454,-0.2602407932281494,-1.6175868511199951,0.2248096466064453,0.26639705896377563,0.18869252502918243,0.5576609969139099,2.7953070437085423,-0.03231024857490043,1.4259768168888098,144.48010610079575,76.70291777188329,117.97041420118343,60.8698224852071,97.49214659685863,83.65706806282722,124.36879432624113,101.23404255319149,125.0,121.0,101.0,145.0,125.0,169.0,149.0,145.0
200,10.0,0.08275532722473145,-0.7692341804504395,2.2546885013580322,-0.26000189781188965,-1.6176674365997314,0.2259366512298584,0.26600801944732666,0.18875111639499664,0.5579513907432556,2.7946756212569044,-0.0327688425163187,1.4252290138029473,144.43548387096774,76.86021505376344,117.93768545994065,60.982195845697326,97.49736842105263,83.67894736842105,124.36817102137768,101.28266033254157,125.0,121.0,101.0,145.0,125.0,169.0,149.0,145.0
201,10.05,0.08302950859069824,-0.7700905799865723,2.254645586013794,-0.2597990036010742,-1.617706537246704,0.2270972728729248,0.2655777037143707,0.18879839777946472,0.5581931471824646,2.7940238563147606,-0.03328635763392376,1.4244202932080516,144.4247311827957,76.95698924731182,117.9171597633136,61.032544378698226,97.49473684210527,83.78157894736842,124.38151658767772,101.35545023696683,125.0,121.0,101.0,145.0,125.0,169.0,149.0,145.0
202,10.100000000000001,0.0833275318145752,-0.7710692882537842,2.2546770572662354,-0.2595949172973633,-1.6177446842193604,0.228302001953125,0.2650892734527588,0.18884782493114471,0.5584161877632141,2.793328747845477,-0.03383188143505477,1.4235972007269195,144.3763440860215,77.03225806451613,117.8905325443787,61.15680473372781,97.57963446475196,83.92689295039165,124.43764705882353,101.41176470588235,125.0,121.0,101.0,145.0,125.0,169.0,149.0,145.0
203,10.15,0.08360815048217773,-0.7720320224761963,2.2547757625579834,-0.2594785690307617,-1.6177818775177002,0.22945261001586914,0.26461559534072876,0.18889281153678894,0.5585981607437134,2.7926295770419607,-0.034361790241964875,1.4228081608266174,144.34054054054053,77.10810810810811,117.91369047619048,61.226190476190474,97.56657963446476,83.97650130548303,124.42216981132076,101.43396226415095,125.0,121.0,101.0,145.0,125.0,169.0,149.0,145.0
204,10.200000000000001,0.08392596244812012,-0.7730259895324707,2.254908800125122,-0.2593867778778076,-1.6178200244903564,0.23068594932556152,0.26412248611450195,0.18894708156585693,0.558768093585968,2.791912437128179,-0.03492571759371175,1.4219800150903223,144.34864864864866,77.15135135135135,117.87087087087087,61.33633633633634,97.6,84.07894736842105,124.42216981132076,101.43396226415095,125.0,121.0,101.0,145.0,125.0,169.0,149.0,145.0
205,10.25,0.08422613143920898,-0.7740237712860107,2.2550976276397705,-0.25936150550842285,-1.6178457736968994,0.23186612129211426,0.26363468170166016,0.1889973133802414,0.5589082837104797,2.7911823421256403,-0.03548822925054451,1.421188885995419,144.3739837398374,77.1680216802168,117.894578313253,61.46084337349398,97.63756613756614,84.16137566137566,124.43026004728132,101.45862884160756,125.0,121.0,101.0,145.0,125.0,169.0,149.0,145.0
206,10.3,0.0845327377319336,-0.7749366760253906,2.255213975906372,-0.25931310653686523,-1.6178901195526123,0.23305296897888184,0.2631813883781433,0.18905003368854523,0.5590724945068359,2.7904839987736083,-0.036029363393264895,1.4203915468785986,144.3108108108108,77.24864864864865,117.90332326283988,61.516616314199396,97.64721485411141,84.27851458885942,124.47268408551069,101.4916864608076,125.0,121.0,101.0,145.0,125.0,169.0,149.0,145.0
207,10.350000000000001,0.08487391471862793,-0.7758843898773193,2.2553818225860596,-0.25931215286254883,-1.617945909500122,0.23425674438476562,0.2627090811729431,0.1891096532344818,0.5592160820960999,2.789754601078824,-0.03657511302414847,1.4196108332596307,144.29539295392954,77.31978319783198,117.86626139817629,61.56534954407295,97.70478723404256,84.3377659574468,124.50952380952381,101.54523809523809,125.0,121.0,101.0,145.0,125.0,169.0,149.0,145.0
208,10.4,0.08518695831298828,-0.776942253112793,2.255676507949829,-0.2593863010406494,-1.6179869174957275,0.2354598045349121,0.2621982991695404,0.18915937840938568,0.5593104362487793,2.7889725097094087,-0.03714861538360765,1.4188103487127057,144.30107526881721,77.3736559139785,117.87537993920972,61.620060790273556,97.736,84.33866666666667,124.52955082742317,101.60047281323877,125.0,121.0,101.0,145.0,125.0,169.0,149.0,145.0
209,10.450000000000001,0.08547663688659668,-0.7780745029449463,2.2560055255889893,-0.2594470977783203,-1.6180236339569092,0.23673081398010254,0.26165837049484253,0.189200758934021,0.5593979358673096,2.7881684732257903,-0.03775827394718239,1.4179257600137107,144.27493261455527,77.35849056603773,117.8936170212766,61.671732522796354,97.80862533692722,84.48247978436657,124.57345971563981,101.6611374407583,125.0,121.0,101.0,145.0,125.0,169.0,149.0,145.0
210,10.5,0.08583545684814453,-0.779132604598999,2.2563040256500244,-0.2595546245574951,-1.618109941482544,0.23802447319030762,0.2611413598060608,0.18925808370113373,0.5594941973686218,2.7873513868528894,-0.03833340141987245,1.4170733500315162,144.25067385444743,77.40431266846362,117.79204892966361,61.79816513761468,97.85215053763442,84.5510752688172,124.61666666666666,101.6952380952381,125.0,121.0,101.0,145.0,125.0,169.0,149.0,145.0
211,10.55,0.08609318733215332,-0.7801754474639893,2.2565977573394775,-0.25963807106018066,-1.6181466579437256,0.23918557167053223,0.2606479525566101,0.18929308652877808,0.5595846176147461,2.7865765741187456,-0.03890177047596108,1.4162601022107626,144.21891891891892,77.4054054054054,117.74772036474164,61.89665653495441,97.82479784366576,84.56603773584905,124.61666666666666,101.6952380952381,125.0,121.0,101.0,145.0,125.0,169.0,149.0,145.0
212,10.600000000000001,0.08632850646972656,-0.7811403274536133,2.256770372390747,-0.25962090492248535,-1.6181585788726807,0.24033617973327637,0.2601865231990814,0.18932676315307617,0.5597243905067444,2.7858629924245517,-0.03947627829845098,1.4154410634582786,144.1875,77.45108695652173,117.80421686746988,62.006024096385545,97.79891304347827,84.63858695652173,124.6109785202864,101.72076372315036,125.0,121.0,101.0,145.0,125.0,169.0,149.0,145.0
213,10.65,0.08662557601928711,-0.7820284366607666,2.2568514347076416,-0.2595524787902832,-1.6181938648223877,0.2415754795074463,0.2597443163394928,0.1893773078918457,0.5599016547203064,2.78518269194566,-0.040052897433709364,1.4145925902161145,144.19565217391303,77.5,117.70090634441088,62.12990936555891,97.82113821138212,84.6910569105691,124.60381861575179,101.77088305489261,125.0,121.0,101.0,145.0,125.0,169.0,149.0,145.0
214,10.700000000000001,0.08685731887817383,-0.7829511165618896,2.2569525241851807,-0.25945591926574707,-1.618182897567749,0.24276351928710938,0.2592970132827759,0.18941351771354675,0.5600691437721252,2.7845260783014205,-0.04065262792580475,1.4137420129398013,144.1448087431694,77.5327868852459,117.76146788990826,62.25688073394495,97.88108108108108,84.87837837837837,124.59952038369305,101.86570743405275,125.0,121.0,101.0,145.0,125.0,169.0,149.0,145.0
215,10.75,0.0872046947479248,-0.7837662696838379,2.257019281387329,-0.25940847396850586,-1.6182243824005127,0.24406099319458008,0.2588777542114258,0.1894793063402176,0.5602379441261292,2.7838858501457846,-0.041237704498856574,1.412887392424004,144.15342465753426,77.55890410958904,117.71296296296296,62.348765432098766,97.87533875338754,85.02710027100271,124.59952038369305,101.86570743405275,125.0,121.0,101.0,145.0,125.0,169.0,149.0,145.0
216,10.8,0.08756566047668457,-0.7845873832702637,2.2570974826812744,-0.25937891006469727,-1.6182658672332764,0.24528861045837402,0.2584546208381653,0.18954795598983765,0.5604020357131958,2.7832315973883133,-0.04180424424158766,1.4121119991677102,144.11263736263737,77.63186813186813,117.70370370370371,62.44135802469136,97.8695652173913,85.20108695652173,124.65133171912834,101.99273607748184,125.0,121.0,101.0,145.0,125.0,169.0,149.0,145.0
217,10.850000000000001,0.08797693252563477,-0.7854175567626953,2.2571184635162354,-0.2592611312866211,-1.618328332901001,0.24654698371887207,0.25801369547843933,0.18962626159191132,0.5605978965759277,2.782595121013895,-0.04235833787676787,1.4113515197593816,144.1448087431694,77.6775956284153,117.69969040247678,62.5108359133127,97.86648501362397,85.22888283378747,124.67718446601941,102.00485436893204,125.0,121.0,101.0,145.0,125.0,169.0,149.0,145.0
218,10.9,0.08835911750793457,-0.7862844467163086,2.257124662399292,-0.25909948348999023,-1.6183860301971436,0.24779796600341797,0.25755926966667175,0.18969571590423584,0.5608071088790894,2.7819536021133637,-0.042917935161207156,1.4105703212231295,144.1448087431694,77.6775956284153,117.7111801242236,62.537267080745345,97.89315068493151,85.27671232876712,124.67718446601941,102.00485436893204,125.0,121.0,101.0,145.0,125.0,169.0,149.0,145.0
219,10.950000000000001,0.08877038955688477,-0.787158727645874,2.2571499347686768,-0.25898146629333496,-1.6184570789337158,0.24908876419067383,0.2570986747741699,0.18977122008800507,0.5610105395317078,2.7812801438703008,-0.043488170723404586,1.4097789940450671,144.15068493150685,77.7041095890411,117.67601246105919,62.598130841121495,97.94864864864864,85.38648648648649,124.70559610705597,101.99756690997567,125.0,121.0,101.0,145.0,125.0,169.0,149.0,145.0
220,11.0,0.08916306495666504,-0.7880609035491943,2.25726056098938,-0.25896406173706055,-1.6185262203216553,0.250307559967041,0.25663524866104126,0.18984046578407288,0.561174750328064,2.7805632150992055,-0.04404684222326504,1.4090392646041925,144.1861111111111,77.83611111111111,117.72585669781931,62.68535825545171,97.97560975609755,85.39837398373983,124.73300970873787,102.00728155339806,125.0,121.0,101.0,145.0,125.0,169.0,149.0,145.0
221,11.05,0.08951592445373535,-0.7890698909759521,2.2574808597564697,-0.2589986324310303,-1.6185929775238037,0.25156450271606445,0.2561356723308563,0.18989603221416473,0.5612977743148804,2.7798004232980524,-0.044636458525723156,1.40822811234066,144.19832402234636,77.88826815642459,117.73208722741433,62.741433021806856,98.03825136612022,85.49726775956285,124.77560975609757,102.04146341463415,125.0,121.0,101.0,145.0,125.0,169.0,149.0,145.0
222,11.100000000000001,0.08986806869506836,-0.7901501655578613,2.2578022480010986,-0.2591221332550049,-1.6186764240264893,0.25281524658203125,0.255611389875412,0.18994705379009247,0.5613804459571838,2.7789779047318004,-0.04522473800977229,1.407419056325916,144.19887955182074,77.91596638655462,117.7080745341615,62.82298136645963,98.0650406504065,85.58807588075881,124.8875305623472,102.10513447432763,125.0,121.0,101.0,145.0,125.0,169.0,149.0,145.0
223,11.15,0.09016060829162598,-0.7912089824676514,2.258009672164917,-0.2591111660003662,-1.6187660694122314,0.2539656162261963,0.25509926676750183,0.18998104333877563,0.5615187883377075,2.7781911359602462,-0.04576269082960545,1.4066414354146,144.1368715083799,77.97765363128492,117.70496894409938,63.01242236024845,98.11171662125341,85.67029972752043,124.8609756097561,102.21219512195123,125.0,121.0,101.0,145.0,125.0,169.0,149.0,145.0
224,11.200000000000001,0.0904836654663086,-0.7921500205993652,2.2581522464752197,-0.2590763568878174,-1.6188499927520752,0.25521326065063477,0.25463077425956726,0.19002848863601685,0.5616669654846191,2.777485150137796,-0.046323640345637046,1.405802846712519,144.11764705882354,78.0,117.68553459119497,63.12893081761006,98.10684931506849,85.72328767123288,124.85085574572128,102.23716381418093,125.0,121.0,101.0,145.0,125.0,169.0,149.0,145.0
225,11.25,0.09080982208251953,-0.7930243015289307,2.2582199573516846,-0.2589912414550781,-1.6189239025115967,0.2564737796783447,0.25418761372566223,0.19007991254329681,0.5618431568145752,2.776823795921872,-0.046889306086055765,1.4049564767278755,144.11764705882354,78.0,117.63009404388714,63.244514106583075,98.12295081967213,85.74590163934427,124.8679706601467,102.28606356968216,125.0,121.0,101.0,145.0,125.0,169.0,149.0,145.0
226,11.3,0.09108805656433105,-0.7938282489776611,2.2581722736358643,-0.25879788398742676,-1.6189749240875244,0.257702112197876,0.2537764608860016,0.1901230663061142,0.5620663166046143,2.7762289988793025,-0.047449144590074585,1.4040982583687664,144.1064425770308,78.05882352941177,117.61949685534591,63.36477987421384,98.13774104683196,85.85123966942149,124.86585365853658,102.34390243902439,125.0,121.0,101.0,145.0,125.0,169.0,149.0,145.0
