AI-SPARC/uncalibrated-visual-servoing/results/data/4_feat_mckf_t.csv
,t,q_1,q_2,q_3,q_4,q_5,q_6,camera_x,camera_y,camera_z,camera_roll,camera_pitch,camera_yaw,f_1,f_2,f_3,f_4,f_5,f_6,f_7,f_8,desired_f_1,desired_f_2,desired_f_3,desired_f_4,desired_f_5,desired_f_6,desired_f_7,desired_f_8
0,0.0,9.298324584960938e-06,-0.39263248443603516,1.963494062423706,7.200241088867188e-05,-1.5707952976226807,2.384185791015625e-07,0.4463264048099518,0.16906212270259857,0.5921618342399597,-3.141307778251266,0.00012221750102738726,1.5708379755145234,151.4127579737336,65.55722326454034,125.41947565543072,39.58052434456929,99.43609022556392,65.56390977443608,125.41275797373358,91.55722326454034,149.0,145.0,125.0,121.0,101.0,145.0,125.0,169.0
1,0.05,0.0006999969482421875,-0.39841318130493164,1.968750238418579,0.0001761913299560547,-1.5710585117340088,0.00031304359436035156,0.4429796636104584,0.1693466752767563,0.5911595821380615,3.1414370517329413,0.0003872869762307368,1.5712178188808514,151.5,64.41353383458646,125.5,38.37218045112782,99.45676691729324,64.39285714285714,125.44277673545966,90.41275797373358,149.0,145.0,125.0,121.0,101.0,145.0,125.0,169.0
2,0.1,-0.0007262229919433594,-0.39608240127563477,1.9635107517242432,0.01010584831237793,-1.568772554397583,-0.00024819374084472656,0.4438087046146393,0.16893808543682098,0.5926066040992737,-3.1347142128241634,-0.0019058214448295764,1.5703358729631516,151.7406015037594,63.2593984962406,125.7406015037594,37.2593984962406,99.70433145009416,63.314500941619585,125.72452830188679,89.32830188679246,149.0,145.0,125.0,121.0,101.0,145.0,125.0,169.0
3,0.15000000000000002,-0.00011301040649414062,-0.3992650508880615,1.9680230617523193,0.006499052047729492,-1.5696938037872314,0.0003094673156738281,0.44214895367622375,0.16912268102169037,0.5913404822349548,-3.136993160120948,-0.0009784210870737485,1.5704017417654152,151.67424242424244,63.04924242424242,125.56166982922201,36.93358633776091,99.56166982922201,63.06641366223909,125.6245283018868,89.14716981132075,149.0,145.0,125.0,121.0,101.0,145.0,125.0,169.0
4,0.2,0.0004611015319824219,-0.4038088321685791,1.9739429950714111,0.002617359161376953,-1.570662260055542,0.001024484634399414,0.4397429823875427,0.1692865937948227,0.5897473096847534,-3.13951109582712,-4.8262202578718e-06,1.5702682444208982,151.58052434456928,62.58052434456929,125.45353159851301,36.5,99.41947565543072,62.58052434456929,125.5,88.62781954887218,149.0,145.0,125.0,121.0,101.0,145.0,125.0,169.0
5,0.25,0.0018391609191894531,-0.4125173091888428,1.9851810932159424,-0.003863096237182617,-1.572333574295044,0.0025620460510253906,0.43501415848731995,0.1697292923927307,0.586629331111908,3.1397023595205997,0.0016626533522516689,1.5701084176177234,151.5,61.5,125.32089552238806,35.32089552238806,99.08239700374531,61.5,125.35501858736059,87.64498141263941,149.0,145.0,125.0,121.0,101.0,145.0,125.0,169.0
6,0.30000000000000004,0.0012814998626708984,-0.40722179412841797,1.9785749912261963,-0.001184701919555664,-1.5723888874053955,0.0013377666473388672,0.43795812129974365,0.1694677323102951,0.5885058045387268,3.1411020757376895,0.0017140167456518047,1.5707715473838084,151.41308411214953,62.44299065420561,125.26454033771107,36.28330206378987,99.10964083175803,62.41965973534972,125.28464419475655,88.5187265917603,149.0,145.0,125.0,121.0,101.0,145.0,125.0,169.0
7,0.35000000000000003,0.0009853839874267578,-0.4042026996612549,1.974750280380249,0.0005323886871337891,-1.5724799633026123,0.0006515979766845703,0.4396267533302307,0.169320210814476,0.5895892381668091,-3.1411555127896547,0.0018029676684136072,1.5711607175492834,151.29056603773586,62.91698113207547,125.24202626641652,36.75797373358349,99.13721804511279,62.830827067669176,125.25375939849624,89.0,149.0,145.0,125.0,121.0,101.0,145.0,125.0,169.0
8,0.4,0.0006647109985351562,-0.4015481472015381,1.9714348316192627,0.001965761184692383,-1.5726101398468018,6.127357482910156e-05,0.44109615683555603,0.16916286945343018,0.5905201435089111,-3.140383606265511,0.0019333269095258721,1.5714322450664242,151.18406072106262,63.37760910815939,125.19774011299435,37.259887005649716,99.04924242424242,63.32575757575758,125.06641366223909,89.43833017077799,149.0,145.0,125.0,121.0,101.0,145.0,125.0,169.0
9,0.45,0.00047850608825683594,-0.3991868495941162,1.9684975147247314,0.003289461135864258,-1.5727040767669678,-0.0003612041473388672,0.4423820674419403,0.16906918585300446,0.5913316607475281,-3.139634543732493,0.002027104028316801,1.5716707021597747,151.12689393939394,63.73106060606061,125.09297912713473,37.64895635673624,99.06805293005671,63.68998109640832,125.05860113421551,89.71077504725898,149.0,145.0,125.0,121.0,101.0,145.0,125.0,169.0
10,0.5,0.0003228187561035156,-0.3970305919647217,1.965705156326294,0.0047185420989990234,-1.572821855545044,-0.0007777214050292969,0.4435436427593231,0.16898590326309204,0.592120885848999,-3.138840254928886,0.002143892035267686,1.5719333248865148,151.0820610687023,64.1145038167939,125.14421252371916,38.020872865275145,99.08969465648855,64.0,125.0478927203065,90.08045977011494,149.0,145.0,125.0,121.0,101.0,145.0,125.0,169.0
11,0.55,0.0001575946807861328,-0.3949911594390869,1.9631707668304443,0.005896806716918945,-1.5729501247406006,-0.0011606216430664062,0.44465339183807373,0.16889691352844238,0.5928109288215637,-3.138156048672865,0.002270756336558716,1.5721532586412985,150.9942638623327,64.43212237093691,125.04198473282443,38.38931297709924,99.0,64.32509505703422,124.98279158699809,90.39005736137668,149.0,145.0,125.0,121.0,101.0,145.0,125.0,169.0
12,0.6000000000000001,3.0994415283203125e-06,-0.3931126594543457,1.9608099460601807,0.007098197937011719,-1.5730602741241455,-0.0015094280242919922,0.4456670582294464,0.1688145101070404,0.593449592590332,-3.137435099413274,0.0023792352920575855,1.572349310287691,150.91379310344828,64.63218390804597,125.0,38.54389312977099,99.01147227533461,64.52198852772466,124.98275862068965,90.54597701149426,149.0,145.0,125.0,121.0,101.0,145.0,125.0,169.0
13,0.65,-0.00014352798461914062,-0.3912951946258545,1.9584605693817139,0.00837254524230957,-1.5731570720672607,-0.0018360614776611328,0.4466433525085449,0.16873683035373688,0.5940987467765808,-3.136691516161414,0.0024731398414526186,1.572531750540887,150.82600382409177,64.88145315487571,125.0,38.81939163498099,99.0,64.67490494296578,124.89714285714285,90.78095238095239,149.0,145.0,125.0,121.0,101.0,145.0,125.0,169.0
14,0.7000000000000001,-0.0003046989440917969,-0.3895401954650879,1.956308126449585,0.009441614151000977,-1.5732977390289307,-0.0021398067474365234,0.4475945234298706,0.16864797472953796,0.594662070274353,-3.1360177992032936,0.002611396414291273,1.572676654671401,150.77142857142857,65.21333333333334,124.89714285714285,39.21904761904762,99.0,65.0,124.79846449136276,91.04414587332053,149.0,145.0,125.0,121.0,101.0,145.0,125.0,169.0
15,0.75,-0.00042748451232910156,-0.38793206214904785,1.9542911052703857,0.010549306869506836,-1.5734813213348389,-0.0024290084838867188,0.44845396280288696,0.16857191920280457,0.5951938033103943,-3.135317689305548,0.0027919496879268355,1.5728461733104677,150.73714285714286,65.4095238095238,124.90630975143404,39.34416826003824,98.93690248565966,65.23900573613767,124.76335877862596,91.23664122137404,149.0,145.0,125.0,121.0,101.0,145.0,125.0,169.0
16,0.8,-0.0005095005035400391,-0.3863508701324463,1.9522712230682373,0.011707782745361328,-1.5735838413238525,-0.002660512924194336,0.4492894113063812,0.1685226410627365,0.5957320928573608,-3.134596253021008,0.0028911717046767337,1.572998413830102,150.7020872865275,65.573055028463,124.87164750957854,39.53448275862069,98.98848368522073,65.42994241842611,124.76481835564053,91.39579349904398,149.0,145.0,125.0,121.0,101.0,145.0,125.0,169.0
17,0.8500000000000001,-0.0005862712860107422,-0.38481974601745605,1.950258493423462,0.012904644012451172,-1.5737135410308838,-0.002882719039916992,0.4500964879989624,0.16847285628318787,0.5962826013565063,-3.1338789997446104,0.003017454549430453,1.5731464002597009,150.6145038167939,65.74236641221374,124.86285714285714,39.670476190476194,98.95969289827255,65.55470249520154,124.772030651341,91.54022988505747,149.0,145.0,125.0,121.0,101.0,145.0,125.0,169.0
18,0.9,-0.0006780624389648438,-0.3833122253417969,1.9483072757720947,0.0140533447265625,-1.5738246440887451,-0.0030901432037353516,0.4508940577507019,0.16841818392276764,0.5968058705329895,-3.133172251313825,0.0031250314567345247,1.573265383078952,150.56949806949808,65.95559845559846,124.78053435114504,39.87404580152672,98.93103448275862,65.65517241379311,124.65900383141762,91.72413793103448,149.0,145.0,125.0,121.0,101.0,145.0,125.0,169.0
19,0.9500000000000001,-0.0008196830749511719,-0.381885290145874,1.9464924335479736,0.015153169631958008,-1.573981523513794,-0.0033235549926757812,0.45165371894836426,0.16833601891994476,0.5972774624824524,-3.132458566119431,0.0032769511644482716,1.5733608840007858,150.5,66.01153846153846,124.70441458733205,40.09404990403071,98.87332053742803,65.87332053742803,124.58269230769231,91.87115384615385,149.0,145.0,125.0,121.0,101.0,145.0,125.0,169.0
20,1.0,-0.0008971691131591797,-0.3805086612701416,1.9446685314178467,0.016346216201782227,-1.5741379261016846,-0.0034809112548828125,0.452370822429657,0.1682834029197693,0.5977667570114136,-3.1317120831383067,0.0034300112664106402,1.5734448367223746,150.47784200385357,66.16184971098266,124.67748091603053,40.22328244274809,98.8375241779497,65.98646034816248,124.56949806949807,91.95559845559846,149.0,145.0,125.0,121.0,101.0,145.0,125.0,169.0
21,1.05,-0.0009622573852539062,-0.3791663646697998,1.9428894519805908,0.017560243606567383,-1.5742781162261963,-0.0036461353302001953,0.4530634880065918,0.16823793947696686,0.5982378125190735,-3.1309328842735438,0.00356602776463613,1.5735487245187287,150.36068702290078,66.29580152671755,124.68250950570342,40.31749049429658,98.78502879078695,66.14395393474088,124.56949806949807,92.04440154440154,149.0,145.0,125.0,121.0,101.0,145.0,125.0,169.0
22,1.1,-0.0009732246398925781,-0.3778219223022461,1.941105604171753,0.01878952980041504,-1.5743553638458252,-0.0037424564361572266,0.4537472128868103,0.16822390258312225,0.5987082719802856,-3.130141884234121,0.0036387896780774474,1.5736381293335164,150.31800766283524,66.43869731800767,124.72623574144487,40.43155893536122,98.8103448275862,66.24904214559388,124.52427184466019,92.09514563106796,149.0,145.0,125.0,121.0,101.0,145.0,125.0,169.0
23,1.1500000000000001,-0.0009226799011230469,-0.37645840644836426,1.9393565654754639,0.019927978515625,-1.574444055557251,-0.0038051605224609375,0.45443660020828247,0.1682368665933609,0.5991544723510742,-3.12938702379295,0.003724311919853192,1.5737549085550993,150.275,66.54038461538461,124.7319391634981,40.539923954372625,98.83269230769231,66.41153846153846,124.5028901734104,92.17533718689788,149.0,145.0,125.0,121.0,101.0,145.0,125.0,169.0
24,1.2000000000000002,-0.0008077621459960938,-0.37509703636169434,1.9375646114349365,0.02111363410949707,-1.5745227336883545,-0.003813505172729492,0.45511409640312195,0.1682807356119156,0.5996257066726685,-3.12863109532227,0.003800444450344186,1.5738822783361859,150.3147792706334,66.65642994241843,124.66347992351817,40.69980879541109,98.86897880539499,66.45279383429673,124.5606936416185,92.28901734104046,149.0,145.0,125.0,121.0,101.0,145.0,125.0,169.0
25,1.25,-0.0007920265197753906,-0.37380361557006836,1.9358494281768799,0.02230381965637207,-1.5746700763702393,-0.003926515579223633,0.4557676315307617,0.1682714968919754,0.6000743508338928,-3.1278612679164057,0.00394401937331444,1.5740154499326446,150.32369942196533,66.77456647398844,124.61641221374046,40.786259541984734,98.90522243713733,66.52417794970987,124.5,92.5,149.0,145.0,125.0,121.0,101.0,145.0,125.0,169.0
26,1.3,-0.0008869171142578125,-0.37255358695983887,1.934161901473999,0.0234835147857666,-1.574864149093628,-0.004070281982421875,0.4564174711704254,0.16820651292800903,0.6005243062973022,-3.1271168020154336,0.004132082072290927,1.5740700271899013,150.22718446601942,66.91456310679612,124.56923076923077,40.90576923076923,98.83269230769231,66.58846153846154,124.4326923076923,92.5673076923077,149.0,145.0,125.0,121.0,101.0,145.0,125.0,169.0
27,1.35,-0.0009717941284179688,-0.3713338375091553,1.9325716495513916,0.02462291717529297,-1.5750477313995361,-0.00419926643371582,0.4570460021495819,0.16814754903316498,0.6009258031845093,-3.126346667714391,0.004310879509536162,1.5741197987868925,150.1174168297456,67.0,124.54807692307692,41.0,98.74517374517374,66.6949806949807,124.34489402697496,92.626204238921,149.0,145.0,125.0,121.0,101.0,145.0,125.0,169.0
28,1.4000000000000001,-0.0009851455688476562,-0.3701140880584717,1.9310076236724854,0.025760889053344727,-1.575188398361206,-0.00424647331237793,0.4576604664325714,0.1681264042854309,0.6013085246086121,-3.125551251547004,0.004447506293897826,1.5741595484864905,150.0701754385965,67.0,124.52408477842003,41.005780346820806,98.69245647969052,66.82978723404256,124.34689922480621,92.70542635658914,149.0,145.0,125.0,121.0,101.0,145.0,125.0,169.0
29,1.4500000000000002,-0.0009577274322509766,-0.3688945770263672,1.9293153285980225,0.027091264724731445,-1.5752456188201904,-0.0042133331298828125,0.45826056599617004,0.168132945895195,0.6017564535140991,-3.1246927761950176,0.004501539762572792,1.5741583212609047,150.046875,67.095703125,124.51158301158301,41.12355212355212,98.67953667953668,66.88803088803088,124.3443579766537,92.76848249027238,149.0,145.0,125.0,121.0,101.0,145.0,125.0,169.0
30,1.5,-0.0009348392486572266,-0.3676879405975342,1.9276859760284424,0.028370141983032227,-1.575321912765503,-0.004196882247924805,0.4588550627231598,0.16813547909259796,0.6021725535392761,-3.123835935945316,0.004574882642938673,1.5741700368880394,150.0272373540856,67.13618677042801,124.5,41.15057915057915,98.68278529980658,66.94197292069633,124.35922330097087,92.86019417475728,149.0,145.0,125.0,121.0,101.0,145.0,125.0,169.0
31,1.55,-0.0009558200836181641,-0.36647629737854004,1.9260189533233643,0.02968287467956543,-1.5753886699676514,-0.004175424575805664,0.4594590365886688,0.16811861097812653,0.6026080250740051,-3.122978142278628,0.004637999325439362,1.574132766629119,150.01359223300972,67.29514563106797,124.5,41.2,98.67504835589942,66.97678916827853,124.35992217898833,92.8852140077821,149.0,145.0,125.0,121.0,101.0,145.0,125.0,169.0
32,1.6,-0.000986337661743164,-0.3652682304382324,1.9244287014007568,0.030931949615478516,-1.5754473209381104,-0.004197835922241211,0.46006256341934204,0.16809776425361633,0.6029984354972839,-3.122109779075552,0.004692776132649728,1.5741297237761778,150.0,67.31589147286822,124.45992366412214,41.27671755725191,98.6621359223301,67.01165048543689,124.29745596868885,92.90606653620353,149.0,145.0,125.0,121.0,101.0,145.0,125.0,169.0
33,1.6500000000000001,-0.0009908676147460938,-0.36408019065856934,1.922839879989624,0.0322420597076416,-1.5755393505096436,-0.0042078495025634766,0.4606456756591797,0.1680859923362732,0.6033897995948792,-3.121198910752137,0.004780864205669895,1.5741412348507755,149.96511627906978,67.3953488372093,124.41333333333333,41.331428571428575,98.64023210831722,67.05609284332688,124.27592954990216,92.95107632093934,149.0,145.0,125.0,121.0,101.0,145.0,125.0,169.0
34,1.7000000000000002,-0.0010139942169189453,-0.36292314529418945,1.921273946762085,0.03360891342163086,-1.5756332874298096,-0.004228353500366211,0.46120914816856384,0.16806505620479584,0.6037740707397461,-3.120240218116001,0.004870080998328838,1.5741454460940298,149.96511627906978,67.3953488372093,124.38931297709924,41.3263358778626,98.63178294573643,67.07945736434108,124.23182711198429,92.95481335952849,149.0,145.0,125.0,121.0,101.0,145.0,125.0,169.0
35,1.75,-0.0010128021240234375,-0.36176156997680664,1.9196326732635498,0.03511190414428711,-1.5757219791412354,-0.004224538803100586,0.46176373958587646,0.16805604100227356,0.6041918396949768,-3.119215610142455,0.004954363646389328,1.5741491851519303,149.89941972920695,67.42940038684719,124.38240917782026,41.349904397705544,98.63178294573643,67.07945736434108,124.23182711198429,92.95481335952849,149.0,145.0,125.0,121.0,101.0,145.0,125.0,169.0
36,1.8,-0.0010151863098144531,-0.360551118850708,1.9180128574371338,0.03651118278503418,-1.5758378505706787,-0.004204273223876953,0.46235138177871704,0.168042853474617,0.6045827269554138,-3.1182245897200627,0.0050668680762391664,1.5741338736438297,149.89941972920695,67.42940038684719,124.32115384615385,41.38461538461539,98.61941747572816,67.10097087378641,124.18343195266272,92.96449704142012,149.0,145.0,125.0,121.0,101.0,145.0,125.0,169.0
37,1.85,-0.0010123252868652344,-0.3593881130218506,1.9163353443145752,0.03813672065734863,-1.5759837627410889,-0.004184246063232422,0.462897390127182,0.16802917420864105,0.6050105094909668,-3.117112364315709,0.005208287756246627,1.5741259599198458,149.88565891472868,67.40891472868218,124.29750479846449,41.37811900191939,98.59727626459144,67.08949416342412,124.14851485148515,92.92871287128713,149.0,145.0,125.0,121.0,101.0,145.0,125.0,169.0
38,1.9000000000000001,-0.0009644031524658203,-0.3582005500793457,1.9145896434783936,0.039905548095703125,-1.5761363506317139,-0.004137516021728516,0.463439404964447,0.16803571581840515,0.6054575443267822,-3.1159012484448976,0.005357374239059741,1.5741373779657684,149.8382066276803,67.3625730994152,124.2504816955684,41.32947976878613,98.56116504854369,67.06990291262136,124.1304347826087,92.91106719367589,149.0,145.0,125.0,121.0,101.0,145.0,125.0,169.0
39,1.9500000000000002,-0.0009322166442871094,-0.35698628425598145,1.9126884937286377,0.0419611930847168,-1.5762608051300049,-0.004033327102661133,0.4639813303947449,0.1680382639169693,0.6059667468070984,-3.114531888693779,0.005478221382413577,1.5740761839386697,149.7710371819961,67.25244618395304,124.25335892514396,41.287907869481764,98.56976744186046,66.95736434108527,124.12698412698413,92.8234126984127,149.0,145.0,125.0,121.0,101.0,145.0,125.0,169.0
40,2.0,-0.0009086132049560547,-0.3555779457092285,1.9107673168182373,0.04372382164001465,-1.5765173435211182,-0.003885030746459961,0.4646504521369934,0.16802361607551575,0.6064285039901733,-3.1132800232322646,0.0057337228490270025,1.573965225444348,149.677734375,67.203125,124.1271676300578,41.34489402697495,98.52131782945736,66.95542635658914,124.07722772277228,92.81980198019802,149.0,145.0,125.0,121.0,101.0,145.0,125.0,169.0
41,2.0500000000000003,-0.0009148120880126953,-0.3542487621307373,1.9087598323822021,0.04592156410217285,-1.5769078731536865,-0.0036563873291015625,0.46524810791015625,0.16798235476016998,0.606940746307373,-3.111759776473358,0.006125078571864529,1.5737507009707234,149.52436647173488,67.09356725146199,124.01348747591523,41.21194605009634,98.5,66.91050583657588,123.96456692913385,92.68110236220473,149.0,145.0,125.0,121.0,101.0,145.0,125.0,169.0
42,2.1,-0.0007290840148925781,-0.3525536060333252,1.906780481338501,0.04729747772216797,-1.5773704051971436,-0.003100872039794922,0.4660741090774536,0.16802579164505005,0.6073473691940308,-3.110667576476419,0.006601355421912477,1.5734022214659462,149.45525291828793,67.15758754863813,123.975,41.323076923076925,98.38178294573643,67.04457364341086,123.87301587301587,92.8234126984127,149.0,145.0,125.0,121.0,101.0,145.0,125.0,169.0
43,2.15,-0.00040268898010253906,-0.3509855270385742,1.9044768810272217,0.0497136116027832,-1.5777122974395752,-0.0021791458129882812,0.4667361080646515,0.16815076768398285,0.6079237461090088,-3.10899182185342,0.006967220875353679,1.5728295806372075,149.38160469667318,67.11154598825831,123.91136801541425,41.202312138728324,98.30604288499025,66.94152046783626,123.88560157790927,92.71005917159763,149.0,145.0,125.0,121.0,101.0,145.0,125.0,169.0
44,2.2,-0.0003502368927001953,-0.3490307331085205,1.9036953449249268,0.048192501068115234,-1.5780432224273682,-0.0018792152404785156,0.4679022431373596,0.16814365983009338,0.6076964139938354,-3.1093363694379326,0.007309295727787858,1.5725905558169246,149.1875,67.58203125,123.89382239382239,41.54633204633205,98.1378640776699,67.40194174757282,123.7936507936508,93.09126984126983,149.0,145.0,125.0,121.0,101.0,145.0,125.0,169.0
45,2.25,-0.00011491775512695312,-0.34765076637268066,1.9044430255889893,0.04454803466796875,-1.577636480331421,-0.0015974044799804688,0.4688388407230377,0.1682981699705124,0.6069210767745972,-3.110853224853268,0.00691607843844926,1.5725210678713069,149.451171875,68.08984375,123.98265895953757,42.2504816955684,98.35992217898833,68.0,123.87573964497041,93.75739644970415,149.0,145.0,125.0,121.0,101.0,145.0,125.0,169.0
46,2.3000000000000003,-0.00011014938354492188,-0.34670448303222656,1.904078722000122,0.0436093807220459,-1.5777971744537354,-0.0015196800231933594,0.46942344307899475,0.16828429698944092,0.6068243980407715,-3.1112133190829163,0.007078805250836201,1.5724503628202635,149.30426356589146,68.43604651162791,123.89980732177264,42.47784200385357,98.25875486381322,68.25486381322958,123.8248031496063,94.01181102362204,149.0,145.0,125.0,121.0,101.0,145.0,125.0,169.0
47,2.35,-0.0001621246337890625,-0.34592270851135254,1.9039738178253174,0.04246640205383301,-1.5779058933258057,-0.0015027523040771484,0.46993499994277954,0.16824820637702942,0.60664963722229,-3.1116813639668406,0.007188114980754724,1.572381908140512,149.31578947368422,68.72319688109162,123.90786948176583,42.6468330134357,98.10077519379846,68.5,123.83629191321499,94.23274161735701,149.0,145.0,125.0,121.0,101.0,145.0,125.0,169.0
48,2.4000000000000004,-0.00020313262939453125,-0.3451390266418457,1.9039032459259033,0.041382551193237305,-1.5778777599334717,-0.0014851093292236328,0.4704374670982361,0.1682317703962326,0.606442391872406,-3.112052219314681,0.007161142854639198,1.5723192162456727,149.39376218323588,68.91228070175438,123.84990253411306,42.966861598440545,98.22674418604652,68.72093023255815,123.86328125,94.5,149.0,145.0,125.0,121.0,101.0,145.0,125.0,169.0
49,2.45,-0.00029850006103515625,-0.3444032669067383,1.903815507888794,0.04039359092712402,-1.5779545307159424,-0.0014967918395996094,0.47091740369796753,0.16817861795425415,0.6062594056129456,-3.1123932731532062,0.007237966981234883,1.5722354155139955,149.33463796477494,69.11545988258317,123.82149712092131,43.23608445297505,98.15851272015655,68.9921722113503,123.81496062992126,94.75393700787401,149.0,145.0,125.0,121.0,101.0,145.0,125.0,169.0
50,2.5,-0.0003604888916015625,-0.34368300437927246,1.903723955154419,0.039466142654418945,-1.5780069828033447,-0.0014443397521972656,0.4713780879974365,0.16814443469047546,0.6060789823532104,-3.1126919303441776,0.007292617860248797,1.5721204715471284,149.22762645914398,69.35019455252919,123.82725527831094,43.43570057581574,98.1378640776699,69.22135922330096,123.74606299212599,94.96653543307086,149.0,145.0,125.0,121.0,101.0,145.0,125.0,169.0
51,2.5500000000000003,-0.00040435791015625,-0.3430159091949463,1.9036800861358643,0.038506269454956055,-1.5780417919158936,-0.001369476318359375,0.4718089997768402,0.16812072694301605,0.605894923210144,-3.1130287923428575,0.007330106298143323,1.5720001832676018,149.2066276803119,69.53606237816764,123.80384615384615,43.57115384615385,98.0891472868217,69.4515503875969,123.69428007889546,95.11834319526628,149.0,145.0,125.0,121.0,101.0,145.0,125.0,169.0
52,2.6,-0.0004000663757324219,-0.3423502445220947,1.9036242961883545,0.03756833076477051,-1.578037977218628,-0.0012581348419189453,0.47223010659217834,0.16812396049499512,0.6057167649269104,-3.1133576495677464,0.007330147001314421,1.5718910629978222,149.236328125,69.771484375,123.74038461538461,43.78269230769231,98.10058027079303,69.57059961315281,123.7764705882353,95.34509803921569,149.0,145.0,125.0,121.0,101.0,145.0,125.0,169.0
53,2.6500000000000004,-0.0005164146423339844,-0.341763973236084,1.9036853313446045,0.03657937049865723,-1.578059434890747,-0.001251220703125,0.4726264476776123,0.16806648671627045,0.6055020689964294,-3.11369900652634,0.007351968819038818,1.5717659735178042,149.23287671232876,69.95499021526419,123.64038461538462,44.0,98.06201550387597,69.73837209302326,123.77387914230019,95.55945419103314,149.0,145.0,125.0,121.0,101.0,145.0,125.0,169.0
54,2.7,-0.000682830810546875,-0.3412206172943115,1.9038126468658447,0.03558683395385742,-1.5780937671661377,-0.0012645721435546875,0.4730040431022644,0.16798366606235504,0.6052628755569458,-3.114020645139121,0.007386258431327171,1.5716109775980698,149.19803921568626,70.08627450980393,123.62763915547025,44.174664107485604,98.01556420233463,69.98054474708171,123.66404715127702,95.80943025540275,149.0,145.0,125.0,121.0,101.0,145.0,125.0,169.0
55,2.75,-0.0007982254028320312,-0.3406379222869873,1.903836965560913,0.034723758697509766,-1.5780980587005615,-0.0011644363403320312,0.4733884036540985,0.16792920231819153,0.6050612330436707,-3.114277535367841,0.007393347111441328,1.5713941186134412,149.17543859649123,70.31968810916179,123.61068702290076,44.3263358778626,97.98252427184465,70.15922330097088,123.57058823529412,95.95490196078431,149.0,145.0,125.0,121.0,101.0,145.0,125.0,169.0
56,2.8000000000000003,-0.0008795261383056641,-0.34007835388183594,1.9039080142974854,0.033831119537353516,-1.578089952468872,-0.0010631084442138672,0.47375422716140747,0.16789227724075317,0.6048418283462524,-3.114540265786599,0.007388334164041249,1.571209213945555,149.09514563106796,70.47572815533981,123.59013282732448,44.48956356736243,97.96511627906976,70.3953488372093,123.56164383561644,96.06849315068493,149.0,145.0,125.0,121.0,101.0,145.0,125.0,169.0
57,2.85,-0.0009133815765380859,-0.33954739570617676,1.9039947986602783,0.03290700912475586,-1.578066110610962,-0.0009407997131347656,0.47410058975219727,0.16787941753864288,0.6046281456947327,-3.1148467865269427,0.00736874681050422,1.5710501760480948,149.10058027079305,70.57059961315281,123.6,44.651428571428575,97.92664092664093,70.53667953667954,123.5906432748538,96.2066276803119,149.0,145.0,125.0,121.0,101.0,145.0,125.0,169.0
58,2.9000000000000004,-0.0009407997131347656,-0.33899927139282227,1.904054880142212,0.03203129768371582,-1.5780308246612549,-0.0008003711700439453,0.47445136308670044,0.16787070035934448,0.6044194102287292,-3.1151153944058407,0.007337509371580097,1.5708796775351552,149.185546875,70.703125,123.53653846153846,44.82692307692308,97.9325626204239,70.60500963391137,123.65175097276264,96.41245136186771,149.0,145.0,125.0,121.0,101.0,145.0,125.0,169.0
59,2.95,-0.0010595321655273438,-0.3384685516357422,1.904144048690796,0.03119182586669922,-1.5780222415924072,-0.0007090568542480469,0.4748021364212036,0.1678154617547989,0.6041953563690186,-3.115335653906069,0.007331352682509385,1.5706678183996372,149.14481409001957,70.95890410958904,123.54807692307692,45.0,97.8936170212766,70.81044487427467,123.59019607843138,96.65882352941176,149.0,145.0,125.0,121.0,101.0,145.0,125.0,169.0
60,3.0,-0.0011930465698242188,-0.3379647731781006,1.90425705909729,0.03036189079284668,-1.5779836177825928,-0.0006115436553955078,0.4751386344432831,0.16775624454021454,0.603966474533081,-3.115549333453257,0.007295410249051469,1.5704342130916908,149.13529411764705,71.01764705882353,123.52399232245682,45.05566218809981,97.87354085603113,70.97470817120623,123.5272373540856,96.82295719844358,149.0,145.0,125.0,121.0,101.0,145.0,125.0,169.0
61,3.0500000000000003,-0.0012958049774169922,-0.33742618560791016,1.9042785167694092,0.02961897850036621,-1.577918291091919,-0.0004391670227050781,0.4754863977432251,0.1677149087190628,0.6037735939025879,-3.1157336307203125,0.007235056380798509,1.57015608482563,149.091796875,71.173828125,123.5,45.2,97.84689922480621,71.10271317829458,123.5,96.91050583657588,149.0,145.0,125.0,121.0,101.0,145.0,125.0,169.0
62,3.1,-0.001386880874633789,-0.33692121505737305,1.904364824295044,0.028821229934692383,-1.5778543949127197,-0.00028061866760253906,0.4758153259754181,0.1676790714263916,0.6035584211349487,-3.1159410061702117,0.007175004667009443,1.5699034350428693,149.10058027079305,71.42940038684719,123.5,45.384905660377356,97.83044315992292,71.32177263969172,123.521484375,97.044921875,149.0,145.0,125.0,121.0,101.0,145.0,125.0,169.0
63,3.1500000000000004,-0.0014595985412597656,-0.336442232131958,1.9044935703277588,0.02798771858215332,-1.577777624130249,-0.00016045570373535156,0.4761284589767456,0.16765284538269043,0.6033304929733276,-3.116167109984065,0.007101518388226821,1.5697071145403263,149.0891472868217,71.4515503875969,123.4461247637051,45.51984877126654,97.85741811175338,71.41040462427746,123.5,97.08949416342412,149.0,145.0,125.0,121.0,101.0,145.0,125.0,169.0
64,3.2,-0.0015094280242919922,-0.3359668254852295,1.9046251773834229,0.027150869369506836,-1.5777394771575928,-2.3126602172851562e-05,0.47643589973449707,0.16763374209403992,0.60310298204422,-3.116398865520051,0.007066847031891829,1.5695176273662723,149.0891472868217,71.5484496124031,123.44402277039848,45.66034155597723,97.85549132947978,71.52408477842003,123.52427184466019,97.26990291262136,149.0,145.0,125.0,121.0,101.0,145.0,125.0,169.0
65,3.25,-0.0015935897827148438,-0.335496187210083,1.9047420024871826,0.026355504989624023,-1.5776994228363037,0.00012111663818359375,0.47674357891082764,0.1675983965396881,0.6028829216957092,-3.1166070579238623,0.007030112455642005,1.5692867570368383,149.08317214700193,71.6073500967118,123.38095238095238,45.71809523809524,97.81888246628131,71.60886319845858,123.5673076923077,97.4326923076923,149.0,145.0,125.0,121.0,101.0,145.0,125.0,169.0
66,3.3000000000000003,-0.0017371177673339844,-0.3350393772125244,1.9048607349395752,0.025588035583496094,-1.577638864517212,0.0002677440643310547,0.47705113887786865,0.16753658652305603,0.6026651263237,-3.1167999489393883,0.006973273403986445,1.5689935427795094,149.06601941747573,71.80970873786407,123.41221374045801,45.92175572519084,97.66988416988417,71.83976833976834,123.49514563106796,97.66019417475728,149.0,145.0,125.0,121.0,101.0,145.0,125.0,169.0
67,3.35,-0.0018277168273925781,-0.3345329761505127,1.904933214187622,0.024906158447265625,-1.5775129795074463,0.00048041343688964844,0.4773690104484558,0.1675073355436325,0.6024454236030579,-3.1169035135850716,0.0068531789591563036,1.5686864961218248,149.07976653696497,71.97665369649805,123.42994241842611,45.98848368522073,97.66216216216216,71.95559845559846,123.5,97.86046511627907,149.0,145.0,125.0,121.0,101.0,145.0,125.0,169.0
68,3.4000000000000004,-0.0019757747650146484,-0.33403730392456055,1.9049932956695557,0.024269580841064453,-1.577345609664917,0.0006854534149169922,0.4776875674724579,0.16745467483997345,0.6022346019744873,-3.116986119127229,0.006690270188449538,1.5683286627900515,149.0701754385965,72.0,123.4088291746641,46.10556621880998,97.65830115830116,72.07335907335907,123.5,97.91050583657588,149.0,145.0,125.0,121.0,101.0,145.0,125.0,169.0
69,3.45,-0.002072572708129883,-0.33352065086364746,1.9050171375274658,0.02365255355834961,-1.5771963596343994,0.000926971435546875,0.47800931334495544,0.16742485761642456,0.602035403251648,-3.1170633341159775,0.00654664438828694,1.5679864584998449,149.11844660194174,72.11456310679611,123.37523809523809,46.19047619047619,97.6679462571977,72.19001919385796,123.5,97.91050583657588,149.0,145.0,125.0,121.0,101.0,145.0,125.0,169.0
70,3.5,-0.002115011215209961,-0.3330111503601074,1.9050781726837158,0.022966384887695312,-1.5770761966705322,0.0011265277862548828,0.4783223867416382,0.16741815209388733,0.601822555065155,-3.1171802302418974,0.0064316468655349355,1.5677411264063912,149.1061776061776,72.28378378378379,123.36571428571429,46.32,97.72053231939164,72.34220532319392,123.5,98.08949416342412,149.0,145.0,125.0,121.0,101.0,145.0,125.0,169.0
71,3.5500000000000003,-0.0021886825561523438,-0.3325362205505371,1.905149221420288,0.02228260040283203,-1.5769593715667725,0.0013134479522705078,0.47862252593040466,0.16739553213119507,0.6016184091567993,-3.1173184219675,0.006319308646158995,1.5674767162641567,149.10058027079305,72.42940038684719,123.35606060606061,46.45454545454545,97.75954198473282,72.41984732824427,123.52417794970987,98.14506769825918,149.0,145.0,125.0,121.0,101.0,145.0,125.0,169.0
72,3.6,-0.0022842884063720703,-0.3321037292480469,1.9052913188934326,0.02153468132019043,-1.5768659114837646,0.0014505386352539062,0.47890523076057434,0.16735975444316864,0.6013938188552856,-3.1174927623372395,0.006229130742281891,1.5672407710458631,149.09477756286267,72.47582205029013,123.30812854442344,46.53119092627599,97.74378585086042,72.54875717017208,123.54457364341086,98.25581395348837,149.0,145.0,125.0,121.0,101.0,145.0,125.0,169.0
73,3.6500000000000004,-0.002373933792114258,-0.3316645622253418,1.9054028987884521,0.02081751823425293,-1.5767643451690674,0.0016105175018310547,0.4791901409626007,0.1673276424407959,0.6011826395988464,-3.117659842460288,0.006131552072043383,1.566987385608088,149.1061776061776,72.54633204633204,123.30871212121212,46.63825757575758,97.67304015296367,72.65583173996176,123.5673076923077,98.4326923076923,149.0,145.0,125.0,121.0,101.0,145.0,125.0,169.0
74,3.7,-0.0024826526641845703,-0.33119726181030273,1.905470609664917,0.02017951011657715,-1.576629877090454,0.0018014907836914062,0.4794875979423523,0.1672901064157486,0.6009799242019653,-3.117763954561253,0.0060008895255122385,1.5666845401931118,149.1177606177606,72.58880308880309,123.32575757575758,46.71780303030303,97.60344827586206,72.82950191570882,123.58157389635316,98.5873320537428,149.0,145.0,125.0,121.0,101.0,145.0,125.0,169.0
75,3.75,-0.0025453567504882812,-0.33066296577453613,1.9054172039031982,0.01965928077697754,-1.576446771621704,0.0020651817321777344,0.47980961203575134,0.16728004813194275,0.600813627243042,-3.1178040215015357,0.005823838132800589,1.5663534290823062,149.1535508637236,72.70825335892515,123.36501901140684,46.78707224334601,97.61420345489444,72.93090211132437,123.57335907335907,98.75675675675676,149.0,145.0,125.0,121.0,101.0,145.0,125.0,169.0
76,3.8000000000000003,-0.002641916275024414,-0.3301045894622803,1.9052927494049072,0.019234895706176758,-1.5762274265289307,0.0023500919342041016,0.48014581203460693,0.16725750267505646,0.6006735563278198,-3.1177949532152645,0.0056114898080361865,1.5659667561922912,149.1888246628131,72.83815028901734,123.39047619047619,46.93333333333333,97.58812260536398,73.02873563218391,123.52417794970987,98.85493230174082,149.0,145.0,125.0,121.0,101.0,145.0,125.0,169.0
77,3.85,-0.002706289291381836,-0.3295176029205322,1.905163049697876,0.018835783004760742,-1.5760157108306885,0.0026416778564453125,0.48048827052116394,0.16724951565265656,0.6005207300186157,-3.11773772264757,0.005407209575405765,1.565606388672123,149.27466150870407,72.92263056092844,123.40839694656489,47.04961832061068,97.62523900573613,73.1414913957935,123.56092843326886,98.93230174081238,149.0,145.0,125.0,121.0,101.0,145.0,125.0,169.0
78,3.9000000000000004,-0.002748250961303711,-0.3289010524749756,1.9049866199493408,0.01847052574157715,-1.575831651687622,0.002913951873779297,0.48084279894828796,0.16724945604801178,0.6003819108009338,-3.1176640512365017,0.005230483665641637,1.565288095580202,149.32884615384614,73.03846153846153,123.37832699619771,47.136882129277566,97.68190476190476,73.28380952380952,123.61553398058253,98.99611650485437,149.0,145.0,125.0,121.0,101.0,145.0,125.0,169.0
79,3.95,-0.0027849674224853516,-0.32831549644470215,1.904836893081665,0.018049240112304688,-1.575676679611206,0.0031380653381347656,0.4811844527721405,0.16724848747253418,0.6002451777458191,-3.117649432623977,0.005080572044388432,1.5650236905382733,149.34230769230768,73.12307692307692,123.36053130929791,47.23719165085389,97.72053231939164,73.34220532319392,123.63178294573643,99.07945736434108,149.0,145.0,125.0,121.0,101.0,145.0,125.0,169.0
80,4.0,-0.002847909927368164,-0.32774782180786133,1.9047081470489502,0.01761913299560547,-1.57554030418396,0.0033423900604248047,0.4815208613872528,0.1672327220439911,0.6001040935516357,-3.11764139486378,0.00494882385490551,1.5647532789348242,149.30459770114942,73.25095785440612,123.38679245283019,47.367924528301884,97.74857142857142,73.44190476190477,123.65764023210832,99.18181818181819,149.0,145.0,125.0,121.0,101.0,145.0,125.0,169.0
81,4.05,-0.0029325485229492188,-0.32719850540161133,1.9045913219451904,0.017189502716064453,-1.5753991603851318,0.003538370132446289,0.4818505644798279,0.16720707714557648,0.5999634265899658,-3.1176388057227693,0.004812449046309799,1.5644694877941456,149.31679389312978,73.31488549618321,123.39962476547842,47.43339587242026,97.76717557251908,73.54198473282443,123.72779922779922,99.32625482625483,149.0,145.0,125.0,121.0,101.0,145.0,125.0,169.0
82,4.1000000000000005,-0.0030536651611328125,-0.32663822174072266,1.9044153690338135,0.01683187484741211,-1.575237512588501,0.0037391185760498047,0.48218995332717896,0.1671656370162964,0.5998495221138,-3.1176122034455673,0.004655411532857761,1.5641436149397008,149.24045801526717,73.41984732824427,123.38649155722327,47.51969981238274,97.71619047619048,73.63428571428571,123.80192307692307,99.4326923076923,149.0,145.0,125.0,121.0,101.0,145.0,125.0,169.0
83,4.15,-0.003221273422241211,-0.3261129856109619,1.9042823314666748,0.016455888748168945,-1.5750329494476318,0.003922700881958008,0.48251765966415405,0.16710592806339264,0.5997257232666016,-3.1175957865047312,0.004455073700826735,1.5637874714624114,149.25572519083968,73.5,123.3796992481203,47.607142857142854,97.69083969465649,73.80343511450381,123.83815028901734,99.52215799614643,149.0,145.0,125.0,121.0,101.0,145.0,125.0,169.0
84,4.2,-0.003330707550048828,-0.3255631923675537,1.9041063785552979,0.016092300415039062,-1.5748169422149658,0.0041234493255615234,0.4828509986400604,0.16707570850849152,0.5996169447898865,-3.1175847012903963,0.0042445971827872195,1.5634721773961775,149.29714285714286,73.57523809523809,123.34026465028356,47.68052930056711,97.67304015296367,73.90248565965584,123.81888246628131,99.60886319845858,149.0,145.0,125.0,121.0,101.0,145.0,125.0,169.0
85,4.25,-0.0034220218658447266,-0.32500648498535156,1.9039332866668701,0.015726089477539062,-1.5746142864227295,0.004324197769165039,0.48318469524383545,0.16705289483070374,0.599503219127655,-3.1175677459744016,0.004046917613767009,1.5631756875281966,149.3657142857143,73.68,123.36053130929791,47.76280834914611,97.68260038240918,74.04971319311663,123.79190751445087,99.69749518304431,149.0,145.0,125.0,121.0,101.0,145.0,125.0,169.0
86,4.3,-0.003467082977294922,-0.3244166374206543,1.9037086963653564,0.015391349792480469,-1.5744154453277588,0.004538536071777344,0.48352882266044617,0.16705214977264404,0.5994047522544861,-3.117536621427183,0.003853307979115342,1.5629114182155701,149.39961759082217,73.80497131931166,123.4095238095238,47.89714285714286,97.75095057034221,74.19961977186311,123.81274131274131,99.86293436293437,149.0,145.0,125.0,121.0,101.0,145.0,125.0,169.0
87,4.3500000000000005,-0.003520488739013672,-0.3238043785095215,1.9033997058868408,0.015147209167480469,-1.5742108821868896,0.004769325256347656,0.48388445377349854,0.1670478731393814,0.5993430614471436,-3.117477518984793,0.0036547072690216588,1.5626228276573007,149.43076923076924,73.90576923076924,123.40761904761905,48.0247619047619,97.77798861480076,74.30550284629982,123.88155339805826,99.99029126213593,149.0,145.0,125.0,121.0,101.0,145.0,125.0,169.0
88,4.4,-0.0036003589630126953,-0.3231959342956543,1.9030787944793701,0.014929056167602539,-1.5740139484405518,0.004978656768798828,0.48424145579338074,0.16702964901924133,0.5992883443832397,-3.1174076239285498,0.003463292047133488,1.5623291639786083,149.45192307692307,74.0,123.43643263757116,48.13282732447818,97.80842911877394,74.41954022988506,123.89514563106796,100.06990291262136,149.0,145.0,125.0,121.0,101.0,145.0,125.0,169.0
89,4.45,-0.003664255142211914,-0.3225743770599365,1.9027283191680908,0.014731884002685547,-1.5738213062286377,0.0051920413970947266,0.48460298776626587,0.16701866686344147,0.599245011806488,-3.117332829796852,0.0032766814987619792,1.5620470949179552,149.45210727969348,74.04980842911877,123.38941398865785,48.26654064272212,97.85028790786949,74.47792706333973,123.93798449612403,100.21317829457364,149.0,145.0,125.0,121.0,101.0,145.0,125.0,169.0
90,4.5,-0.003780364990234375,-0.3219764232635498,1.9023869037628174,0.014556646347045898,-1.5736610889434814,0.0053937435150146484,0.4849584698677063,0.166979119181633,0.5992043018341064,-3.1172514475920976,0.003121276415587497,1.5617266518996313,149.47792706333973,74.21113243761997,123.45676691729324,48.392857142857146,97.84865900383141,74.57662835249042,123.92857142857143,100.37065637065638,149.0,145.0,125.0,121.0,101.0,145.0,125.0,169.0
91,4.55,-0.003930091857910156,-0.3213460445404053,1.9019715785980225,0.014496564865112305,-1.5734694004058838,0.005602121353149414,0.4853306710720062,0.16692617535591125,0.5991852879524231,-3.1170952754974226,0.0029354309785478306,1.5613637322602372,149.45977011494253,74.227969348659,123.44277673545966,48.412757973733584,97.88167938931298,74.65458015267176,123.92084942084942,100.41698841698842,149.0,145.0,125.0,121.0,101.0,145.0,125.0,169.0
92,4.6000000000000005,-0.004065036773681641,-0.32071757316589355,1.9015228748321533,0.014441490173339844,-1.573279619216919,0.005838155746459961,0.4857025742530823,0.16688041388988495,0.5991894006729126,-3.116969860724783,0.002752307476458093,1.5609885853305636,149.5,74.38490566037736,123.42723880597015,48.53731343283582,97.88358778625954,74.80152671755725,123.92664092664093,100.48841698841699,149.0,145.0,125.0,121.0,101.0,145.0,125.0,169.0
93,4.65,-0.004166603088378906,-0.320112943649292,1.9011499881744385,0.014295339584350586,-1.5731074810028076,0.006034374237060547,0.4860594868659973,0.16684889793395996,0.5991637706756592,-3.1168840099095,0.002585481330946247,1.5606870049585944,149.5,74.43181818181819,123.44277673545966,48.587242026266416,97.83109404990402,74.89827255278311,123.95559845559846,100.56949806949807,149.0,145.0,125.0,121.0,101.0,145.0,125.0,169.0
94,4.7,-0.0042498111724853516,-0.3194754123687744,1.900721788406372,0.014201879501342773,-1.572901964187622,0.0062520503997802734,0.4864295423030853,0.1668298840522766,0.5991525650024414,-3.116766795178732,0.002386389984378213,1.5603810934248883,149.53396226415094,74.53396226415094,123.44632768361582,48.65913370998117,97.85057471264368,75.09003831417624,124.0,100.63513513513513,149.0,145.0,125.0,121.0,101.0,145.0,125.0,169.0
95,4.75,-0.004281282424926758,-0.31884050369262695,1.9002935886383057,0.014062166213989258,-1.5727007389068604,0.00646209716796875,0.4867948889732361,0.1668352335691452,0.5991480946540833,-3.1166986881119394,0.0021908433172901347,1.560134657005581,149.53787878787878,74.64393939393939,123.42045454545455,48.84848484848485,97.92175572519083,75.21946564885496,124.01348747591523,100.78805394990366,149.0,145.0,125.0,121.0,101.0,145.0,125.0,169.0
96,4.800000000000001,-0.004330873489379883,-0.31822848320007324,1.8998749256134033,0.013928413391113281,-1.5725376605987549,0.006667613983154297,0.4871509075164795,0.16682791709899902,0.5991472005844116,-3.116638389159967,0.0020335394965228593,1.5598755919378424,149.5847619047619,74.73523809523809,123.47809523809524,48.93904761904762,97.93103448275862,75.34482758620689,124.03495145631068,100.96504854368932,149.0,145.0,125.0,121.0,101.0,145.0,125.0,169.0
97,4.8500000000000005,-0.00438380241394043,-0.3175618648529053,1.8993189334869385,0.013943910598754883,-1.5723459720611572,0.006905555725097656,0.48753270506858826,0.16682203114032745,0.5991970896720886,-3.1165111056456625,0.0018484610583986635,1.559580530748435,149.60344827586206,74.82950191570882,123.5,49.04961832061068,97.99425287356321,75.45402298850574,124.0701754385965,101.0,149.0,145.0,125.0,121.0,101.0,145.0,125.0,169.0
98,4.9,-0.004417896270751953,-0.3169081211090088,1.8987905979156494,0.013908147811889648,-1.5721805095672607,0.007124185562133789,0.4879077076911926,0.1668223887681961,0.5992396473884583,-3.116420594187274,0.0016893247617831954,1.5593235940648393,149.5700575815739,74.98848368522073,123.5179584120983,49.13799621928166,98.0,75.5,124.08317214700193,101.15087040618955,149.0,145.0,125.0,121.0,101.0,145.0,125.0,169.0
99,4.95,-0.004518032073974609,-0.31627368927001953,1.8982517719268799,0.013921022415161133,-1.571986436843872,0.007322549819946289,0.48828038573265076,0.1667933464050293,0.5992929935455322,-3.1163104587334876,0.0015007248642031268,1.5590209655369298,149.57088122605364,75.03639846743295,123.5,49.384905660377356,97.95576923076923,75.61346153846154,124.09864603481624,101.30754352030948,149.0,145.0,125.0,121.0,101.0,145.0,125.0,169.0
100,5.0,-0.004591941833496094,-0.3156166076660156,1.8977138996124268,0.013967037200927734,-1.5718328952789307,0.007547140121459961,0.48865604400634766,0.16677285730838776,0.5993309617042542,-3.1161436624643177,0.0013548119917811314,1.5587185306423437,149.60919540229884,75.12260536398468,123.51412429378531,49.40489642184557,97.95610687022901,75.69656488549619,124.07915057915058,101.41698841698842,149.0,145.0,125.0,121.0,101.0,145.0,125.0,169.0
101,5.050000000000001,-0.004681110382080078,-0.3149220943450928,1.8970744609832764,0.014127969741821289,-1.5716464519500732,0.007792234420776367,0.48905104398727417,0.16674849390983582,0.5994070768356323,-3.1159264877410457,0.0011760228337262166,1.5583798376774054,149.62666666666667,75.23619047619047,123.5,49.5,98.03448275862068,75.80268199233717,124.11969111969113,101.47490347490347,149.0,145.0,125.0,121.0,101.0,145.0,125.0,169.0
102,5.1000000000000005,-0.004782438278198242,-0.31428027153015137,1.8965132236480713,0.014188051223754883,-1.5714938640594482,0.007990121841430664,0.4894251823425293,0.1667144000530243,0.5994668006896973,-3.1157848368046586,0.0010297599009243157,1.5580769902175886,149.6342857142857,75.32,123.51969981238274,49.5609756097561,98.0,76.0,124.12572533849129,101.4990328820116,149.0,145.0,125.0,121.0,101.0,145.0,125.0,169.0
103,5.15,-0.00479435920715332,-0.3136179447174072,1.8959438800811768,0.014203071594238281,-1.5713212490081787,0.008211851119995117,0.4898005425930023,0.1667262762784958,0.5995261073112488,-3.115675140791867,0.0008637458789427326,1.5578388278895412,149.7319391634981,75.46007604562737,123.52354048964219,49.621468926553675,98.08812260536398,76.13218390804597,124.16730769230769,101.58846153846154,149.0,145.0,125.0,121.0,101.0,145.0,125.0,169.0
104,5.2,-0.0048220157623291016,-0.31296777725219727,1.8953754901885986,0.01420283317565918,-1.5711610317230225,0.008394718170166016,0.4901741147041321,0.1667288839817047,0.599592387676239,-3.115591809338716,0.0007094457252550609,1.5576239558512013,149.74857142857144,75.55809523809523,123.56356736242884,49.86717267552182,98.04389312977099,76.30343511450381,124.27659574468085,101.76208897485493,149.0,145.0,125.0,121.0,101.0,145.0,125.0,169.0
105,5.25,-0.004825592041015625,-0.31229090690612793,1.894784688949585,0.014239788055419922,-1.5710108280181885,0.008580446243286133,0.49055516719818115,0.1667422205209732,0.5996566414833069,-3.1154677455535333,0.0005649143569431123,1.5574313812381517,149.71537001897534,75.6337760910816,123.54580152671755,49.93320610687023,98.06142034548944,76.36852207293666,124.32882011605416,101.86460348162475,149.0,145.0,125.0,121.0,101.0,145.0,125.0,169.0
106,5.300000000000001,-0.004861354827880859,-0.31164050102233887,1.8942129611968994,0.014265060424804688,-1.5708582401275635,0.008748292922973633,0.49092841148376465,0.16673989593982697,0.5997217297554016,-3.1153619559037287,0.0004184361970153345,1.5572238180792315,149.74285714285713,75.70285714285714,123.56380952380952,50.08380952380952,98.10961538461538,76.44038461538462,124.34689922480621,101.96511627906976,149.0,145.0,125.0,121.0,101.0,145.0,125.0,169.0
107,5.3500000000000005,-0.004899263381958008,-0.31098341941833496,1.8936302661895752,0.014309406280517578,-1.5707333087921143,0.00891566276550293,0.49130409955978394,0.16673342883586884,0.5997887253761292,-3.11524174971254,0.0002984104727125659,1.5570151429289634,149.72137404580153,75.83778625954199,123.58979206049149,50.17391304347826,98.17274472168906,76.56429942418426,124.3926499032882,102.08317214700193,149.0,145.0,125.0,121.0,101.0,145.0,125.0,169.0
108,5.4,-0.0049533843994140625,-0.310344934463501,1.8930394649505615,0.014356613159179688,-1.5706045627593994,0.009071111679077148,0.49167442321777344,0.1667194813489914,0.5998698472976685,-3.115145431037247,0.0001744479881030212,1.5568024386357215,149.67624521072796,76.0,123.61625708884688,50.31001890359168,98.17208413001912,76.64053537284894,124.38491295938104,102.16827852998065,149.0,145.0,125.0,121.0,101.0,145.0,125.0,169.0
109,5.45,-0.005017995834350586,-0.30972909927368164,1.8924953937530518,0.014370203018188477,-1.5704715251922607,0.009211540222167969,0.49203401803970337,0.16670066118240356,0.5999337434768677,-3.1150585012881993,4.64805603161698e-05,1.5565939359036203,149.70441458733205,76.09404990403071,123.55722326454034,50.412757973733584,98.18164435946463,76.77437858508604,124.35328185328186,102.3030888030888,149.0,145.0,125.0,121.0,101.0,145.0,125.0,169.0
110,5.5,-0.005087614059448242,-0.3091156482696533,1.8919341564178467,0.014412403106689453,-1.5703442096710205,0.009362459182739258,0.4923924505710602,0.16667871177196503,0.6000075340270996,-3.114962839142706,-7.583216756886052e-05,1.5563699036566674,149.79885057471265,76.21072796934865,123.59925093632958,50.5,98.2552783109405,76.8848368522073,124.32755298651253,102.40847784200385,149.0,145.0,125.0,121.0,101.0,145.0,125.0,169.0
111,5.550000000000001,-0.005153179168701172,-0.3084731101989746,1.8912994861602783,0.01452493667602539,-1.5702250003814697,0.009518146514892578,0.4927646517753601,0.16665801405906677,0.6001090407371521,-3.114841645935306,-0.00018995103022653953,1.5561460091330015,149.83969465648855,76.33778625954199,123.55722326454034,50.587242026266416,98.28131021194605,77.05780346820809,124.31346153846154,102.57115384615385,149.0,145.0,125.0,121.0,101.0,145.0,125.0,169.0
112,5.6000000000000005,-0.0052258968353271484,-0.3078346252441406,1.890629529953003,0.014676570892333984,-1.5701024532318115,0.00967860221862793,0.4931361675262451,0.16663411259651184,0.6002317070960999,-3.1147195726329486,-0.00030731090248397946,1.5559095505973197,149.82725527831093,76.43570057581574,123.62618595825427,50.715370018975335,98.25812619502868,77.17590822179733,124.373795761079,102.65510597302504,149.0,145.0,125.0,121.0,101.0,145.0,125.0,169.0
113,5.65,-0.005272626876831055,-0.3071753978729248,1.8899357318878174,0.014844417572021484,-1.56996750831604,0.009842157363891602,0.4935140609741211,0.1666242927312851,0.6003583073616028,-3.1145842356494975,-0.0004362758418702853,1.5556955627619908,149.83908045977012,76.5,123.6034155597723,50.853889943074,98.21988527724666,77.32695984703633,124.45366795366796,102.84362934362935,149.0,145.0,125.0,121.0,101.0,145.0,125.0,169.0
114,5.7,-0.005326509475708008,-0.30651259422302246,1.889221429824829,0.015050411224365234,-1.5698330402374268,0.010003805160522461,0.4938933551311493,0.16661077737808228,0.6004932522773743,-3.1144285254712787,-0.0005651298117102259,1.5554756725643695,149.82725527831093,76.56429942418426,123.59238095238095,50.9752380952381,98.22179732313576,77.43594646271511,124.4748062015504,102.87984496124031,149.0,145.0,125.0,121.0,101.0,145.0,125.0,169.0
115,5.75,-0.0053539276123046875,-0.30586981773376465,1.888580560684204,0.015166997909545898,-1.5697176456451416,0.010160446166992188,0.4942602813243866,0.16660843789577484,0.6005972623825073,-3.1143079836359657,-0.0006744664650370376,1.555288902879851,149.85249042145594,76.64176245210729,123.61216730038022,51.09125475285171,98.25763358778626,77.53435114503817,124.4873786407767,102.93203883495146,149.0,145.0,125.0,121.0,101.0,145.0,125.0,169.0
116,5.800000000000001,-0.005364179611206055,-0.305222749710083,1.8879454135894775,0.015268087387084961,-1.569617509841919,0.010316848754882812,0.4946274757385254,0.16661299765110016,0.6006968021392822,-3.1141937242412285,-0.0007687211197423643,1.555119329480441,149.84291187739464,76.77586206896552,123.63946869070209,51.23719165085389,98.30285714285715,77.6647619047619,124.5,103.08949416342412,149.0,145.0,125.0,121.0,101.0,145.0,125.0,169.0
117,5.8500000000000005,-0.005379438400268555,-0.304577112197876,1.8872826099395752,0.01540374755859375,-1.5695226192474365,0.01047825813293457,0.4949943721294403,0.16661466658115387,0.6008116602897644,-3.1140737857441527,-0.0008583601645504863,1.5549405379768744,149.84615384615384,76.88653846153846,123.64772727272727,51.34090909090909,98.3854961832061,77.74236641221374,124.47572815533981,103.09514563106796,149.0,145.0,125.0,121.0,101.0,145.0,125.0,169.0
118,5.9,-0.0053861141204833984,-0.30394983291625977,1.886662244796753,0.015481710433959961,-1.5694477558135986,0.010632038116455078,0.49535247683525085,0.1666182577610016,0.6009130477905273,-3.113987204903823,-0.0009274475341383779,1.554777655410225,149.85880077369438,77.0541586073501,123.67043314500941,51.4256120527307,98.39080459770115,77.87739463601532,124.5,103.15057915057915,149.0,145.0,125.0,121.0,101.0,145.0,125.0,169.0
119,5.95,-0.005385875701904297,-0.3033335208892822,1.8860714435577393,0.015520811080932617,-1.5693600177764893,0.010767459869384766,0.4957055151462555,0.16662661731243134,0.6010037660598755,-3.113921228626175,-0.00101117108077897,1.5546402469400644,149.85934489402698,77.15414258188825,123.69128787878788,51.53409090909091,98.45192307692308,78.0,124.57528957528957,103.3088803088803,149.0,145.0,125.0,121.0,101.0,145.0,125.0,169.0
120,6.0,-0.0054035186767578125,-0.30272746086120605,1.8854610919952393,0.015580177307128906,-1.5692775249481201,0.010891914367675781,0.49605655670166016,0.16662545502185822,0.6011099815368652,-3.113865029759657,-0.0010891649994728492,1.5544956045448883,149.89017341040463,77.30828516377649,123.71537001897534,51.63377609108159,98.43076923076923,78.09423076923076,124.56238003838772,103.48368522072937,149.0,145.0,125.0,121.0,101.0,145.0,125.0,169.0
121,6.050000000000001,-0.005438804626464844,-0.3021085262298584,1.8848044872283936,0.015708208084106445,-1.5691792964935303,0.011012792587280273,0.4964144825935364,0.16661688685417175,0.6012341976165771,-3.1137731092570893,-0.0011829774724409583,1.5543366775874425,149.9208494208494,77.41698841698842,123.6831119544592,51.7438330170778,98.42994241842611,78.1996161228407,124.64478764478764,103.64864864864865,149.0,145.0,125.0,121.0,101.0,145.0,125.0,169.0
122,6.1000000000000005,-0.005511283874511719,-0.30150485038757324,1.884157419204712,0.015848159790039062,-1.569082498550415,0.011104583740234375,0.4967690110206604,0.16658949851989746,0.6013578176498413,-3.113675155712997,-0.001276437792282114,1.5541696566103975,149.90522243713733,77.47582205029013,123.65209125475285,51.88593155893536,98.38931297709924,78.32633587786259,124.60077519379846,103.77713178294573,149.0,145.0,125.0,121.0,101.0,145.0,125.0,169.0
123,6.15,-0.005562305450439453,-0.300889253616333,1.8834912776947021,0.01601862907409668,-1.56899094581604,0.011227130889892578,0.49712464213371277,0.16657261550426483,0.6014848351478577,-3.1135536954697436,-0.0013633238669197238,1.5539931764305686,149.8938223938224,77.54633204633204,123.61068702290076,52.041984732824424,98.4657794676806,78.4657794676806,124.54863813229572,103.90077821011673,149.0,145.0,125.0,121.0,101.0,145.0,125.0,169.0
124,6.2,-0.0056040287017822266,-0.30028414726257324,1.8828151226043701,0.01619863510131836,-1.56892991065979,0.011376380920410156,0.49747365713119507,0.16655726730823517,0.6016230583190918,-3.1134432823629505,-0.0014180461326815251,1.5537999400362934,149.90366088631984,77.60115606936417,123.65654648956357,52.2011385199241,98.42585551330798,78.56083650190114,124.54863813229572,103.90077821011673,149.0,145.0,125.0,121.0,101.0,145.0,125.0,169.0
125,6.25,-0.0055921077728271484,-0.29965877532958984,1.8821766376495361,0.016325712203979492,-1.568880319595337,0.011536598205566406,0.497825562953949,0.16656796634197235,0.6017311215400696,-3.1133280123372886,-0.0014623226228394125,1.5536508996862424,149.88846153846154,77.71153846153847,123.67931688804553,52.26565464895636,98.42857142857143,78.70666666666666,124.61553398058253,103.99611650485437,149.0,145.0,125.0,121.0,101.0,145.0,125.0,169.0
126,6.300000000000001,-0.00557708740234375,-0.2990427017211914,1.8815395832061768,0.01644110679626465,-1.5688145160675049,0.011686325073242188,0.49817371368408203,0.16658148169517517,0.601843535900116,-3.1132333177968987,-0.0015219711691140086,1.5535140941391807,149.93798449612405,77.89922480620154,123.73764258555133,52.37642585551331,98.47297297297297,78.83011583011583,124.59727626459144,104.08949416342412,149.0,145.0,125.0,121.0,101.0,145.0,125.0,169.0
127,6.3500000000000005,-0.005552530288696289,-0.298414945602417,1.8808772563934326,0.016576290130615234,-1.5687439441680908,0.011830806732177734,0.49852675199508667,0.16660024225711823,0.6019651293754578,-3.113130625469221,-0.001587276423147102,1.5533918746331075,149.9455252918288,77.98054474708171,123.7381404174573,52.483870967741936,98.51162790697674,78.90697674418605,124.61673151750973,104.14591439688716,149.0,145.0,125.0,121.0,101.0,145.0,125.0,169.0
128,6.4,-0.005530118942260742,-0.29779839515686035,1.8802430629730225,0.016680479049682617,-1.5686867237091064,0.011965513229370117,0.4988747835159302,0.16661641001701355,0.6020760536193848,-3.113042498370136,-0.0016396882798433525,1.5532778324715824,149.92263056092844,78.0889748549323,123.74857142857142,52.55809523809524,98.5,79.0,124.67766990291263,104.29126213592232,149.0,145.0,125.0,121.0,101.0,145.0,125.0,169.0
129,6.45,-0.005529642105102539,-0.2971928119659424,1.8796045780181885,0.016800642013549805,-1.5686171054840088,0.012086629867553711,0.49922022223472595,0.1666228175163269,0.6021937131881714,-3.112954360016025,-0.0017049535058967032,1.553155265555476,149.94605009633912,78.23892100192678,123.75142314990512,52.6584440227704,98.5251937984496,79.12015503875969,124.76264591439688,104.41828793774319,149.0,145.0,125.0,121.0,101.0,145.0,125.0,169.0
130,6.5,-0.005554676055908203,-0.29660677909851074,1.8789894580841064,0.016902923583984375,-1.5685436725616455,0.012175559997558594,0.499559611082077,0.16661661863327026,0.6023064255714417,-3.112879518624727,-0.0017749591985843863,1.553038984580379,149.93256262042388,78.39499036608863,123.77229601518026,52.7381404174573,98.52408477842003,79.19460500963392,124.78834951456311,104.52038834951456,149.0,145.0,125.0,121.0,101.0,145.0,125.0,169.0
131,6.550000000000001,-0.0056002140045166016,-0.296036958694458,1.8783981800079346,0.01699090003967285,-1.568457841873169,0.012243032455444336,0.49989357590675354,0.1666012555360794,0.6024134159088135,-3.112811717271517,-0.0018578445193735943,1.5529234474353164,149.9323017408124,78.43907156673114,123.70419847328245,52.91030534351145,98.61567877629064,79.30210325047801,124.73099415204679,104.64717348927876,149.0,145.0,125.0,121.0,101.0,145.0,125.0,169.0
132,6.6000000000000005,-0.005646944046020508,-0.29547810554504395,1.8778035640716553,0.0170896053314209,-1.5684120655059814,0.012332677841186523,0.5002216696739197,0.16658148169517517,0.6025258898735046,-3.112747938023348,-0.0019001390274954802,1.5527856828495876,149.90522243713733,78.52417794970987,123.6717850287908,53.063339731285986,98.57854406130268,79.48850574712644,124.72709551656921,104.76218323586744,149.0,145.0,125.0,121.0,101.0,145.0,125.0,169.0
133,6.65,-0.005665302276611328,-0.29491758346557617,1.8772146701812744,0.017179489135742188,-1.5683648586273193,0.01244211196899414,0.5005465745925903,0.1665763109922409,0.6026349067687988,-3.11268497440222,-0.0019437205931212905,1.5526564200066995,149.9208494208494,78.58301158301158,123.74857142857142,53.222857142857144,98.62068965517241,79.5632183908046,124.71232876712328,104.8747553816047,149.0,145.0,125.0,121.0,101.0,145.0,125.0,169.0
134,6.7,-0.0056650638580322266,-0.29433703422546387,1.8765928745269775,0.017302513122558594,-1.5683376789093018,0.012567996978759766,0.500878095626831,0.16657835245132446,0.6027524471282959,-3.1126028620283273,-0.001965781380579952,1.5525297178595072,149.91907514450867,78.64739884393063,123.77904761904762,53.327619047619045,98.59073359073359,79.77606177606178,124.70196078431373,104.96274509803922,149.0,145.0,125.0,121.0,101.0,145.0,125.0,169.0
135,6.75,-0.005609273910522461,-0.2937288284301758,1.875920057296753,0.01745295524597168,-1.5682995319366455,0.012729406356811523,0.5012165904045105,0.16660979390144348,0.6028875708580017,-3.112515002277207,-0.0019981650117800428,1.5524231780994349,149.98062015503876,78.81589147286822,123.80842911877394,53.41954022988506,98.56893203883494,79.83689320388349,124.75442043222004,105.0098231827112,149.0,145.0,125.0,121.0,101.0,145.0,125.0,169.0
136,6.800000000000001,-0.005568981170654297,-0.2931246757507324,1.8752892017364502,0.017570018768310547,-1.5682504177093506,0.012850761413574219,0.5015550851821899,0.16663414239883423,0.6029990911483765,-3.1124236333559496,-0.002042324646595538,1.5523409200103604,149.9650485436893,78.96504854368932,123.83908045977012,53.5,98.58527131782945,79.92829457364341,124.77362204724409,105.13188976377953,149.0,145.0,125.0,121.0,101.0,145.0,125.0,169.0
137,6.8500000000000005,-0.005541801452636719,-0.29253053665161133,1.8746607303619385,0.017689943313598633,-1.5681917667388916,0.012959957122802734,0.5018901824951172,0.16665275394916534,0.6031145453453064,-3.1123369806963503,-0.00209629217895073,1.5522569718936028,149.94921875,79.015625,123.82725527831094,53.56429942418426,98.60658914728683,80.01937984496124,124.79764243614932,105.2278978388998,149.0,145.0,125.0,121.0,101.0,145.0,125.0,169.0
138,6.9,-0.005519390106201172,-0.291942834854126,1.8740227222442627,0.017818450927734375,-1.5681354999542236,0.013071537017822266,0.5022230744361877,0.16666871309280396,0.6032379269599915,-3.1122574990195813,-0.0021485056741893144,1.5521659355537372,149.97674418604652,79.13953488372093,123.8642447418738,53.66347992351817,98.63249516441006,80.10444874274661,124.83561643835617,105.36203522504893,149.0,145.0,125.0,121.0,101.0,145.0,125.0,169.0
139,6.95,-0.005511045455932617,-0.2913553714752197,1.8733723163604736,0.01796746253967285,-1.5680792331695557,0.013169050216674805,0.5025579333305359,0.16667748987674713,0.6033673882484436,-3.1121700343901564,-0.0022009758526562073,1.5520746714765783,149.98640776699028,79.29514563106797,123.84291187739464,53.775862068965516,98.66023166023166,80.20656370656371,124.90485436893204,105.47572815533981,149.0,145.0,125.0,121.0,101.0,145.0,125.0,169.0
140,7.0,-0.005533695220947266,-0.29079699516296387,1.8727695941925049,0.018079042434692383,-1.5680243968963623,0.01323390007019043,0.5028819441795349,0.1666705459356308,0.6034829020500183,-3.1121020680441553,-0.002252638881452238,1.5519855050690365,150.01160541586074,79.38684719535783,123.83109404990402,53.89827255278311,98.75241779497098,80.32882011605416,124.91050583657588,105.5,149.0,145.0,125.0,121.0,101.0,145.0,125.0,169.0
141,7.050000000000001,-0.005544185638427734,-0.290250301361084,1.872194528579712,0.018145084381103516,-1.5679905414581299,0.013296365737915039,0.5032002329826355,0.16666758060455322,0.6035906076431274,-3.112063329774347,-0.0022843979768983566,1.5519115866687252,149.95542635658916,79.43023255813954,123.85135135135135,54.1061776061776,98.79110251450678,80.47775628626692,124.89668615984405,105.61793372319688,149.0,145.0,125.0,121.0,101.0,145.0,125.0,169.0
142,7.1000000000000005,-0.005524635314941406,-0.2897052764892578,1.8716280460357666,0.018195390701293945,-1.5679810047149658,0.013386249542236328,0.5035140514373779,0.16667737066745758,0.6036944389343262,-3.1120331525355236,-0.002290838727093215,1.551841080452496,149.95542635658916,79.56976744186046,123.8675623800384,54.22456813819578,98.80077369439071,80.54932301740813,124.81372549019608,105.75294117647059,149.0,145.0,125.0,121.0,101.0,145.0,125.0,169.0
143,7.15,-0.005507230758666992,-0.28915858268737793,1.8710486888885498,0.01827263832092285,-1.567974328994751,0.013485431671142578,0.5038275718688965,0.16668599843978882,0.6038037538528442,-3.1119886828249905,-0.0022937678123210654,1.5517586212333103,149.96511627906978,79.6046511627907,123.88888888888889,54.337164750957854,98.77562862669245,80.63056092843327,124.83928571428571,105.90674603174604,149.0,145.0,125.0,121.0,101.0,145.0,125.0,169.0
144,7.2,-0.0054891109466552734,-0.28859567642211914,1.8704321384429932,0.018399715423583984,-1.5679709911346436,0.013593196868896484,0.5041475892066956,0.16669456660747528,0.6039240956306458,-3.111914507316687,-0.0022930540068529515,1.5516687628247798,149.9825918762089,79.70212765957447,123.89382239382239,54.45366795366795,98.74463937621833,80.78752436647173,124.85404339250493,105.95660749506904,149.0,145.0,125.0,121.0,101.0,145.0,125.0,169.0
145,7.25,-0.005443572998046875,-0.2880237102508545,1.8698222637176514,0.018509387969970703,-1.567960500717163,0.013705730438232422,0.5044686794281006,0.16671793162822723,0.604037344455719,-3.1118421285707774,-0.002299142542354146,1.551601844753648,149.98245614035088,79.8869395711501,123.89980732177264,54.47784200385357,98.724609375,80.896484375,124.88165680473372,106.03550295857988,149.0,145.0,125.0,121.0,101.0,145.0,125.0,169.0
146,7.300000000000001,-0.005413532257080078,-0.28746676445007324,1.8692266941070557,0.018605470657348633,-1.567922830581665,0.013795137405395508,0.5047849416732788,0.16673581302165985,0.6041495203971863,-3.111783249511607,-0.0023330898991370474,1.5515412100578483,149.98443579766536,79.98054474708171,123.8766859344894,54.564547206165706,98.77734375,80.9765625,124.88270377733599,106.1530815109344,149.0,145.0,125.0,121.0,101.0,145.0,125.0,169.0
147,7.3500000000000005,-0.005400180816650391,-0.2869222164154053,1.8686282634735107,0.018711328506469727,-1.5678942203521729,0.013881206512451172,0.5050974488258362,0.16674445569515228,0.6042686104774475,-3.111730796260211,-0.0023584590400818005,1.5514674162006477,149.98046875,80.0546875,123.90786948176583,54.6468330134357,98.81017612524462,81.06262230919765,124.89960629921259,106.25,149.0,145.0,125.0,121.0,101.0,145.0,125.0,169.0
148,7.4,-0.005385875701904297,-0.2863783836364746,1.8680193424224854,0.018824338912963867,-1.5678694248199463,0.013967514038085938,0.5054097771644592,0.16675318777561188,0.6043943166732788,-3.111681283274574,-0.002379961922546056,1.5513943059405346,150.0,80.17704280155642,123.8675623800384,54.77543186180422,98.8082191780822,81.19373776908023,124.93529411764706,106.3843137254902,149.0,145.0,125.0,121.0,101.0,145.0,125.0,169.0
149,7.45,-0.005384206771850586,-0.2858433723449707,1.8674204349517822,0.018940448760986328,-1.5678455829620361,0.014044523239135742,0.5057186484336853,0.16675543785095215,0.6045174598693848,-3.11162937925491,-0.0024009355571664275,1.5513182336453284,149.98640776699028,80.29514563106797,123.93604651162791,54.93217054263566,98.84077669902912,81.35922330097087,124.955078125,106.478515625,149.0,145.0,125.0,121.0,101.0,145.0,125.0,169.0
150,7.5,-0.0053558349609375,-0.2853071689605713,1.8668286800384521,0.01903390884399414,-1.5678260326385498,0.014127016067504883,0.5060252547264099,0.1667708456516266,0.6046372056007385,-3.1115903388213937,-0.0024171064108842377,1.551263598724488,149.97669902912622,80.41747572815534,123.92263056092844,55.0889748549323,98.89341085271317,81.45348837209302,124.93372319688109,106.49122807017544,149.0,145.0,125.0,121.0,101.0,145.0,125.0,169.0
151,7.550000000000001,-0.005318641662597656,-0.2847902774810791,1.866300344467163,0.01905655860900879,-1.567824125289917,0.014204740524291992,0.5063219666481018,0.16678905487060547,0.6047306060791016,-3.111578851487437,-0.0024165652148278602,1.5512231835362706,149.9727626459144,80.46303501945525,123.91136801541425,55.202312138728324,98.89922480620154,81.5,124.9412915851272,106.6399217221135,149.0,145.0,125.0,121.0,101.0,145.0,125.0,169.0
152,7.6000000000000005,-0.005297422409057617,-0.2842729091644287,1.8657581806182861,0.019112110137939453,-1.5678322315216064,0.014284849166870117,0.5066194534301758,0.16679809987545013,0.604830265045166,-3.111547913407305,-0.002405074877303753,1.5511644811389844,149.97669902912622,80.58252427184466,123.90786948176583,55.3531669865643,98.89708737864078,81.56893203883494,124.92475247524753,106.77425742574258,149.0,145.0,125.0,121.0,101.0,145.0,125.0,169.0
153,7.65,-0.0052874088287353516,-0.28375959396362305,1.8652288913726807,0.019171476364135742,-1.567847490310669,0.014360904693603516,0.5069152116775513,0.16680055856704712,0.6049221754074097,-3.111503642323245,-0.0023872805146776333,1.5510987062285526,149.96893203883496,80.62912621359223,123.89941972920697,55.42940038684719,98.83170254403132,81.68493150684931,124.9047619047619,106.85912698412699,149.0,145.0,125.0,121.0,101.0,145.0,125.0,169.0
154,7.7,-0.005257129669189453,-0.2832298278808594,1.864670991897583,0.019260406494140625,-1.5678513050079346,0.014455556869506836,0.5072154402732849,0.1668146848678589,0.6050218343734741,-3.1114422193771762,-0.002379635246568881,1.5510341911234702,150.01167315175098,80.7295719844358,123.89980732177264,55.47784200385357,98.82421875,81.830078125,124.8930693069307,106.95643564356436,149.0,145.0,125.0,121.0,101.0,145.0,125.0,169.0
155,7.75,-0.005213737487792969,-0.2826850414276123,1.8640663623809814,0.019391298294067383,-1.5678436756134033,0.014558792114257812,0.5075214505195618,0.16683675348758698,0.605141282081604,-3.1113704692316837,-0.0023830983299101276,1.550974345301827,149.982421875,80.912109375,123.89382239382239,55.54633204633205,98.88165680473372,81.96449704142012,124.91683168316831,107.0,149.0,145.0,125.0,121.0,101.0,145.0,125.0,169.0
156,7.800000000000001,-0.005179405212402344,-0.28217363357543945,1.8635132312774658,0.019459247589111328,-1.5678303241729736,0.014642477035522461,0.5078142881393433,0.1668548732995987,0.6052495241165161,-3.111344088727191,-0.0023937342227093096,1.5509244693250577,150.01568627450982,80.98039215686275,123.91538461538461,55.62307692307692,98.86470588235294,82.01764705882353,124.9407114624506,107.12648221343873,149.0,145.0,125.0,121.0,101.0,145.0,125.0,169.0
157,7.8500000000000005,-0.005154132843017578,-0.2816507816314697,1.8629329204559326,0.01956629753112793,-1.5678150653839111,0.014721870422363281,0.5081129670143127,0.16686822474002838,0.6053656339645386,-3.111293745861374,-0.0024062367284810736,1.5508700519227225,149.96477495107632,81.03522504892368,123.89382239382239,55.71621621621622,98.91535433070867,82.08464566929133,124.92277227722772,107.18019801980198,149.0,145.0,125.0,121.0,101.0,145.0,125.0,169.0
158,7.9,-0.00513005256652832,-0.2811458110809326,1.8623783588409424,0.01964426040649414,-1.567812204360962,0.014806747436523438,0.5084031820297241,0.16688001155853271,0.6054761409759521,-3.1112647327614944,-0.002405156116306544,1.550808523022696,149.998046875,81.177734375,123.93798449612403,55.89922480620155,98.92941176470588,82.28823529411764,124.95472440944881,107.28937007874016,149.0,145.0,125.0,121.0,101.0,145.0,125.0,169.0
159,7.95,-0.005078554153442383,-0.28063273429870605,1.8618242740631104,0.019711732864379883,-1.5678126811981201,0.014893770217895508,0.5086942315101624,0.1669052690267563,0.6055834293365479,-3.111237655641885,-0.002401823849188859,1.5507732128631775,149.98640776699028,81.29514563106797,123.9298245614035,56.0,98.93968871595331,82.38326848249027,124.97838899803536,107.43811394891945,149.0,145.0,125.0,121.0,101.0,145.0,125.0,169.0
160,8.0,-0.005045652389526367,-0.28013110160827637,1.8612720966339111,0.019790172576904297,-1.567812204360962,0.014973640441894531,0.5089816451072693,0.1669212430715561,0.6056935787200928,-3.111209392057644,-0.0023995136861270448,1.5507263858908866,150.0,81.42607003891051,123.92263056092844,56.0889748549323,98.94931773879142,82.4541910331384,125.0,107.5,149.0,145.0,125.0,121.0,101.0,145.0,125.0,169.0
161,8.05,-0.0050258636474609375,-0.27964138984680176,1.8607513904571533,0.01984119415283203,-1.567809820175171,0.015034914016723633,0.5092645287513733,0.16693060100078583,0.6057918071746826,-3.111189162567493,-0.002399322288091669,1.550684597444973,150.0,81.5,123.9458413926499,56.23791102514507,98.93372319688109,82.49122807017544,125.0,107.5492125984252,149.0,145.0,125.0,121.0,101.0,145.0,125.0,169.0
162,8.1,-0.00500178337097168,-0.27914977073669434,1.8602635860443115,0.01986551284790039,-1.567816972732544,0.01509237289428711,0.5095471143722534,0.16694125533103943,0.6058691740036011,-3.1111607189508232,-0.0023904541032148427,1.5506512216597095,149.9785575048733,81.56140350877193,123.97678916827853,56.37330754352031,98.9785575048733,82.56140350877193,124.96837944664031,107.72529644268775,149.0,145.0,125.0,121.0,101.0,145.0,125.0,169.0
163,8.15,-0.004981517791748047,-0.2786574363708496,1.8597548007965088,0.01992201805114746,-1.5678389072418213,0.015162229537963867,0.5098294615745544,0.16694855690002441,0.6059565544128418,-3.1111203502620435,-0.0023653339053073767,1.5506025527131087,150.00389863547758,81.59844054580897,123.89941972920697,56.42940038684719,98.962890625,82.65234375,124.98015873015873,107.8015873015873,149.0,145.0,125.0,121.0,101.0,145.0,125.0,169.0
164,8.200000000000001,-0.0049648284912109375,-0.27816224098205566,1.8592264652252197,0.020003080368041992,-1.5678598880767822,0.015236616134643555,0.5101133584976196,0.16695407032966614,0.6060534119606018,-3.1110720625094253,-0.0023417411578462843,1.5505452883237176,149.96484375,81.6953125,123.91119691119691,56.5,98.94685039370079,82.83070866141732,125.0,107.90059642147118,149.0,145.0,125.0,121.0,101.0,145.0,125.0,169.0
165,8.25,-0.004930973052978516,-0.27766895294189453,1.8586857318878174,0.02008676528930664,-1.5678670406341553,0.01532125473022461,0.5103949904441833,0.16697004437446594,0.6061598658561707,-3.111036094966753,-0.002331672936448864,1.550494848039352,149.95098039215685,81.88039215686274,123.89941972920697,56.57059961315281,98.92337917485266,82.93909626719056,124.92644135188867,107.95825049701789,149.0,145.0,125.0,121.0,101.0,145.0,125.0,169.0
166,8.3,-0.004894733428955078,-0.27718544006347656,1.8581645488739014,0.020151615142822266,-1.5678589344024658,0.015404701232910156,0.510671079158783,0.16698862612247467,0.6062586903572083,-3.1110081284144804,-0.0023367258659023594,1.550447421014147,149.99803536345777,81.96267190569745,123.9325626204239,56.605009633911365,98.9585798816568,83.02564102564102,124.97619047619048,108.09126984126983,149.0,145.0,125.0,121.0,101.0,145.0,125.0,169.0
167,8.35,-0.004869937896728516,-0.27669668197631836,1.8576033115386963,0.020258665084838867,-1.567847490310669,0.01547861099243164,0.5109516978263855,0.16700173914432526,0.6063777804374695,-3.1109732188120534,-0.002345221321094536,1.5503977085136198,149.98431372549018,82.01960784313725,123.9458413926499,56.76208897485493,98.95874263261297,83.06483300589392,125.0,108.09940357852882,149.0,145.0,125.0,121.0,101.0,145.0,125.0,169.0
168,8.4,-0.004838228225708008,-0.2762131690979004,1.8570983409881592,0.02030801773071289,-1.5678513050079346,0.015546083450317383,0.5112285017967224,0.16701674461364746,0.606467068195343,-3.1109442168756822,-0.0023389955948357162,1.5503623121348864,149.98821218074656,82.1139489194499,123.99029126213593,56.88155339805825,98.97642436149313,83.18664047151277,124.98015873015873,108.1984126984127,149.0,145.0,125.0,121.0,101.0,145.0,125.0,169.0
169,8.450000000000001,-0.0047893524169921875,-0.2757227420806885,1.8565828800201416,0.020363807678222656,-1.5678584575653076,0.015622854232788086,0.5115064978599548,0.16704031825065613,0.6065599322319031,-3.110913444201003,-0.0023287908773915486,1.5503343410368942,149.97651663405088,82.23287671232876,123.9298245614035,57.0,98.95490196078431,83.33921568627451,125.00396825396825,108.31150793650794,149.0,145.0,125.0,121.0,101.0,145.0,125.0,169.0
170,8.5,-0.0047457218170166016,-0.27524304389953613,1.8560774326324463,0.0204160213470459,-1.5678598880767822,0.015697956085205078,0.5117796063423157,0.16706186532974243,0.6066509485244751,-3.110886389936148,-0.002324669479114129,1.550302896290279,149.986301369863,82.35616438356165,124.0,57.09533073929961,98.9785575048733,83.43859649122807,125.0138067061144,108.42998027613412,149.0,145.0,125.0,121.0,101.0,145.0,125.0,169.0
171,8.55,-0.004698991775512695,-0.2747609615325928,1.8555638790130615,0.020475387573242188,-1.5678598880767822,0.015769004821777344,0.5120533108711243,0.16708506643772125,0.6067458391189575,-3.110858421159067,-0.002322154492774595,1.5502787867677075,150.0,82.451171875,123.96317829457364,57.25581395348837,99.0,83.5,125.0,108.5,149.0,145.0,125.0,121.0,101.0,145.0,125.0,169.0
172,8.6,-0.004658937454223633,-0.27428674697875977,1.8550832271575928,0.020511388778686523,-1.5678751468658447,0.01583552360534668,0.5123233795166016,0.16710326075553894,0.6068246960639954,-3.110828594768914,-0.002304086130748308,1.5502525860322904,150.0,82.5,123.97678916827853,57.37330754352031,99.02734375,83.537109375,125.0138067061144,108.57001972386588,149.0,145.0,125.0,121.0,101.0,145.0,125.0,169.0
173,8.65,-0.004622220993041992,-0.27381467819213867,1.8546168804168701,0.02053689956665039,-1.5679032802581787,0.0158994197845459,0.5125926733016968,0.16711854934692383,0.6068957448005676,-3.110797109625287,-0.002273352880052694,1.5502264259091207,149.9785575048733,82.56140350877193,123.97669902912621,57.41747572815534,99.02152641878669,83.6105675146771,125.00594059405941,108.66534653465347,149.0,145.0,125.0,121.0,101.0,145.0,125.0,169.0
174,8.700000000000001,-0.0045871734619140625,-0.2733433246612549,1.8541357517242432,0.02057933807373047,-1.5679266452789307,0.01596832275390625,0.5128613114356995,0.16713331639766693,0.6069754362106323,-3.1107642257439903,-0.0022473523830698634,1.5501930417365435,150.013698630137,82.64383561643835,123.93992248062015,57.46705426356589,99.02554027504911,83.76817288801571,125.04174950298211,108.7892644135189,149.0,145.0,125.0,121.0,101.0,145.0,125.0,169.0
175,8.75,-0.004552125930786133,-0.27286839485168457,1.8536159992218018,0.020660400390625,-1.5679419040679932,0.016039609909057617,0.5131321549415588,0.1671491414308548,0.6070752143859863,-3.110728077223119,-0.0022290708052300425,1.550157426881047,149.96470588235294,82.74509803921569,123.97864077669902,57.56116504854369,99.04339250493096,83.85404339250493,125.03393213572855,108.86626746506985,149.0,145.0,125.0,121.0,101.0,145.0,125.0,169.0
176,8.8,-0.0045130252838134766,-0.2724034786224365,1.8531157970428467,0.02071833610534668,-1.5679576396942139,0.016112089157104492,0.5133976936340332,0.16716699302196503,0.6071692109107971,-3.110705158422626,-0.002210805435044667,1.5501244606905271,149.98818897637796,82.87795275590551,123.96511627906976,57.604651162790695,99.0414201183432,83.97435897435898,125.06573705179282,108.93426294820718,149.0,145.0,125.0,121.0,101.0,145.0,125.0,169.0
177,8.85,-0.004479169845581055,-0.2719447612762451,1.8526179790496826,0.020771503448486328,-1.5679609775543213,0.016172170639038086,0.5136616230010986,0.1671832799911499,0.6072654724121094,-3.110691236265263,-0.0022055431878367517,1.5500983619057795,149.98228346456693,82.98228346456693,124.0,57.684108527131784,99.09881422924902,84.0197628458498,125.07355864811133,109.04174950298211,149.0,145.0,125.0,121.0,101.0,145.0,125.0,169.0
178,8.9,-0.004461526870727539,-0.271498441696167,1.8521311283111572,0.020818233489990234,-1.5679714679718018,0.016221284866333008,0.5139217376708984,0.16719035804271698,0.6073609590530396,-3.1106849994840666,-0.0021933534948060983,1.5500670837976331,150.01771653543307,83.01771653543307,123.9727626459144,57.86381322957198,99.08316831683169,84.11881188118812,125.054,109.096,149.0,145.0,125.0,121.0,101.0,145.0,125.0,169.0
179,8.950000000000001,-0.004421234130859375,-0.27103567123413086,1.8516438007354736,0.02086782455444336,-1.5679972171783447,0.016285181045532227,0.5141856670379639,0.16720792651176453,0.6074478030204773,-3.1106601706055472,-0.0021652704598436844,1.5500443057435715,149.9407114624506,83.12648221343873,123.98046875,57.9453125,99.04150197628458,84.199604743083,125.062,109.168,149.0,145.0,125.0,121.0,101.0,145.0,125.0,169.0
180,9.0,-0.004384040832519531,-0.2705872058868408,1.8511903285980225,0.02088618278503418,-1.5680105686187744,0.016345977783203125,0.5144429802894592,0.16722506284713745,0.6075222492218018,-3.110646304311123,-0.002149425082304035,1.5500208631697496,149.9901768172888,83.2180746561886,123.98046875,58.0546875,99.04518664047151,84.34577603143418,125.04174950298211,109.2107355864811,149.0,145.0,125.0,121.0,101.0,145.0,125.0,169.0
181,9.05,-0.004322052001953125,-0.2701268196105957,1.8507249355316162,0.020906448364257812,-1.568025827407837,0.016415119171142578,0.5147031545639038,0.16725485026836395,0.6075980067253113,-3.1106303049096944,-0.0021319361292375673,1.5500141659018782,149.986301369863,83.35616438356165,124.00974658869396,58.15399610136452,99.0293542074364,84.44227005870842,125.00994035785288,109.33598409542743,149.0,145.0,125.0,121.0,101.0,145.0,125.0,169.0
182,9.1,-0.004260063171386719,-0.2696654796600342,1.8502566814422607,0.02093672752380371,-1.5680339336395264,0.016484975814819336,0.5149632096290588,0.16728541254997253,0.6076744794845581,-3.1106069749235536,-0.002121127132639205,1.5500068076989544,150.0,83.451171875,123.96303501945525,58.30350194552529,99.044921875,84.521484375,125.0138067061144,109.42998027613412,149.0,145.0,125.0,121.0,101.0,145.0,125.0,169.0
183,9.15,-0.00420832633972168,-0.2692115306854248,1.8498079776763916,0.020957231521606445,-1.5680530071258545,0.016550302505493164,0.5152198672294617,0.16730955243110657,0.6077421307563782,-3.1105807323564676,-0.0020995943687954046,1.5499938057804936,150.0,83.5,123.97669902912621,58.41747572815534,99.05068226120858,84.5458089668616,125.0138067061144,109.57001972386588,149.0,145.0,125.0,121.0,101.0,145.0,125.0,169.0
184,9.200000000000001,-0.004168510437011719,-0.2687544822692871,1.8493492603302002,0.021003007888793945,-1.568080186843872,0.016616344451904297,0.5154786705970764,0.16732673346996307,0.6078126430511475,-3.1105370766963913,-0.002069399845236034,1.5499683269350608,150.0,83.5,124.0,58.4260700389105,99.06470588235294,84.6156862745098,125.03373015873017,109.63492063492063,149.0,145.0,125.0,121.0,101.0,145.0,125.0,169.0
185,9.25,-0.004120349884033203,-0.26828932762145996,1.8488571643829346,0.021074771881103516,-1.5681068897247314,0.016690969467163086,0.5157411098480225,0.16734826564788818,0.607898473739624,-3.1104919007472165,-0.00204000889327722,1.54994252787034,149.9921568627451,83.6313725490196,124.0,58.5,99.08678500986193,84.77120315581854,125.07185628742515,109.77245508982035,149.0,145.0,125.0,121.0,101.0,145.0,125.0,169.0
186,9.3,-0.004077434539794922,-0.2678341865539551,1.8483564853668213,0.02115464210510254,-1.5681264400482178,0.016761064529418945,0.5159995555877686,0.16736792027950287,0.6079941987991333,-3.1104573741418338,-0.002017854306520896,1.5499159744150397,150.0,83.71456692913385,124.0,58.5739299610895,99.11729622266401,84.8469184890656,125.10557768924303,109.82470119521912,149.0,145.0,125.0,121.0,101.0,145.0,125.0,169.0
187,9.35,-0.004039287567138672,-0.26738691329956055,1.8478710651397705,0.02121710777282715,-1.5681493282318115,0.016821861267089844,0.5162550806999207,0.16738475859165192,0.6080858111381531,-3.110433457691419,-0.001992628863796792,1.5498941547864353,150.0197628458498,83.84584980237155,124.02713178294573,58.651162790697676,99.1304347826087,84.91106719367589,125.1,109.9,149.0,145.0,125.0,121.0,101.0,145.0,125.0,169.0
188,9.4,-0.004008054733276367,-0.26694345474243164,1.8473970890045166,0.0212709903717041,-1.5681698322296143,0.01687145233154297,0.5165097713470459,0.16739818453788757,0.6081719994544983,-3.110410230731674,-0.0019700096644994156,1.5498762925460787,149.96831683168318,83.93267326732673,124.0233918128655,58.71734892787524,99.11834319526628,85.03550295857988,125.0878243512974,109.92215568862275,149.0,145.0,125.0,121.0,101.0,145.0,125.0,169.0
189,9.450000000000001,-0.003960132598876953,-0.2665083408355713,1.846942663192749,0.02129387855529785,-1.5681836605072021,0.01692819595336914,0.5167587995529175,0.16742099821567535,0.6082524061203003,-3.1104064467399417,-0.0019546694836067345,1.5498678929205778,150.0,84.0,124.0,58.894324853228966,99.14851485148515,85.07128712871287,125.096,110.054,149.0,145.0,125.0,121.0,101.0,145.0,125.0,169.0
190,9.5,-0.003928184509277344,-0.26607322692871094,1.846496820449829,0.021326780319213867,-1.5682175159454346,0.016980648040771484,0.5170086622238159,0.16743354499340057,0.6083263754844666,-3.1103849962957826,-0.0019185705480951264,1.5498483721522562,149.9683794466403,84.08695652173913,124.0,58.96086105675147,99.13545816733068,85.13545816733068,125.1,110.1,149.0,145.0,125.0,121.0,101.0,145.0,125.0,169.0
191,9.55,-0.003898143768310547,-0.26564621925354004,1.8460719585418701,0.021338462829589844,-1.568246603012085,0.017029285430908203,0.5172545313835144,0.16744551062583923,0.6083917021751404,-3.110370807663827,-0.0018876150689465974,1.5498306749933486,149.96435643564357,84.13465346534653,124.0,59.03913894324853,99.12871287128714,85.24554455445545,125.1,110.166,149.0,145.0,125.0,121.0,101.0,145.0,125.0,169.0
192,9.600000000000001,-0.003854036331176758,-0.2652134895324707,1.8456342220306396,0.021358728408813477,-1.568274736404419,0.017087697982788086,0.5175012946128845,0.167464941740036,0.6084622144699097,-3.1103558660699466,-0.0018570819072428603,1.5498169842658385,149.99013806706114,84.26232741617358,124.0,59.130859375,99.15686274509804,85.33725490196079,125.088,110.208,149.0,145.0,125.0,121.0,101.0,145.0,125.0,169.0
193,9.65,-0.0038084983825683594,-0.264786958694458,1.8452165126800537,0.021355867385864258,-1.5683062076568604,0.01713871955871582,0.517745852470398,0.16748486459255219,0.6085245609283447,-3.110350123688156,-0.0018244127362674032,1.549812540429462,149.98624754420433,84.3811394891945,124.0233918128655,59.28265107212476,99.10371819960861,85.48140900195695,125.05389221556887,110.31337325349301,149.0,145.0,125.0,121.0,101.0,145.0,125.0,169.0
194,9.700000000000001,-0.003742694854736328,-0.26434922218322754,1.844794511795044,0.021359682083129883,-1.5683305263519287,0.017201662063598633,0.517991840839386,0.16751617193222046,0.6085831522941589,-3.1103304894342965,-0.001797267504636392,1.5498163954229225,150.0,84.5,124.00778210116732,59.37937743190661,99.10609037328095,85.50098231827111,125.04752475247524,110.4,149.0,145.0,125.0,121.0,101.0,145.0,125.0,169.0
195,9.75,-0.003698110580444336,-0.2639191150665283,1.8443939685821533,0.021355152130126953,-1.5683567523956299,0.01725006103515625,0.5182359218597412,0.16753597557544708,0.6086316108703613,-3.110305694691168,-0.0017691475086744628,1.5498131629400458,150.0,84.5,124.0214424951267,59.43859649122807,99.11198428290766,85.61296660117878,125.05148514851486,110.55643564356436,149.0,145.0,125.0,121.0,101.0,145.0,125.0,169.0
196,9.8,-0.0036437511444091797,-0.2634756565093994,1.8439362049102783,0.02140951156616211,-1.5683844089508057,0.017318248748779297,0.5184853076934814,0.1675609052181244,0.6087064146995544,-3.11026585921896,-0.0017386686948269935,1.54980067632729,150.00392927308448,84.524557956778,123.99412915851272,59.47553816046967,99.12204724409449,85.68503937007874,125.05765407554672,110.64214711729622,149.0,145.0,125.0,121.0,101.0,145.0,125.0,169.0
197,9.850000000000001,-0.0035910606384277344,-0.2630305290222168,1.8434536457061768,0.021489620208740234,-1.5684130191802979,0.017392635345458984,0.5187354683876038,0.16758503019809723,0.6087936162948608,-3.1102231414329475,-0.0017073881100228715,1.5497797314575903,149.97838899803537,84.65225933202358,124.0214424951267,59.56140350877193,99.12698412698413,85.8234126984127,125.088,110.792,149.0,145.0,125.0,121.0,101.0,145.0,125.0,169.0
198,9.9,-0.0035424232482910156,-0.2625925540924072,1.8429648876190186,0.021578311920166016,-1.5684335231781006,0.01746368408203125,0.5189831256866455,0.1676078885793686,0.6088882088661194,-3.1101853272914033,-0.0016838797307718232,1.5497577687365438,149.97821782178218,84.74851485148515,124.04474708171206,59.570038910505836,99.1530815109344,85.88270377733599,125.11177644710578,110.8003992015968,149.0,145.0,125.0,121.0,101.0,145.0,125.0,169.0
199,9.950000000000001,-0.0034966468811035156,-0.2621638774871826,1.8424932956695557,0.021641016006469727,-1.5684483051300049,0.017522335052490234,0.5192273855209351,0.16762962937355042,0.6089780330657959,-3.1101655245724635,-0.0016667877133545853,1.549745127456832,150.015873015873,84.88095238095238,124.03696498054475,59.69649805447471,99.18290258449304,85.91848906560637,125.12375249500998,110.84231536926147,149.0,145.0,125.0,121.0,101.0,145.0,125.0,169.0
200,10.0,-0.003465414047241211,-0.26174473762512207,1.8420641422271729,0.021667957305908203,-1.568472146987915,0.01756143569946289,0.5194685459136963,0.16764295101165771,0.6090484857559204,-3.1101486195548413,-0.0016415531921331213,1.5497382407264755,149.96831683168318,84.93267326732673,124.03137254901961,59.83725490196078,99.17063492063492,86.05952380952381,125.12224448897796,110.91182364729458,149.0,145.0,125.0,121.0,101.0,145.0,125.0,169.0
201,10.05,-0.003412485122680664,-0.2613255977630615,1.8416416645050049,0.0216827392578125,-1.5684998035430908,0.017616987228393555,0.5197068452835083,0.16766726970672607,0.6091152429580688,-3.1101372390355437,-0.0016117151060331082,1.5497366849334993,149.9345238095238,85.01785714285714,124.07662082514734,59.93909626719057,99.18290258449304,86.08151093439363,125.1182364729459,110.95791583166333,149.0,145.0,125.0,121.0,101.0,145.0,125.0,169.0
202,10.100000000000001,-0.003362894058227539,-0.26091456413269043,1.841254472732544,0.021663904190063477,-1.5685322284698486,0.017665624618530273,0.5199414491653442,0.16768920421600342,0.6091651916503906,-3.1101322999989476,-0.0015774739024084726,1.5497386028355498,150.0,85.09940357852882,124.02362204724409,59.99212598425197,99.15768463073853,86.12375249500998,125.13052208835342,111.06425702811245,149.0,145.0,125.0,121.0,101.0,145.0,125.0,169.0
203,10.15,-0.003331899642944336,-0.2604966163635254,1.840843915939331,0.021683216094970703,-1.5685598850250244,0.017705917358398438,0.5201811194419861,0.16770204901695251,0.6092239022254944,-3.1101061764601905,-0.0015482107072823264,1.549730080155066,149.96435643564357,85.13465346534653,124.07662082514734,60.06090373280943,99.22772277227723,86.20990099009902,125.1,111.1,149.0,145.0,125.0,121.0,101.0,145.0,125.0,169.0
204,10.200000000000001,-0.0032835006713867188,-0.2600834369659424,1.8404381275177002,0.021684885025024414,-1.568598985671997,0.017756938934326172,0.5204166769981384,0.1677228808403015,0.6092833876609802,-3.1100974524607814,-0.0015074891114015747,1.5497284818856591,149.98019801980197,85.22376237623763,124.06078431372549,60.17058823529412,99.22376237623763,86.3069306930693,125.1,111.166,149.0,145.0,125.0,121.0,101.0,145.0,125.0,169.0
205,10.25,-0.003230571746826172,-0.25966882705688477,1.8400375843048096,0.0216827392578125,-1.5686399936676025,0.017808198928833008,0.5206524133682251,0.16774599254131317,0.6093391180038452,-3.110086033333566,-0.0014647444127068971,1.549731294958094,149.98624754420433,85.3811394891945,124.0233918128655,60.28265107212476,99.18503937007874,86.41732283464567,125.12474849094568,111.22132796780684,149.0,145.0,125.0,121.0,101.0,145.0,125.0,169.0
206,10.3,-0.0031843185424804688,-0.2592620849609375,1.8396685123443604,0.021653413772583008,-1.5686709880828857,0.01784658432006836,0.5208843946456909,0.16776645183563232,0.6093802452087402,-3.1100775714883304,-0.0014324307694869322,1.549740584644978,149.98228346456693,85.45472440944881,124.017578125,60.4140625,99.19056974459725,86.47937131630648,125.09418837675351,111.3006012024048,149.0,145.0,125.0,121.0,101.0,145.0,125.0,169.0
207,10.350000000000001,-0.0031359195709228516,-0.25885510444641113,1.8393094539642334,0.02162003517150879,-1.5687100887298584,0.017889738082885742,0.5211159586906433,0.16778729856014252,0.6094150543212891,-3.1100638132372724,-0.0013914057031396126,1.5497469111903186,150.0,85.5,124.0214424951267,60.43859649122807,99.19449901768174,86.56385068762279,125.10978043912175,111.437125748503,149.0,145.0,125.0,121.0,101.0,145.0,125.0,169.0
208,10.4,-0.003092050552368164,-0.2584421634674072,1.8389079570770264,0.021632909774780273,-1.5687439441680908,0.01793670654296875,0.5213509202003479,0.16780632734298706,0.6094699501991272,-3.1100399953150166,-0.00135572735790158,1.549744796938938,150.00392927308448,85.524557956778,124.0,60.5,99.16071428571429,86.6984126984127,125.09163346613546,111.5398406374502,149.0,145.0,125.0,121.0,101.0,145.0,125.0,169.0
209,10.450000000000001,-0.0030307769775390625,-0.25801539421081543,1.8384630680084229,0.02168750762939453,-1.568772554397583,0.01800370216369629,0.5215897560119629,0.16783523559570312,0.6095430850982666,-3.110003721093536,-0.001324584893725386,1.5497402965887337,149.9940828402367,85.61538461538461,124.02734375,60.537109375,99.17063492063492,86.74603174603175,125.144,111.67,149.0,145.0,125.0,121.0,101.0,145.0,125.0,169.0
210,10.5,-0.0029900074005126953,-0.257596492767334,1.8380143642425537,0.021752357482910156,-1.5687949657440186,0.018056869506835938,0.5218276381492615,0.1678539216518402,0.6096213459968567,-3.109968193307252,-0.0012997348178453924,1.5497281864600507,149.97821782178218,85.74851485148515,124.04873294346979,60.59454191033139,99.1996007984032,86.88822355289422,125.13026052104209,111.76953907815631,149.0,145.0,125.0,121.0,101.0,145.0,125.0,169.0
211,10.55,-0.0029451847076416016,-0.2571854591369629,1.837561845779419,0.021816492080688477,-1.5688111782073975,0.018110990524291992,0.5220615863800049,0.16787540912628174,0.609706461429596,-3.109945667977729,-0.0012813199354495001,1.5497196234704693,149.9662027833002,85.82703777335985,124.0703125,60.662109375,99.22664015904573,86.92842942345925,125.13,111.818,149.0,145.0,125.0,121.0,101.0,145.0,125.0,169.0
212,10.600000000000001,-0.0029048919677734375,-0.25678181648254395,1.8371269702911377,0.02186274528503418,-1.568831205368042,0.01815938949584961,0.5222929120063782,0.16789406538009644,0.6097849011421204,-3.1099304425514718,-0.0012596170245791688,1.5497118344436605,150.0,85.90059642147118,124.05304518664047,60.80550098231827,99.22619047619048,86.97817460317461,125.146,111.854,149.0,145.0,125.0,121.0,101.0,145.0,125.0,169.0
213,10.65,-0.002864360809326172,-0.2563753128051758,1.836714506149292,0.02189159393310547,-1.5688607692718506,0.018201828002929688,0.5225247740745544,0.16791179776191711,0.6098489761352539,-3.1099083985811644,-0.0012279752048654907,1.549710644149463,149.9442231075697,85.97609561752988,124.07662082514734,60.93909626719057,99.20717131474103,87.08764940239044,125.13052208835342,111.93574297188755,149.0,145.0,125.0,121.0,101.0,145.0,125.0,169.0
214,10.700000000000001,-0.002810239791870117,-0.2559702396392822,1.8363144397735596,0.02190685272216797,-1.5688908100128174,0.018254995346069336,0.5227540731430054,0.1679368019104004,0.6099062561988831,-3.1098884786413996,-0.001195596568939173,1.5497127687815333,149.96613545816734,86.04980079681275,124.08086785009861,60.96252465483235,99.1996007984032,87.11177644710578,125.14285714285714,111.95774647887323,149.0,145.0,125.0,121.0,101.0,145.0,125.0,169.0
215,10.75,-0.0027627944946289062,-0.2555656433105469,1.8359224796295166,0.02191472053527832,-1.5689165592193604,0.018297910690307617,0.5229840874671936,0.1679588258266449,0.6099594235420227,-3.1098681903268557,-0.0011686713111828157,1.549718657617705,149.9760956175299,86.09163346613546,124.10039370078741,61.053149606299215,99.25396825396825,87.15873015873017,125.13052208835342,112.06425702811245,149.0,145.0,125.0,121.0,101.0,145.0,125.0,169.0
216,10.8,-0.002718687057495117,-0.2551610469818115,1.8355200290679932,0.02193617820739746,-1.5689547061920166,0.018343687057495117,0.5232141017913818,0.16797780990600586,0.6100179553031921,-3.1098444183649647,-0.0011286115106732004,1.5497176231611718,149.96421471172962,86.17892644135189,124.10848126232742,61.07692307692308,99.25,87.1984126984127,125.14658634538152,112.09437751004016,149.0,145.0,125.0,121.0,101.0,145.0,125.0,169.0
217,10.850000000000001,-0.002682209014892578,-0.2547638416290283,1.8351356983184814,0.021939516067504883,-1.5689857006072998,0.01837921142578125,0.5234418511390686,0.1679932326078415,0.6100703477859497,-3.1098291907056153,-0.001095764873860866,1.5497196890659977,149.98011928429423,86.24850894632206,124.08678500986193,61.22879684418146,99.24603174603175,87.29563492063492,125.17034068136273,112.15230460921843,149.0,145.0,125.0,121.0,101.0,145.0,125.0,169.0
218,10.9,-0.002638578414916992,-0.2543642520904541,1.8347618579864502,0.021932363510131836,-1.5690248012542725,0.01841592788696289,0.5236696004867554,0.1680118888616562,0.6101142764091492,-3.1098100838294287,-0.0010553957617379045,1.5497277719335796,149.9783037475345,86.38067061143984,124.0703125,61.337890625,99.23960396039604,87.39603960396039,125.13052208835342,112.19678714859438,149.0,145.0,125.0,121.0,101.0,145.0,125.0,169.0
219,10.950000000000001,-0.0025899410247802734,-0.2539689540863037,1.8344104290008545,0.02190399169921875,-1.5690619945526123,0.01845264434814453,0.5238942503929138,0.1680334210395813,0.6101482510566711,-3.109795603551885,-0.0010165072455525508,1.5497412713916143,149.9861932938856,86.42998027613412,124.0214424951267,61.43859649122807,99.21936758893281,87.50197628458498,125.13453815261045,112.24497991967871,149.0,145.0,125.0,121.0,101.0,145.0,125.0,169.0
220,11.0,-0.0025320053100585938,-0.2535696029663086,1.8340542316436768,0.021880388259887695,-1.5691001415252686,0.018496990203857422,0.5241195559501648,0.1680595427751541,0.6101827025413513,-3.109776466117847,-0.0009765746388523014,1.5497560244813295,150.0,86.5,124.02734375,61.462890625,99.2411067193676,87.5909090909091,125.14688128772636,112.38229376257546,149.0,145.0,125.0,121.0,101.0,145.0,125.0,169.0
221,11.05,-0.0024819374084472656,-0.2531704902648926,1.8336670398712158,0.02189016342163086,-1.5691344738006592,0.01854109764099121,0.5243456363677979,0.16808216273784637,0.6102343797683716,-3.1097547044214306,-0.000940572716733311,1.5497630833929235,150.0,86.5492125984252,124.02734375,61.537109375,99.25346534653465,87.6891089108911,125.12625250501002,112.47695390781563,149.0,145.0,125.0,121.0,101.0,145.0,125.0,169.0
222,11.100000000000001,-0.0024237632751464844,-0.25276780128479004,1.8332607746124268,0.02191901206970215,-1.5691711902618408,0.01859569549560547,0.5245723724365234,0.16810867190361023,0.6102952361106873,-3.109730004671066,-0.0009017605110636575,1.549767895614456,149.9980198019802,86.61584158415842,124.04474708171206,61.570038910505836,99.23459244532803,87.76540755467197,125.16432865731463,112.65531062124248,149.0,145.0,125.0,121.0,101.0,145.0,125.0,169.0
223,11.15,-0.00238037109375,-0.2523622512817383,1.8328182697296143,0.021993160247802734,-1.5691978931427002,0.01864767074584961,0.5248021483421326,0.1681286245584488,0.6103737950325012,-3.1096930407544487,-0.0008729247056910915,1.5497598907286845,149.9781746031746,86.77380952380952,124.0587084148728,61.639921722113506,99.24750499001996,87.88423153692615,125.15430861723446,112.72545090180361,149.0,145.0,125.0,121.0,101.0,145.0,125.0,169.0
224,11.200000000000001,-0.0023381710052490234,-0.2519683837890625,1.8323957920074463,0.022044897079467773,-1.5692169666290283,0.018693208694458008,0.5250263214111328,0.16814856231212616,0.6104477643966675,-3.1096701922118823,-0.0008515561767711491,1.5497574022370724,149.99401197604791,86.82435129740519,124.12426035502959,61.75739644970414,99.25099601593625,87.93426294820718,125.17670682730923,112.82329317269077,149.0,145.0,125.0,121.0,101.0,145.0,125.0,169.0
225,11.25,-0.0022928714752197266,-0.25156569480895996,1.8319685459136963,0.022104740142822266,-1.569242238998413,0.01873779296875,0.5252544283866882,0.16816961765289307,0.6105194091796875,-3.1096348452211613,-0.0008244167693756873,1.5497586934881524,149.942,86.874,124.10515873015873,61.86904761904762,99.27490039840637,87.9780876494024,125.17670682730923,112.82329317269077,149.0,145.0,125.0,121.0,101.0,145.0,125.0,169.0
226,11.3,-0.002244710922241211,-0.251176118850708,1.8315832614898682,0.02212071418762207,-1.5692780017852783,0.018782854080200195,0.5254759192466736,0.16819119453430176,0.6105740666389465,-3.1096157189018108,-0.000786986796077818,1.5497630764121963,149.9680638722555,86.96806387225548,124.10039370078741,61.946850393700785,99.2874251497006,88.0,125.16633266533066,112.88977955911824,149.0,145.0,125.0,121.0,101.0,145.0,125.0,169.0
