AI-SPARC/uncalibrated-visual-servoing/results/data/4_feat_mckf.csv
,t,q_1,q_2,q_3,q_4,q_5,q_6,camera_x,camera_y,camera_z,camera_roll,camera_pitch,camera_yaw,f_1,f_2,f_3,f_4,f_5,f_6,f_7,f_8,desired_f_1,desired_f_2,desired_f_3,desired_f_4,desired_f_5,desired_f_6,desired_f_7,desired_f_8
0,0.0,8.58306884765625e-06,0.00015425682067871094,1.570796251296997,0.0001308917999267578,-1.5707952976226807,1.1920928955078125e-06,0.6808194518089294,0.16908100247383118,0.6382140517234802,-3.1409236307315758,0.000142941057518954,1.5708374245447392,149.61725663716814,145.28982300884957,125.56984478935698,121.2350332594235,101.5,145.27631578947367,125.59823399558499,169.33112582781456,125.0,121.0,101.0,145.0,125.0,169.0,149.0,145.0
1,0.05,0.0019297599792480469,0.003885984420776367,1.54945969581604,0.016824722290039062,-1.5728623867034912,0.017940759658813477,0.682716429233551,0.17032656073570251,0.648418128490448,3.141274024544843,0.0021992640208138383,1.5548193848070821,149.51818181818183,145.45,125.48519362186788,122.14578587699317,102.15437788018433,146.1267281105991,126.28473804100227,169.49202733485194,125.0,121.0,101.0,145.0,125.0,169.0,149.0,145.0
2,0.1,0.0038008689880371094,0.007851362228393555,1.5278427600860596,0.03353261947631836,-1.5749566555023193,0.036054134368896484,0.6845894455909729,0.17154601216316223,0.6586232781410217,3.1401965209552642,0.0042499076223498616,1.5385729695936006,149.44626168224298,145.55373831775702,125.30188679245283,123.0,102.87822014051523,147.04918032786884,126.93364928909952,169.73222748815166,125.0,121.0,101.0,145.0,125.0,169.0,149.0,145.0
3,0.15000000000000002,0.005704164505004883,0.012139320373535156,1.5059568881988525,0.0502324104309082,-1.5771725177764893,0.05443572998046875,0.686489999294281,0.17278724908828735,0.6687540411949158,3.1391047807901327,0.006388599042813905,1.5220855887108562,149.32682926829267,145.73658536585367,125.39467312348668,123.94915254237289,103.48655256723717,147.9755501222494,127.55365853658536,169.82926829268294,125.0,121.0,101.0,145.0,125.0,169.0,149.0,145.0
4,0.2,0.007439374923706055,0.016811609268188477,1.4836838245391846,0.06707286834716797,-1.5793249607086182,0.07289361953735352,0.6884647011756897,0.17392857372760773,0.6788444519042969,3.1380789652597176,0.008434124650067282,1.5053502844023245,149.32493702770782,145.83123425692696,125.27959697732997,124.75062972292191,104.17955112219451,148.785536159601,128.24,169.8325,125.0,121.0,101.0,145.0,125.0,169.0,149.0,145.0
5,0.25,0.009048700332641602,0.021669626235961914,1.4612467288970947,0.08386969566345215,-1.581451654434204,0.09144353866577148,0.6904008984565735,0.17499332129955292,0.6888968348503113,3.136954968221395,0.010414630038109421,1.4883928707012624,149.2098445595855,145.9455958549223,125.24093264248705,125.57772020725389,104.6426735218509,149.60668380462724,128.78092783505156,170.0,125.0,121.0,101.0,145.0,125.0,169.0,149.0,145.0
6,0.30000000000000004,0.010503768920898438,0.026843786239624023,1.4385063648223877,0.10074615478515625,-1.5835249423980713,0.1100168228149414,0.6923723816871643,0.17596489191055298,0.6988953351974487,3.1358548419044134,0.012312793959930261,1.4712546601353529,149.0,146.0,125.06738544474393,126.38814016172506,105.36649214659685,150.5,129.40106951871658,170.1524064171123,125.0,121.0,101.0,145.0,125.0,169.0,149.0,145.0
7,0.35000000000000003,0.012023210525512695,0.03238177299499512,1.415583848953247,0.11754822731018066,-1.5857651233673096,0.12892365455627441,0.694382905960083,0.1769755482673645,0.7087357640266418,3.1347641462905464,0.01435076220009105,1.4538441646424904,148.94765840220387,146.13223140495867,124.98076923076923,127.18131868131869,105.98092643051771,151.26975476839237,130.02191780821917,170.2082191780822,125.0,121.0,101.0,145.0,125.0,169.0,149.0,145.0
8,0.4,0.013431549072265625,0.03808999061584473,1.3925468921661377,0.13428759574890137,-1.5879933834075928,0.1479177474975586,0.6963506937026978,0.17791737616062164,0.7185018062591553,3.133586523608053,0.016337687077027114,1.436231918921648,148.88983050847457,146.2316384180791,124.91501416430594,128.0,106.58448753462604,152.01385041551248,130.6402266288952,170.1444759206799,125.0,121.0,101.0,145.0,125.0,169.0,149.0,145.0
9,0.45,0.014628887176513672,0.0438997745513916,1.369471788406372,0.15092945098876953,-1.5901262760162354,0.16690397262573242,0.6982554793357849,0.1787252426147461,0.7281894683837891,3.132313059340707,0.01818331050042768,1.418411485159479,148.7406340057637,146.2593659942363,124.82369942196532,128.77456647398844,107.09770114942529,152.83620689655172,131.17816091954023,170.35919540229884,125.0,121.0,101.0,145.0,125.0,169.0,149.0,145.0
10,0.5,0.015738248825073242,0.05005288124084473,1.3462374210357666,0.1675422191619873,-1.5922791957855225,0.18596529960632324,0.7002214193344116,0.17947696149349213,0.7376964092254639,3.1311161567561996,0.02003280105975991,1.4004263580483716,148.51351351351352,146.47147147147146,124.61904761904762,129.5,107.61904761904762,153.5,131.69139465875372,170.47774480712167,125.0,121.0,101.0,145.0,125.0,169.0,149.0,145.0
11,0.55,0.016942977905273438,0.056322574615478516,1.3229830265045166,0.18400025367736816,-1.5946037769317627,0.2053370475769043,0.7020949721336365,0.18028627336025238,0.7471001744270325,3.129745086606905,0.021996687182035797,1.3822200467865087,148.5,146.5,124.58841463414635,130.2469512195122,108.25835866261399,154.25835866261397,132.390243902439,170.5,125.0,121.0,101.0,145.0,125.0,169.0,149.0,145.0
12,0.6000000000000001,0.01801156997680664,0.06270933151245117,1.2998206615447998,0.2002720832824707,-1.5968987941741943,0.22472691535949707,0.703924298286438,0.18100647628307343,0.7563239336013794,3.128323131678992,0.023890743281857217,1.3638557502073214,148.4,146.515625,124.5,130.8176100628931,108.73765432098766,154.89506172839506,132.72981366459626,170.58074534161491,125.0,121.0,101.0,145.0,125.0,169.0,149.0,145.0
13,0.65,0.01897263526916504,0.06944537162780762,1.2764613628387451,0.21657729148864746,-1.599182367324829,0.24414348602294922,0.7058308124542236,0.1816571205854416,0.7653681635856628,3.127006702556955,0.02576934005364947,1.3453577660906026,148.30448717948718,146.5448717948718,124.43130990415335,131.52396166134184,109.28706624605678,155.60567823343848,133.31645569620252,170.61708860759492,125.0,121.0,101.0,145.0,125.0,169.0,149.0,145.0
14,0.7000000000000001,0.0198056697845459,0.07630276679992676,1.2532246112823486,0.23269248008728027,-1.6014420986175537,0.2635691165924072,0.7077088356018066,0.18222308158874512,0.7742016315460205,3.125671343841072,0.027596127864533474,1.3267197243431297,148.17161716171617,146.55775577557756,124.24755700325733,132.20195439739413,109.81229773462783,156.3042071197411,133.90584415584416,170.6818181818182,125.0,121.0,101.0,145.0,125.0,169.0,149.0,145.0
15,0.75,0.02060413360595703,0.0832207202911377,1.2302391529083252,0.2485196590423584,-1.6037542819976807,0.28307604789733887,0.7095236778259277,0.18276283144950867,0.7827920913696289,3.12426446241009,0.02943572595338338,1.307962569199227,148.09395973154363,146.6476510067114,124.06756756756756,132.93243243243242,110.26402640264027,156.92409240924093,134.3156146179402,170.72093023255815,125.0,121.0,101.0,145.0,125.0,169.0,149.0,145.0
16,0.8,0.021244287490844727,0.0901026725769043,1.2074787616729736,0.26411890983581543,-1.606003999710083,0.30252766609191895,0.7112340331077576,0.1831960380077362,0.7912185788154602,3.1227616455932745,0.03115814699323778,1.2890980955296125,147.94117647058823,146.7923875432526,124.06122448979592,133.5,110.82491582491582,157.63973063973063,134.86006825938566,170.81569965870307,125.0,121.0,101.0,145.0,125.0,169.0,149.0,145.0
17,0.8500000000000001,0.021933794021606445,0.0972299575805664,1.1848056316375732,0.27954816818237305,-1.6083753108978271,0.32216501235961914,0.7129858136177063,0.18365776538848877,0.7993605732917786,3.121297264300385,0.03299808617569554,1.2700960636754013,147.84154929577466,146.75352112676057,123.9515570934256,134.10034602076124,111.14878892733564,158.08996539792386,135.23611111111111,170.83333333333334,125.0,121.0,101.0,145.0,125.0,169.0,149.0,145.0
18,0.9,0.02243661880493164,0.10433173179626465,1.1623246669769287,0.2948017120361328,-1.6106455326080322,0.34166741371154785,0.7146515846252441,0.18399502336978912,0.807343602180481,3.119782594276041,0.03469474156040603,1.2510400631312937,147.73381294964028,146.76258992805757,123.88967971530249,134.73309608540924,111.80565371024736,158.80565371024736,135.7935943060498,170.7935943060498,125.0,121.0,101.0,145.0,125.0,169.0,149.0,145.0
19,0.9500000000000001,0.02284383773803711,0.11150455474853516,1.1402790546417236,0.30968356132507324,-1.6129176616668701,0.36118102073669434,0.7163260579109192,0.18426474928855896,0.8149611949920654,3.118319747365008,0.036393325992367435,1.2318784192672312,147.55555555555554,146.76666666666668,123.74368231046931,135.23826714801444,112.14285714285714,159.275,136.17985611510792,170.76978417266187,125.0,121.0,101.0,145.0,125.0,169.0,149.0,145.0
20,1.0,0.023198604583740234,0.11865091323852539,1.1185457706451416,0.32430005073547363,-1.6151998043060303,0.38070201873779297,0.7179248332977295,0.18449625372886658,0.8223521709442139,3.116796978448338,0.03806432226990975,1.21265381892658,147.5,146.73684210526315,123.53703703703704,135.82592592592593,112.56204379562044,159.93430656934308,136.5608856088561,170.80073800738006,125.0,121.0,101.0,145.0,125.0,169.0,149.0,145.0
21,1.05,0.023351192474365234,0.12572383880615234,1.0972988605499268,0.3385632038116455,-1.6173646450042725,0.3999900817871094,0.7194733023643494,0.18459060788154602,0.8294495344161987,3.1153101593813926,0.039608723370430025,1.1934617974678365,147.36121673003802,146.63878326996198,123.5,136.3587786259542,113.0,160.5,137.0634328358209,170.69776119402985,125.0,121.0,101.0,145.0,125.0,169.0,149.0,145.0
22,1.1,0.023288726806640625,0.1326887607574463,1.0766489505767822,0.3524036407470703,-1.619408369064331,0.41906285285949707,0.7209778428077698,0.18453790247440338,0.8362157344818115,3.113873511621619,0.04103183072999959,1.1742721637382862,147.24031007751938,146.65891472868216,123.38697318007662,136.84674329501917,113.5,161.0,137.47169811320754,170.71698113207546,125.0,121.0,101.0,145.0,125.0,169.0,149.0,145.0
23,1.1500000000000001,0.02325272560119629,0.13967466354370117,1.0564510822296143,0.3658926486968994,-1.6215260028839111,0.43820834159851074,0.7224769592285156,0.1844986081123352,0.8426477909088135,3.1124494179463946,0.0425317785757236,1.1550375305944696,147.1220472440945,146.67322834645668,123.27692307692308,137.44615384615383,113.83269961977186,161.5171102661597,137.83657587548637,170.66926070038912,125.0,121.0,101.0,145.0,125.0,169.0,149.0,145.0
24,1.2000000000000002,0.0230100154876709,0.14637470245361328,1.0369436740875244,0.3789248466491699,-1.6235125064849854,0.4571268558502197,0.7238368988037109,0.18431654572486877,0.848831832408905,3.1109772474401636,0.04385619519005705,1.1358219580915263,146.9760956175299,146.69721115537848,123.19123505976096,137.89641434262947,114.35384615384615,162.0653846153846,138.27237354085602,170.67315175097275,125.0,121.0,101.0,145.0,125.0,169.0,149.0,145.0
25,1.25,0.022794485092163086,0.15309548377990723,1.018019437789917,0.39153528213500977,-1.6255676746368408,0.4760866165161133,0.7252342104911804,0.184147909283638,0.8546121716499329,3.1095741562765977,0.045283710818435234,1.1165954068939579,146.76113360323887,146.5668016194332,122.95983935742971,138.41767068273091,114.53333333333333,162.50980392156862,138.62549800796813,170.5816733067729,125.0,121.0,101.0,145.0,125.0,169.0,149.0,145.0
26,1.3,0.022396326065063477,0.15939903259277344,1.0000040531158447,0.4035637378692627,-1.6274912357330322,0.4947545528411865,0.7264522910118103,0.1838519424200058,0.8601253032684326,3.1081014125558286,0.0465233052143086,1.0974771641142536,146.7165991902834,146.59919028340082,122.88163265306123,138.9673469387755,115.08130081300813,163.03252032520325,139.0843373493976,170.63052208835342,125.0,121.0,101.0,145.0,125.0,169.0,149.0,145.0
27,1.35,0.022006988525390625,0.16553473472595215,0.9827821254730225,0.415057897567749,-1.6294543743133545,0.5133979320526123,0.7276316285133362,0.18355590105056763,0.8652644157409668,3.106632129364077,0.047803487910381366,1.0783916692260889,146.5795918367347,146.53061224489795,122.72357723577235,139.3658536585366,115.43307086614173,163.5,139.46613545816734,170.5776892430279,125.0,121.0,101.0,145.0,125.0,169.0,149.0,145.0
28,1.4000000000000001,0.021570444107055664,0.17145633697509766,0.9663650989532471,0.42603206634521484,-1.6313927173614502,0.5318915843963623,0.7287610769271851,0.1832251399755478,0.8700590133666992,3.1051847269385573,0.04906514136972215,1.059411633237773,146.37916666666666,146.45,122.62240663900415,139.8423236514523,115.81632653061224,163.95102040816326,139.827868852459,170.5,125.0,121.0,101.0,145.0,125.0,169.0,149.0,145.0
29,1.4500000000000002,0.021013259887695312,0.17710328102111816,0.9509246349334717,0.436389684677124,-1.6332533359527588,0.550184965133667,0.7298515439033508,0.18280890583992004,0.8744629621505737,3.103803118617801,0.05027460962933902,1.0405158588353443,146.1864406779661,146.33474576271186,122.37916666666666,140.12083333333334,116.15289256198348,164.31404958677686,140.09128630705393,170.47302904564316,125.0,121.0,101.0,145.0,125.0,169.0,149.0,145.0
30,1.5,0.020513534545898438,0.18270373344421387,0.9361646175384521,0.4463083744049072,-1.635162591934204,0.5684373378753662,0.7309934496879578,0.1824297457933426,0.8784813284873962,3.102506224844985,0.05159845870686505,1.021724075519538,146.05128205128204,146.30769230769232,122.2092050209205,140.6652719665272,116.50205761316873,164.77366255144034,140.49586776859505,170.41322314049586,125.0,121.0,101.0,145.0,125.0,169.0,149.0,145.0
31,1.55,0.019983768463134766,0.1877906322479248,0.9226133823394775,0.4554767608642578,-1.637040376663208,0.5865230560302734,0.7319684028625488,0.18202564120292664,0.8821704387664795,3.1011258238031982,0.05283961189094644,1.0030665234881744,146.0,146.25108225108224,122.17021276595744,141.0,116.86666666666666,165.1125,140.91949152542372,170.3177966101695,125.0,121.0,101.0,145.0,125.0,169.0,149.0,145.0
32,1.6,0.019460439682006836,0.19255375862121582,0.9099552631378174,0.4640963077545166,-1.6389124393463135,0.6044971942901611,0.7328541874885559,0.1816224306821823,0.8855728507041931,3.099713579769031,0.05405812366987448,0.9845268627311082,145.87445887445887,146.17748917748918,122.04273504273505,141.3760683760684,117.0672268907563,165.57142857142858,141.1244635193133,170.17596566523605,125.0,121.0,101.0,145.0,125.0,169.0,149.0,145.0
33,1.6500000000000001,0.01863837242126465,0.19681549072265625,0.898357629776001,0.47210168838500977,-1.6405322551727295,0.6219713687896729,0.7336094379425049,0.18101465702056885,0.8887269496917725,3.098375592635702,0.05502411738699165,0.9661928683181497,145.7391304347826,146.0782608695652,121.93991416309012,141.78969957081546,117.5,165.9322033898305,141.46320346320346,170.1082251082251,125.0,121.0,101.0,145.0,125.0,169.0,149.0,145.0
34,1.7000000000000002,0.017777442932128906,0.20074892044067383,0.8878824710845947,0.4794173240661621,-1.6421177387237549,0.6392714977264404,0.7343474626541138,0.1803779900074005,0.8914816379547119,3.097105726291701,0.05600279064504216,0.9480000923026913,145.640350877193,146.00438596491227,121.82251082251082,142.12554112554113,117.85531914893618,166.2851063829787,141.76293103448276,170.0344827586207,125.0,121.0,101.0,145.0,125.0,169.0,149.0,145.0
35,1.75,0.01688218116760254,0.2043600082397461,0.8784010410308838,0.4861338138580322,-1.6436583995819092,0.656378984451294,0.73505038022995,0.17971812188625336,0.8939076662063599,3.095884464776993,0.05697372138668319,0.9299699301877814,145.46666666666667,145.98222222222222,121.75438596491227,142.5,118.05150214592274,166.72961373390558,142.2077922077922,170.01298701298703,125.0,121.0,101.0,145.0,125.0,169.0,149.0,145.0
36,1.8,0.015979766845703125,0.20756840705871582,0.8699319362640381,0.49224424362182617,-1.6451609134674072,0.6732547283172607,0.7356594204902649,0.17905192077159882,0.8960617780685425,3.094656284116193,0.05790061536119179,0.9121656360515864,145.37053571428572,145.875,121.57522123893806,142.88938053097345,118.35652173913043,166.98260869565217,142.3930131004367,169.97816593886463,125.0,121.0,101.0,145.0,125.0,169.0,149.0,145.0
37,1.85,0.015051603317260742,0.21039128303527832,0.8624732494354248,0.4977529048919678,-1.6466171741485596,0.6899516582489014,0.7361960411071777,0.17836728692054749,0.8979353904724121,3.0934406219337696,0.05878989641470956,0.8945165276876178,145.15178571428572,145.75446428571428,121.31140350877193,143.03508771929825,118.77922077922078,167.27272727272728,142.72368421052633,169.89912280701753,125.0,121.0,101.0,145.0,125.0,169.0,149.0,145.0
38,1.9000000000000001,0.014375448226928711,0.2132573127746582,0.8557965755462646,0.5027658939361572,-1.6482369899749756,0.7067327499389648,0.7369030714035034,0.17785586416721344,0.8993409276008606,3.0923226853983876,0.05999226698793287,0.8770438107504261,145.10666666666665,145.66222222222223,121.17410714285714,143.42410714285714,119.01724137931035,167.7155172413793,142.9913043478261,169.71304347826086,125.0,121.0,101.0,145.0,125.0,169.0,149.0,145.0
39,1.9500000000000002,0.01348567008972168,0.21538233757019043,0.8504645824432373,0.50699782371521,-1.6496365070343018,0.7229969501495361,0.7373786568641663,0.17719818651676178,0.9005544185638428,3.0911949078782617,0.0609120116865827,0.8598749308114763,144.86363636363637,145.5,121.08771929824562,143.81140350877192,119.25108225108225,168.0,143.20535714285714,169.62053571428572,125.0,121.0,101.0,145.0,125.0,169.0,149.0,145.0
40,2.0,0.012415409088134766,0.2170414924621582,0.8463521003723145,0.510509729385376,-1.6508615016937256,0.7388589382171631,0.7378042936325073,0.17641611397266388,0.9014450311660767,3.0901919609129926,0.06172266879691425,0.8429346680711558,144.78280542986425,145.35294117647058,120.97297297297297,144.02702702702703,119.67391304347827,168.15217391304347,143.55454545454546,169.36818181818182,125.0,121.0,101.0,145.0,125.0,169.0,149.0,145.0
41,2.0500000000000003,0.011502742767333984,0.21831274032592773,0.8433704376220703,0.5133264064788818,-1.6521689891815186,0.7547101974487305,0.7381739616394043,0.17574287950992584,0.9020063877105713,3.089128659426554,0.06261344462766064,0.8261618906988119,144.58904109589042,145.2054794520548,120.89823008849558,144.30088495575222,119.86026200873363,168.58951965065503,143.86725663716814,169.23451327433628,125.0,121.0,101.0,145.0,125.0,169.0,149.0,145.0
42,2.1,0.01036214828491211,0.21912598609924316,0.841480016708374,0.515507698059082,-1.653245210647583,0.7699868679046631,0.7384829521179199,0.17491741478443146,0.9023117423057556,3.0882206036647144,0.06334683302612044,0.8097447750473187,144.5,145.13636363636363,120.7911111111111,144.5911111111111,120.06550218340611,168.7816593886463,144.0,169.1850220264317,125.0,121.0,101.0,145.0,125.0,169.0,149.0,145.0
43,2.15,0.00918722152709961,0.21959185600280762,0.8404073715209961,0.5172131061553955,-1.654254674911499,0.7850713729858398,0.738720715045929,0.17406830191612244,0.9024291038513184,3.087333841047099,0.06402555508116343,0.7934867623164148,144.48878923766816,144.96412556053812,120.57142857142857,144.91071428571428,120.27272727272727,169.04329004329006,144.359649122807,169.00438596491227,125.0,121.0,101.0,145.0,125.0,169.0,149.0,145.0
44,2.2,0.008143424987792969,0.21945714950561523,0.8403623104095459,0.5182960033416748,-1.6552979946136475,0.7999701499938965,0.7387155890464783,0.17331087589263916,0.9024376273155212,3.0862620517682258,0.06458364876765282,0.7775362657238729,144.3153153153153,144.82432432432432,120.429203539823,145.01769911504425,120.59471365638767,169.21145374449338,144.53333333333333,168.98222222222222,125.0,121.0,101.0,145.0,125.0,169.0,149.0,145.0
45,2.25,0.007132291793823242,0.21943998336791992,0.8407721519470215,0.5191042423248291,-1.6563284397125244,0.8147284984588623,0.7389085292816162,0.17257921397686005,0.9021086692810059,3.0853879335882803,0.06534385932002906,0.7617732440874054,144.12444444444444,144.7288888888889,120.2433628318584,145.2433628318584,120.87012987012987,169.65800865800867,144.87665198237886,168.80176211453744,125.0,121.0,101.0,145.0,125.0,169.0,149.0,145.0
46,2.3000000000000003,0.006104469299316406,0.21911048889160156,0.842111349105835,0.5193464756011963,-1.6572802066802979,0.8291077613830566,0.7390871644020081,0.17183808982372284,0.9015060663223267,3.0845984068581025,0.06609904187464026,0.7463772231225312,144.0,144.5,120.10666666666667,145.5377777777778,121.06550218340611,169.7816593886463,145.03508771929825,168.68859649122808,125.0,121.0,101.0,145.0,125.0,169.0,149.0,145.0
47,2.35,0.0050203800201416016,0.21838116645812988,0.8443200588226318,0.519068717956543,-1.658132791519165,0.8431851863861084,0.7391678690910339,0.17106063663959503,0.900730550289154,3.0838350283275893,0.06675535223322264,0.731228680817587,143.84684684684686,144.42792792792793,120.0304347826087,145.76956521739132,121.27272727272727,170.04329004329006,145.24663677130044,168.46188340807174,125.0,121.0,101.0,145.0,125.0,169.0,149.0,145.0
48,2.4000000000000004,0.0038886070251464844,0.2172081470489502,0.8474819660186768,0.5182130336761475,-1.6588952541351318,0.8569657802581787,0.7391363382339478,0.17025353014469147,0.8997665047645569,3.0830840873208856,0.06730807058705625,0.7163288026009449,143.73423423423424,144.22522522522522,119.86283185840708,145.9646017699115,121.54310344827586,170.1293103448276,145.5,168.24107142857142,125.0,121.0,101.0,145.0,125.0,169.0,149.0,145.0
49,2.45,0.0029036998748779297,0.21576213836669922,0.8513822555541992,0.5168921947479248,-1.6597130298614502,0.8706581592559814,0.7390447854995728,0.16954955458641052,0.8986027836799622,3.0822700114246975,0.06789525584657556,0.7016623626823509,143.56502242152467,144.08520179372198,119.82532751091703,146.12227074235807,121.80172413793103,170.375,145.75330396475772,168.12334801762114,125.0,121.0,101.0,145.0,125.0,169.0,149.0,145.0
50,2.5,0.0018193721771240234,0.21419453620910645,0.8558754920959473,0.5152077674865723,-1.6604020595550537,0.8839786052703857,0.7390130758285522,0.16878150403499603,0.8972017168998718,3.0816248984814254,0.06849858208447485,0.687278321977255,143.5,144.0,119.63157894736842,146.2061403508772,122.0,170.64529914529913,145.93362831858408,167.9646017699115,125.0,121.0,101.0,145.0,125.0,169.0,149.0,145.0
51,2.5500000000000003,0.0007648468017578125,0.21251368522644043,0.8607218265533447,0.5133068561553955,-1.6610538959503174,0.8970701694488525,0.7389663457870483,0.16803619265556335,0.8956891298294067,3.081012287595063,0.06910375400349904,0.6731551794272497,143.375,143.80803571428572,119.5,146.5,122.1716738197425,170.81115879828326,146.08771929824562,167.81140350877192,125.0,121.0,101.0,145.0,125.0,169.0,149.0,145.0
52,2.6,-0.0003342628479003906,0.21043157577514648,0.8663251399993896,0.510936975479126,-1.661611795425415,0.9098360538482666,0.7387869358062744,0.16726486384868622,0.8940585851669312,3.0803998155579837,0.06957572941276063,0.6593114047073388,143.17410714285714,143.57589285714286,119.27272727272727,146.7792207792208,122.30603448275862,171.02586206896552,146.37610619469027,167.76548672566372,125.0,121.0,101.0,145.0,125.0,169.0,149.0,145.0
53,2.6500000000000004,-0.0013470649719238281,0.20824956893920898,0.8722822666168213,0.5083310604095459,-1.662168264389038,0.9223511219024658,0.7385928630828857,0.16655591130256653,0.8923052549362183,3.0797946903984723,0.07007238135024108,0.6458049722750118,143.10176991150442,143.30088495575222,119.17748917748918,146.87445887445887,122.56837606837607,171.0897435897436,146.66812227074234,167.47161572052403,125.0,121.0,101.0,145.0,125.0,169.0,149.0,145.0
54,2.7,-0.002288818359375,0.2058706283569336,0.8787252902984619,0.5054059028625488,-1.6627204418182373,0.9346578121185303,0.7383421063423157,0.16589923202991486,0.8904263377189636,3.0791673365151464,0.07055149140560493,0.6325777411910488,142.96521739130435,143.2391304347826,119.17021276595744,147.0,122.79237288135593,171.27966101694915,146.82251082251082,167.2207792207792,125.0,121.0,101.0,145.0,125.0,169.0,149.0,145.0
55,2.75,-0.003307342529296875,0.20323729515075684,0.8857905864715576,0.5020849704742432,-1.6631662845611572,0.9466650485992432,0.7380412817001343,0.16519303619861603,0.8883870840072632,3.078611209269612,0.07095942652296967,0.6195756281803969,142.78354978354977,143.06493506493507,119.0,147.17021276595744,122.95798319327731,171.47899159663865,146.8961038961039,167.15584415584416,125.0,121.0,101.0,145.0,125.0,169.0,149.0,145.0
56,2.8000000000000003,-0.0044460296630859375,0.20054841041564941,0.8931710720062256,0.49855828285217285,-1.6634705066680908,0.958275556564331,0.7377777099609375,0.16440868377685547,0.8862071633338928,3.078213519255264,0.07135154924937473,0.6068563365909496,142.70305676855895,142.9301310043668,118.92307692307692,147.24358974358975,123.1,171.5625,147.17021276595744,167.0,125.0,121.0,101.0,145.0,125.0,169.0,149.0,145.0
57,2.85,-0.005443572998046875,0.19787263870239258,0.9006326198577881,0.4949624538421631,-1.6638309955596924,0.9698407649993896,0.7375093102455139,0.163723886013031,0.8839648962020874,3.077767921933327,0.07180026859878286,0.5943235482862885,142.6315789473684,142.7938596491228,118.8135593220339,147.33474576271186,123.27615062761507,171.7866108786611,147.2948717948718,166.8803418803419,125.0,121.0,101.0,145.0,125.0,169.0,149.0,145.0
58,2.9000000000000004,-0.006546497344970703,0.19512438774108887,0.9082953929901123,0.49123311042785645,-1.6640594005584717,0.9810388088226318,0.7372327446937561,0.16297216713428497,0.8816563487052917,3.0774364344036145,0.07219377405448969,0.5820552866747517,142.39826839826839,142.5974025974026,118.63333333333334,147.5,123.57083333333334,171.90416666666667,147.50632911392404,166.59915611814347,125.0,121.0,101.0,145.0,125.0,169.0,149.0,145.0
59,2.95,-0.007568836212158203,0.19231653213500977,0.916395902633667,0.48718738555908203,-1.6642916202545166,0.9920132160186768,0.7369848489761353,0.1622777283191681,0.8791429996490479,3.0771364564009467,0.07265797381744765,0.5700938081412712,142.25,142.25,118.45867768595042,147.68595041322314,123.73333333333333,172.00416666666666,147.78571428571428,166.38235294117646,125.0,121.0,101.0,145.0,125.0,169.0,149.0,145.0
60,3.0,-0.00853872299194336,0.18938875198364258,0.9247109889984131,0.4829752445220947,-1.6645004749298096,1.002685785293579,0.7366708517074585,0.1616234928369522,0.8765917420387268,3.0768201024765522,0.07306939540293135,0.5584849412206186,142.21030042918454,142.06008583690988,118.27916666666667,147.8,123.95081967213115,172.0860655737705,147.8613445378151,166.19327731092437,125.0,121.0,101.0,145.0,125.0,169.0,149.0,145.0
61,3.0500000000000003,-0.009484291076660156,0.18637585639953613,0.9332163333892822,0.4786198139190674,-1.6646778583526611,1.013155221939087,0.7363137006759644,0.1609892100095749,0.8739889860153198,3.0765084113885512,0.07344554407717865,0.5471023940633241,142.14830508474577,141.97033898305085,118.13333333333334,147.8875,123.96761133603239,172.1902834008097,148.0,166.0,125.0,121.0,101.0,145.0,125.0,169.0,149.0,145.0
62,3.1,-0.010287046432495117,0.1832587718963623,0.9417555332183838,0.4742238521575928,-1.6649158000946045,1.0236012935638428,0.7358495593070984,0.16045507788658142,0.8714335560798645,3.076073485363755,0.07376046092846118,0.5358791728614392,142.03418803418805,141.81623931623932,118.0,148.0,124.18775510204081,172.38367346938776,148.10041841004184,165.90376569037656,125.0,121.0,101.0,145.0,125.0,169.0,149.0,145.0
63,3.1500000000000004,-0.011193037033081055,0.18017125129699707,0.9503929615020752,0.4697432518005371,-1.6650307178497314,1.0336787700653076,0.7354289889335632,0.1598542034626007,0.8687896728515625,3.075782032084826,0.07407387126492185,0.5249263370922174,141.9662447257384,141.58649789029536,117.96694214876032,148.01652892561984,124.39285714285714,172.4484126984127,148.33469387755102,165.64081632653063,125.0,121.0,101.0,145.0,125.0,169.0,149.0,145.0
64,3.2,-0.012104272842407227,0.17705249786376953,0.9591352939605713,0.46516847610473633,-1.6650989055633545,1.0435106754302979,0.734992504119873,0.15925243496894836,0.8660995960235596,3.0755264294706874,0.07436410626378387,0.5142152196991172,141.87916666666666,141.37916666666666,117.8744939271255,148.1255060728745,124.53333333333333,172.50980392156862,148.52988047808765,165.4820717131474,125.0,121.0,101.0,145.0,125.0,169.0,149.0,145.0
65,3.25,-0.012966156005859375,0.17392706871032715,0.9679019451141357,0.46055078506469727,-1.665161371231079,1.0531723499298096,0.7345325946807861,0.15868739783763885,0.8633912205696106,3.0752629181532996,0.07464193770298815,0.5037217257322014,141.65690376569037,141.1255230125523,117.696,148.284,124.62549800796813,172.5816733067729,148.6829268292683,165.390243902439,125.0,121.0,101.0,145.0,125.0,169.0,149.0,145.0
66,3.3000000000000003,-0.01381230354309082,0.17087888717651367,0.9766385555267334,0.455918550491333,-1.6651904582977295,1.062591791152954,0.7341063618659973,0.15813589096069336,0.8606319427490234,3.0750515620665393,0.07495107084871906,0.49348764573132636,141.57083333333333,141.0,117.53359683794466,148.42292490118578,124.75196850393701,172.68897637795277,148.91803278688525,165.14344262295083,125.0,121.0,101.0,145.0,125.0,169.0,149.0,145.0
67,3.35,-0.014451265335083008,0.16780543327331543,0.9853579998016357,0.4512593746185303,-1.6653296947479248,1.0720016956329346,0.7336128950119019,0.1577274650335312,0.8578932881355286,3.0746975833108126,0.07525520242528566,0.48346600345526763,141.37916666666666,140.87916666666666,117.49019607843137,148.46666666666667,124.95238095238095,172.77380952380952,148.99591836734695,164.86122448979592,125.0,121.0,101.0,145.0,125.0,169.0,149.0,145.0
68,3.4000000000000004,-0.015160560607910156,0.16467642784118652,0.9943420886993408,0.4463953971862793,-1.6653764247894287,1.0811121463775635,0.733124852180481,0.1572737991809845,0.8550367951393127,3.0744386402515778,0.07553853961818303,0.4736740449504697,141.2834008097166,140.59919028340082,117.43307086614173,148.5,125.16015625,172.7890625,149.04032258064515,164.7741935483871,125.0,121.0,101.0,145.0,125.0,169.0,149.0,145.0
69,3.45,-0.016057491302490234,0.16160202026367188,1.0033667087554932,0.4414820671081543,-1.6652495861053467,1.089817762374878,0.7326948046684265,0.15669523179531097,0.852104902267456,3.0743786602755665,0.075812296513307,0.46410650944210324,141.20816326530613,140.50204081632654,117.3125,148.5078125,125.2911877394636,172.91570881226053,149.304,164.5,125.0,121.0,101.0,145.0,125.0,169.0,149.0,145.0
70,3.5,-0.016786813735961914,0.158616304397583,1.0122196674346924,0.436643123626709,-1.665210485458374,1.0984985828399658,0.7322561740875244,0.15623196959495544,0.849195659160614,3.0742262255262682,0.0761240646649137,0.4547271304538967,141.03238866396762,140.1902834008097,117.10077519379846,148.56201550387595,125.39015151515152,173.01136363636363,149.40316205533597,164.4822134387352,125.0,121.0,101.0,145.0,125.0,169.0,149.0,145.0
71,3.5500000000000003,-0.017624616622924805,0.1558241844177246,1.0208179950714111,0.4319436550140381,-1.6650512218475342,1.106816053390503,0.7319074273109436,0.15569846332073212,0.8462790250778198,3.074234420102344,0.07648021219644117,0.44560963715011276,141.0,140.10245901639345,116.93461538461538,148.64615384615385,125.5375939849624,173.10526315789474,149.54330708661416,164.29133858267716,125.0,121.0,101.0,145.0,125.0,169.0,149.0,145.0
72,3.6,-0.018313884735107422,0.15308284759521484,1.029294729232788,0.4272899627685547,-1.6649672985076904,1.1151206493377686,0.7315361499786377,0.15526637434959412,0.8433861136436462,3.0741533523580142,0.0768531678011092,0.43664989289495143,140.864,139.824,116.7876447876448,148.6949806949807,125.57677902621722,173.1947565543071,149.62934362934362,164.03474903474904,125.0,121.0,101.0,145.0,125.0,169.0,149.0,145.0
73,3.6500000000000004,-0.01904916763305664,0.1502223014831543,1.0378057956695557,0.42258715629577637,-1.664811372756958,1.1231238842010498,0.7310740947723389,0.1548081785440445,0.8405532836914062,3.0740910716459493,0.07709604818359339,0.4279425427260451,140.74609375,139.703125,116.65648854961832,148.706106870229,125.68679245283019,173.2490566037736,149.73151750972764,163.73540856031127,125.0,121.0,101.0,145.0,125.0,169.0,149.0,145.0
74,3.7,-0.019698381423950195,0.14735865592956543,1.046309232711792,0.41785264015197754,-1.6646888256072998,1.1310365200042725,0.730581521987915,0.1544095277786255,0.8377193212509155,3.07397980956523,0.07732488394593315,0.41940917901242636,140.56692913385828,139.5,116.53787878787878,148.75,125.8731343283582,173.32462686567163,149.8715953307393,163.58365758754863,125.0,121.0,101.0,145.0,125.0,169.0,149.0,145.0
75,3.75,-0.02039361000061035,0.14464092254638672,1.05470871925354,0.4131500720977783,-1.664499044418335,1.138672113418579,0.7301676273345947,0.15398094058036804,0.8348286747932434,3.073974698129024,0.07761653315741336,0.41110991287191967,140.5,139.43410852713177,116.50936329588015,148.83895131086143,125.97058823529412,173.3860294117647,150.0,163.5,125.0,121.0,101.0,145.0,125.0,169.0,149.0,145.0
76,3.8000000000000003,-0.02104973793029785,0.14197778701782227,1.0630309581756592,0.40847277641296387,-1.6643116474151611,1.1462290287017822,0.7297585010528564,0.1535799652338028,0.8319340348243713,3.0739664441603307,0.07792109198780126,0.40292768837722426,140.3846153846154,139.24615384615385,116.47407407407407,148.93703703703704,126.14074074074074,173.42962962962963,150.23076923076923,163.33461538461538,125.0,121.0,101.0,145.0,125.0,169.0,149.0,145.0
77,3.85,-0.021668195724487305,0.13939404487609863,1.071260690689087,0.4038205146789551,-1.6641218662261963,1.1536214351654053,0.7293688058853149,0.15320588648319244,0.8290282487869263,3.073969163194528,0.07825077456101262,0.3949485671272085,140.360153256705,138.90038314176246,116.380073800738,148.92619926199262,126.25367647058823,173.38235294117646,150.33584905660376,163.03396226415094,125.0,121.0,101.0,145.0,125.0,169.0,149.0,145.0
78,3.9000000000000004,-0.022289276123046875,0.13671207427978516,1.0794813632965088,0.39914751052856445,-1.663902997970581,1.1608078479766846,0.7288923263549805,0.15283340215682983,0.8261923789978027,3.073954552852005,0.07846798187502949,0.38716886681514007,140.28846153846155,138.7,116.20879120879121,148.95238095238096,126.3956043956044,173.38095238095238,150.3917910447761,162.88432835820896,125.0,121.0,101.0,145.0,125.0,169.0,149.0,145.0
79,3.95,-0.02287912368774414,0.13413119316101074,1.087550401687622,0.3945446014404297,-1.6636826992034912,1.1678721904754639,0.7284427285194397,0.1524825543165207,0.8233624696731567,3.0739522679040516,0.07871453955035235,0.3795423946387689,140.13257575757575,138.5189393939394,116.0,149.0,126.47272727272727,173.48,150.47169811320754,162.71698113207546,125.0,121.0,101.0,145.0,125.0,169.0,149.0,145.0
80,4.0,-0.02344965934753418,0.1316368579864502,1.0954468250274658,0.39002513885498047,-1.663450002670288,1.1747591495513916,0.7280101776123047,0.15214596688747406,0.8205618858337402,3.0739677440041233,0.07897143492980632,0.3721126149744843,140.0,138.46641791044777,115.95340501792114,149.04659498207886,126.52898550724638,173.55434782608697,150.63197026022306,162.47955390334573,125.0,121.0,101.0,145.0,125.0,169.0,149.0,145.0
81,4.05,-0.023923873901367188,0.1291642189025879,1.1032803058624268,0.3855137825012207,-1.6632654666900635,1.181603193283081,0.7275556325912476,0.15187525749206543,0.817776083946228,3.0739221948593114,0.07922247182450187,0.3648190787070842,139.87686567164178,138.23134328358208,115.85159010600707,149.0600706713781,126.59498207885305,173.58781362007167,150.62825278810408,162.29739776951672,125.0,121.0,101.0,145.0,125.0,169.0,149.0,145.0
82,4.1000000000000005,-0.024496793746948242,0.1266322135925293,1.1111400127410889,0.38096165657043457,-1.6629841327667236,1.1881625652313232,0.7270628213882446,0.15154129266738892,0.8150125741958618,3.073955455294546,0.07938973361279152,0.35771141426357506,139.73234200743494,138.01486988847583,115.74377224199289,149.05338078291814,126.80701754385964,173.62456140350878,150.69372693726936,162.14022140221402,125.0,121.0,101.0,145.0,125.0,169.0,149.0,145.0
83,4.15,-0.025174856185913086,0.12421870231628418,1.1189181804656982,0.3764324188232422,-1.6626012325286865,1.1944105625152588,0.7266411781311035,0.15113751590251923,0.8122028112411499,3.07412610923639,0.07960141753036033,0.3508130182002475,139.6074074074074,137.85925925925926,115.66428571428571,149.07142857142858,126.88771929824561,173.65964912280702,150.8519855595668,161.89891696750902,125.0,121.0,101.0,145.0,125.0,169.0,149.0,145.0
84,4.2,-0.02579021453857422,0.12185335159301758,1.1265785694122314,0.3719494342803955,-1.6622450351715088,1.2005622386932373,0.7262126207351685,0.15077728033065796,0.8094215989112854,3.074265261310272,0.0798131795092865,0.3440733390436878,139.57037037037037,137.7,115.49469964664311,149.10247349823322,126.97909407665506,173.70383275261324,150.91726618705036,161.7841726618705,125.0,121.0,101.0,145.0,125.0,169.0,149.0,145.0
85,4.25,-0.02635979652404785,0.11957097053527832,1.1340372562408447,0.36757898330688477,-1.6619040966033936,1.206636667251587,0.7257910966873169,0.15044866502285004,0.8066912293434143,3.074387686111995,0.08003344523359257,0.3374548563403875,139.5,137.5,115.31929824561404,149.10526315789474,127.0242214532872,173.7058823529412,151.06498194945848,161.66425992779784,125.0,121.0,101.0,145.0,125.0,169.0,149.0,145.0
86,4.3,-0.026831865310668945,0.1174476146697998,1.1411783695220947,0.36339879035949707,-1.6616194248199463,1.2127015590667725,0.7254054546356201,0.15018443763256073,0.8040245771408081,3.0744642159987023,0.08030879043851248,0.33094305454665857,139.3832116788321,137.22262773722628,115.25614035087719,149.1263157894737,127.16723549488054,173.67235494880546,151.125,161.31785714285715,125.0,121.0,101.0,145.0,125.0,169.0,149.0,145.0
87,4.3500000000000005,-0.027327537536621094,0.11521458625793457,1.1484129428863525,0.35912179946899414,-1.661297082901001,1.2185280323028564,0.7249507904052734,0.14990727603435516,0.8013798594474792,3.0745503595786676,0.08048367671347978,0.32464290089132397,139.27857142857144,137.07857142857142,115.11805555555556,149.07638888888889,127.21016949152542,173.6813559322034,151.26148409893992,161.1696113074205,125.0,121.0,101.0,145.0,125.0,169.0,149.0,145.0
88,4.4,-0.02775287628173828,0.11315393447875977,1.1553685665130615,0.3550105094909668,-1.661012887954712,1.2243311405181885,0.7245518565177917,0.14967529475688934,0.7987674474716187,3.074618791249491,0.08073324207520843,0.3184363920672564,139.24028268551237,137.0,115.08650519031141,149.0865051903114,127.23389830508475,173.74237288135592,151.27659574468086,161.07801418439718,125.0,121.0,101.0,145.0,125.0,169.0,149.0,145.0
89,4.45,-0.028215408325195312,0.11105847358703613,1.1623022556304932,0.35089969635009766,-1.6606853008270264,1.2300121784210205,0.7241202592849731,0.1494210660457611,0.7961875796318054,3.0747139414464555,0.08092662626608219,0.31231376432024033,139.0565371024735,136.81272084805653,114.99658703071673,149.06143344709898,127.36026936026936,173.74747474747474,151.40714285714284,160.90714285714284,125.0,121.0,101.0,145.0,125.0,169.0,149.0,145.0
90,4.5,-0.028705358505249023,0.10911750793457031,1.169074296951294,0.34686875343322754,-1.660320520401001,1.235506296157837,0.7237632870674133,0.1491473764181137,0.7935870885848999,3.0748799765790307,0.08119353979759984,0.3063536760867312,139.04593639575972,136.65017667844523,114.93243243243244,149.06756756756758,127.53333333333333,173.69,151.5,160.7605633802817,125.0,121.0,101.0,145.0,125.0,169.0,149.0,145.0
91,4.55,-0.029158353805541992,0.10726618766784668,1.1757242679595947,0.3428962230682373,-1.659968614578247,1.240938425064087,0.7234349250793457,0.14889857172966003,0.7909888029098511,3.075041387239382,0.08149807370330946,0.3004925523260852,138.95406360424028,136.34982332155477,114.85521885521885,149.12457912457913,127.5794701986755,173.73509933774835,151.6159169550173,160.57785467128028,125.0,121.0,101.0,145.0,125.0,169.0,149.0,145.0
92,4.6000000000000005,-0.029654502868652344,0.10533809661865234,1.1823132038116455,0.3389468193054199,-1.6595699787139893,1.2461402416229248,0.7230406999588013,0.14862392842769623,0.7884790301322937,3.0752242804746346,0.08169646448854719,0.2948159301007559,138.87847222222223,136.13888888888889,114.7324414715719,149.1304347826087,127.66666666666667,173.7128712871287,151.71672354948805,160.4061433447099,125.0,121.0,101.0,145.0,125.0,169.0,149.0,145.0
93,4.65,-0.030110597610473633,0.10347986221313477,1.1887381076812744,0.3350865840911865,-1.6591894626617432,1.2512614727020264,0.7226558923721313,0.14837588369846344,0.7860115170478821,3.0753911754095524,0.0819052890993051,0.28925905613843383,138.85365853658536,136.05923344947735,114.578073089701,149.2624584717608,127.72697368421052,173.76644736842104,151.81443298969072,160.1443298969072,125.0,121.0,101.0,145.0,125.0,169.0,149.0,145.0
94,4.7,-0.030375242233276367,0.1015772819519043,1.195059061050415,0.3312685489654541,-1.6589415073394775,1.256460428237915,0.722194254398346,0.14825615286827087,0.7836352586746216,3.075386268820773,0.08205210573494813,0.2838097620284651,138.6975945017182,135.8591065292096,114.48524590163935,149.23934426229508,127.91475409836066,173.72459016393444,151.93814432989691,160.0,125.0,121.0,101.0,145.0,125.0,169.0,149.0,145.0
95,4.75,-0.03066873550415039,0.09986472129821777,1.2012007236480713,0.327545166015625,-1.6586582660675049,1.2614834308624268,0.7218317985534668,0.14811484515666962,0.7812231779098511,3.0754603466178585,0.08230472650951175,0.27851161415387166,138.53264604810997,135.79037800687286,114.37908496732027,149.24183006535947,127.95114006514657,173.68078175895766,151.9556313993174,159.95904436860067,125.0,121.0,101.0,145.0,125.0,169.0,149.0,145.0
96,4.800000000000001,-0.030951261520385742,0.09832429885864258,1.2071888446807861,0.32390475273132324,-1.6583693027496338,1.2664587497711182,0.7215542793273926,0.14797818660736084,0.7787740230560303,3.0755702755366334,0.08265964696733083,0.2732721550496767,138.3918918918919,135.5439189189189,114.27272727272727,149.1818181818182,127.97087378640776,173.63106796116506,152.0,159.79333333333332,125.0,121.0,101.0,145.0,125.0,169.0,149.0,145.0
97,4.8500000000000005,-0.031271934509277344,0.09683442115783691,1.2130625247955322,0.3203263282775879,-1.65804123878479,1.2712819576263428,0.7212910056114197,0.1478169709444046,0.7763537168502808,3.0757256844295306,0.08301301494735247,0.2681492026676216,138.3020134228188,135.40604026845637,114.20388349514563,149.24919093851133,128.0260586319218,173.63517915309447,152.1295681063123,159.5282392026578,125.0,121.0,101.0,145.0,125.0,169.0,149.0,145.0
98,4.9,-0.03148603439331055,0.09532403945922852,1.2188594341278076,0.3167734146118164,-1.657782793045044,1.2760889530181885,0.7209819555282593,0.1477266401052475,0.7739930152893066,3.0757879318485037,0.08332137682563347,0.26314533963780956,138.15771812080536,135.20469798657717,114.1258064516129,149.30322580645162,128.09003215434083,173.65273311897107,152.11184210526315,159.3815789473684,125.0,121.0,101.0,145.0,125.0,169.0,149.0,145.0
99,4.95,-0.03177905082702637,0.09375667572021484,1.2246897220611572,0.31317687034606934,-1.6574528217315674,1.2806594371795654,0.7206413745880127,0.14758636057376862,0.7716529369354248,3.075915933677823,0.0835619124581843,0.25829754746634237,138.0942760942761,135.0875420875421,114.0,149.3548387096774,128.21656050955414,173.71974522292993,152.1295681063123,159.25249169435216,125.0,121.0,101.0,145.0,125.0,169.0,149.0,145.0
100,5.0,-0.032086849212646484,0.0922086238861084,1.2304441928863525,0.3096129894256592,-1.6571013927459717,1.2850887775421143,0.7202982306480408,0.1474369615316391,0.7693405151367188,3.0760656736872773,0.08378631156508451,0.2535761521837726,138.08389261744966,134.91610738255034,113.93589743589743,149.35576923076923,128.30817610062894,173.68867924528303,152.1953642384106,159.11920529801324,125.0,121.0,101.0,145.0,125.0,169.0,149.0,145.0
101,5.050000000000001,-0.032379150390625,0.09068059921264648,1.2361037731170654,0.30609917640686035,-1.6567542552947998,1.2894508838653564,0.719947338104248,0.14729836583137512,0.7670670747756958,3.076206604235082,0.0839963417204185,0.24893614794740682,138.0,134.7171052631579,113.74213836477988,149.33962264150944,128.35625,173.721875,152.31921824104234,158.86970684039088,125.0,121.0,101.0,145.0,125.0,169.0,149.0,145.0
102,5.1000000000000005,-0.03258323669433594,0.0892174243927002,1.2415339946746826,0.30272698402404785,-1.6564691066741943,1.2937853336334229,0.7195938229560852,0.1472172886133194,0.764880895614624,3.0762803096212754,0.08420483221510848,0.24441100419631864,137.9577922077922,134.60714285714286,113.66771159874608,149.2884012539185,128.38629283489095,173.7133956386293,152.39354838709679,158.75483870967741,125.0,121.0,101.0,145.0,125.0,169.0,149.0,145.0
103,5.15,-0.0327610969543457,0.08782672882080078,1.2468178272247314,0.29944467544555664,-1.6561973094940186,1.2980983257293701,0.7192602157592773,0.14715257287025452,0.7627259492874146,3.076344570924601,0.08443692230426876,0.23993279661671812,137.89644012944984,134.45307443365695,113.6,149.315625,128.429012345679,173.7006172839506,152.41423948220066,158.5695792880259,125.0,121.0,101.0,145.0,125.0,169.0,149.0,145.0
104,5.2,-0.03292059898376465,0.08638739585876465,1.2520854473114014,0.2961568832397461,-1.655933141708374,1.3023326396942139,0.7188844680786133,0.14710091054439545,0.7606144547462463,3.076385824865939,0.08460894761337934,0.2355492950823569,137.79032258064515,134.28064516129032,113.4766355140187,149.26479750778816,128.4783950617284,173.73765432098764,152.5305466237942,158.40192926045017,125.0,121.0,101.0,145.0,125.0,169.0,149.0,145.0
105,5.25,-0.03307509422302246,0.08503389358520508,1.2571632862091064,0.2929880619049072,-1.655668020248413,1.306469202041626,0.7185365557670593,0.14705142378807068,0.7585511207580566,3.0764386269949093,0.08480543298967651,0.2312697685316268,137.6346153846154,134.125,113.42901234567901,149.2685185185185,128.57668711656441,173.69018404907976,152.53015873015872,158.2888888888889,125.0,121.0,101.0,145.0,125.0,169.0,149.0,145.0
106,5.300000000000001,-0.03329968452453613,0.0837259292602539,1.2622292041778564,0.2898077964782715,-1.6553404331207275,1.3104193210601807,0.7182193994522095,0.14695605635643005,0.7564610242843628,3.0765706799312866,0.08502110972917283,0.22710694582614946,137.58842443729904,133.91961414790995,113.40184049079754,149.25460122699386,128.59451219512195,173.6951219512195,152.55732484076432,158.21019108280254,125.0,121.0,101.0,145.0,125.0,169.0,149.0,145.0
107,5.3500000000000005,-0.033597707748413086,0.082366943359375,1.2672770023345947,0.2866353988647461,-1.6549522876739502,1.314211130142212,0.7178698778152466,0.14681394398212433,0.7544173002243042,3.0767568216075105,0.08517290923528184,0.22302933309153306,137.5,133.79746835443038,113.35168195718654,149.1834862385321,128.6048632218845,173.66565349544072,152.64668769716087,157.96845425867508,125.0,121.0,101.0,145.0,125.0,169.0,149.0,145.0
108,5.4,-0.03384518623352051,0.08103442192077637,1.272230863571167,0.2835121154785156,-1.6545989513397217,1.317986249923706,0.7175155878067017,0.1467054784297943,0.7524080276489258,3.076903014127436,0.08532061733757745,0.2190165189005307,137.4294670846395,133.67398119122257,113.18787878787879,149.16060606060606,128.61818181818182,173.6939393939394,152.6487341772152,157.7405063291139,125.0,121.0,101.0,145.0,125.0,169.0,149.0,145.0
109,5.45,-0.03403806686401367,0.07969379425048828,1.2770898342132568,0.2804410457611084,-1.6542847156524658,1.3217337131500244,0.7171338796615601,0.14663320779800415,0.7504602670669556,3.0769988317339614,0.08543205505493232,0.2150850780163561,137.25856697819316,133.55140186915887,113.08383233532935,149.11976047904193,128.64741641337386,173.6838905775076,152.715625,157.65625,125.0,121.0,101.0,145.0,125.0,169.0,149.0,145.0
110,5.5,-0.03425288200378418,0.07848668098449707,1.2817890644073486,0.2774684429168701,-1.6539466381072998,1.3253824710845947,0.7168183326721191,0.14654454588890076,0.7485088109970093,3.077142194617725,0.08561817538341913,0.21123236539198786,137.23028391167193,133.41955835962145,112.99703264094956,149.14243323442136,128.76347305389223,173.74850299401197,152.784375,157.553125,125.0,121.0,101.0,145.0,125.0,169.0,149.0,145.0
111,5.550000000000001,-0.03448843955993652,0.0773003101348877,1.2863919734954834,0.2745547294616699,-1.6535899639129639,1.3289120197296143,0.7165041565895081,0.1464424580335617,0.7465994954109192,3.077308583209402,0.08579218072816484,0.2074776632016289,137.2336448598131,133.2710280373832,112.96439169139465,149.0979228486647,128.7910447761194,173.73432835820896,152.784375,157.446875,125.0,121.0,101.0,145.0,125.0,169.0,149.0,145.0
112,5.6000000000000005,-0.034755706787109375,0.07606792449951172,1.2909834384918213,0.27164340019226074,-1.653205156326294,1.33235764503479,0.7161579132080078,0.1463211476802826,0.7447279691696167,3.0774936622932305,0.08591335299616176,0.2037739476561651,137.09202453987731,133.06748466257667,112.89411764705882,149.06470588235294,128.86430678466076,173.78761061946904,152.8641975308642,157.28395061728395,125.0,121.0,101.0,145.0,125.0,169.0,149.0,145.0
113,5.65,-0.03509926795959473,0.07484650611877441,1.2955043315887451,0.2687718868255615,-1.6527588367462158,1.3355906009674072,0.7158161401748657,0.14615033566951752,0.7428896427154541,3.0777515249913376,0.08601642266515094,0.20020658523363025,137.0,132.9388379204893,112.76246334310851,149.09970674486803,128.90962099125363,173.7259475218659,152.92331288343559,157.08895705521473,125.0,121.0,101.0,145.0,125.0,169.0,149.0,145.0
114,5.7,-0.03534412384033203,0.0736856460571289,1.2998936176300049,0.2659742832183838,-1.6523864269256592,1.3388564586639404,0.7154839634895325,0.1460431069135666,0.7410858273506165,3.077932886421785,0.08614044419765511,0.19670474643000194,136.8960244648318,132.8256880733945,112.71847507331378,149.0850439882698,129.04651162790697,173.69767441860466,152.9388379204893,157.0,125.0,121.0,101.0,145.0,125.0,169.0,149.0,145.0
115,5.75,-0.03565096855163574,0.07259321212768555,1.3042423725128174,0.26319074630737305,-1.6519596576690674,1.3419649600982666,0.7151939272880554,0.1458951234817505,0.7392560839653015,3.0781891026689645,0.0863056635797085,0.19329999034543263,136.80733944954127,132.67278287461772,112.57434402332362,149.0408163265306,129.06376811594203,173.67246376811593,153.03647416413375,156.91185410334347,125.0,121.0,101.0,145.0,125.0,169.0,149.0,145.0
116,5.800000000000001,-0.03592324256896973,0.07162928581237793,1.3083727359771729,0.2605559825897217,-1.6515581607818604,1.3450653553009033,0.7149556875228882,0.14576686918735504,0.7374629378318787,3.07843327171095,0.08653750840819237,0.18993772704176395,136.64417177914112,132.5,112.50872093023256,149.04360465116278,129.06376811594203,173.67246376811593,153.1337386018237,156.72644376899697,125.0,121.0,101.0,145.0,125.0,169.0,149.0,145.0
117,5.8500000000000005,-0.03618764877319336,0.07068204879760742,1.312415361404419,0.25797104835510254,-1.651160478591919,1.3480722904205322,0.7147142887115479,0.1456439048051834,0.7357100248336792,3.0786746013947504,0.08675655182198218,0.18667596522446459,136.60060975609755,132.45731707317074,112.42363112391931,149.02881844380403,129.06916426512967,173.671469740634,153.15243902439025,156.640243902439,125.0,121.0,101.0,145.0,125.0,169.0,149.0,145.0
118,5.9,-0.03641319274902344,0.06978178024291992,1.3163645267486572,0.2554435729980469,-1.650789499282837,1.35109543800354,0.714484453201294,0.1455455720424652,0.733979344367981,3.0788892679523587,0.08699373581128671,0.18343794322184273,136.59516616314198,132.32628398791542,112.32951289398281,149.04297994269342,129.12034383954153,173.6704871060172,153.21148036253777,156.4380664652568,125.0,121.0,101.0,145.0,125.0,169.0,149.0,145.0
119,5.95,-0.036568641662597656,0.06886005401611328,1.3202335834503174,0.252962589263916,-1.65047287940979,1.354126214981079,0.7142223119735718,0.14549319446086884,0.732311487197876,3.0790356959008682,0.08718903978872423,0.18026000392022903,136.55421686746988,132.18072289156626,112.23076923076923,149.014245014245,129.17897727272728,173.63920454545453,153.24096385542168,156.26506024096386,125.0,121.0,101.0,145.0,125.0,169.0,149.0,145.0
120,6.0,-0.0366978645324707,0.06795239448547363,1.3240225315093994,0.25052905082702637,-1.650174856185913,1.357118844985962,0.713954746723175,0.14545711874961853,0.7306798696517944,3.0791609969283833,0.08737478399680058,0.17714409867388214,136.39402985074628,132.07462686567163,112.12285714285714,148.97714285714287,129.17897727272728,173.63920454545453,153.2574850299401,156.14071856287424,125.0,121.0,101.0,145.0,125.0,169.0,149.0,145.0
121,6.050000000000001,-0.03684234619140625,0.06710457801818848,1.3277223110198975,0.24814915657043457,-1.6498620510101318,1.3600265979766846,0.7137152552604675,0.14540991187095642,0.7290582656860352,3.079312466696297,0.08758854582608668,0.17409900821874671,136.39520958083833,131.85329341317365,112.04273504273505,148.95726495726495,129.1943661971831,173.55211267605634,153.28571428571428,156.05654761904762,125.0,121.0,101.0,145.0,125.0,169.0,149.0,145.0
122,6.1000000000000005,-0.03697538375854492,0.06625223159790039,1.3313448429107666,0.24582219123840332,-1.6495583057403564,1.3629119396209717,0.7134618163108826,0.1453702598810196,0.727484941482544,3.0794493199655557,0.08777876340899601,0.17108642743706598,136.33827893175075,131.79821958456972,112.04273504273505,148.95726495726495,129.1904761904762,173.5546218487395,153.29376854599406,155.973293768546,125.0,121.0,101.0,145.0,125.0,169.0,149.0,145.0
123,6.15,-0.03711748123168945,0.06537485122680664,1.3349764347076416,0.24348068237304688,-1.6492445468902588,1.365748643875122,0.7131916284561157,0.14532583951950073,0.7259246706962585,3.0795922115664855,0.08794127516687494,0.1681144811477685,136.21533923303835,131.6637168141593,111.95774647887323,148.95774647887325,129.1904761904762,173.5546218487395,153.31858407079645,155.87020648967552,125.0,121.0,101.0,145.0,125.0,169.0,149.0,145.0
124,6.2,-0.03727364540100098,0.0645146369934082,1.3385426998138428,0.24117803573608398,-1.6489183902740479,1.3685009479522705,0.7129249572753906,0.1452719122171402,0.7243894338607788,3.0797516350464322,0.08809961859141245,0.165211405286343,136.16814159292036,131.51622418879057,111.90196078431373,148.9579831932773,129.21787709497207,173.54189944134077,153.39644970414201,155.74260355029585,125.0,121.0,101.0,145.0,125.0,169.0,149.0,145.0
125,6.25,-0.037409305572509766,0.06365966796875,1.342029333114624,0.23892664909362793,-1.6486093997955322,1.3712184429168701,0.7126497626304626,0.14523112773895264,0.7228977084159851,3.0798918107880326,0.08824173040584854,0.16236324193352866,136.08163265306123,131.32944606413994,111.77437325905292,148.91643454039,129.21052631578948,173.47368421052633,153.4542772861357,155.63421828908554,125.0,121.0,101.0,145.0,125.0,169.0,149.0,145.0
126,6.300000000000001,-0.03751802444458008,0.06287288665771484,1.3453714847564697,0.23677539825439453,-1.6483218669891357,1.3739254474639893,0.7123995423316956,0.1452064961194992,0.7214430570602417,3.0800142576840144,0.08841372423815191,0.1595527347848512,135.99710144927536,131.2086956521739,111.7182320441989,148.9696132596685,129.2664835164835,173.42032967032966,153.4925816023739,155.40949554896142,125.0,121.0,101.0,145.0,125.0,169.0,149.0,145.0
127,6.3500000000000005,-0.03756237030029297,0.06206679344177246,1.3486874103546143,0.23462533950805664,-1.6480848789215088,1.376617670059204,0.7121250033378601,0.14522317051887512,0.7200189828872681,3.080078456527526,0.08855381867611897,0.15682074677069735,135.9156976744186,131.07267441860466,111.63085399449035,148.97796143250687,129.29041095890412,173.4027397260274,153.45,155.28529411764706,125.0,121.0,101.0,145.0,125.0,169.0,149.0,145.0
128,6.4,-0.03762316703796387,0.06122708320617676,1.3520019054412842,0.2324683666229248,-1.647834062576294,1.3792226314544678,0.7118291854858398,0.14522983133792877,0.7186186909675598,3.0801544766792146,0.08865622075871937,0.15415733146608404,135.9072463768116,131.04347826086956,111.55524861878453,148.98066298342542,129.34794520547945,173.3972602739726,153.43148688046648,155.201166180758,125.0,121.0,101.0,145.0,125.0,169.0,149.0,145.0
129,6.45,-0.03766012191772461,0.06040787696838379,1.3552734851837158,0.2303333282470703,-1.6476008892059326,1.3818237781524658,0.7115373015403748,0.14525125920772552,0.7172289490699768,3.080213306143523,0.08876390157715029,0.1515223184095701,135.89080459770116,130.92816091954023,111.43526170798899,148.95316804407713,129.4320652173913,173.41032608695653,153.47550432276657,155.12680115273776,125.0,121.0,101.0,145.0,125.0,169.0,149.0,145.0
130,6.5,-0.03769874572753906,0.05964803695678711,1.3584229946136475,0.2282850742340088,-1.6473662853240967,1.3843777179718018,0.7112705707550049,0.14527013897895813,0.715869665145874,3.080280718055479,0.08889831655743363,0.14893181300793354,135.7471264367816,130.77011494252875,111.40771349862258,148.900826446281,129.4538043478261,173.35597826086956,153.4742857142857,154.94571428571427,125.0,121.0,101.0,145.0,125.0,169.0,149.0,145.0
131,6.550000000000001,-0.03777909278869629,0.05887246131896973,1.3615849018096924,0.22621655464172363,-1.6470987796783447,1.386805772781372,0.7109978199005127,0.14526259899139404,0.7145143151283264,3.080386774752106,0.08901229598975224,0.14642720214811894,135.71757925072046,130.77521613832852,111.27792915531334,148.8365122615804,129.47425474254743,173.37669376693768,153.5,154.89080459770116,125.0,121.0,101.0,145.0,125.0,169.0,149.0,145.0
132,6.6000000000000005,-0.03782510757446289,0.05820631980895996,1.3645970821380615,0.22425460815429688,-1.6468565464019775,1.3892700672149658,0.7107740640640259,0.14527519047260284,0.7131697535514832,3.080475354188452,0.08919488886158307,0.14392020687206444,135.64469914040114,130.65042979942695,111.26287262872629,148.78319783197833,129.52956989247312,173.36559139784947,153.5,154.85549132947978,125.0,121.0,101.0,145.0,125.0,169.0,149.0,145.0
133,6.65,-0.037958621978759766,0.05755019187927246,1.3676059246063232,0.22229290008544922,-1.6465437412261963,1.3915884494781494,0.7105638980865479,0.14523163437843323,0.7118195295333862,3.080647609694344,0.08938227645459838,0.1414729065738441,135.4744318181818,130.44886363636363,111.1869918699187,148.7560975609756,129.52956989247312,173.36559139784947,153.54857142857142,154.71142857142857,125.0,121.0,101.0,145.0,125.0,169.0,149.0,145.0
134,6.7,-0.038140296936035156,0.05689406394958496,1.3705623149871826,0.22036528587341309,-1.6461951732635498,1.3937647342681885,0.7103543877601624,0.14515674114227295,0.7105008363723755,3.0808633903098563,0.08955390579050226,0.13911988348001572,135.3484419263456,130.25495750708214,111.02710027100271,148.7642276422764,129.55495978552278,173.35120643431637,153.65428571428572,154.5457142857143,125.0,121.0,101.0,145.0,125.0,169.0,149.0,145.0
135,6.75,-0.03827857971191406,0.0563044548034668,1.3733470439910889,0.21855807304382324,-1.6458842754364014,1.3959143161773682,0.71016526222229,0.14510852098464966,0.7092373371124268,3.0810451846325013,0.08975042723145545,0.13683709428445898,135.30028328611897,130.1388101983003,111.01881720430107,148.72043010752688,129.56266666666667,173.344,153.6458923512748,154.42492917847025,125.0,121.0,101.0,145.0,125.0,169.0,149.0,145.0
136,6.800000000000001,-0.038451194763183594,0.05566120147705078,1.3761608600616455,0.21672558784484863,-1.6455466747283936,1.3979780673980713,0.7099485993385315,0.1450391411781311,0.7079938650131226,3.0812515359630877,0.08989976999034159,0.1346049510056047,135.25,130.07022471910113,110.94878706199461,148.70350404312669,129.58090185676392,173.3236074270557,153.65254237288136,154.22881355932202,125.0,121.0,101.0,145.0,125.0,169.0,149.0,145.0
137,6.8500000000000005,-0.03857421875,0.055007219314575195,1.3789403438568115,0.21490836143493652,-1.645249605178833,1.4000489711761475,0.7097153663635254,0.14500181376934052,0.7067792415618896,3.081410857376722,0.09002673221549369,0.13241445299645777,135.25,130.07022471910113,110.85026737967914,148.6283422459893,129.58090185676392,173.3236074270557,153.6685552407932,154.1416430594901,125.0,121.0,101.0,145.0,125.0,169.0,149.0,145.0
138,6.9,-0.0386507511138916,0.05441904067993164,1.3816134929656982,0.2131664752960205,-1.6449882984161377,1.4021780490875244,0.7095069289207458,0.14499296247959137,0.7055808305740356,3.081534487908679,0.0901923684954421,0.1302112232395659,135.10893854748602,129.93016759776538,110.74142480211081,148.66754617414247,129.60846560846562,173.3148148148148,153.61516853932585,154.01404494382024,125.0,121.0,101.0,145.0,125.0,169.0,149.0,145.0
139,6.95,-0.038752079010009766,0.053804874420166016,1.3842861652374268,0.21141576766967773,-1.6447079181671143,1.404193639755249,0.7092849016189575,0.14496822655200958,0.7044013142585754,3.0816804585964213,0.09032743934957464,0.12809748971463356,135.06944444444446,129.84166666666667,110.72105263157894,148.64736842105262,129.60846560846562,173.3148148148148,153.61516853932585,154.01404494382024,125.0,121.0,101.0,145.0,125.0,169.0,149.0,145.0
140,7.0,-0.03889822959899902,0.05318570137023926,1.386948823928833,0.209672212600708,-1.6443912982940674,1.4061381816864014,0.7090625762939453,0.1449151337146759,0.7032310962677002,3.0818673791116047,0.09045440191127536,0.12600950064776292,134.94722222222222,129.75277777777777,110.64583333333333,148.5859375,129.62796833773086,173.29287598944592,153.6731843575419,153.98603351955308,125.0,121.0,101.0,145.0,125.0,169.0,149.0,145.0
141,7.050000000000001,-0.039078474044799805,0.052671194076538086,1.3894965648651123,0.20801210403442383,-1.6440465450286865,1.408015489578247,0.7088980674743652,0.14483831822872162,0.7020542621612549,3.0820992970574346,0.09065472475048204,0.12395599275299671,134.98066298342542,129.64917127071823,110.59326424870466,148.59326424870466,129.66141732283464,173.246719160105,153.7094972067039,153.87430167597765,125.0,121.0,101.0,145.0,125.0,169.0,149.0,145.0
142,7.1000000000000005,-0.03920435905456543,0.052147626876831055,1.3919909000396729,0.20638728141784668,-1.6437466144561768,1.40993332862854,0.7087162733078003,0.1447964608669281,0.7009159326553345,3.082277100762744,0.09083383710553061,0.1219160902630578,134.9587912087912,129.53571428571428,110.56623376623376,148.6025974025974,129.63350785340313,173.2408376963351,153.74380165289256,153.7465564738292,125.0,121.0,101.0,145.0,125.0,169.0,149.0,145.0
143,7.15,-0.03929877281188965,0.05156898498535156,1.3944728374481201,0.20476889610290527,-1.6434743404388428,1.4118521213531494,0.7084957361221313,0.14477582275867462,0.6998249888420105,3.082416893980934,0.09095654464622152,0.11990522910159569,134.87431693989072,129.41256830601094,110.48704663212435,148.5880829015544,129.63350785340313,173.2408376963351,153.77134986225894,153.6473829201102,125.0,121.0,101.0,145.0,125.0,169.0,149.0,145.0
144,7.2,-0.0393984317779541,0.05099654197692871,1.3968985080718994,0.20318984985351562,-1.6431996822357178,1.4137189388275146,0.7082747220993042,0.14475111663341522,0.6987619400024414,3.0825616812324905,0.09107291780934919,0.11794067159532096,134.74184782608697,129.3288043478261,110.4119170984456,148.54145077720207,129.65013054830288,173.21671018276763,153.7173913043478,153.5,125.0,121.0,101.0,145.0,125.0,169.0,149.0,145.0
145,7.25,-0.039526939392089844,0.050425052642822266,1.3993275165557861,0.2015988826751709,-1.6429016590118408,1.4154932498931885,0.708057701587677,0.14470787346363068,0.6976968050003052,3.082736164869079,0.09118533673007641,0.11603969976019259,134.71273712737127,129.25474254742548,110.38701298701298,148.52727272727273,129.62790697674419,173.11627906976744,153.77868852459017,153.4016393442623,125.0,121.0,101.0,145.0,125.0,169.0,149.0,145.0
146,7.300000000000001,-0.039586782455444336,0.049897193908691406,1.4016797542572021,0.200059175491333,-1.6426594257354736,1.4173429012298584,0.7078518271446228,0.14470745623111725,0.6966469287872314,3.082850778245691,0.09131956954802366,0.1141321919239868,134.63956639566396,129.12466124661248,110.32299741602067,148.51679586563307,129.62790697674419,173.11627906976744,153.78415300546447,153.31420765027323,125.0,121.0,101.0,145.0,125.0,169.0,149.0,145.0
147,7.3500000000000005,-0.039666175842285156,0.04935002326965332,1.4040091037750244,0.19853520393371582,-1.6424028873443604,1.4191248416900635,0.7076345086097717,0.14469486474990845,0.6956241130828857,3.0829806499545236,0.09143049386635674,0.1122721583540694,134.5,129.0,110.2687338501292,148.5219638242894,129.62790697674419,173.11627906976744,153.75405405405405,153.24864864864864,125.0,121.0,101.0,145.0,125.0,169.0,149.0,145.0
148,7.4,-0.03980255126953125,0.0487828254699707,1.406348466873169,0.19699954986572266,-1.6421024799346924,1.4207794666290283,0.7074120044708252,0.14464573562145233,0.6946090459823608,3.083162768774503,0.09152205220698281,0.11048291799228335,134.5,129.0,110.14615384615385,148.47692307692307,129.66666666666666,173.06410256410257,153.69647696476966,153.16531165311653,125.0,121.0,101.0,145.0,125.0,169.0,149.0,145.0
149,7.45,-0.03989553451538086,0.04827761650085449,1.4086191654205322,0.19550871849060059,-1.6418354511260986,1.422483205795288,0.7072150707244873,0.1446235179901123,0.6935917139053345,3.083311874026243,0.09165359152931761,0.10868825156935344,134.41509433962264,128.89487870619945,110.06615776081425,148.49618320610688,129.66240409207163,173.03580562659846,153.72086720867208,153.12737127371273,125.0,121.0,101.0,145.0,125.0,169.0,149.0,145.0
150,7.5,-0.03998374938964844,0.0478060245513916,1.4108202457427979,0.19406676292419434,-1.6415727138519287,1.4241602420806885,0.7070327401161194,0.1446034163236618,0.6925917863845825,3.0834602429680804,0.09180230573622003,0.1069246459302071,134.32620320855614,128.77540106951872,109.97709923664122,148.48346055979644,129.66240409207163,173.03580562659846,153.75338753387533,152.9810298102981,125.0,121.0,101.0,145.0,125.0,169.0,149.0,145.0
151,7.550000000000001,-0.040056705474853516,0.04733538627624512,1.4129612445831299,0.19266581535339355,-1.6413257122039795,1.4258038997650146,0.7068448662757874,0.14459247887134552,0.6916276216506958,3.08359321617923,0.0919373270264202,0.10520906295943715,134.27733333333333,128.736,109.94897959183673,148.4795918367347,129.66836734693877,173.0076530612245,153.71159029649596,152.8167115902965,125.0,121.0,101.0,145.0,125.0,169.0,149.0,145.0
152,7.6000000000000005,-0.04010200500488281,0.04682350158691406,1.4151313304901123,0.19123387336730957,-1.641101598739624,1.427438497543335,0.7066301703453064,0.14459970593452454,0.6906759738922119,3.0836970554122947,0.09203266032103746,0.10353077737372929,134.20478723404256,128.61968085106383,109.83627204030226,148.43073047858942,129.6548223350254,172.98984771573603,153.69786096256684,152.75133689839572,125.0,121.0,101.0,145.0,125.0,169.0,149.0,145.0
153,7.65,-0.0401613712310791,0.04633498191833496,1.4172394275665283,0.1898488998413086,-1.6408679485321045,1.4290330410003662,0.7064266800880432,0.14459744095802307,0.6897440552711487,3.0838149100509935,0.09213925721267976,0.1018776250577398,134.17241379310346,128.52254641909815,109.68020304568527,148.39086294416245,129.6548223350254,172.98984771573603,153.704,152.72266666666667,125.0,121.0,101.0,145.0,125.0,169.0,149.0,145.0
154,7.7,-0.04021310806274414,0.04590415954589844,1.419231653213501,0.1885545253753662,-1.6406424045562744,1.4306294918060303,0.706248939037323,0.14459869265556335,0.6888399124145508,3.0839290640956483,0.09227939857287366,0.10023064910622043,134.14133333333334,128.472,109.65569620253164,148.40506329113924,129.66161616161617,172.97979797979798,153.68351063829786,152.59840425531914,125.0,121.0,101.0,145.0,125.0,169.0,149.0,145.0
155,7.75,-0.04024314880371094,0.04543042182922363,1.4212429523468018,0.1872389316558838,-1.6404354572296143,1.4322140216827393,0.7060436606407166,0.14461395144462585,0.6879551410675049,3.0840184668735175,0.09237849544084284,0.09861633114350997,134.0,128.3342245989305,109.57828282828282,148.42171717171718,129.66161616161617,172.97979797979798,153.6437994722955,152.52770448548813,125.0,121.0,101.0,145.0,125.0,169.0,149.0,145.0
156,7.800000000000001,-0.040323495864868164,0.044931888580322266,1.4232594966888428,0.18591642379760742,-1.6401903629302979,1.4336779117584229,0.7058299779891968,0.14459776878356934,0.6870843172073364,3.084153237990985,0.09245377661568858,0.0970733771497026,133.94919786096256,128.3288770053476,109.55189873417721,148.43291139240506,129.59,172.905,153.65263157894736,152.5,125.0,121.0,101.0,145.0,125.0,169.0,149.0,145.0
157,7.8500000000000005,-0.040346384048461914,0.04447293281555176,1.4252283573150635,0.18462347984313965,-1.6399905681610107,1.4352200031280518,0.7056289911270142,0.14461739361286163,0.6862150430679321,3.0842383272506497,0.09255252254664019,0.09550794311465191,133.83641160949867,128.27440633245382,109.55189873417721,148.43291139240506,129.59850374064837,172.8778054862843,153.66929133858267,152.39370078740157,125.0,121.0,101.0,145.0,125.0,169.0,149.0,145.0
158,7.9,-0.04037594795227051,0.04401874542236328,1.4271957874298096,0.18332386016845703,-1.6397850513458252,1.4367077350616455,0.7054305076599121,0.1446322202682495,0.6853430271148682,3.0843325325213105,0.09265118725081394,0.09399153412104885,133.83289124668434,128.16445623342176,109.51133501259446,148.39294710327457,129.59850374064837,172.8778054862843,153.64473684210526,152.37894736842105,125.0,121.0,101.0,145.0,125.0,169.0,149.0,145.0
159,7.95,-0.04044771194458008,0.0435328483581543,1.429168939590454,0.1820240020751953,-1.63954758644104,1.4381344318389893,0.705218493938446,0.14462128281593323,0.6844896674156189,3.0844613704894535,0.0927232560125008,0.09249305685095208,133.753280839895,128.11286089238845,109.4911838790932,148.34005037783376,129.6218905472637,172.89303482587064,153.6551724137931,152.30238726790452,125.0,121.0,101.0,145.0,125.0,169.0,149.0,145.0
160,8.0,-0.04055905342102051,0.04305720329284668,1.4311320781707764,0.18072938919067383,-1.6392781734466553,1.4394810199737549,0.7050155401229858,0.1445842683315277,0.6836358308792114,3.0846293007416117,0.09280192472355146,0.09103551119295034,133.68848167539267,127.94502617801047,109.40149625935162,148.25935162094763,129.6218905472637,172.89303482587064,153.72222222222223,152.1851851851852,125.0,121.0,101.0,145.0,125.0,169.0,149.0,145.0
161,8.05,-0.040686607360839844,0.04259824752807617,1.4330108165740967,0.1795041561126709,-1.6390011310577393,1.440777063369751,0.7048195004463196,0.14453686773777008,0.6828190088272095,3.084809676503018,0.09288399995643248,0.08961239359688215,133.59791122715404,127.78851174934726,109.2512315270936,148.23645320197045,129.6218905472637,172.89303482587064,153.6955380577428,152.11286089238845,125.0,121.0,101.0,145.0,125.0,169.0,149.0,145.0
162,8.1,-0.04083847999572754,0.042145729064941406,1.4348299503326416,0.17832589149475098,-1.6387078762054443,1.4420053958892822,0.7046273946762085,0.14447380602359772,0.6820329427719116,3.0850108293837875,0.09296278717201917,0.0882331807989713,133.5691906005222,127.73890339425587,109.18181818181819,148.2137592137592,129.6426799007444,172.87344913151364,153.67532467532467,151.97142857142856,125.0,121.0,101.0,145.0,125.0,169.0,149.0,145.0
163,8.15,-0.040961265563964844,0.04168701171875,1.4366271495819092,0.17715883255004883,-1.6384403705596924,1.443237066268921,0.7044262886047363,0.14442899823188782,0.6812644004821777,3.085183815977875,0.09302853753981231,0.08687950530619365,133.5,127.65104166666667,109.1593137254902,148.23039215686273,129.63771712158808,172.83622828784118,153.65885416666666,151.94791666666666,125.0,121.0,101.0,145.0,125.0,169.0,149.0,145.0
164,8.200000000000001,-0.04110383987426758,0.04121851921081543,1.4384300708770752,0.17598509788513184,-1.638157606124878,1.44441819190979,0.7042216062545776,0.14437174797058105,0.6804999113082886,3.085375168678174,0.09308477857603796,0.08555612931009876,133.46113989637306,127.61139896373057,109.09024390243903,148.20243902439023,129.62376237623764,172.8118811881188,153.63541666666666,151.79166666666666,125.0,121.0,101.0,145.0,125.0,169.0,149.0,145.0
165,8.25,-0.04120326042175293,0.040740013122558594,1.440211534500122,0.1748216152191162,-1.6379115581512451,1.4456255435943604,0.7040045857429504,0.14434181153774261,0.6797553300857544,3.0855240466008422,0.09312360844402617,0.08424966496781895,133.39793281653746,127.56589147286822,109.01711491442543,148.23716381418092,129.61481481481482,172.78518518518518,153.6321243523316,151.7020725388601,125.0,121.0,101.0,145.0,125.0,169.0,149.0,145.0
166,8.3,-0.04126095771789551,0.04027271270751953,1.4419505596160889,0.17368388175964355,-1.6377007961273193,1.4468529224395752,0.7037872076034546,0.14433784782886505,0.6790280342102051,3.0856353511178063,0.09316125144816166,0.08296420341183623,133.41237113402062,127.54123711340206,109.0,148.18491484184915,129.61481481481482,172.78518518518518,153.61298701298702,151.63116883116882,125.0,121.0,101.0,145.0,125.0,169.0,149.0,145.0
167,8.35,-0.04131817817687988,0.039784908294677734,1.443697214126587,0.17253899574279785,-1.63749098777771,1.4480764865875244,0.7035571932792664,0.1443343609571457,0.6783105134963989,3.085743531081057,0.09318032515600062,0.08168259075708031,133.35641025641024,127.45897435897436,108.94647201946472,148.17031630170317,129.61670761670763,172.75921375921376,153.62694300518135,151.55181347150258,125.0,121.0,101.0,145.0,125.0,169.0,149.0,145.0
168,8.4,-0.041368961334228516,0.0393068790435791,1.4454076290130615,0.17142033576965332,-1.6372883319854736,1.4492824077606201,0.7033305764198303,0.14433416724205017,0.6776081919670105,3.0858462414120584,0.09320022982395357,0.08042498939909806,133.33247422680412,127.40721649484536,108.82808716707022,148.13317191283292,129.61670761670763,172.75921375921376,153.60309278350516,151.5,125.0,121.0,101.0,145.0,125.0,169.0,149.0,145.0
169,8.450000000000001,-0.04140973091125488,0.03885698318481445,1.4470560550689697,0.1703498363494873,-1.6370952129364014,1.450493574142456,0.7031158208847046,0.14433972537517548,0.6769225597381592,3.0859405758774483,0.09323593200844155,0.079172975861869,133.22762148337597,127.32225063938618,108.76570048309179,148.1014492753623,129.61670761670763,172.75921375921376,153.60309278350516,151.5,125.0,121.0,101.0,145.0,125.0,169.0,149.0,145.0
170,8.5,-0.04150223731994629,0.03844022750854492,1.4486668109893799,0.1693103313446045,-1.6368610858917236,1.45162034034729,0.7029237747192383,0.14431175589561462,0.6762348413467407,3.086086864947682,0.0932986892995981,0.07795359790878079,133.17135549872123,127.32736572890026,108.71116504854369,148.10194174757282,129.60146699266502,172.7237163814181,153.5784061696658,151.48586118251927,125.0,121.0,101.0,145.0,125.0,169.0,149.0,145.0
171,8.55,-0.04157876968383789,0.03806710243225098,1.4502413272857666,0.16829276084899902,-1.636638879776001,1.4527628421783447,0.7027527689933777,0.14429296553134918,0.675539493560791,3.0862232530030687,0.09339229335194797,0.07673503593284409,133.0841836734694,127.2015306122449,108.65450121654501,148.07542579075425,129.60146699266502,172.7237163814181,153.58762886597938,151.45876288659792,125.0,121.0,101.0,145.0,125.0,169.0,149.0,145.0
172,8.6,-0.041702985763549805,0.03769659996032715,1.4517910480499268,0.1672980785369873,-1.6363799571990967,1.453819990158081,0.7025872468948364,0.14424411952495575,0.6748564839363098,3.0864035348508674,0.09348610630950421,0.07555449284237122,133.0,127.13299232736573,108.59661835748793,148.07729468599032,129.60146699266502,172.7237163814181,153.6272493573265,151.3573264781491,125.0,121.0,101.0,145.0,125.0,169.0,149.0,145.0
173,8.65,-0.04181241989135742,0.03734254837036133,1.4532883167266846,0.16633987426757812,-1.6361358165740967,1.4548590183258057,0.7024266719818115,0.14420384168624878,0.6741935014724731,3.086570316368617,0.0935845711781472,0.07440634142229419,132.90151515151516,127.06565656565657,108.56900726392251,148.07990314769975,129.63990267639903,172.68369829683698,153.60613810741688,151.2455242966752,125.0,121.0,101.0,145.0,125.0,169.0,149.0,145.0
174,8.700000000000001,-0.041933536529541016,0.0369875431060791,1.4547922611236572,0.16536974906921387,-1.6358835697174072,1.4558336734771729,0.7022671699523926,0.14415612816810608,0.6735281944274902,3.0867505669880013,0.09367887825025628,0.07331052267300857,132.86146095717885,127.00503778337531,108.4635922330097,148.0266990291262,129.63990267639903,172.68369829683698,153.55949367088607,151.15949367088606,125.0,121.0,101.0,145.0,125.0,169.0,149.0,145.0
175,8.75,-0.04205894470214844,0.0366368293762207,1.4562666416168213,0.16442275047302246,-1.635629415512085,1.4567863941192627,0.7021088600158691,0.14410538971424103,0.6728768944740295,3.086933844701021,0.09377246992160669,0.07223336833268035,132.73737373737373,126.8510101010101,108.40821256038647,148.02657004830917,129.62439024390244,172.6609756097561,153.51645569620254,151.07848101265822,125.0,121.0,101.0,145.0,125.0,169.0,149.0,145.0
176,8.8,-0.04222989082336426,0.03624272346496582,1.4577667713165283,0.16345477104187012,-1.6353418827056885,1.4576342105865479,0.7019325494766235,0.1440264880657196,0.6722410917282104,3.0871562796822727,0.09383016988556699,0.07121538525168414,132.7020202020202,126.82323232323232,108.3357314148681,148.06235011990407,129.62530413625305,172.63260340632604,153.5,151.05555555555554,125.0,121.0,101.0,145.0,125.0,169.0,149.0,145.0
177,8.85,-0.0423734188079834,0.0358734130859375,1.4592249393463135,0.16251492500305176,-1.635077714920044,1.458503007888794,0.7017647624015808,0.14396439492702484,0.6716130971908569,3.087354672680782,0.0939011565107164,0.07020440385951963,132.67506297229218,126.83123425692695,108.25890736342043,148.04038004750595,129.61070559610707,172.5839416058394,153.5,150.94444444444446,125.0,121.0,101.0,145.0,125.0,169.0,149.0,145.0
178,8.9,-0.0424494743347168,0.03554987907409668,1.4606149196624756,0.1616208553314209,-1.6348683834075928,1.4594480991363525,0.7016124129295349,0.143943652510643,0.6709933876991272,3.087492653603698,0.09399785101962924,0.0691835485759853,132.6532663316583,126.71105527638191,108.2452380952381,148.01666666666668,129.60922330097088,172.55582524271844,153.5,150.94444444444446,125.0,121.0,101.0,145.0,125.0,169.0,149.0,145.0
179,8.950000000000001,-0.042563676834106445,0.03520512580871582,1.462012529373169,0.16072487831115723,-1.634629487991333,1.4603369235992432,0.701452374458313,0.14389945566654205,0.6703844666481018,3.0876641693092712,0.09407881222116347,0.06818080143054131,132.57828282828282,126.57828282828282,108.13776722090262,147.9691211401425,129.53012048192772,172.48433734939758,153.52392947103274,150.9294710327456,125.0,121.0,101.0,145.0,125.0,169.0,149.0,145.0
180,9.0,-0.04266500473022461,0.034909963607788086,1.4633190631866455,0.15990257263183594,-1.6344025135040283,1.4612500667572021,0.7013149261474609,0.14386188983917236,0.669794499874115,3.087824433092346,0.09419256151729218,0.06716668077112999,132.55189873417723,126.56708860759494,108.06367924528301,147.95283018867926,129.52289156626506,172.4289156626506,153.48370927318297,150.8421052631579,125.0,121.0,101.0,145.0,125.0,169.0,149.0,145.0
181,9.05,-0.042723655700683594,0.03463888168334961,1.4645912647247314,0.15910100936889648,-1.6342103481292725,1.4622066020965576,0.7011844515800476,0.14385037124156952,0.6692075729370117,3.087946699958523,0.09431844556085149,0.06615126928668164,132.54060913705584,126.54060913705584,108.06367924528301,147.95283018867926,129.5,172.44471153846155,153.52130325814537,150.75438596491227,125.0,121.0,101.0,145.0,125.0,169.0,149.0,145.0
182,9.1,-0.04275393486022949,0.034343719482421875,1.465852975845337,0.15830612182617188,-1.6340434551239014,1.4631831645965576,0.7010365128517151,0.14385713636875153,0.6686446070671082,3.0880389218317195,0.09441808257372905,0.06514473830552617,132.4379746835443,126.47848101265822,108.03782505910165,147.96217494089834,129.5,172.44471153846155,153.47869674185463,150.671679197995,125.0,121.0,101.0,145.0,125.0,169.0,149.0,145.0
183,9.15,-0.04281163215637207,0.03401660919189453,1.4671471118927002,0.15748167037963867,-1.6338565349578857,1.4640820026397705,0.7008744478225708,0.1438470035791397,0.6680851578712463,3.0881557915595796,0.09449141307258492,0.06418830497347316,132.4379746835443,126.47848101265822,108.03782505910165,147.96217494089834,129.45933014354068,172.41148325358853,153.46599496221663,150.61712846347606,125.0,121.0,101.0,145.0,125.0,169.0,149.0,145.0
184,9.200000000000001,-0.042832136154174805,0.03367495536804199,1.468446969985962,0.15664887428283691,-1.633699655532837,1.465027093887329,0.700700581073761,0.14386023581027985,0.6675329804420471,3.0882353669139078,0.09454815010804868,0.0632215214844978,132.3609022556391,126.40100250626567,107.97652582159624,147.93896713615024,129.45933014354068,172.41148325358853,153.4885496183206,150.5267175572519,125.0,121.0,101.0,145.0,125.0,169.0,149.0,145.0
185,9.25,-0.042855024337768555,0.03334450721740723,1.4697048664093018,0.15584778785705566,-1.6335437297821045,1.465940237045288,0.700531542301178,0.14387156069278717,0.6669970750808716,3.088317362413044,0.09460880241724831,0.06228490675152449,132.3075,126.3625,107.85446009389672,147.88967136150234,129.45933014354068,172.41148325358853,153.48091603053436,150.47837150127228,125.0,121.0,101.0,145.0,125.0,169.0,149.0,145.0
186,9.3,-0.04287290573120117,0.033067941665649414,1.470884084701538,0.15510892868041992,-1.6333930492401123,1.466853380203247,0.7003892660140991,0.14388450980186462,0.666470468044281,3.088398125912939,0.09470682455732482,0.0613535266197413,132.22222222222223,126.31604938271605,107.81367924528301,147.9056603773585,129.41567695961996,172.36817102137766,153.48091603053436,150.47837150127228,125.0,121.0,101.0,145.0,125.0,169.0,149.0,145.0
187,9.35,-0.042885541915893555,0.03282022476196289,1.4720299243927002,0.15439367294311523,-1.6332461833953857,1.4677650928497314,0.7002610564231873,0.14389997720718384,0.6659432649612427,3.0884765256089515,0.09482521080702996,0.060429293943865474,132.1460396039604,126.26237623762377,107.77304964539007,147.8841607565012,129.35560859188544,172.2983293556086,153.4227848101266,150.39493670886077,125.0,121.0,101.0,145.0,125.0,169.0,149.0,145.0
188,9.4,-0.04288291931152344,0.032561302185058594,1.473186731338501,0.15366411209106445,-1.633113145828247,1.468682050704956,0.700124979019165,0.1439254879951477,0.6654183864593506,3.0885394409015983,0.09493040315812641,0.05951388811783262,132.10591133004925,126.16995073891626,107.74644549763033,147.89099526066352,129.32857142857142,172.30238095238096,153.43324937027708,150.34005037783376,125.0,121.0,101.0,145.0,125.0,169.0,149.0,145.0
189,9.450000000000001,-0.042883872985839844,0.03226661682128906,1.4743444919586182,0.15293622016906738,-1.6329796314239502,1.469574213027954,0.6999694108963013,0.1439487636089325,0.6649181842803955,3.0886010796718186,0.09500302732148938,0.058620215306313006,132.04889975550122,126.16136919315403,107.70117647058824,147.86352941176472,129.3230403800475,172.27553444180523,153.4325,150.2675,125.0,121.0,101.0,145.0,125.0,169.0,149.0,145.0
190,9.5,-0.04286766052246094,0.03200507164001465,1.475464105606079,0.15223288536071777,-1.6328604221343994,1.4704749584197998,0.6998288631439209,0.14398188889026642,0.664417028427124,3.0886494589413305,0.09509753364482199,0.057735188359583044,132.02926829268293,126.14146341463415,107.63084112149532,147.8341121495327,129.2962085308057,172.27251184834122,153.36318407960198,150.19900497512438,125.0,121.0,101.0,145.0,125.0,169.0,149.0,145.0
191,9.55,-0.04284238815307617,0.03172421455383301,1.4765913486480713,0.15152239799499512,-1.632749319076538,1.4713795185089111,0.6996762752532959,0.14402136206626892,0.6639251708984375,3.0886872632120967,0.09517301155172168,0.056854747817455094,131.91970802919707,126.06569343065694,107.55971896955504,147.79859484777518,129.27790973871734,172.2517814726841,153.4009900990099,150.15841584158414,125.0,121.0,101.0,145.0,125.0,169.0,149.0,145.0
192,9.600000000000001,-0.04282879829406738,0.03149700164794922,1.4776465892791748,0.15086865425109863,-1.6326305866241455,1.4722540378570557,0.6995527744293213,0.14405196905136108,0.6634387969970703,3.0887399335103836,0.09528836282435914,0.055994176017168384,131.8564476885645,126.00243309002433,107.48139534883721,147.81162790697675,129.27790973871734,172.2517814726841,153.3861386138614,150.1039603960396,125.0,121.0,101.0,145.0,125.0,169.0,149.0,145.0
193,9.65,-0.042813777923583984,0.03127264976501465,1.4786732196807861,0.15023589134216309,-1.6325156688690186,1.47310471534729,0.6994301080703735,0.14408282935619354,0.662967324256897,3.088789969616862,0.09540123503632286,0.055157219977220055,131.82968369829683,125.94647201946472,107.42424242424242,147.78787878787878,129.2789598108747,172.20330969267138,153.36543209876544,150.02716049382715,125.0,121.0,101.0,145.0,125.0,169.0,149.0,145.0
194,9.700000000000001,-0.04278135299682617,0.031056880950927734,1.4796769618988037,0.14961838722229004,-1.632416009902954,1.473963975906372,0.699309229850769,0.14412428438663483,0.6625035405158997,3.088823444953806,0.09551570976622795,0.05433009630373459,131.78832116788323,125.91727493917276,107.31395348837209,147.7767441860465,129.2789598108747,172.20330969267138,153.37376237623764,150.0,125.0,121.0,101.0,145.0,125.0,169.0,149.0,145.0
195,9.75,-0.042730093002319336,0.03089308738708496,1.4805991649627686,0.14906525611877441,-1.6323330402374268,1.4748413562774658,0.699212372303009,0.14417612552642822,0.662051796913147,3.0888421966027755,0.09566534778386444,0.053503481349968574,131.69024390243902,125.84390243902439,107.2645011600928,147.78190255220417,129.27962085308056,172.17535545023696,153.37376237623764,150.0,125.0,121.0,101.0,145.0,125.0,169.0,149.0,145.0
196,9.8,-0.04270577430725098,0.030759334564208984,1.4814903736114502,0.14853549003601074,-1.6322286128997803,1.4756643772125244,0.6991344094276428,0.1442103385925293,0.6615979075431824,3.088889058262594,0.09583938994477069,0.05270398905563526,131.65365853658537,125.8,107.19630484988453,147.78290993071593,129.25295508274232,172.17021276595744,153.36543209876544,149.97283950617285,125.0,121.0,101.0,145.0,125.0,169.0,149.0,145.0
197,9.850000000000001,-0.04267001152038574,0.03063368797302246,1.4823486804962158,0.14803242683410645,-1.6321351528167725,1.4764959812164307,0.6990587115287781,0.14425143599510193,0.66115802526474,3.0889242377451778,0.09601467464766328,0.05190830972810885,131.59803921568627,125.79901960784314,107.1501154734411,147.810623556582,129.22877358490567,172.15801886792454,153.33086419753087,149.9456790123457,125.0,121.0,101.0,145.0,125.0,169.0,149.0,145.0
198,9.9,-0.042618513107299805,0.030514240264892578,1.4831969738006592,0.14753317832946777,-1.6320545673370361,1.4773333072662354,0.698983907699585,0.14430198073387146,0.6607199311256409,3.0889455096558796,0.09619127906853885,0.051122814137590164,131.57389162561577,125.77093596059113,107.1036866359447,147.7557603686636,129.19483568075117,172.13849765258215,153.2395061728395,149.89135802469136,125.0,121.0,101.0,145.0,125.0,169.0,149.0,145.0
199,9.950000000000001,-0.04258084297180176,0.030365943908691406,1.4840810298919678,0.1470050811767578,-1.631962537765503,1.478151559829712,0.6988955736160278,0.14434471726417542,0.660281240940094,3.0889778599910276,0.09634601464325565,0.050341807713578386,131.5343137254902,125.73039215686275,107.07852193995382,147.7459584295612,129.19483568075117,172.13849765258215,153.20197044334975,149.79310344827587,125.0,121.0,101.0,145.0,125.0,169.0,149.0,145.0
200,10.0,-0.04254436492919922,0.0301816463470459,1.484989881515503,0.1464540958404541,-1.6318714618682861,1.4789402484893799,0.698788046836853,0.14438706636428833,0.6598528623580933,3.089008193104644,0.09646887394325654,0.04958867852661621,131.47174447174447,125.66339066339066,107.04377880184332,147.68433179723502,129.19483568075117,172.13849765258215,153.18382352941177,149.76960784313727,125.0,121.0,101.0,145.0,125.0,169.0,149.0,145.0
201,10.05,-0.0425562858581543,0.030000925064086914,1.4858982563018799,0.1459064483642578,-1.631742238998413,1.4796583652496338,0.6986882090568542,0.1443990170955658,0.659421980381012,3.089084955360807,0.09659844078022678,0.04885839035688834,131.36609336609337,125.55773955773955,107.04377880184332,147.68433179723502,129.18457943925233,172.09345794392524,153.13725490196077,149.67892156862746,125.0,121.0,101.0,145.0,125.0,169.0,149.0,145.0
202,10.100000000000001,-0.04260063171386719,0.029773712158203125,1.486858606338501,0.14531493186950684,-1.6315891742706299,1.4802944660186768,0.6985681056976318,0.14439146220684052,0.6589933633804321,3.0891889841339006,0.09669154510617047,0.04817789314723317,131.32439024390243,125.50731707317073,106.93995381062355,147.72517321016167,129.18457943925233,172.09345794392524,153.0951219512195,149.65121951219513,125.0,121.0,101.0,145.0,125.0,169.0,149.0,145.0
203,10.15,-0.042632102966308594,0.029547452926635742,1.4877898693084717,0.144744873046875,-1.6314489841461182,1.480926752090454,0.6984460949897766,0.14439159631729126,0.6585811376571655,3.08927964469099,0.09677956659237286,0.04751363372460312,131.24455205811137,125.37772397094432,106.92165898617512,147.70506912442397,129.16783216783216,172.07226107226109,153.08312958435206,149.62591687041564,125.0,121.0,101.0,145.0,125.0,169.0,149.0,145.0
204,10.200000000000001,-0.04271221160888672,0.029291391372680664,1.488741159439087,0.14416241645812988,-1.6312711238861084,1.4814770221710205,0.6983138918876648,0.1443619728088379,0.6581771373748779,3.0894137270406445,0.09684707541876196,0.04688355484042986,131.22033898305085,125.3680387409201,106.86467889908256,147.61926605504587,129.09722222222223,172.0625,153.07843137254903,149.59803921568627,125.0,121.0,101.0,145.0,125.0,169.0,149.0,145.0
205,10.25,-0.04278373718261719,0.029064416885375977,1.4896514415740967,0.1436150074005127,-1.6310999393463135,1.4820592403411865,0.6981954574584961,0.14433735609054565,0.6577773094177246,3.0895396691842603,0.09693645701295214,0.0462293243997625,131.20145631067962,125.34708737864078,106.81278538812785,147.60730593607306,129.09722222222223,172.0625,153.05405405405406,149.58476658476658,125.0,121.0,101.0,145.0,125.0,169.0,149.0,145.0
206,10.3,-0.04285883903503418,0.028845548629760742,1.4905459880828857,0.1430802345275879,-1.6309263706207275,1.482633352279663,0.6980814337730408,0.1443103402853012,0.6573808789253235,3.0896697911478475,0.09703132432157997,0.04557994639077395,131.15421686746987,125.3012048192771,106.76712328767124,147.58904109589042,129.07192575406032,172.05336426914153,153.05651105651106,149.47174447174447,125.0,121.0,101.0,145.0,125.0,169.0,149.0,145.0
207,10.350000000000001,-0.04290938377380371,0.028616666793823242,1.4914209842681885,0.14255809783935547,-1.6307756900787354,1.4832179546356201,0.6979584097862244,0.1442984789609909,0.6570029258728027,3.0897739187052307,0.09711152689108506,0.044944809660716366,131.1466346153846,125.2235576923077,106.65681818181818,147.52954545454546,129.07192575406032,172.05336426914153,153.02689486552566,149.43765281173594,125.0,121.0,101.0,145.0,125.0,169.0,149.0,145.0
208,10.4,-0.042971134185791016,0.028398752212524414,1.4922564029693604,0.14207220077514648,-1.630617380142212,1.4837892055511475,0.6978418827056885,0.14427925646305084,0.6566412448883057,3.0898871851288305,0.09719848140788856,0.0443119252656237,131.09375,125.22115384615384,106.63038548752834,147.52607709750566,129.07192575406032,172.05336426914153,153.02696078431373,149.4093137254902,125.0,121.0,101.0,145.0,125.0,169.0,149.0,145.0
209,10.450000000000001,-0.04303455352783203,0.028200387954711914,1.4930717945098877,0.14159941673278809,-1.630458116531372,1.4843456745147705,0.6977359056472778,0.14425839483737946,0.6562769412994385,3.0900046115617497,0.09730014871125801,0.04369137393554767,131.02398081534773,125.17985611510791,106.61818181818182,147.50227272727273,129.0,172.0,152.97080291970804,149.37469586374695,125.0,121.0,101.0,145.0,125.0,169.0,149.0,145.0
210,10.5,-0.04310274124145508,0.0279848575592041,1.4939157962799072,0.14110159873962402,-1.6302950382232666,1.4848930835723877,0.6976213455200195,0.14423507452011108,0.6559083461761475,3.0901253823255836,0.09738795659765899,0.04307598843332494,130.9856801909308,125.14081145584726,106.55555555555556,147.51927437641723,129.0,172.0,152.975845410628,149.29710144927537,125.0,121.0,101.0,145.0,125.0,169.0,149.0,145.0
211,10.55,-0.043145179748535156,0.027771472930908203,1.4947254657745361,0.14062905311584473,-1.6301558017730713,1.4854509830474854,0.6975044012069702,0.14422747492790222,0.6555588245391846,3.0902203532280605,0.09746992214515261,0.04247571312543637,130.94988066825775,125.0692124105012,106.50564334085779,147.52595936794583,129.0,172.0,152.94915254237287,149.2905569007264,125.0,121.0,101.0,145.0,125.0,169.0,149.0,145.0
212,10.600000000000001,-0.04320836067199707,0.027542829513549805,1.4955360889434814,0.14015769958496094,-1.6300013065338135,1.485968828201294,0.6973814368247986,0.144206702709198,0.6552187204360962,3.0903334505311655,0.0975403633117918,0.041894159232159514,130.9354066985646,125.04545454545455,106.46380090497738,147.53619909502262,129.0,172.0,152.92995169082127,149.27053140096618,125.0,121.0,101.0,145.0,125.0,169.0,149.0,145.0
213,10.65,-0.043267011642456055,0.027310609817504883,1.496338129043579,0.139693021774292,-1.6298515796661377,1.4864838123321533,0.6972557306289673,0.14418908953666687,0.6548865437507629,3.090441135097075,0.09760545635405674,0.04132006729925123,130.91169451073986,125.05966587112172,106.41402714932127,147.51809954751133,129.0,172.0,152.90361445783134,149.26265060240965,125.0,121.0,101.0,145.0,125.0,169.0,149.0,145.0
214,10.700000000000001,-0.043325185775756836,0.027103900909423828,1.4971182346343994,0.13924431800842285,-1.6297013759613037,1.4870002269744873,0.6971435546875,0.14417116343975067,0.6545498967170715,3.090551017019918,0.09769073384668871,0.04074600977890501,130.7962085308057,125.01421800947867,106.38775510204081,147.52380952380952,128.97695852534562,171.98617511520737,152.8341346153846,149.1466346153846,125.0,121.0,101.0,145.0,125.0,169.0,149.0,145.0
215,10.75,-0.04339599609375,0.026856660842895508,1.497941255569458,0.13875579833984375,-1.6295435428619385,1.487457036972046,0.6970117688179016,0.14414586126804352,0.6542156934738159,3.090670940473823,0.09774088876768892,0.04021779966526366,130.7654028436019,124.97156398104265,106.32505643340858,147.50112866817156,128.926267281106,171.98617511520737,152.8341346153846,149.1466346153846,125.0,121.0,101.0,145.0,125.0,169.0,149.0,145.0
216,10.8,-0.04346323013305664,0.02662181854248047,1.4987294673919678,0.13829755783081055,-1.629390001296997,1.487926721572876,0.6968851685523987,0.14412255585193634,0.6538940668106079,3.0907863251752286,0.09779889845703879,0.03968041588615301,130.7482185273159,124.95011876484561,106.29954954954955,147.49324324324326,128.926267281106,171.98617511520737,152.82891566265062,149.07710843373494,125.0,121.0,101.0,145.0,125.0,169.0,149.0,145.0
217,10.850000000000001,-0.0435178279876709,0.02637648582458496,1.4995133876800537,0.13784146308898926,-1.6292483806610107,1.4883983135223389,0.6967519521713257,0.1441071331501007,0.6535829305648804,3.090887944636532,0.09784482698802811,0.039154426859470834,130.72857142857143,124.93095238095238,106.23370786516854,147.4876404494382,128.9122401847575,171.96304849884527,152.77481840193704,149.0774818401937,125.0,121.0,101.0,145.0,125.0,169.0,149.0,145.0
218,10.9,-0.04357028007507324,0.026140689849853516,1.5002858638763428,0.13739371299743652,-1.629108190536499,1.488872766494751,0.6966227293014526,0.14409281313419342,0.6532705426216125,3.0909885352254305,0.09789762868084738,0.038626972442644084,130.6937799043062,124.89952153110048,106.19101123595506,147.5123595505618,128.9122401847575,171.96304849884527,152.79126213592232,149.0121359223301,125.0,121.0,101.0,145.0,125.0,169.0,149.0,145.0
219,10.950000000000001,-0.04359793663024902,0.02590656280517578,1.5010292530059814,0.13696599006652832,-1.6289913654327393,1.4893581867218018,0.6964911818504333,0.14409348368644714,0.6529752016067505,3.091064222679569,0.09794506343334042,0.038113012739656275,130.64182692307693,124.89182692307692,106.14831460674158,147.4808988764045,128.90277777777777,171.9375,152.75728155339806,148.96844660194174,125.0,121.0,101.0,145.0,125.0,169.0,149.0,145.0
220,11.0,-0.04362678527832031,0.025691986083984375,1.501760721206665,0.13654541969299316,-1.6288726329803467,1.4898340702056885,0.6963703632354736,0.1440928429365158,0.6526731252670288,3.0911434626651633,0.09800710079244405,0.037608021431110014,130.49761904761905,124.85,106.06320541760722,147.43792325056432,128.90277777777777,171.9375,152.67632850241546,148.92995169082127,125.0,121.0,101.0,145.0,125.0,169.0,149.0,145.0
221,11.05,-0.04371333122253418,0.0254971981048584,1.5024940967559814,0.1361227035522461,-1.6287071704864502,1.4902093410491943,0.6962671279907227,0.14405572414398193,0.6523565649986267,3.0912813531271883,0.09809027039847862,0.03714597506045497,130.42925659472422,124.82494004796163,106.03160270880362,147.40180586907448,128.90300230946883,171.90993071593533,152.67632850241546,148.92995169082127,125.0,121.0,101.0,145.0,125.0,169.0,149.0,145.0
222,11.100000000000001,-0.0438227653503418,0.025345325469970703,1.503197431564331,0.13572359085083008,-1.6285226345062256,1.4905521869659424,0.6961896419525146,0.14400365948677063,0.65202796459198,3.0914443469709294,0.09821063935600487,0.03669476257159775,130.36904761904762,124.78571428571429,105.98202247191011,147.40224719101124,128.90300230946883,171.90993071593533,152.65060240963857,148.92048192771085,125.0,121.0,101.0,145.0,125.0,169.0,149.0,145.0
223,11.15,-0.043952226638793945,0.025200366973876953,1.5038912296295166,0.1353318691253662,-1.6283223628997803,1.4908549785614014,0.6961171627044678,0.1439388543367386,0.6517006158828735,3.0916268774756963,0.09833665089160201,0.03626339089538426,130.29928741092635,124.75771971496437,105.91071428571429,147.40178571428572,128.8294930875576,171.92165898617512,152.60722891566266,148.87951807228916,125.0,121.0,101.0,145.0,125.0,169.0,149.0,145.0
224,11.200000000000001,-0.044072628021240234,0.02504134178161621,1.5045788288116455,0.13494539260864258,-1.6281321048736572,1.4911620616912842,0.6960363984107971,0.1438799798488617,0.6513867974281311,3.0917984092421293,0.09844692128415214,0.035836415547681924,130.29285714285714,124.73095238095237,105.8903803131991,147.38478747203578,128.76674364896073,171.89838337182448,152.57971014492753,148.8816425120773,125.0,121.0,101.0,145.0,125.0,169.0,149.0,145.0
225,11.25,-0.04418468475341797,0.02486896514892578,1.5052731037139893,0.13455533981323242,-1.6279480457305908,1.4914915561676025,0.6959468126296997,0.1438269168138504,0.6510790586471558,3.0919595652710563,0.09854604682006561,0.035395184734990835,130.25059101654847,124.70449172576832,105.86383928571429,147.38616071428572,128.66666666666666,171.84246575342465,152.57971014492753,148.8816425120773,125.0,121.0,101.0,145.0,125.0,169.0,149.0,145.0
226,11.3,-0.04426121711730957,0.02471017837524414,1.5059397220611572,0.1341845989227295,-1.6277925968170166,1.4918806552886963,0.6958604454994202,0.14379556477069855,0.650776743888855,3.0920868660187777,0.09865196532949808,0.03493006602255245,130.2340425531915,124.60756501182033,105.76785714285714,147.37723214285714,128.64236902050115,171.76993166287016,152.57971014492753,148.8816425120773,125.0,121.0,101.0,145.0,125.0,169.0,149.0,145.0
227,11.350000000000001,-0.04431557655334473,0.02458643913269043,1.506542444229126,0.133866548538208,-1.6276562213897705,1.4923055171966553,0.6957890391349792,0.14377708733081818,0.6504883766174316,3.092193302438342,0.09878067047959112,0.03445151284545324,130.18483412322274,124.58767772511848,105.71428571428571,147.37053571428572,128.61818181818182,171.78181818181818,152.5590361445783,148.80963855421686,125.0,121.0,101.0,145.0,125.0,169.0,149.0,145.0
