AI-SPARC/uncalibrated-visual-servoing/results/data/4_feat_kf.csv
,t,q_1,q_2,q_3,q_4,q_5,q_6,camera_x,camera_y,camera_z,camera_roll,camera_pitch,camera_yaw,f_1,f_2,f_3,f_4,f_5,f_6,f_7,f_8,desired_f_1,desired_f_2,desired_f_3,desired_f_4,desired_f_5,desired_f_6,desired_f_7,desired_f_8
0,0.0,9.361875081825843e-06,-0.3926333301083327,1.9634954084936185,7.252088425691028e-05,-1.5707955582218611,2.220446049250313e-15,0.4463258536086648,0.16906234102687412,0.592161801541222,-3.141307158888575,0.00012241039484984628,1.5708380808617421,151.05680171461992,65.33125101459177,130.46644834300866,44.09022942430376,99.61686642657749,65.28622076991928,130.1131175287212,96.15853308262624,149.0,145.0,125.0,121.0,101.0,145.0,125.0,169.0
1,0.05,-0.00012812959471997232,-0.3930843863292668,1.962806406048978,-0.0001985693489050533,-1.5706347336244972,-3.1807145997486685e-05,0.446234168107407,0.1690166280728354,0.5928624752729739,3.140463510785485,-3.946542470495891e-05,1.5707324102218092,151.68374820648629,65.9530759677361,130.43881999306006,39.776718177490864,104.6140204641673,65.71152848273947,125.59044531429973,92.04123942180776,149.0,145.0,125.0,121.0,101.0,145.0,125.0,169.0
2,0.1,0.0014137127068742927,-0.39459122861696594,1.9645938793902689,-0.003052836477628329,-1.5716862862501406,0.0013919827992969758,0.44538803412467864,0.16961117735777215,0.5926325540136983,3.137883436639067,0.0010110643214014223,1.5708492153605893,156.81797600021693,66.37027631720373,125.89256193180286,40.67214184828045,104.74169122962333,66.37434272077736,125.06088582007837,92.0412959164302,149.0,145.0,125.0,121.0,101.0,145.0,125.0,169.0
3,0.15000000000000002,0.002056024807504553,-0.3940640684361538,1.962936496544259,-0.002767689345063662,-1.571976525173648,0.0019332659763064974,0.44566643192110555,0.16987258943739916,0.5934937388839946,3.1370404505103058,0.0012968520125353404,1.5709476308694141,151.11060781029204,66.35404314499897,130.42370633440936,45.56892544786059,99.73145165373283,66.91449309713148,125.4973997699138,92.33576422790091,149.0,145.0,125.0,121.0,101.0,145.0,125.0,169.0
4,0.2,0.004052525134597751,-0.39240590160606237,1.9611399136127687,-0.0028392186454344603,-1.5731589243200554,0.0038192526981952746,0.44630053505651857,0.17066124220212162,0.593983756203943,3.1368304387377273,0.0024717080678860193,1.5710526542948569,151.3521951082548,66.8767855300303,130.29039079306602,40.73732195519774,99.9622893072302,66.63325622296136,125.8424927765895,97.90917993238133,149.0,145.0,125.0,121.0,101.0,145.0,125.0,169.0
5,0.25,0.00557312788648856,-0.3940905636503107,1.9615093373909476,-0.004358315710439431,-1.5740334190065255,0.0052696315117146675,0.44537616898549487,0.17125984734976235,0.5946578231008278,3.1339782254894453,0.0033248640091193835,1.5711106080564676,151.3626670634208,71.83504362323191,125.1365559357705,41.449734252032854,104.58317767620943,67.01129074786546,130.15479916707338,92.77687538197372,149.0,145.0,125.0,121.0,101.0,145.0,125.0,169.0
6,0.30000000000000004,0.0013806607180724129,-0.3965520028455023,1.9632177042673833,-0.005795804877401611,-1.571514909236405,0.002725976975212152,0.44488885597699823,0.16961617055327735,0.5947418941054772,3.1318008522140564,0.0008074925351427697,1.5694737972200903,150.9598465352378,67.53743587993243,125.57056369490594,47.63446508494888,99.88116093974917,67.69830963784636,125.38865272355993,93.19581955571947,149.0,145.0,125.0,121.0,101.0,145.0,125.0,169.0
7,0.35000000000000003,0.0018904601671936305,-0.3949889568968663,1.9613354285016174,-0.0053857958679044415,-1.571737525706017,0.003114138815191847,0.4456838495269679,0.16982599221119948,0.5952771055201014,3.131900582069601,0.0010302229763367015,1.5695942086663164,150.86970230999117,67.47638507522714,125.30300638983256,42.13289463191914,99.86733552784584,67.66294082825776,125.40228115910274,93.87234453748192,149.0,145.0,125.0,121.0,101.0,145.0,125.0,169.0
8,0.4,0.0018424732299529012,-0.39529559045197926,1.9606385981187469,-0.005771957831804286,-1.57160111415529,0.003018217271639756,0.4456558279736398,0.16982144551055833,0.595930267394557,3.1305098852704205,0.0008938509751490164,1.5696440527633253,151.34386382554825,68.17827291715186,130.37488696270324,42.37386825244409,104.75121815559943,68.61652316399315,125.71535000979345,94.09944999399507,149.0,145.0,125.0,121.0,101.0,145.0,125.0,169.0
9,0.45,0.0031319789565373846,-0.39685414927447704,1.962604218183981,-0.008863924307845217,-1.5725116272311999,0.004160132011729711,0.4448305405493104,0.17031357593865085,0.595628967596626,3.1278136541986092,0.0017841084036464545,1.5697792320994095,151.17975869168785,68.99090088053347,125.2615674693353,42.89343715121115,99.80495049235559,68.19956612697204,125.68576146773877,99.33334072707893,149.0,145.0,125.0,121.0,101.0,145.0,125.0,169.0
10,0.5,0.0027022950114079514,-0.3985466958531392,1.9624656862192653,-0.009628607933816813,-1.572105999768337,0.0038549182883418354,0.44419586788861715,0.17015783932671372,0.5965618599884169,3.1252151866699855,0.0013694801239611041,1.5696560308913083,150.63973699015247,69.3842900717998,130.19113320653312,48.52127876756004,105.07811588205917,68.94097438220393,130.7148609230927,94.41104303472854,149.0,145.0,125.0,121.0,101.0,145.0,125.0,169.0
11,0.55,0.0021967081177121095,-0.39894996537937333,1.96363371594708,-0.01169250841102798,-1.5719171288006635,0.0033901166433318863,0.4441877935712776,0.16994662850952724,0.5961665418417151,3.1239238883419005,0.0011827557788208465,1.5696157851790034,151.6581395423076,68.92858489116547,125.18269530522026,48.97083947082282,99.70423041101846,69.12931277246112,125.4764873494884,94.78274127314444,149.0,145.0,125.0,121.0,101.0,145.0,125.0,169.0
12,0.6000000000000001,0.0026201815513502424,-0.3970606057254682,1.9611508169708456,-0.010692624703880327,-1.572049836819951,0.0037140340615322565,0.4451474870710706,0.17012710369671244,0.596904191760931,3.1243381793958807,0.001312501738425172,1.5697134857819217,156.13525527058425,69.07538021798777,125.3343097690002,43.90471855481159,104.57844413424392,69.2104790056253,125.24652789166606,95.09297783363473,149.0,145.0,125.0,121.0,101.0,145.0,125.0,169.0
13,0.65,0.0026815224634795243,-0.3969959148373934,1.9600309141438084,-0.010853174657381448,-1.5720054372966237,0.00377061112753152,0.44528992806468665,0.17015997040742936,0.5976581010453409,3.1231193540304623,0.0012621901295464027,1.5697177922084173,151.33105703276212,69.41483749002178,125.64322230515043,49.275784800008836,100.16641063711437,70.23110085052117,125.23279653364987,95.41600212584423,149.0,145.0,125.0,121.0,101.0,145.0,125.0,169.0
14,0.7000000000000001,0.0034394936438122414,-0.39536875051603104,1.9579836046305008,-0.010339556692787966,-1.5723643463840267,0.004242199763492938,0.44607423913312266,0.17046869607038279,0.5982711515657986,3.123213409466283,0.0016141194379561568,1.569998204406416,150.9274494275579,70.18282014267025,125.7028415178807,50.127781477005485,100.10955375137199,69.8072808868552,125.77367593142476,95.71120095086843,149.0,145.0,125.0,121.0,101.0,145.0,125.0,169.0
15,0.75,0.0036813365115806462,-0.393687520891441,1.9559140082250446,-0.009718788976991188,-1.5724211627565516,0.0045526625821250555,0.446962106300246,0.1705766094654805,0.5988602229605414,3.123449259441804,0.0016662352799051746,1.5699286063734164,151.32320581855305,70.38897621717838,125.83780621234783,50.39094544031465,99.96690403146026,70.56026406362363,125.23504215158985,96.02070217657753,149.0,145.0,125.0,121.0,101.0,145.0,125.0,169.0
16,0.8,0.004362503129197393,-0.39177766881399867,1.9535528674165983,-0.008959822419967178,-1.5727320132120708,0.00515138745274113,0.4478981541016765,0.1708589654044659,0.5995310000402129,3.123756078563817,0.0019682376591115985,1.5700061927627966,151.01871987400054,71.0568203850111,130.77167606810946,45.00719646843027,99.83781891658681,70.66798594969319,130.50316667248802,96.33158338518444,149.0,145.0,125.0,121.0,101.0,145.0,125.0,169.0
17,0.8500000000000001,0.004109565966989415,-0.39200776185911357,1.9528828585528597,-0.00948513823592867,-1.5725270239532554,0.005087900904945819,0.44794339490914314,0.1707654709518185,0.6001513411627043,3.1223258651559633,0.0017556607732588168,1.569817846629658,151.09040530955878,71.1667143599034,125.58732685317031,51.058308418899784,100.10859795776305,70.6205722349866,126.0615159977707,101.9438566046669,149.0,145.0,125.0,121.0,101.0,145.0,125.0,169.0
18,0.9,0.004461191586107471,-0.391086419205104,1.950840769302327,-0.008920616553995675,-1.5725959366322195,0.0053116746891932465,0.4484542540781514,0.17092030410987555,0.6010688151357905,3.1217683694633673,0.0018173510601285953,1.569943575382495,155.86241801956038,76.32380619021343,125.318174524616,46.35508078112342,100.03986296088746,71.75245318105497,125.38178690973977,96.71819458630216,149.0,145.0,125.0,121.0,101.0,145.0,125.0,169.0
19,0.9500000000000001,0.003052352244831802,-0.38968037903454444,1.9471581413580488,-0.006698472470554773,-1.5715476833798565,0.005622396389860729,0.44946830526393966,0.1703970795645766,0.6026991041861179,3.1217226780987883,0.0007588645655719166,1.568242818518956,151.22140463451692,72.15055129374447,125.6152409768412,46.73365450309505,100.07932601979002,72.24074703551425,125.28731776968596,97.44357574670873,149.0,145.0,125.0,121.0,101.0,145.0,125.0,169.0
20,1.0,0.003134787518447979,-0.3894476437305463,1.9458821771273813,-0.006858318142077824,-1.5714843769892006,0.00575668401342222,0.4496967320357074,0.17044357679459407,0.6034824215542882,3.120517975821363,0.0006878707446284938,1.5681925109147448,150.6698329667151,72.64372952683681,126.18256803148107,47.25592879760559,99.62330917576688,72.68346769682584,125.885127656846,97.54847507313752,149.0,145.0,125.0,121.0,101.0,145.0,125.0,169.0
21,1.05,0.003179947602219624,-0.3892437883496256,1.9447018288047504,-0.00713293436907092,-1.5714038554389376,0.005858246931202515,0.44991918774559414,0.1704759788168907,0.6042258949255762,3.1192658679749443,0.0006000812174340005,1.5681382712221212,151.14396437859898,72.91341956431205,130.47197247172994,48.13612999986019,100.48436512928109,72.92433850083835,126.42777942494152,97.8173364358555,149.0,145.0,125.0,121.0,101.0,145.0,125.0,169.0
22,1.1,0.004548743894969842,-0.3888617488241528,1.943760459111088,-0.008019100569379045,-1.5722109667855841,0.007284222088538073,0.4500472949153092,0.17102521133481843,0.6047955985355943,3.1178136486968633,0.0013679632734123085,1.5680631343225102,151.32555120029383,73.4721393562504,125.54343515329127,48.342888188608846,100.33592884417422,78.50418106365669,125.73431063668419,98.97211983451348,149.0,145.0,125.0,121.0,101.0,145.0,125.0,169.0
23,1.1500000000000001,0.0054487471706843316,-0.38875145402688016,1.9427797173235435,-0.008571907662060951,-1.57261673213904,0.007011104773897436,0.4500969591445534,0.17138867131249108,0.6054777326572798,3.1163871457007484,0.0017706132926053946,1.5692245043776534,151.34879313866497,74.07320715428341,125.9988566345942,48.91343267924982,100.75000655407027,73.86748234073767,125.91390891217064,98.94765138336749,149.0,145.0,125.0,121.0,101.0,145.0,125.0,169.0
24,1.2000000000000002,0.005446932956746142,-0.3884892140977674,1.9415138069052098,-0.008900959202087222,-1.572510083992566,0.007094409412965685,0.45036784207325237,0.17139880713168423,0.6062590833237674,3.115055991673053,0.0016498944621314844,1.5691388505765853,150.93320545247602,74.03726259124429,125.87050832572832,49.39802529058933,100.89617785570691,73.97421686882761,126.0832769398646,104.52030988629741,149.0,145.0,125.0,121.0,101.0,145.0,125.0,169.0
25,1.25,0.005834786968279104,-0.38922482346659937,1.9405007094763382,-0.009773531420248283,-1.5725851925865646,0.00717011162727843,0.45012537354635096,0.1715650304095882,0.6073818106055223,3.1124296748247424,0.0017034108786584564,1.5694449321341373,151.22572983535628,79.87249514306473,125.54459167776118,50.46994531928958,100.52792596687382,74.56142217905443,126.56439776325377,99.74879505832034,149.0,145.0,125.0,121.0,101.0,145.0,125.0,169.0
26,1.3,0.0035827967892538837,-0.38929307647088685,1.9392831035691893,-0.009829246710885808,-1.5711405568422796,0.00671718402781929,0.45057212566533245,0.17069061205497252,0.608243991028106,3.1111019372191864,0.00025837243687957525,1.5676849281587215,156.3131071460602,75.41878879069303,125.85698183063799,50.35760833904113,100.59928369268518,75.09079448601986,126.08740782102996,105.33638644815264,149.0,145.0,125.0,121.0,101.0,145.0,125.0,169.0
27,1.35,0.004321824330118407,-0.3881100303944516,1.934805762779459,-0.007948471658257183,-1.5712651936048596,0.007411220294427423,0.4512168831767375,0.17102110074407822,0.6105587340731176,3.10968802210447,0.0003534682828964291,1.5677271416016225,155.90135573478017,81.1487966114488,125.75529563572643,51.44127644632827,101.26316848942729,76.29626460927467,126.1285322385394,106.20232428210608,149.0,145.0,125.0,121.0,101.0,145.0,125.0,169.0
28,1.4000000000000001,0.003131429962255794,-0.3875058682198098,1.9298762160867904,-0.005883571833397827,-1.5701964258266043,0.007904910519845654,0.45190471978130475,0.17059768026186248,0.6134214326087094,3.1074335123997563,-0.0007505713249689855,1.5660785886397137,150.39418677992,77.20273403344277,125.85575869341575,52.75864874775443,100.99873334587285,77.22857175172123,131.09644567773339,102.00630805791991,149.0,145.0,125.0,121.0,101.0,145.0,125.0,169.0
29,1.4500000000000002,0.001443440312776989,-0.3876472782735827,1.9287775798049482,-0.006245946061408603,-1.5690303985709892,0.006012686893049235,0.45224115207872123,0.16993696478174508,0.614270680628138,3.105839813126866,-0.0018617524803377912,1.566323835555914,150.66931344432444,76.92787633193278,130.84335694167655,58.19928413348096,101.52504716506012,82.37844350364459,126.2074868531014,102.03289906099542,149.0,145.0,125.0,121.0,101.0,145.0,125.0,169.0
30,1.5,0.003907758588090449,-0.3861095664491696,1.9282060947462751,-0.007185424558242115,-1.5705802248705005,0.007479396993979037,0.4527274387205564,0.17091654757295283,0.614067861381168,3.1058653773433584,-0.0003538574077998576,1.56727121881956,150.90140051889165,82.67465770700434,131.34387366603033,53.216966857114215,101.30644301369065,77.85312759841133,126.18678495577961,102.4585620549549,149.0,145.0,125.0,121.0,101.0,145.0,125.0,169.0
31,1.55,0.003741624301146107,-0.38601585765285007,1.9270838903202954,-0.008446694256296627,-1.5704697356607635,0.008685140235900057,0.4530096378823,0.1708636969377459,0.6149338357349788,3.1035744251333783,-0.0005285106387875056,1.565905159186272,150.37085078673073,83.60162842005232,130.8277958420505,58.857884725568695,101.50380074385261,78.0888389757907,130.72714320526555,103.38244034696079,149.0,145.0,125.0,121.0,101.0,145.0,125.0,169.0
32,1.6,0.00284364121699765,-0.3848536823442661,1.926015933206088,-0.008664748405274647,-1.5699589176312747,0.008625364660627355,0.4538303090396834,0.17050611858187395,0.6151570179896204,3.1034591458108873,-0.0010419290970370679,1.5650842676903562,150.59561185760006,78.35497146932977,125.52883873719675,54.643741485201424,100.61296046371993,78.67580815793556,130.8298600963586,108.18430335282721,149.0,145.0,125.0,121.0,101.0,145.0,125.0,169.0
33,1.6500000000000001,0.001960952805156513,-0.38500909654715043,1.92440133642779,-0.009048915372150468,-1.5692254605695135,0.007056394291780954,0.45406769541986475,0.17016657099242413,0.6163746717136919,3.101304353301079,-0.0017320584971848541,1.565800874372985,151.06871163553112,79.42212715703938,125.65888638589551,60.41567620150362,101.32794468787685,79.77252315285796,125.96439368769772,104.09169671527145,149.0,145.0,125.0,121.0,101.0,145.0,125.0,169.0
34,1.7000000000000002,0.002479424482505266,-0.3831640330577093,1.9224397794450248,-0.008571362005755923,-1.5694691087486596,0.007339551738558825,0.4549945664639999,0.17038443392402902,0.6168204253229206,3.10166898197591,-0.0014936855313255912,1.5660272651932765,151.28432709063452,79.70862715746361,126.1643734827748,55.268216760454884,101.49398953754591,79.9905505184836,131.35978918317895,103.85983051169217,149.0,145.0,125.0,121.0,101.0,145.0,125.0,169.0
35,1.75,0.001255280657295632,-0.3825978012477975,1.9210031551909301,-0.0086836214351389,-1.5686055186099974,0.005719466910145243,0.45560087192201415,0.16990175272663968,0.6175541840269956,3.1006898758569785,-0.002299505727180599,1.5664577483137703,150.76977137043545,80.19356061302297,125.71704507958506,55.939660262971096,101.40354807334084,80.11043982829763,131.19416586873328,104.34340201301013,149.0,145.0,125.0,121.0,101.0,145.0,125.0,169.0
36,1.8,-0.00014740683385072728,-0.38205198573859045,1.9196355704503185,-0.00888004550615884,-1.5676320611141135,0.00390159794477718,0.45622585716842656,0.16934497584828653,0.6182604455347386,3.0996701336748638,-0.003204072608297842,1.5669136152070091,150.8369455329344,80.11340166313218,126.10181101019535,56.66807855076021,106.42232080812322,80.59265735705588,126.05159783874457,110.19572145447472,149.0,145.0,125.0,121.0,101.0,145.0,125.0,169.0
37,1.85,0.0005141008034534877,-0.3826465847560332,1.9198785857209977,-0.011621180286898625,-1.5680454968527275,0.004291730142440997,0.45607079326277744,0.16961182144201795,0.6186761723322538,3.0965713777113213,-0.0028153677308045666,1.5671796340883866,150.39092246818177,86.42386466443166,126.29778290586829,62.20066307410319,106.56646009296904,86.22756975038617,126.44399577252013,110.768808056961,149.0,145.0,125.0,121.0,101.0,145.0,125.0,169.0
38,1.9000000000000001,0.00036593835792997353,-0.3830766069572804,1.920992795133718,-0.014477717103306809,-1.5680635336387398,0.004232829724470921,0.45607376626817414,0.1695437596671645,0.6184302643262782,3.09439904999116,-0.0028019700244294593,1.5670964759682113,150.32560991750373,81.47442471633694,126.25437956333954,57.730937455282834,101.71735982559011,86.88808585853899,126.27098837493767,106.26103513539691,149.0,145.0,125.0,121.0,101.0,145.0,125.0,169.0
39,1.9500000000000002,0.0007881950609043287,-0.3822728450471131,1.919916797000555,-0.015399326875399577,-1.5682494973229586,0.003978923500817633,0.456575844556011,0.1697156608032339,0.6189019925000475,3.0932074229346083,-0.0026087482581382423,1.567766644328542,150.2456254781933,82.03799275613466,125.82880854622469,57.84238676844572,106.19913548711821,87.01775771735461,126.68992311355582,106.6677247246425,149.0,145.0,125.0,121.0,101.0,145.0,125.0,169.0
40,2.0,0.00097766769372587,-0.38252303865350745,1.9210255897017108,-0.018405707811169236,-1.5684458743424603,0.0034499979520914437,0.45662912380781434,0.16977846546242967,0.6185964358942085,3.0910574879212396,-0.0023935519750440206,1.5684805877484045,150.812806062315,87.25940441252682,126.3969858498537,63.12316521009142,101.45557480640866,82.71792519075935,126.22118555460844,106.79527688439556,149.0,145.0,125.0,121.0,101.0,145.0,125.0,169.0
41,2.0500000000000003,0.0001734843744207737,-0.38118014136420664,1.9192941124057281,-0.018223019854448186,-1.567910413146394,0.0033840464039514018,0.45753681613948705,0.1694629005373477,0.6191438132890376,3.090857314404058,-0.0029286670780776605,1.5677683339686104,150.77494137062854,83.03366730075584,125.74039796362504,63.54211924004822,101.46857013331945,82.57810785336626,126.0924203364567,107.7626732185568,149.0,145.0,125.0,121.0,101.0,145.0,125.0,169.0
42,2.1,0.0005576281718786547,-0.37964771004517317,1.9176777779669436,-0.018261962474982685,-1.5680925590990684,0.003600455729307228,0.45835802796750513,0.16962276730793294,0.6195516712646562,3.090737441033488,-0.0027569651073896867,1.5679278162922115,150.45734015768912,82.79324540165106,130.76841768337897,59.21071708852131,101.90374834244804,88.11798332732985,126.3478545195199,107.92256457503701,149.0,145.0,125.0,121.0,101.0,145.0,125.0,169.0
43,2.15,0.00165375642666854,-0.3789305592608696,1.917035201214624,-0.02020397801260998,-1.5687793281309723,0.004396277421184536,0.4587661902820997,0.17006556443870127,0.6198849872006577,3.0888664325285147,-0.0021162198382930976,1.5682001360128337,155.54854385348233,84.19545726952617,126.07985410165563,59.610718701429455,101.47821074162466,83.869330715995,126.20169998576985,113.3649613357718,149.0,145.0,125.0,121.0,101.0,145.0,125.0,169.0
44,2.2,0.002041896001079291,-0.37706110947436766,1.911834532713585,-0.01936246912002737,-1.5686933069785685,0.004778582566600242,0.4599366330426749,0.17025641019425072,0.6224948020255529,3.0863749320549974,-0.0022370251197918628,1.5682159606067057,150.3134452886764,84.9672998206524,126.70045306499244,61.355093993699725,101.63251323402646,90.197765409939,131.45174693592804,114.01305104979171,149.0,145.0,125.0,121.0,101.0,145.0,125.0,169.0
45,2.25,0.0014642640339985746,-0.37700472707121246,1.9107537814161528,-0.02151089775501447,-1.5682016501811642,0.0027110095039204474,0.46035010246651925,0.17002257955513922,0.6234525453048713,3.0831975694989495,-0.0026243990323271075,1.5697375938690068,150.73839825267592,86.30600197760452,131.09543062656286,61.84871871101076,102.01270564733628,85.75395370065343,126.41288637018621,109.84286445449843,149.0,145.0,125.0,121.0,101.0,145.0,125.0,169.0
46,2.3000000000000003,0.002089685005853603,-0.3759253756518328,1.9092291315196217,-0.02342394124026015,-1.568581997482167,0.0036486856163149284,0.461077264203664,0.1702829897284023,0.6242157821294169,3.0808436300992175,-0.0023045696291505626,1.5694114335001392,150.7236001789479,91.23603008700415,131.05243799651015,63.36209265174305,102.63889410246676,86.53482884880363,126.54919611479816,110.61639029641718,149.0,145.0,125.0,121.0,101.0,145.0,125.0,169.0
47,2.35,0.0014963086120127755,-0.3750647980256989,1.907911996345197,-0.025492341368876126,-1.56825939038543,0.004293983232289467,0.4618934880490319,0.17004790566573574,0.6249541489421356,3.078324313314527,-0.0026772727598941143,1.5681998568353575,150.50490769691316,87.51785301939132,131.0832561962051,68.6925692358063,107.3869269339747,87.44312931280368,125.83444504825673,111.5323906756438,149.0,145.0,125.0,121.0,101.0,145.0,125.0,169.0
48,2.4000000000000004,0.0028899556174879493,-0.37402984913284865,1.908454161018379,-0.027680143711922955,-1.569310564552855,0.005942279009110152,0.462346413835376,0.17060273405507995,0.6243530036598163,3.07771577590683,-0.0017310463702341395,1.567884990673887,150.83731956866325,88.02247471484348,126.49753471670716,63.760704026055706,102.11936928539382,87.5438825543847,126.03548039474013,111.88826406012028,149.0,145.0,125.0,121.0,101.0,145.0,125.0,169.0
49,2.45,0.0029853665908397,-0.37279277326018434,1.9066602404800745,-0.029571860437228814,-1.569330538229452,0.006212623113756255,0.4632559843103117,0.1706494428195316,0.6252267693706878,3.075267183188423,-0.0017448007745910214,1.5677133684946647,155.19812337474409,88.62478409136627,126.38358447784162,65.39013998040241,101.86750861403712,88.52682634646116,126.42240913751037,112.54195946472775,149.0,145.0,125.0,121.0,101.0,145.0,125.0,169.0
50,2.5,0.003289581546742415,-0.37048578049572267,1.9026034023856688,-0.029043376073182525,-1.5693331405942343,0.006404645747847937,0.464599875671958,0.1707938871966178,0.6268781459885148,3.074047399027533,-0.0017652725555048609,1.5678270283843128,150.42219368400765,88.95249487156585,125.97694210932289,65.56796749026115,107.36562306876522,89.17870981860237,126.4770144326183,118.58705231261307,149.0,145.0,125.0,121.0,101.0,145.0,125.0,169.0
51,2.5500000000000003,0.0038595620827286403,-0.3696444923011444,1.9015486506727584,-0.03348519448376619,-1.5697297567412392,0.006855805739183651,0.4654193195456067,0.17102663400468107,0.6277210104890908,3.069388584172623,-0.0014299524683488106,1.5679280676984626,150.4341349234895,90.59792807897742,131.1166778123904,67.00543989669504,102.25710064683672,90.74052435743987,126.4675292129341,114.6247684364591,149.0,145.0,125.0,121.0,101.0,145.0,125.0,169.0
52,2.6,0.004770792383518074,-0.3678322687568234,1.8996539219779018,-0.03554128780758514,-1.5703227937571569,0.00813359270609837,0.4665019341723932,0.17140801552611684,0.628412079162374,3.0672500985485622,-0.0009458900242040588,1.5675249796993544,150.1422288944375,91.71488402496571,126.36823696505391,68.28663998506737,101.96198083474228,96.54812043401922,126.25184430967931,115.14529643667926,149.0,145.0,125.0,121.0,101.0,145.0,125.0,169.0
53,2.6500000000000004,0.005061122734474122,-0.36649072124443816,1.8984601036470332,-0.0370019013398295,-1.5704814032970313,0.007924977885272355,0.4673505422555333,0.17152979090413806,0.6287715224941428,3.0659384775271046,-0.0007830570982465518,1.5680123412069094,150.49674316297623,91.98815233814612,126.30876308330544,73.80950363687258,102.18597607702655,92.01629917783295,131.9214220059214,115.63250092469474,149.0,145.0,125.0,121.0,101.0,145.0,125.0,169.0
54,2.7,0.004299945717087361,-0.3657290756179403,1.8984751163211184,-0.036468613140993256,-1.570026755135883,0.00648668241312178,0.4678108842525826,0.17120813104630073,0.6283409791453394,3.0672523085171286,-0.001121432148692986,1.568716883817529,155.3247399152594,92.26460674291643,125.95307996156167,68.63106409007032,102.66551948098889,92.06337640816419,131.36484204694943,115.76526162820564,149.0,145.0,125.0,121.0,101.0,145.0,125.0,169.0
55,2.75,0.003434979542147776,-0.3638945583326363,1.8953363724945929,-0.03647865303081099,-1.569358387593927,0.0050994970136599704,0.46909989897472215,0.1708619409868392,0.6296359412118571,3.0659402202592654,-0.0016946750555012567,1.5692860124296637,150.8130674094716,92.62093262211674,126.49148204215419,69.33739627411796,102.4142535273524,92.75558616185235,131.4344177943939,116.63704621366271,149.0,145.0,125.0,121.0,101.0,145.0,125.0,169.0
56,2.8000000000000003,0.002416785527502796,-0.3627932263898441,1.8942549584427137,-0.03768184372982386,-1.5687203837294774,0.0035999735309637515,0.4700118495455219,0.17043849042029796,0.62999769937297,3.0647572062694057,-0.002221984856013513,1.5698138380397957,155.32077153880718,93.06585729987043,126.27751528385956,70.32195962271157,102.4511380872562,93.04985455553691,131.5170112712484,117.18604752893836,149.0,145.0,125.0,121.0,101.0,145.0,125.0,169.0
57,2.85,0.0015007826224677778,-0.360685198105128,1.8908099710719615,-0.037625307483096115,-1.5680093853921901,0.0019686394175986166,0.47146250986030613,0.17006911316548787,0.6313622659982123,3.0634762246712834,-0.002808384205292439,1.5705824201258343,150.45095191946524,94.09970252851217,126.46605158699317,70.48047860119631,107.48299483449178,94.53566997852431,126.96501497572154,118.00015725888584,149.0,145.0,125.0,121.0,101.0,145.0,125.0,169.0
58,2.9000000000000004,0.0016643174794137572,-0.3596112443081827,1.89055032401195,-0.04156925178526816,-1.568244354219539,0.0021853623568013347,0.4723613914913394,0.17012853406341824,0.6314889881522577,3.060346742650858,-0.002593291295319839,1.5705217255052077,150.4072502901623,95.47696942407266,126.78799542655238,71.54771640574975,102.63744307221415,94.82792560509091,126.27471003760512,118.5256159853627,149.0,145.0,125.0,121.0,101.0,145.0,125.0,169.0
59,2.95,0.0017122008398460231,-0.35775147044335,1.888681774768557,-0.04392585934562332,-1.5682853298615944,0.0023204106036618377,0.4736397242907945,0.17015191089638726,0.6321650553582511,3.057983269407874,-0.0025669882916231944,1.5704385636805227,155.41562379379727,101.15797810041224,131.14434169529179,72.47236143890751,102.27929470163869,100.74594207182164,126.20005725321495,124.8030401301453,149.0,145.0,125.0,121.0,101.0,145.0,125.0,169.0
60,3.0,0.0026346321802277473,-0.3539452466421018,1.8828863634847508,-0.046848195485988064,-1.5687576504054181,0.003733105228231004,0.47607896193285937,0.17055887500654504,0.634681269673649,3.0530768971932565,-0.0022315885285744234,1.5699253269257356,150.37278145035518,97.99548976515138,125.95061601217199,74.6417427549813,102.95914434071413,98.03885696096903,127.01399076972295,126.56518224269969,149.0,145.0,125.0,121.0,101.0,145.0,125.0,169.0
61,3.0500000000000003,0.0030083732368435534,-0.35128776577384846,1.879885311931571,-0.050975144590789334,-1.5689690803493939,0.003583139386223344,0.47794995449483363,0.17072032510776344,0.6359576287281361,3.048607741592255,-0.002022592467753875,1.5704393815060635,150.39655985505988,99.21574564569254,126.97506399363834,81.96723548929334,107.58812864144092,99.5923721316602,126.96034024318126,128.39798826683767,149.0,145.0,125.0,121.0,101.0,145.0,125.0,169.0
62,3.1,0.003809838172901703,-0.350850694872781,1.881156672594443,-0.05214633204198016,-1.569611624825768,0.003921921839678877,0.47806127616898575,0.17104429533546925,0.6350114804790602,3.0491422802581596,-0.001408550624899195,1.5708445423788613,150.4681795350162,99.39386534952585,126.65877975456822,76.57510560268437,102.83681488743774,99.09356059061568,126.5364757480336,123.71382992367138,149.0,145.0,125.0,121.0,101.0,145.0,125.0,169.0
63,3.1500000000000004,0.004204060161209444,-0.3489293974159531,1.8796887864128173,-0.054576727974150696,-1.569897217586198,0.0040582336790868645,0.4792943285856416,0.17121010812190063,0.635384961886678,3.0471659691113007,-0.0011450976110221837,1.571078879379874,150.46216189365583,99.88568556502739,127.14023788025656,77.11166118059168,107.82513728258506,100.08916769500006,126.5514564502407,123.98780675312764,149.0,145.0,125.0,121.0,101.0,145.0,125.0,169.0
64,3.2,0.004829993690362411,-0.34756454257144576,1.879900719376435,-0.05859155273056382,-1.5704839711601961,0.0046421137241225985,0.48023603214480126,0.1714598241162653,0.6350534124172407,3.044727659874267,-0.0006268813515064295,1.571070090758576,150.39764305925576,100.92425547024314,126.23938351871696,78.02598205352339,103.30731737111377,101.15856509904887,126.50664030231371,124.44774735484053,149.0,145.0,125.0,121.0,101.0,145.0,125.0,169.0
65,3.25,0.005193599899135037,-0.3455739201356649,1.8785911863313727,-0.06154313797201061,-1.5707796001303356,0.004734516115656895,0.4815458212871658,0.17161171841898673,0.6353427168229596,3.0424574387060557,-0.00035295714030519974,1.5713138846335142,150.02166326937402,106.96366958671523,126.67065265084642,79.05184816276994,108.09354604980692,102.06159407064179,125.99739124087904,125.30495925522166,149.0,145.0,125.0,121.0,101.0,145.0,125.0,169.0
66,3.3000000000000003,0.00456120761720058,-0.34440064878166776,1.879116097258425,-0.06618090439168789,-1.5706637247247688,0.005181025641263215,0.48262765613849073,0.17132478722123093,0.6349577971861061,3.0395199075352357,-0.0005299809199230878,1.5702493875675805,150.17500773657164,102.80303426523113,126.26192400732943,79.67172221909323,102.6503987654529,103.21903470913671,126.27812985505176,131.50346692084713,149.0,145.0,125.0,121.0,101.0,145.0,125.0,169.0
67,3.35,0.005576382601863106,-0.3416723136651032,1.8771336499306974,-0.07049905187644567,-1.57136657668541,0.005510475886638666,0.4843741082328009,0.17175784507712297,0.6355122134364077,3.0359464374532434,0.00011816453800294215,1.5708661911191804,149.74885731223944,104.319605568717,126.66193240924794,81.09340909443624,103.14568228685366,104.22827119342894,126.25413067370214,132.55305084131936,149.0,145.0,125.0,121.0,101.0,145.0,125.0,169.0
68,3.4000000000000004,0.006724903267765647,-0.33877244485134606,1.8753218687811648,-0.07546673818002159,-1.5721932370402527,0.006014352012931212,0.48623162092638833,0.1722497424357151,0.635938776482501,3.0320649682830796,0.0008656740881790626,1.5714245130095104,150.29123674447288,110.78591017976287,126.19453395332052,82.73743857894779,102.57009645536469,105.4486159661588,131.07116294371994,129.2649128471144,149.0,145.0,125.0,121.0,101.0,145.0,125.0,169.0
69,3.45,0.004822191883757654,-0.3375376317905707,1.8744080000241672,-0.07734713199030807,-1.571087864582804,0.004327677354361015,0.4874073273720477,0.17142189224581644,0.6361880078759538,3.030510932637051,-6.303488652434292e-05,1.5713162543144041,149.7335451035207,106.2565732873826,131.27705104457965,87.97763012765881,102.07844361183379,105.71586776701257,126.6612429888211,129.66560861154866,149.0,145.0,125.0,121.0,101.0,145.0,125.0,169.0
70,3.5,0.005487193956009051,-0.33735897359114375,1.874810017342008,-0.07523815714022941,-1.5715148569309108,0.005062039195242285,0.48716656858697277,0.17170955945001096,0.6355778415901401,3.0331931364837894,0.0002968713893055335,1.5712063346966654,150.16400048027023,105.63767866543384,126.49060267681524,82.29838640546976,107.3691893587976,105.37170121290873,126.42033193964727,133.87620195208603,149.0,145.0,125.0,121.0,101.0,145.0,125.0,169.0
71,3.5500000000000003,0.006213503289197675,-0.3343934826149284,1.8734500426962901,-0.08166190124184469,-1.5721864245745998,0.005514791537424291,0.48922589420478885,0.1720152730785841,0.6358236190609652,3.0283778983944125,0.0008920229244432161,1.5714073150820542,150.1861115001616,107.02583848034244,131.41310951707817,89.07105611973735,102.6438709701803,106.87182066794279,126.43947080033456,131.01391302472916,149.0,145.0,125.0,121.0,101.0,145.0,125.0,169.0
72,3.6,0.007090329567806641,-0.3335617689934254,1.8734787229776177,-0.0813552189265101,-1.572795161123782,0.006372409491599562,0.4894727720536891,0.1723926418154495,0.6353619771175657,3.0295390382288847,0.0014084149973646871,1.5713652367501192,150.0221606856063,107.0229681335878,125.9853725002541,84.10802141111402,102.31606695303698,106.8062173294549,126.62613583035541,130.54990156768926,149.0,145.0,125.0,121.0,101.0,145.0,125.0,169.0
73,3.6500000000000004,0.007193780108923242,-0.3317747771971158,1.8723535627582173,-0.08304707679129075,-1.5729128527384395,0.006288916480428508,0.49059389926789404,0.17243726912014806,0.635462073692523,3.0285087443761034,0.001526002366899026,1.5715361943587058,150.16026050673676,107.35188523326309,126.58180553451501,89.24212606438059,102.11817895500472,107.55548685737112,126.46921510683444,136.16543791056952,149.0,145.0,125.0,121.0,101.0,145.0,125.0,169.0
74,3.7,0.008050169940849283,-0.33003795702718364,1.8713894254661518,-0.08442637660792762,-1.573481739137092,0.0065011957663894115,0.49152753733270965,0.17280996534276127,0.6354372136642541,3.0278995940670104,0.002063993161487825,1.5721165959872714,149.75306570392368,108.16898468876512,125.92964480829848,89.68336406327884,102.34069281485306,107.96267133828613,126.85267381884607,137.05849509848383,149.0,145.0,125.0,121.0,101.0,145.0,125.0,169.0
75,3.75,0.00874012574803995,-0.3284043677616104,1.8706477412941407,-0.08598037067744091,-1.5739572530954113,0.006497673929864778,0.49243551748902187,0.1731102995155176,0.6353289860662755,3.0272349860028798,0.0025331018894243057,1.5727548571403076,155.6131279755954,113.26311398484346,126.40828062748422,90.2929396757817,107.78354604722938,108.36316752822877,125.69408461558746,132.26434850864965,149.0,145.0,125.0,121.0,101.0,145.0,125.0,169.0
76,3.8000000000000003,0.008886796140826103,-0.3264957418692611,1.8694910794831765,-0.08797837709718381,-1.5741957507645017,0.007385495387080887,0.4936396356135923,0.17317475761632437,0.6354207961289172,3.0259869324588315,0.002657424574550141,1.5719882878597968,149.93521800430923,109.08883130151784,126.55143768263355,86.05194003807163,102.6945451656759,108.94560117317444,131.670663914179,132.558816474189,149.0,145.0,125.0,121.0,101.0,145.0,125.0,169.0
77,3.85,0.008000536654460433,-0.3259539398856788,1.869553503763158,-0.08820220863731976,-1.5736846854633244,0.005928645423673107,0.4940797142322654,0.17277710148750974,0.6351362603439633,3.0263725457487896,0.0023168361229990333,1.572607605542994,150.32160315731463,113.93160256658906,126.42671799898581,91.39683478867536,101.97528457902368,109.05577516580905,126.11262297671267,132.7023226868409,149.0,145.0,125.0,121.0,101.0,145.0,125.0,169.0
78,3.9000000000000004,0.00758485778579443,-0.32527463793422307,1.8693510579313513,-0.0878439144130283,-1.5734668885115575,0.005961814812084576,0.494473887503003,0.17259625769160788,0.6348970230049441,3.0272075074929568,0.002101652587463936,1.572185697517721,155.1769014641932,109.32709448564214,126.20033525397916,90.7936159995925,102.40062365033143,108.73618576186784,126.13462812202994,132.73000293517046,149.0,145.0,125.0,121.0,101.0,145.0,125.0,169.0
79,3.95,0.0081916218725544,-0.3227804135529313,1.8668718209560042,-0.08850917770703903,-1.5738422167571056,0.006404777919226667,0.4958810345112622,0.1728759752111067,0.6354484410600579,3.026558002145735,0.002422158237060586,1.5723090001991646,149.8322978367469,109.85422665561791,125.98871709491993,91.53297505158626,102.41926852778906,109.56097033026782,126.83978625541724,133.13803417532807,149.0,145.0,125.0,121.0,101.0,145.0,125.0,169.0
80,4.0,0.008318619849045916,-0.3219782727198597,1.8669053388253944,-0.08863664449114239,-1.5739694454902429,0.006340881162981038,0.49627656199685327,0.17292989676321638,0.6350418792676737,3.027265139253169,0.002561481602765758,1.5724870082285636,150.35982887453494,109.61478149821912,126.27070844008125,86.30017952762772,102.60367552437725,109.41289381485512,126.65113411133706,133.1940371085825,149.0,145.0,125.0,121.0,101.0,145.0,125.0,169.0
81,4.05,0.00840083051264573,-0.32010098575266177,1.865840145453702,-0.09042973430719492,-1.5740920191924115,0.006189441832581188,0.4974549157720986,0.1729664759218144,0.635054290421361,3.0262859871323315,0.002693634553703813,1.572702813149014,149.8188086293416,110.51409288188745,131.39569258113002,86.81909408827877,102.85403353924725,110.22863716929868,126.27919844273676,134.01656242575345,149.0,145.0,125.0,121.0,101.0,145.0,125.0,169.0
82,4.1000000000000005,0.00895713220044092,-0.31856707479124147,1.8653226537514769,-0.091569551372221,-1.5745397488039083,0.006717603897471669,0.49828039587190665,0.17321091192784788,0.63478159372093,3.02615945080816,0.0030780715614756094,1.572683116443278,155.0006359018952,110.42502346363109,126.41065320388687,86.97494697454577,102.28210620383528,110.0822587359392,126.51878201794793,138.9565930095861,149.0,145.0,125.0,121.0,101.0,145.0,125.0,169.0
83,4.15,0.010011338833733063,-0.3142019904047588,1.8612521353754863,-0.09510658070670086,-1.5752390740511641,0.007095736576328893,0.5009419891897992,0.1736969435312567,0.6358247249731634,3.0229183291045056,0.0037057522958005265,1.5732696271996824,155.0272178627914,116.81481393682786,131.77042313885187,89.16383301838934,102.87669536785381,117.18747178854392,126.51149370082413,140.7459708357909,149.0,145.0,125.0,121.0,101.0,145.0,125.0,169.0
84,4.2,0.010489378708935515,-0.3114448084239392,1.8586685990992455,-0.09631017890993476,-1.5755974679042684,0.007563347394066167,0.5025632943038861,0.173920861689089,0.6363659864138154,3.021885008979692,0.003997021066606601,1.5732365293420962,155.47697459571827,112.74299874460083,126.38440110494227,90.06087497528581,103.19022591741424,112.76421943766424,131.0589508127257,136.19263546717008,149.0,145.0,125.0,121.0,101.0,145.0,125.0,169.0
85,4.25,0.010082548098172772,-0.3088733108648163,1.8560156372390981,-0.09710102086685213,-1.575359442768212,0.006639486184830901,0.5042085850743396,0.173746743331256,0.6369953571482174,3.0210176212898348,0.003861772954073676,1.57377086282701,149.93943614085336,118.78660236172689,131.17696416454592,95.20724277082834,107.57147330232456,113.63742161762225,126.91255010894389,136.95633735080588,149.0,145.0,125.0,121.0,101.0,145.0,125.0,169.0
86,4.3,0.010112572917707396,-0.30853352897848385,1.8570785652245752,-0.0981736044295074,-1.575571876074064,0.0073845693637717424,0.5043868540687992,0.17374894468316798,0.6362191171791479,3.0213391632054387,0.003987005516487787,1.5730377669327917,149.86637355822637,113.33871112522127,126.75982117123384,90.12670250868176,102.75647799813679,113.0309242808629,131.69021618695302,136.95745071718974,149.0,145.0,125.0,121.0,101.0,145.0,125.0,169.0
87,4.3500000000000005,0.009277589521469398,-0.3081209765005237,1.8573392580974497,-0.09829856687559424,-1.5751060448429897,0.006132312631162318,0.5047277571441399,0.1733662081026439,0.6358455109497859,3.0218930521643195,0.0036768825227476475,1.5735033307458697,150.14464356659215,113.39583368728508,126.45123612925163,90.71849589015821,107.22214152422929,112.65754037052275,126.39619847676478,141.4911280495056,149.0,145.0,125.0,121.0,101.0,145.0,125.0,169.0
88,4.4,0.01016494332993112,-0.30505287155330363,1.856187530256312,-0.10320883150586413,-1.5759065898354363,0.006769190761087174,0.5066629439447028,0.17376064733392452,0.6356676134792387,3.018900036543115,0.004377219107060557,1.5736510265902999,150.22003857386974,115.04940100896712,126.49676189376339,91.71213053489403,107.21084308106117,114.76126637198574,131.22833932790118,138.26828220904983,149.0,145.0,125.0,121.0,101.0,145.0,125.0,169.0
89,4.45,0.009482259055102027,-0.30436904953907096,1.8570790389259058,-0.10549342641872217,-1.5756785160256896,0.005846129016277235,0.5072590943432604,0.17343448822983853,0.6349763261754103,3.0181953439124105,0.004257745050532189,1.5739088618165071,149.79604803834414,114.48256617633419,126.33180283098264,91.38593580915817,102.44946559836349,114.40906346782073,126.11594181540248,138.68691172638273,149.0,145.0,125.0,121.0,101.0,145.0,125.0,169.0
90,4.5,0.009632594098635927,-0.3022919643139703,1.856081997034127,-0.10752293974057725,-1.575885023935479,0.005810315725975457,0.5085427332853828,0.17350142518104672,0.6348508092014596,3.0172451939558753,0.004460752722749368,1.5740651450524055,150.06931071402897,120.28431779270684,131.34476095032946,92.0744910199487,103.22232985248436,115.35386236650002,126.2582555430281,138.99456328758328,149.0,145.0,125.0,121.0,101.0,145.0,125.0,169.0
91,4.55,0.009387133461501662,-0.30113595211196076,1.8556257634517985,-0.10802539005092449,-1.5758393356201879,0.006162188790361789,0.5092473083475422,0.17339028125994616,0.6346366679968991,3.0174402852601543,0.004372771619251713,1.5734770253676769,150.43789535703513,115.49561748704367,126.51488350707855,92.03231041273226,107.76507030712337,120.70186799420617,126.36015989749704,139.86854037319492,149.0,145.0,125.0,121.0,101.0,145.0,125.0,169.0
92,4.6000000000000005,0.009490742027645105,-0.29948501500917724,1.8559557531601731,-0.11154999481288153,-1.5761438094933027,0.006020366917112607,0.5103512184742058,0.1734221071941283,0.6339851601637391,3.015897607237056,0.004683362895825316,1.5736769811003863,149.94134166875716,115.94327255415831,125.88655230058029,92.91659511287085,102.32067748995168,115.83119416009939,130.9575496433508,140.31623896143805,149.0,145.0,125.0,121.0,101.0,145.0,125.0,169.0
93,4.65,0.008836670525164791,-0.2985462945857291,1.8557387240230119,-0.11218360749821299,-1.5758009293846449,0.00494833338106071,0.5110100356577844,0.1731181577116919,0.6337305734023709,3.0159913564991534,0.004476120155872151,1.5741291345512423,149.8164544215433,115.92545116342072,126.13325743054865,92.99777915885859,102.40379937320573,116.12131201686023,126.00820924458183,140.8200939683821,149.0,145.0,125.0,121.0,101.0,145.0,125.0,169.0
94,4.7,0.008956323190185689,-0.29634776975493793,1.8546555048207596,-0.11424929672417683,-1.5759936980961218,0.00486212133081354,0.5123711329036393,0.17317152385583792,0.6335979570777187,3.0150432191087453,0.0046737314270137035,1.5743060694610014,150.07365624858977,117.030199672593,126.25232552498149,93.63053520216604,102.30567744453333,116.76979578048929,125.8985050780538,141.25732388596688,149.0,145.0,125.0,121.0,101.0,145.0,125.0,169.0
95,4.75,0.00903122352995167,-0.2940452010614334,1.853431567615293,-0.11629339416967044,-1.5761596908121804,0.004805234783025192,0.513802791814127,0.17320640181621638,0.6335031935730133,3.014080565187814,0.004841298233520412,1.5744121630417942,154.48665755011834,117.7566705902297,131.58029261274822,94.537307905834,102.37048981226856,117.3378932953442,131.2006302401615,146.56729049485122,149.0,145.0,125.0,121.0,101.0,145.0,125.0,169.0
96,4.800000000000001,0.009385611509163283,-0.29139043904909645,1.8510127727509582,-0.1169128234941832,-1.5764410341536879,0.00462546447596246,0.5153376170824664,0.17337359607603708,0.6338817084402176,3.0136976180688473,0.005141434742714731,1.5749073202939425,149.94179141793816,118.00822455447975,125.68326812600112,95.1674421538109,102.01107625924253,118.00486656301847,130.9284172490045,142.51628623916304,149.0,145.0,125.0,121.0,101.0,145.0,125.0,169.0
97,4.8500000000000005,0.00874674246328766,-0.2903922208076377,1.8506903157893086,-0.11743209578585567,-1.5760994370549355,0.0035109757295588295,0.5160215358151048,0.1730737998997628,0.6336520196891625,3.0138584824083474,0.004943384626885251,1.5754174697890753,155.0390249248018,118.5308491448584,126.39655756538546,94.7849987508579,102.41768013954402,118.55769032104675,125.80381345738007,142.03644752157254,149.0,145.0,125.0,121.0,101.0,145.0,125.0,169.0
98,4.9,0.008882704306466316,-0.28627655841734345,1.8472405241337713,-0.11992533750618506,-1.5763097484822977,0.0034912449989175087,0.5185834741375496,0.17314506235908309,0.6341989319840686,3.0120390590131607,0.005147412681345419,1.5755367399935933,149.74923483206973,119.7316454383725,125.99705034431213,100.94044657497395,102.2364485919523,119.51786862660902,125.81721924216563,143.43039561039527,149.0,145.0,125.0,121.0,101.0,145.0,125.0,169.0
99,4.95,0.009179328098982698,-0.28520227560534916,1.8470443130502447,-0.12044322391802842,-1.5765598452233753,0.003600296018793081,0.5191386258705882,0.17328187906235018,0.6338404295127246,3.0123943370904227,0.005384949075324419,1.5756960204376909,149.48685152249968,125.05924185173569,125.92757750929506,96.53982650475324,102.3250930959936,119.42310004700836,125.81431168047857,148.58637867365442,149.0,145.0,125.0,121.0,101.0,145.0,125.0,169.0
100,5.0,0.008777945395878284,-0.2826138735207344,1.845508607571018,-0.12284893820637022,-1.5764542016639025,0.003345082646035724,0.5208506752737747,0.17309563299394165,0.633841029607458,3.0110451365089634,0.00530618897436245,1.5755535931822495,154.8793968898013,120.36602659123267,126.2179903959652,97.22005081551768,102.10951572437686,120.306354133398,125.60461122573592,144.31186987382696,149.0,145.0,125.0,121.0,101.0,145.0,125.0,169.0
101,5.050000000000001,0.00913940462886842,-0.2785745255267935,1.8422237081664123,-0.12499205286421633,-1.576795836830013,0.0034507377377082094,0.5232971748628454,0.17327271302393918,0.6342540459460375,3.009662691616063,0.005626072950227393,1.5757580560623947,150.03528117964646,121.75485942561389,125.89123327320486,98.39296436113368,107.29285238296677,121.42529792679638,126.16962624421815,145.93995947838056,149.0,145.0,125.0,121.0,101.0,145.0,125.0,169.0
102,5.1000000000000005,0.009210653969790261,-0.27605194938418753,1.8419510836397581,-0.12908868169524546,-1.5771283165838677,0.0033812679764162468,0.5249422240509156,0.1732920091095117,0.633609364808119,3.007816837435645,0.0059585111520330655,1.575844216441412,149.64230964785477,127.57695429228993,125.88454844391283,98.99799969516667,106.8972243705047,122.18777518827473,130.8494866081982,146.2663690864559,149.0,145.0,125.0,121.0,101.0,145.0,125.0,169.0
103,5.15,0.007716802728121586,-0.2754456616683494,1.8426349014014667,-0.13095535253698642,-1.5764014595037628,0.0022552689343742216,0.5255988593753866,0.17257243868557903,0.6330436527909382,3.0072425775755356,0.005381888725614962,1.5755585809041102,149.71512850796248,128.0501555728173,125.64848572959795,99.45441574011735,101.21209009593467,127.74220643696738,125.82275949742179,146.7045726583157,149.0,145.0,125.0,121.0,101.0,145.0,125.0,169.0
104,5.2,0.007056578670673996,-0.2736756815335344,1.8416209800166126,-0.1322010381170169,-1.5760880509568471,0.001770714677708174,0.5267946453347485,0.17226011425600704,0.6329622033144162,3.0067554737827997,0.0051342772535640235,1.5754179037935814,149.37291550587977,122.90511862391364,125.52541073008527,99.6331736460336,101.71010743062097,123.01773317908068,125.33127847806774,151.98920165800914,149.0,145.0,125.0,121.0,101.0,145.0,125.0,169.0
105,5.25,0.007188049734337731,-0.27010848494879314,1.8398703256191151,-0.13598834782539448,-1.5763834920212423,0.0014026962455218062,0.5290568525816621,0.17231539082529845,0.6327389404480331,3.0047952536830977,0.005476001759014302,1.575864918584459,149.96301251763484,124.80476671165016,125.98138322953957,101.04652712867906,101.68854179559189,124.02606053589832,125.55791459364517,148.50702802292977,149.0,145.0,125.0,121.0,101.0,145.0,125.0,169.0
106,5.300000000000001,0.007081988245187798,-0.2675402886166123,1.838576119699618,-0.1381981414198057,-1.5764686039397855,0.0011874683973456257,0.5306746377798144,0.17226113514706437,0.6325377884918467,3.003861977974031,0.0055885852132495735,1.5759556728335642,149.80858985715676,130.3399596758885,131.05254624590867,101.5140635898262,101.42789971634606,129.74110354249964,125.6017827362157,149.1920137677199,149.0,145.0,125.0,121.0,101.0,145.0,125.0,169.0
107,5.3500000000000005,0.006967421086394143,-0.2666887850027999,1.8380325763352845,-0.13797302075965145,-1.5764443985732228,0.0014319719881608073,0.5311446807950867,0.1722078593417659,0.6324395882262229,3.004385363511825,0.0055314426922210315,1.5756054707424145,154.52092145524756,125.72477084663888,125.42321393017127,101.66842839797457,101.76978851369833,129.64455030663726,125.22425523514548,149.08856107938354,149.0,145.0,125.0,121.0,101.0,145.0,125.0,169.0
108,5.4,0.007029206323316384,-0.26288368034280296,1.8353551417324745,-0.14052723133409328,-1.5766427311160873,0.0012107805115086911,0.5335103185149788,0.17223532669721126,0.6325688248668074,3.0029679783539245,0.005755839618651956,1.5758509412865163,149.85732660061703,126.08887376462121,126.23064334637539,102.61074319674987,101.85568945606163,130.78046530223284,125.68392433922236,150.17533661235626,149.0,145.0,125.0,121.0,101.0,145.0,125.0,169.0
109,5.45,0.00707504404427306,-0.2612876226945722,1.8347732799704355,-0.14183423954595664,-1.5767694273873891,0.000917527854244149,0.5344734588496283,0.17225192511198206,0.6322765148465747,3.0026762117679384,0.005921902714362569,1.576168355344562,149.5741850371408,126.60773398728021,126.32985683442573,103.04066360445609,101.17545579116772,130.90704523564386,125.44680762914692,150.117390751362,149.0,145.0,125.0,121.0,101.0,145.0,125.0,169.0
110,5.5,0.007139375714970697,-0.2598953859017894,1.834211690729144,-0.14271107233775426,-1.5768781643018324,0.0006823112030218681,0.5352874412319002,0.17227971443429324,0.6320284409480537,3.0026273532299403,0.006062264441477445,1.5764507262613585,154.31481596757538,131.53233415882087,125.79522405075326,103.12378021534458,101.769465365277,126.77411161592296,125.51830515728363,156.0134478115529,149.0,145.0,125.0,121.0,101.0,145.0,125.0,169.0
111,5.550000000000001,0.0067376563125742805,-0.25419548830474215,1.8302554888539548,-0.1472702641918251,-1.5769154963684455,0.00035545398939262896,0.5389775823306688,0.1720805606676059,0.6322429516668181,2.999831583166386,0.0061398246551152245,1.5763488502444098,154.98224017710714,133.45937836828162,125.72510228555655,104.9683231711505,101.54268090032625,127.96892882270444,125.3105564131431,152.81680545013722,149.0,145.0,125.0,121.0,101.0,145.0,125.0,169.0
112,5.6000000000000005,0.006058433907830008,-0.24911635006652544,1.8262498696284863,-0.15022479688705204,-1.5767150132685046,0.00021764059485418485,0.5422666375040757,0.1717508167330513,0.6326203324457119,2.9979607312037673,0.005956996020856176,1.5758220439427943,149.61697963265843,130.40413185291763,125.69417140801971,106.08527672838754,101.42382744110994,134.38271134771009,130.63888431032686,159.35127775318693,149.0,145.0,125.0,121.0,101.0,145.0,125.0,169.0
113,5.65,0.0055498805676221785,-0.2476133563334546,1.8255352014784592,-0.15148306881424078,-1.576481029650263,-0.0010751517211193828,0.5432772605674933,0.17149449986912785,0.632458809765328,2.9974863850801565,0.005910770200377906,1.5766248166542294,149.60931845409036,135.64092958640987,125.48799131614695,106.99253660006046,106.3059548473963,130.04153343252747,124.96674313177557,154.22950174486002,149.0,145.0,125.0,121.0,101.0,145.0,125.0,169.0
114,5.7,0.0046312855504480055,-0.24529802526447675,1.8250696698114535,-0.1548502610871454,-1.5761876111112327,-0.001446096768474181,0.5449224808226117,0.1710293123763517,0.6319279922870678,2.9959701504007925,0.005674527493049808,1.5761070619845274,149.60241900807665,131.31930022412897,125.1638286912808,107.42967078771895,101.71363541265868,130.9058307438498,130.107400930203,155.38092802138937,149.0,145.0,125.0,121.0,101.0,145.0,125.0,169.0
115,5.75,0.0038646487036779753,-0.2443892711051796,1.824742063282491,-0.15543341687810175,-1.5757762022828503,-0.0024938713188715766,0.5455860568588771,0.1706468764753289,0.6317316801037707,2.9959692252295964,0.00541895169533952,1.5764369207027118,149.39142918068742,136.2274921214077,125.12038385745696,112.82109513170482,100.68092989026928,136.62430500011197,124.55171076326526,155.76417489021432,149.0,145.0,125.0,121.0,101.0,145.0,125.0,169.0
116,5.800000000000001,0.0038454136003056583,-0.24449174634933124,1.824849441568528,-0.1546735012326983,-1.5757376973870612,-0.002358147526268617,0.5454566498173037,0.17064319458313804,0.6316265759350488,2.996724245901195,0.005361865633249739,1.5762946233833763,149.23231143920341,131.0308069954064,125.0481070072941,107.57290128970209,101.22550099588386,135.9826899430224,124.9628723367144,155.32996445528389,149.0,145.0,125.0,121.0,101.0,145.0,125.0,169.0
117,5.8500000000000005,0.0038476591993275022,-0.2430451530415394,1.8243283306148816,-0.15593201843673254,-1.5758217629949867,-0.0026734398117489455,0.5463417806780134,0.17063815159371012,0.6313474990902844,2.996397311834959,0.005492901816319055,1.576595434905339,149.22276866910667,131.37110056262563,125.24146133535083,112.9257071744234,100.9214085429062,131.28302586963312,125.17843256922444,155.80044887561436,149.0,145.0,125.0,121.0,101.0,145.0,125.0,169.0
118,5.9,0.004200027490013802,-0.2426962801360184,1.8243532083448928,-0.1557429003509454,-1.5760472122602867,-0.0024160915733797417,0.5464411062581606,0.17081153009111025,0.6311177870816871,2.9969580286381876,0.005678987325735591,1.5766643183164466,149.16239652604918,131.89028338918615,129.86850288516914,112.7882531107604,100.51998120576269,131.7498558481355,125.30984157718494,155.81555127539912,149.0,145.0,125.0,121.0,101.0,145.0,125.0,169.0
119,5.95,0.0050936889631660875,-0.24336994451343408,1.8248129682627523,-0.15402900282624232,-1.5765352670170314,-0.0015016611128753077,0.5457603886489518,0.17125696647866978,0.630966108397938,2.998445477467174,0.00603103313913115,1.5765930824892593,149.18340903419323,135.70889086744197,125.97046489526403,107.4944683325111,101.06354385885697,130.89812359070984,125.00333855308217,160.2860421555029,149.0,145.0,125.0,121.0,101.0,145.0,125.0,169.0
120,6.0,0.004524105143576929,-0.2402047449047271,1.82293555354964,-0.15672893168695046,-1.5763580888206663,-0.002071797234903805,0.5478572296599167,0.17096516241402357,0.6308518789276867,2.99705177641484,0.00593565293149464,1.5766023302015897,149.47223088656722,131.70035625555835,130.40691566680732,108.10261162112077,100.9723575793768,131.4647668808873,125.03706665052943,156.24217915852026,149.0,145.0,125.0,121.0,101.0,145.0,125.0,169.0
121,6.050000000000001,0.004951876145404821,-0.23865795801847822,1.8220621540686075,-0.1573548748438749,-1.5767027535183606,-0.0016906891287082892,0.5487018670667853,0.1711717632732958,0.6306832882709064,2.9971001331841607,0.006222492639093974,1.5766037733635752,149.27956983153638,132.3350128232772,130.5533477082555,113.16812148883683,101.16903309146336,136.8647609692071,124.83186230912862,156.4422243422371,149.0,145.0,125.0,121.0,101.0,145.0,125.0,169.0
122,6.1000000000000005,0.005922162294867306,-0.23921202410841325,1.822628295749535,-0.15614697931442612,-1.5772662715539552,-0.0008294829232253775,0.548099352191787,0.17165466160454868,0.630458434691856,2.998302416493331,0.006659224474565102,1.5766509814160197,148.9537830999765,131.28789351709574,125.52850742833198,107.64134156217877,100.73396084251105,136.6617948790365,124.68400341418663,156.19085104754112,149.0,145.0,125.0,121.0,101.0,145.0,125.0,169.0
123,6.15,0.006113641010852433,-0.2377608851095685,1.822083218888137,-0.15729825421165744,-1.577458086092066,-0.0010102530750946137,0.5489477929938726,0.171742925317272,0.6301765173171414,2.998062895903087,0.006873828028968285,1.5769915072407703,149.42357747632192,131.92586968524677,125.59346761956729,108.66019736248738,101.6991525311172,136.77911210229712,130.18777526568118,155.91146807952708,149.0,145.0,125.0,121.0,101.0,145.0,125.0,169.0
124,6.2,0.00563013846899274,-0.23797073865921492,1.8225423418328939,-0.15694747823235478,-1.5771581924322096,-0.001918316007297527,0.5488523548253507,0.17149657024948872,0.6299317109377797,2.9986675784793895,0.006702754995378945,1.5774520262843823,149.7241074984025,131.82384909896476,125.6948307880248,107.69780575222522,101.11951920033995,131.49029723807664,130.0128355662512,156.06598695282062,149.0,145.0,125.0,121.0,101.0,145.0,125.0,169.0
125,6.25,0.005011821700042329,-0.2370992857685703,1.8220781240778035,-0.15715601677737556,-1.5768136905759391,-0.002819821123991151,0.5494548077248231,0.1711857177772571,0.6297979605951575,2.998873034955405,0.006488009754594942,1.57777546864625,149.33253748510523,132.32784678435715,125.121971064037,108.37581922478797,101.33385146731383,132.09927439887957,124.61098340375386,156.3089009751351,149.0,145.0,125.0,121.0,101.0,145.0,125.0,169.0
126,6.300000000000001,0.004983214094035571,-0.2351604383255239,1.8211690642641667,-0.15866010472170267,-1.5769083892747693,-0.002972754429423574,0.5506508160907544,0.17116603253547774,0.6295378296643825,2.998407006567244,0.006606317183002215,1.5778820793157013,154.20952042407353,132.97454122670305,125.03957205041496,108.61625512187325,100.50050889818361,132.2016954051333,125.03438219282968,156.72127378439674,149.0,145.0,125.0,121.0,101.0,145.0,125.0,169.0
127,6.3500000000000005,0.005031252554433152,-0.23117506434303747,1.8180655649258135,-0.1605256625902025,-1.5770737829899888,-0.0031517898716049153,0.5531010496055558,0.1711871669178828,0.629706538816097,2.997435805474194,0.006798912481653433,1.5780770299976576,148.86779184527686,138.4134705259288,125.39322705964635,109.49650825826485,100.71152533739534,137.63372069647113,129.9309046976496,158.07337578621159,149.0,145.0,125.0,121.0,101.0,145.0,125.0,169.0
128,6.4,0.003942131370394009,-0.23153588136668546,1.818300897898558,-0.15974129602329779,-1.5763750572682094,-0.004221158167882155,0.5530068793319626,0.17064380572884563,0.6296538709946311,2.9980884764617874,0.0062550132520811895,1.5781496822926593,149.2414419905654,133.75006054482378,130.09637601048348,109.20866444378996,101.07561718437674,133.12753294210808,124.84863669532062,162.46727047505073,149.0,145.0,125.0,121.0,101.0,145.0,125.0,169.0
129,6.45,0.004296666911923541,-0.22919832694159847,1.8170501328355968,-0.16147730508600455,-1.5767325323931862,-0.0041301269206242,0.5543872644319076,0.17081247252100612,0.6294349837767221,2.9974424024566972,0.006601077279096272,1.5783601415161543,149.4872720769669,138.6969661068038,125.3236766944586,109.63605676627155,100.56314169252519,138.63825184250564,129.63540404441994,158.15571775228972,149.0,145.0,125.0,121.0,101.0,145.0,125.0,169.0
130,6.5,0.00336871111850634,-0.22917085404704407,1.8169740317162342,-0.16090307711311969,-1.5761446978811078,-0.005088235614989056,0.5545124859721136,0.17034925360744363,0.6294035972018728,2.9979684515965253,0.006152752939766467,1.578467329480277,149.3032229607336,133.4797191173334,124.89665370476634,110.26006508320967,100.49740044199343,137.98554725639158,124.94484056629592,158.01187829968075,149.0,145.0,125.0,121.0,101.0,145.0,125.0,169.0
131,6.550000000000001,0.0033321263036296678,-0.22842563756219958,1.8167474952229439,-0.16124387507469118,-1.5761478295272076,-0.005431506214431003,0.5549419312114074,0.17032772590080844,0.6291893171576272,2.9981469133097227,0.006205023655972121,1.5787716577195232,149.14243434334858,133.767397371608,125.0654347047784,109.95472839840906,100.22509342382271,133.61060472499494,124.61045034791005,157.74537836335176,149.0,145.0,125.0,121.0,101.0,145.0,125.0,169.0
132,6.6000000000000005,0.0031635726483858484,-0.22686504260303453,1.8158634440449957,-0.1620561656019084,-1.5761044726895177,-0.005730307071151852,0.5559090575516109,0.1702402206522468,0.629029459420874,2.998017906557682,0.0062067017797222375,1.5789044434812922,154.519004000832,134.04207249371777,124.97590749282095,110.16602927652795,100.60742789721806,133.5325192100957,124.64391821129531,163.66235758459482,149.0,145.0,125.0,121.0,101.0,145.0,125.0,169.0
133,6.65,0.002780918775043162,-0.22155321478994816,1.811858712458167,-0.16520452161663934,-1.576074522298005,-0.006654582318191604,0.559299437672857,0.17003078110683492,0.6292119659997784,2.9962007435065314,0.006319313957754313,1.579427931066099,149.6446809195607,135.49526855641335,124.88561190899635,112.08734214014221,100.18863882389549,135.16553531297285,124.39524152020272,159.92814644938318,149.0,145.0,125.0,121.0,101.0,145.0,125.0,169.0
134,6.7,0.002658076376790941,-0.21982513556894023,1.8107682059458563,-0.16603497095511788,-1.576061972915432,-0.006906339421274943,0.5603622280541475,0.1699646241046632,0.6291035131684963,2.996005212867601,0.006344960061618009,1.5795553813369048,149.6696784886397,136.29564803032486,125.04224783504944,111.95709251232519,100.29794823407907,140.59896546137173,129.56734803814592,160.53302600984804,149.0,145.0,125.0,121.0,101.0,145.0,125.0,169.0
135,6.75,0.00223127541046253,-0.21977170152237502,1.810767398920377,-0.16554688202932288,-1.5757735517820715,-0.007777289079779592,0.5604107388646137,0.1697482861488646,0.6290235241223202,2.996536052013913,0.006181485285040562,1.580036120905307,149.06749900446283,135.9917360550804,124.95502110150639,117.14682967409198,100.42646404965687,135.7368185305996,124.03671863384052,165.59588709171663,149.0,145.0,125.0,121.0,101.0,145.0,125.0,169.0
136,6.800000000000001,0.002545673814765337,-0.21778763309488713,1.809639603612947,-0.1669167611735518,-1.576052233862634,-0.007797238185201394,0.5615807780375957,0.16990052154817828,0.6288561544805508,2.996028558427385,0.006465874112842383,1.5803275068750047,149.25553527299158,136.70493378908048,130.14905281800637,117.27656405958746,100.0605212217765,136.11947028507396,124.50316474431699,160.73938989867918,149.0,145.0,125.0,121.0,101.0,145.0,125.0,169.0
137,6.8500000000000005,0.0033994577718186036,-0.2177751393328342,1.8095061924945641,-0.16586805809651306,-1.5765447922698197,-0.006886182237060279,0.5613672940415029,0.17033978777779496,0.6288189981438211,2.9969484279461054,0.006818238930636604,1.5802163236652067,149.27061268010738,135.7701322345723,125.01331970824572,112.41334143432188,100.09529240794976,136.15726366180553,124.40495129694449,161.0716820698404,149.0,145.0,125.0,121.0,101.0,145.0,125.0,169.0
138,6.9,0.003359764964723677,-0.2162127081735714,1.8085583380081722,-0.16662942568425043,-1.576570708388294,-0.007129936139425919,0.5623149355357077,0.17031464636821045,0.6286880229143738,2.9968069573959673,0.006878289516729869,1.58041210470276,149.34503534550586,136.47495200288262,124.713514451307,112.45939961276191,105.14931616110032,136.3358848393164,124.31300982418037,165.85477473806165,149.0,145.0,125.0,121.0,101.0,145.0,125.0,169.0
139,6.95,0.003100709103883492,-0.21377661696703187,1.807962809902401,-0.1699308933409438,-1.5766528679804228,-0.007619738445443058,0.5639242039818596,0.17015928250986817,0.6281220667031318,2.9953605867620263,0.00703865190952647,1.5806143960268029,149.41959493560555,137.70598310567877,130.30033869829253,117.99433697832173,100.12502006221773,136.71156624702044,129.4482248102695,161.7960224648764,149.0,145.0,125.0,121.0,101.0,145.0,125.0,169.0
140,7.0,0.0035287819235856333,-0.21419325326404204,1.8080445638281963,-0.16851612189318432,-1.576862065997049,-0.007293371221269496,0.5635117148380737,0.1703822675528625,0.6281370614461055,2.996428282427668,0.0071921215763591844,1.580698034986506,149.39159748747235,136.7336632721672,125.2216183488611,112.72382284748292,100.27345255419743,136.44650455901598,124.08290157986556,161.2059841651867,149.0,145.0,125.0,121.0,101.0,145.0,125.0,169.0
141,7.050000000000001,0.0034890433928249642,-0.21270863770805493,1.807125008909507,-0.1691839459290354,-1.5768878781175477,-0.007453686225246781,0.5644073890181683,0.17035882318047624,0.6280169816456902,2.996328294072064,0.007241135936994836,1.5808122171666352,149.12868014877708,143.0371632586986,124.89101507676212,113.49873961971606,100.15423530581207,136.4885216125935,124.89467639045135,160.92661074915512,149.0,145.0,125.0,121.0,101.0,145.0,125.0,169.0
142,7.1000000000000005,0.0027866400044569417,-0.2117033554118759,1.806256588640279,-0.16926034354058794,-1.5764798390310482,-0.007730970896486777,0.565119590801113,0.17000046834968321,0.6280569211798279,2.9963911283483267,0.006874087687120114,1.580442012052383,148.89736111506087,142.19451720773887,124.86859104821342,113.52490795815488,100.2220745260958,137.39566950079754,124.49217489749377,162.23131426783826,149.0,145.0,125.0,121.0,101.0,145.0,125.0,169.0
143,7.15,0.0022114035613172156,-0.21053493002205315,1.8053866230158402,-0.16963434957925871,-1.5761647717797453,-0.008021968741233731,0.565915850510055,0.16970568836924035,0.6280428810586248,2.996316027237479,0.00660416253579579,1.580199403564451,148.79486377801604,137.53977286648833,129.91653511572554,113.89981484202472,99.93745106578737,137.49822180337605,129.14503451425054,167.10986649181675,149.0,145.0,125.0,121.0,101.0,145.0,125.0,169.0
144,7.2,0.0024377690595258628,-0.2096838148017306,1.8048275113773133,-0.1697027929216195,-1.576329900635999,-0.008243913572632433,0.5663661937590678,0.16981896453291345,0.6279578158103242,2.9965412316850792,0.0068009316274850705,1.580624451913395,153.82072641060148,137.72253733567405,125.18480640786761,118.74792232731875,105.30911834684899,142.6309405953311,124.69716021016104,162.4384981919837,149.0,145.0,125.0,121.0,101.0,145.0,125.0,169.0
145,7.25,0.002598787106345757,-0.20896849272076423,1.8047396118782038,-0.17045443940523652,-1.5765222460266468,-0.008146638759118918,0.5667697075717976,0.16989411484201666,0.6277052372170904,2.99641727528235,0.006979624982847906,1.5806613401397138,148.9849947672449,138.05779019840514,124.56276602876193,114.12876607303939,104.92420258638872,137.37226978895458,123.99232745788865,162.92631659762299,149.0,145.0,125.0,121.0,101.0,145.0,125.0,169.0
146,7.300000000000001,0.002449216354467154,-0.20804622455457045,1.804944072613412,-0.1720859374996535,-1.5765709097343947,-0.008246033145431042,0.5673750453823441,0.1698043111506939,0.6272366967031839,2.9959160297701333,0.007045243128495826,1.580599126050698,154.57739873335385,138.69323078658127,125.11474953620663,114.12652310178167,100.38027788023244,142.75428187137638,124.13535123308559,162.83966097609922,149.0,145.0,125.0,121.0,101.0,145.0,125.0,169.0
147,7.3500000000000005,0.002256650550891859,-0.20565739677245398,1.8028618649305725,-0.1726643557316403,-1.5765044846160752,-0.008699848132471377,0.5688613926979808,0.16970011047802036,0.6273889951703131,2.995652751456094,0.007046323609300766,1.5808624512001106,149.2723418347243,138.87926236154013,124.84118591108877,114.97086144367626,100.35326240046531,143.21000435752094,124.29828521597534,163.6581211004328,149.0,145.0,125.0,121.0,101.0,145.0,125.0,169.0
148,7.4,0.002234247590384708,-0.20501011589410867,1.8025837141755359,-0.1729516041338952,-1.5765071713617376,-0.00896995293939895,0.5692403489858487,0.16968614156998782,0.6272506949208536,2.9957331009652157,0.007087882287386242,1.5811078942862373,153.92357495514074,139.46463471352496,124.74220613798651,119.57676769249608,100.08307040192261,138.61168118657304,124.16889039803024,163.29503358069775,149.0,145.0,125.0,121.0,101.0,145.0,125.0,169.0
149,7.45,0.0023969601608095914,-0.20295452510487078,1.8006397674192742,-0.17305141852678796,-1.5766312985282758,-0.008846084551109357,0.570443736496666,0.16977079302311174,0.6274377506502594,2.995747026086644,0.007193400665548601,1.5811304073066084,149.0041624754901,139.33293547866836,124.62911260738947,114.94580342107808,100.18608524244831,138.89334479476872,128.93108966458774,163.7269622675393,149.0,145.0,125.0,121.0,101.0,145.0,125.0,169.0
150,7.5,0.00199524916197813,-0.20249681525151297,1.8003587000976795,-0.17296862484512454,-1.5763848511665106,-0.009513687570782636,0.5707601221287775,0.1695608563775618,0.6273623538487524,2.9960069251391133,0.007042889654929993,1.5814263038329164,148.90311297362086,139.70636281676914,125.08844839781146,115.17215029124766,99.88972103261506,139.03585065182892,124.26798061462368,168.45023958691266,149.0,145.0,125.0,121.0,101.0,145.0,125.0,169.0
151,7.550000000000001,0.0020309169308943,-0.2006708947768372,1.7992570390729288,-0.17414413459748967,-1.5764795329115264,-0.009825862753561676,0.5718794672404052,0.1695716801586659,0.6272231427116205,2.9955623658821824,0.007186721942856768,1.581754108944259,148.94465976129501,139.79791990267688,124.59906194770025,115.1934552154797,100.30561387727741,139.52642127631398,124.04741733922448,164.42118843736037,149.0,145.0,125.0,121.0,101.0,145.0,125.0,169.0
152,7.6000000000000005,0.0019226546910502407,-0.19947576245473186,1.7985678937679124,-0.17477128244698203,-1.576455950537678,-0.010054428376726765,0.5726186236237802,0.1695121248634115,0.627092104271404,2.9954437248449266,0.007198066303506573,1.5818746694338717,148.83977083337373,144.90884917507194,124.75336032647841,120.73792085472212,99.73938682227113,144.5693735056981,123.82966619549923,164.9597728420285,149.0,145.0,125.0,121.0,101.0,145.0,125.0,169.0
153,7.65,0.0019088289520765578,-0.19981937099921154,1.7986545727677958,-0.17397657183632376,-1.576393195543817,-0.00985713549647027,0.5723676004081077,0.16951193730431535,0.6271378472245227,2.9959712622263868,0.007102088506533375,1.5816789953633565,154.11819106174224,140.01733940631476,129.7500784889884,115.7550719581134,100.03053865803766,139.41725798646806,124.15185344742243,165.11401291296175,149.0,145.0,125.0,121.0,101.0,145.0,125.0,169.0
154,7.7,0.0021825628097533745,-0.19749087763355755,1.796520950059036,-0.17420979518809876,-1.576608884105858,-0.00972256179076103,0.5737234732772999,0.16965132588820683,0.6273063118406281,2.995940964546166,0.007297423510051842,1.5817880949800303,149.02665798356867,140.4224127066721,124.6825930907395,116.060582926189,104.69958066329656,139.54768367619636,124.52598619916496,169.75893358005243,149.0,145.0,125.0,121.0,101.0,145.0,125.0,169.0
155,7.75,0.002067043054886142,-0.19605392524358844,1.7963626062557525,-0.17639233287111722,-1.5767033935676,-0.01002727572541362,0.5746667415005374,0.1695746261761526,0.6268521017894483,2.9950456713091484,0.00744339904618353,1.581953377088127,148.53802293138304,146.00698007173858,129.66541681326188,121.07216870088993,99.63375275742807,140.39642489071835,124.35480505343084,165.76471764643392,149.0,145.0,125.0,121.0,101.0,145.0,125.0,169.0
156,7.800000000000001,0.0024196780935272777,-0.19638563448193658,1.7963771592339128,-0.17537250599418686,-1.5768802509064335,-0.00929386546327926,0.5743482893142511,0.16976541671762801,0.626916101779082,2.9957345439292737,0.007505766312563094,1.5815607253680073,148.41605932766709,140.49643447864756,124.86939974436946,116.73445646398008,100.09067079014413,145.20129233188496,124.59030387594817,165.37713892086876,149.0,145.0,125.0,121.0,101.0,145.0,125.0,169.0
157,7.8500000000000005,0.0024483018079224372,-0.19614735123686433,1.7963608748680517,-0.1754087159001103,-1.5768875564051266,-0.009525410928375777,0.5744656588301595,0.1697794798412965,0.6267964827347413,2.9959201171820373,0.00754470908547188,1.581818740123306,153.7330810876595,145.39956046141603,124.61336575257093,116.28235883843894,100.43638453204241,145.40096127190586,123.83137735355423,170.19925081196163,149.0,145.0,125.0,121.0,101.0,145.0,125.0,169.0
158,7.9,0.0019205314932544404,-0.19348339930710967,1.7941013465980324,-0.1765461418679295,-1.576641228024795,-0.010199271828373657,0.5762160216613528,0.16949641110331506,0.6269589772402823,2.9952021329671394,0.007403260044885709,1.5819862023103362,153.46423507489823,140.85106444601854,129.7820364610057,117.27852556775474,100.02666405919817,141.6348673413464,123.98886455285059,165.7732974697136,149.0,145.0,125.0,121.0,101.0,145.0,125.0,169.0
159,7.95,0.0023379621965515796,-0.19159668848234812,1.7923812029799358,-0.1766474719969091,-1.5769384226077845,-0.009920642908419985,0.5772760015435207,0.16971281503491498,0.6270742833050705,2.9952705448985406,0.0076580597795245,1.5820859781930912,148.7256090393173,141.77027530519894,125.11667112110189,122.35024869879945,104.71376344753796,141.2550686011881,124.29835745898552,166.7490117711672,149.0,145.0,125.0,121.0,101.0,145.0,125.0,169.0
160,8.0,0.002649153324004061,-0.1921399674601152,1.7933967328359497,-0.17700755255377265,-1.577181760081042,-0.009423816294878318,0.5768742911839421,0.16987313103098803,0.6267349982468777,2.99537106505044,0.007827115639113433,1.5818725401519989,148.5909366729504,141.3208342393875,124.86332700338254,117.31104537601557,99.68847540242426,140.8117128820374,124.28658434103984,171.3531608249246,149.0,145.0,125.0,121.0,101.0,145.0,125.0,169.0
161,8.05,0.0028379083130567473,-0.19064977328778276,1.7925238539615655,-0.17800385076661396,-1.577354334054049,-0.009541395670796593,0.5777622723335213,0.16996567284130543,0.6265986431913165,2.994998044665422,0.008017901883867232,1.5821491238044467,153.7570681455744,146.745989671416,125.2671031820045,117.5773511060215,100.04909772800963,141.2603425511428,123.96973966003695,166.83773517405558,149.0,145.0,125.0,121.0,101.0,145.0,125.0,169.0
162,8.1,0.0023590690113874935,-0.18841301389191312,1.7903799271260175,-0.17837187548947364,-1.5771127398406035,-0.00973802614231678,0.5792122034338125,0.1697123287702565,0.6268294862189544,2.994729829171439,0.007807105250084501,1.5818961271357097,149.24532626943505,142.3965611165116,129.5553454890488,117.83587956114782,99.62753749891665,146.55745574097202,128.99556050153564,166.98253305283228,149.0,145.0,125.0,121.0,101.0,145.0,125.0,169.0
163,8.15,0.002482595980168867,-0.1888407479283427,1.7905074260992881,-0.17739118416695954,-1.5771327842958778,-0.009975280343241355,0.5788788528754465,0.16977984467820942,0.6268764169382666,2.995403135409035,0.007856032843084539,1.5822575911411059,148.79157736613962,142.7305333761072,129.9109759666168,117.6416154908667,99.72564681070939,141.13032110350144,123.99580302142775,172.06351754879168,149.0,145.0,125.0,121.0,101.0,145.0,125.0,169.0
164,8.200000000000001,0.0030436842524244057,-0.18747760309140604,1.789580277153207,-0.17799058731750783,-1.5775305203117584,-0.00961648669221038,0.5796125082887008,0.17007212868993607,0.6268015856428285,2.9952423138356803,0.008201637719554131,1.582405766485543,154.07526514247922,142.3856588124407,129.36830494521777,117.93209792938444,104.68861699132108,141.58477741108516,124.0626591646195,166.9749474329897,149.0,145.0,125.0,121.0,101.0,145.0,125.0,169.0
165,8.25,0.003269214163108103,-0.1860172892739853,1.7886485791431905,-0.1787673639405969,-1.5777859290308553,-0.00927123597119639,0.5804688990529353,0.17018237167762712,0.6266912276788446,2.9949988462748696,0.008405994580255878,1.5822500749964223,148.8474199615411,143.02457909491412,124.49197970225403,117.95569583522418,99.42719321688739,142.2878587927513,128.8396976894493,167.11959449625593,149.0,145.0,125.0,121.0,101.0,145.0,125.0,169.0
166,8.3,0.0029272187254716364,-0.18577437308974032,1.7883536417078219,-0.1784213730980797,-1.5775499752470008,-0.009837898051508809,0.58064672801737,0.17000150058202507,0.6267150394892808,2.995291641222855,0.008249979854405426,1.582504486616251,148.50930437884787,147.65445611825422,124.61530852493884,118.26898398857843,99.97554339623568,142.40313097310903,124.34695608356415,167.28360304189243,149.0,145.0,125.0,121.0,101.0,145.0,125.0,169.0
167,8.35,0.002509369176721954,-0.18538453305711178,1.7879326526544315,-0.17826889983763916,-1.5772846009271282,-0.010010457369861392,0.5809380584548935,0.1697836607101396,0.6267624050802674,2.995410156060916,0.008010003811777298,1.5822964178423473,148.85730189201036,142.8277813237405,124.51496408239674,118.6925033565553,104.26175263863698,142.3656762295194,124.04515123269874,168.44783700975003,149.0,145.0,125.0,121.0,101.0,145.0,125.0,169.0
168,8.4,0.0024459886956789134,-0.1849694427608366,1.7881846251955738,-0.1792401904296268,-1.577331070067567,-0.010005697332051255,0.581212652773048,0.16974383890226635,0.6264631935366094,2.995107784832651,0.008059475096193069,1.5822197384294485,148.6322325596507,142.99028045681638,124.79193428748047,118.65158399325514,104.43005122464567,142.56178277087983,124.12547310750375,167.94013135829212,149.0,145.0,125.0,121.0,101.0,145.0,125.0,169.0
169,8.450000000000001,0.0023805623289891997,-0.1847520586665583,1.7886067202106304,-0.18012256736806798,-1.577371435211715,-0.009968926247846177,0.5813629420751638,0.16970325261481156,0.6261512938573696,2.9948648968297156,0.008097088365427855,1.5821105395345494,149.06981726793737,143.49175893959875,125.12049366864692,118.88903173740242,99.67786052446262,142.39240854900171,128.8538022446089,168.1231935527943,149.0,145.0,125.0,121.0,101.0,145.0,125.0,169.0
170,8.5,0.002131820709186716,-0.18450080122101475,1.7882968575067713,-0.1797880484077914,-1.577197392995136,-0.01041924078757095,0.5815327877202032,0.16957231491266953,0.6261799998792601,2.995141498062264,0.007987115665646147,1.5823345216261233,153.45109652473542,148.51428904926948,124.3838986596183,118.724820445602,104.87919019713559,142.42116803557357,123.91970140155694,167.77278072876268,149.0,145.0,125.0,121.0,101.0,145.0,125.0,169.0
171,8.55,0.0014579103550924621,-0.1832889588697837,1.7874489320291058,-0.18057628933530623,-1.5768836456326216,-0.010660061993325254,0.5824033912674618,0.16920957954805238,0.6261539368525094,2.994720742169365,0.007714152374215235,1.5819402389307453,148.90604993860472,143.4808363870669,125.26714639816642,119.02666460633623,99.65421247897034,148.15337332071832,123.3946350710858,173.67161141677528,149.0,145.0,125.0,121.0,101.0,145.0,125.0,169.0
172,8.6,0.0017240420434845305,-0.18211137979065128,1.7866667370597415,-0.18128208028554127,-1.5770777793273885,-0.01081307005052734,0.5830907766485747,0.16934668695174476,0.6260945634901682,2.9944155981601974,0.007934137702714748,1.582328007598453,153.8109565562336,143.6744278980729,124.58545697174667,119.50854040288876,99.38023291409603,143.53799982314897,124.0160906040352,168.69915002606186,149.0,145.0,125.0,121.0,101.0,145.0,125.0,169.0
173,8.65,0.0016586415849233482,-0.18002376525171426,1.7847015204621952,-0.18159072678300836,-1.5770684073153811,-0.01103552381906825,0.5843749560280469,0.1693104945143024,0.6262730502816151,2.994234868902942,0.007959822687912135,1.5824826058598127,148.5203116891492,144.3402378704376,124.64292264621872,119.74954382920323,104.88768283087416,148.63067247150602,123.46698620553715,169.11607768025777,149.0,145.0,125.0,121.0,101.0,145.0,125.0,169.0
174,8.700000000000001,0.001663416533085993,-0.18044361017388644,1.7856004728147346,-0.1821974116218037,-1.5771221201202126,-0.011010416751215946,0.5841198861441966,0.1693078061331908,0.6259737139815498,2.9941009722020495,0.008010483742790888,1.5824540917517804,153.58891603637463,144.34713286354994,129.3979318327308,119.65639629374236,99.37949912001461,148.83199874636895,123.7323087829542,173.84272687696446,149.0,145.0,125.0,121.0,101.0,145.0,125.0,169.0
175,8.75,0.002170666412178779,-0.17858067769214214,1.7839107432144274,-0.18259543866842742,-1.577474907125488,-0.010902312284716498,0.585176271716591,0.16957293129889955,0.6261030778959493,2.9938820059678473,0.00834753729764158,1.5828014169921172,148.82002386378994,144.10085017128688,124.57841033864989,125.02745660804047,99.97850639185152,144.35266698430945,124.1283274841217,174.2470124069847,149.0,145.0,125.0,121.0,101.0,145.0,125.0,169.0
176,8.8,0.0026200111817482608,-0.1781427690763011,1.7836665682140467,-0.18282335155495888,-1.5777558665298468,-0.01060747605964174,0.5853661425493685,0.16981110359095825,0.6260452371030959,2.993847084805872,0.008583030519882781,1.5829179156801167,148.06298571750682,144.6298203451543,124.66668875521812,120.14927194140489,99.46012410437616,144.05838751869499,123.80404758380199,169.4386195443578,149.0,145.0,125.0,121.0,101.0,145.0,125.0,169.0
177,8.85,0.002698909315895559,-0.17772112247519578,1.7833780069886318,-0.1828858263759554,-1.577795544194867,-0.01057974649759652,0.5855971878105256,0.16985317193713864,0.6260077264788593,2.9939157452680796,0.008616241713595775,1.5829636802637472,148.58594730458003,149.12584074203292,124.93965565240705,124.99737176655273,104.30055470042922,149.6391098759505,124.20653459584314,169.59617274267865,149.0,145.0,125.0,121.0,101.0,145.0,125.0,169.0
178,8.9,0.002695359553641641,-0.17895331897331346,1.784500701078957,-0.18247838508386494,-1.5777765471746488,-0.01028691791400993,0.5848273405639536,0.16985253841930398,0.6259062426822561,2.9942039774073033,0.008550471689729871,1.5826756953598278,153.80683196735026,144.12667631649512,124.95173057170138,120.14986263101055,99.71031261807826,143.46003730316775,128.4525774280405,174.0665577771825,149.0,145.0,125.0,121.0,101.0,145.0,125.0,169.0
179,8.950000000000001,0.00249590187071691,-0.17711662520870286,1.7828825136938073,-0.18306247818991306,-1.5777029800666824,-0.010866528093804284,0.5859990090271812,0.16974033300312938,0.626017083995974,2.993851703048905,0.00856560309393475,1.5830563155147577,149.00435199245976,144.49216968794818,124.16292783384732,120.30040439154682,99.62642761818748,144.40889837396185,123.57512221576668,169.8394287641575,149.0,145.0,125.0,121.0,101.0,145.0,125.0,169.0
180,9.0,0.002554213473025868,-0.1764972578637063,1.7824509261337118,-0.18327259201165225,-1.5777426464193338,-0.010866982938191327,0.5863639693192673,0.16977160880159148,0.6259770081124753,2.993832055248352,0.008605654067353734,1.583109167317002,148.9178909901013,145.11094605834546,129.26473797263836,120.39162108305554,99.54712624837444,149.57647674708844,123.93806261482439,174.62895807918775,149.0,145.0,125.0,121.0,101.0,145.0,125.0,169.0
181,9.05,0.0032016978910398564,-0.17592899745453083,1.7820042969528744,-0.18337349401996095,-1.5781417733372658,-0.010556764415671438,0.5865946127101428,0.17011665417907684,0.6259686833127751,2.9938510467054766,0.008957107663047836,1.5833926972851449,148.80704875277118,144.7701646685044,124.68150354018599,125.41963646873361,99.84583551605898,144.58999386667557,124.1140464508,169.95765756694462,149.0,145.0,125.0,121.0,101.0,145.0,125.0,169.0
182,9.1,0.0035067482031578834,-0.17611846181016988,1.782074460958758,-0.18291561975192794,-1.5782905838865133,-0.01020308117121127,0.5864013221550798,0.17028310947275627,0.6259786058414928,2.994184258000512,0.009049016475588931,1.5833291985997298,148.85250898557192,144.67812014255492,124.89876103274422,125.26325454365973,100.0176968487732,143.86095638915938,124.09149200145161,170.01264173841068,149.0,145.0,125.0,121.0,101.0,145.0,125.0,169.0
183,9.15,0.003823051338508243,-0.1762117842140687,1.7820925748239294,-0.1825406759119117,-1.5784549250992264,-0.00982347260306149,0.5862673812862405,0.17045399133966066,0.6259767262981213,2.994480739870129,0.009152658331918995,1.5832483672560018,148.54174590823595,144.6678990812446,124.55970128789713,125.66328591358753,99.83365065196392,144.21002803746006,123.62763575376712,169.52273421767592,149.0,145.0,125.0,121.0,101.0,145.0,125.0,169.0
184,9.200000000000001,0.00416437337278408,-0.17646580564033565,1.782227765558214,-0.18205735681056723,-1.578623600857184,-0.009391049627339054,0.5860283291523227,0.17063963754785502,0.6259742765341103,2.9948419953382874,0.009253199273646005,1.583140585543729,148.6068169296321,144.51894018762826,124.74334836202812,119.91121900017342,104.58592495502818,143.71157595769526,129.42352016911855,169.61600811009527,149.0,145.0,125.0,121.0,101.0,145.0,125.0,169.0
185,9.25,0.0037543681982743493,-0.1767084626584592,1.7827690011529889,-0.18239610251555272,-1.5784155558322173,-0.009887155495059474,0.5859484213950332,0.17041389913004412,0.6257813670758725,2.9948057250203677,0.009117977888423667,1.5832501994981527,148.91086355062606,144.87269656987542,124.60992384785946,120.22783462212725,105.1897505154998,148.7097397922986,124.01724868223873,169.4002637601116,149.0,145.0,125.0,121.0,101.0,145.0,125.0,169.0
186,9.3,0.003770041988139017,-0.1770273875724646,1.7835244681175038,-0.1829660991371389,-1.578477087993857,-0.009867964010776387,0.5857565216746238,0.17041609023000637,0.6255138780480346,2.994672817528829,0.009177429886653085,1.5832367613167309,153.86469055780952,149.67322793258776,129.9223759153835,120.15903007749641,99.72402246001514,143.46370672917337,124.03480381987625,174.36799892925973,149.0,145.0,125.0,121.0,101.0,145.0,125.0,169.0
187,9.35,0.0039685813486136645,-0.17505380696927286,1.781611051064738,-0.18330135013482973,-1.5786489136190367,-0.009617512644813253,0.5869394517717881,0.17052233558517588,0.6257177644338293,2.9944048655713487,0.00931412694636587,1.5831598949473231,153.8667019157937,145.02909549938025,124.44812354359064,120.58211558828161,98.99573761170194,144.74164230848368,123.94302856172811,169.88580979911683,149.0,145.0,125.0,121.0,101.0,145.0,125.0,169.0
188,9.4,0.003937518263088524,-0.17373521759595523,1.780323903952623,-0.18339021593507532,-1.5786372604914938,-0.00971300880189796,0.5877468783678662,0.17050711021646325,0.6258438123205412,2.994351090418827,0.009316520379485212,1.5832240565679936,149.27307197659303,144.93773033646252,124.56875085301708,125.66543382462646,100.04994201540187,144.9226184046047,129.3943448165159,170.19670694157205,149.0,145.0,125.0,121.0,101.0,145.0,125.0,169.0
189,9.450000000000001,0.0038484064439816557,-0.17449225048012407,1.780696321379259,-0.18244012995839443,-1.578519755800591,-0.009896474825122237,0.5872600678319088,0.1704631888193119,0.6259218189161974,2.9949078700489524,0.009221515243885396,1.5833390894270751,153.64853749233532,144.88715284248883,124.81892119802983,120.41199344763302,104.52696982878842,144.33426026598298,123.55711480894554,174.42998232026844,149.0,145.0,125.0,121.0,101.0,145.0,125.0,169.0
190,9.5,0.0038854971997404064,-0.172891379071471,1.779787090206244,-0.1838323984526582,-1.5786594084245218,-0.009947168514499172,0.5882674297409146,0.17047457961674894,0.6257753919639327,2.994215382443253,0.009374080884012807,1.5833994390374606,148.2934477510893,145.92378473160886,124.56743938076262,120.54045411709107,104.7088643684786,144.74414287971135,124.0026034777734,170.76303594910456,149.0,145.0,125.0,121.0,101.0,145.0,125.0,169.0
191,9.55,0.003817166367738878,-0.17275866745236268,1.7801647732879111,-0.18461934890009601,-1.5786856572774886,-0.009909375113328345,0.5883730059659019,0.1704324687499218,0.6255308545653739,2.9939389164592667,0.009396953730493245,1.583287324042428,148.9745318092248,145.69634981644558,124.44204107884178,121.26523601846242,99.21644711864826,145.6896911643518,123.73522215309877,175.3505125400304,149.0,145.0,125.0,121.0,101.0,145.0,125.0,169.0
192,9.600000000000001,0.003995321332505242,-0.1717217203161514,1.779395211266908,-0.1851633597020963,-1.5788086477854462,-0.009972555751637024,0.5889873734849029,0.17052726238512705,0.6255199450910771,2.9936641861930293,0.009530801358737727,1.583507556332186,149.01222381769293,150.4758443915788,124.370716284609,121.5008467283206,104.75788174139038,145.23755093542405,123.59188994096402,175.65139303170534,149.0,145.0,125.0,121.0,101.0,145.0,125.0,169.0
193,9.65,0.0037453785447794097,-0.17097505684912706,1.7791789764075086,-0.18633483466754264,-1.5787448437332907,-0.010055070523635301,0.5895231743815098,0.1703868604449032,0.6253707449099377,2.993024883174782,0.009484498016725452,1.5833420761686663,149.0030171600734,146.33387605742965,129.7227188427227,122.0865764401196,99.07124146142067,145.19312720740868,124.6392533258622,171.546334047054,149.0,145.0,125.0,121.0,101.0,145.0,125.0,169.0
194,9.700000000000001,0.004237464385913103,-0.17068995832459866,1.7787266490608635,-0.18582527161159712,-1.5790214617185594,-0.009599028840823642,0.5895863672620867,0.1706543933359933,0.6254574779876059,2.9933617292706836,0.009689184849278696,1.5833464551976626,148.59742517534497,146.0084932715025,129.43314653678075,121.72700752144347,99.75651933428092,145.8530289679755,123.88467773927762,171.1034074186934,149.0,145.0,125.0,121.0,101.0,145.0,125.0,169.0
195,9.75,0.004779061075026014,-0.17049767697293872,1.7784597739288746,-0.18545396700496752,-1.5793355465873784,-0.009081672789786222,0.5895872592034563,0.17094791774229165,0.6254863291569959,2.9936537703269037,0.009922566917685859,1.5833337425311615,148.73905624914903,146.00468327630426,124.58545969917841,121.35145474888074,104.38853034776274,150.62074402082766,123.78228377009663,175.97189444642595,149.0,145.0,125.0,121.0,101.0,145.0,125.0,169.0
196,9.8,0.0049954360717845425,-0.17010298940474122,1.7786496985778957,-0.1865484767250738,-1.5795384915022561,-0.009094366854222269,0.5898223766991223,0.17105545355796825,0.6252540122776281,2.9931477456903766,0.010128582319818162,1.5835272444591417,154.09687764599897,146.90047250593952,124.82954919615158,121.88891972031752,99.76541465785705,146.05475063674365,123.76852187743019,171.71887664974966,149.0,145.0,125.0,121.0,101.0,145.0,125.0,169.0
197,9.850000000000001,0.004967596278621755,-0.1689273561917921,1.7774558757916985,-0.186632448766332,-1.5795315142761694,-0.009131359495581748,0.5905479846745925,0.17104126775464035,0.6253948574649151,2.993049686164604,0.010126264359452802,1.5835349600377322,148.90951019586353,146.97219012278012,124.9033226523152,121.67315418997057,99.31955423888141,145.46159461474718,123.84457367325481,171.407345520118,149.0,145.0,125.0,121.0,101.0,145.0,125.0,169.0
198,9.9,0.005028236070816927,-0.16851580211668393,1.7770326775400376,-0.18654973417947973,-1.5795514248872067,-0.009074840961915243,0.5907802692304832,0.1710763188691542,0.6254359087950018,2.993119047111289,0.010136659049376513,1.5835373970975484,148.71556967430158,146.82121952333895,124.70817903646932,122.38977273856067,99.28170455412321,146.18341710201315,123.66035115968985,171.45020823700776,149.0,145.0,125.0,121.0,101.0,145.0,125.0,169.0
199,9.950000000000001,0.005141880231285256,-0.1682511529542121,1.7767316262420882,-0.1864055741078574,-1.57959638730612,-0.00897464774277923,0.5909113927957239,0.17114093411575473,0.6254720856297474,2.9932241684253413,0.010165847841641042,1.583546699382845,148.6821068508402,151.5626590919232,129.52750331286072,121.86298670781635,100.2289791293787,146.0790235100145,124.37299158963712,176.57175873389104,149.0,145.0,125.0,121.0,101.0,145.0,125.0,169.0
200,10.0,0.005424573807886635,-0.1675312269006941,1.7759619173171624,-0.18643370030705864,-1.5797783298810861,-0.008654440332540592,0.5913070175447626,0.17129495288556096,0.6255826978776174,2.993145667044061,0.010299711921553214,1.5834852682184892,148.76867820173143,147.10344997996026,124.48248660265509,122.34394344111493,99.57796248704241,145.95667096362334,123.69624655620098,171.11235350871146,149.0,145.0,125.0,121.0,101.0,145.0,125.0,169.0
201,10.05,0.0054781551606235546,-0.16729816771900818,1.7756941995771385,-0.186296135338472,-1.57978841410789,-0.008576917466157408,0.591430700059347,0.17132667949312574,0.6256139881426394,2.9932473790769385,0.010297042167290053,1.5834615558816267,148.99060996740965,146.61645364756336,124.3826245066427,122.26626429189189,99.66722713538795,150.9919506617167,124.26473527812286,171.98321425244544,149.0,145.0,125.0,121.0,101.0,145.0,125.0,169.0
202,10.100000000000001,0.00558641058237086,-0.16732247833422464,1.7756480726177264,-0.1861111740254371,-1.5798214306223146,-0.008642912785214563,0.5913892632752717,0.17138653628842107,0.6256394198431088,2.9933609850263134,0.010338403478687185,1.583631395381923,149.10609195406693,151.78011728920546,129.84420481674897,121.77781908433008,104.25639491483227,151.251936425998,123.84648530894871,176.7083436824343,149.0,145.0,125.0,121.0,101.0,145.0,125.0,169.0
203,10.15,0.005932620209048167,-0.16698483077994997,1.775502238798139,-0.18657767827374405,-1.58008751575385,-0.00825809738925054,0.5915548697274543,0.1715694070814671,0.6255973392217451,2.9930851682146513,0.010547679385923714,1.5835552877883505,149.02725448816548,146.83126273855456,124.51951491206023,121.97429444315226,104.50364005539468,151.02598864386215,124.2023924555744,171.40163965240131,149.0,145.0,125.0,121.0,101.0,145.0,125.0,169.0
204,10.200000000000001,0.005950364045970158,-0.1673063550087619,1.7760837748719451,-0.18695046927812253,-1.5801293414869582,-0.008260032501024472,0.5913615264988212,0.1715741695510071,0.6254309847006781,2.992971487724315,0.010589541099051863,1.5835673776748593,149.03386817913912,146.35771161074322,130.03596027622712,121.87448157612766,99.61952886551646,146.28106977826857,124.22504890241679,171.6682387472772,149.0,145.0,125.0,121.0,101.0,145.0,125.0,169.0
205,10.25,0.006537612348710642,-0.16702005996172709,1.7757267451469403,-0.18662465410987616,-1.5804774304401557,-0.007726073331896011,0.5914162285714032,0.1718921534817918,0.6254703524050336,2.993223276413892,0.010854356022010337,1.5835783265774566,153.8604752047702,146.87665525687757,129.36853940812674,122.17383035845872,99.82511695626168,151.17122128678386,124.28022713372752,171.81935807700515,149.0,145.0,125.0,121.0,101.0,145.0,125.0,169.0
206,10.3,0.006948391137570287,-0.16644217070981426,1.7749316280399752,-0.18622358047382592,-1.58071710579937,-0.0074610764112281736,0.5916871130715053,0.17211543259357612,0.6256301337087827,2.9934074317187833,0.01105136112791731,1.5836936008701725,148.93826539298342,147.11544003414286,125.24554804665924,122.5122280791964,99.50936173054043,146.7858595586617,124.3445634581782,171.7366396012471,149.0,145.0,125.0,121.0,101.0,145.0,125.0,169.0
207,10.350000000000001,0.0070595654324665524,-0.16624251654534694,1.7746568568273924,-0.1860186313348109,-1.580759778658133,-0.007385127301068994,0.5917799996800363,0.17217706173444397,0.6256777202231923,2.9935366529821907,0.011080305495039236,1.5837241492595453,148.9545274251522,151.8518348854619,124.67248565528027,122.33615453023434,99.96900048320344,145.75571446635635,123.94448178731628,171.74355550949787,149.0,145.0,125.0,121.0,101.0,145.0,125.0,169.0
208,10.4,0.006804556400266559,-0.16600243480704746,1.7742244969012342,-0.1857552070159798,-1.5805778761462017,-0.007395003797703303,0.5919647382284394,0.17204379048386348,0.625802570337616,2.9936068828630793,0.010899516495319835,1.5835055719623854,149.33234777056646,147.0171895203738,124.80914271409749,122.23955272131127,104.98218013210793,145.9811583596213,123.94427324514669,171.74457475961938,149.0,145.0,125.0,121.0,101.0,145.0,125.0,169.0
209,10.450000000000001,0.0068162070385668905,-0.165886189258734,1.7744880763734026,-0.18636404721894717,-1.5806443629813183,-0.007253702585855226,0.5920442743828698,0.1720457876206109,0.6256245160783545,2.993377365236018,0.01094630136169549,1.5833653807718302,149.02178706536094,146.44451494103197,129.90049812105377,122.66319434597563,99.96647215498807,145.9396144733889,124.00400406093628,176.74944662095066,149.0,145.0,125.0,121.0,101.0,145.0,125.0,169.0
210,10.5,0.007564372535910913,-0.16496117232449725,1.7736995973327563,-0.1865985983853502,-1.581122972702877,-0.006699271556509956,0.5924850506150985,0.17245132293038762,0.6256505863617926,2.9932781735396987,0.011341418658234806,1.5834947792771856,153.81224391424348,146.96427247215675,125.03147216053942,122.32895312974178,99.77065803514574,151.46937859199738,128.6754776222971,172.31343218799566,149.0,145.0,125.0,121.0,101.0,145.0,125.0,169.0
211,10.55,0.007244568558060216,-0.16473003045925205,1.7731385053745052,-0.18609247811650897,-1.5808924875073291,-0.007300034894170526,0.5926710679545447,0.17227961083332938,0.6258414426393096,2.993458637148449,0.011198535936789576,1.5838039857192086,148.9960632356222,147.35183558395067,124.97725118511427,122.51377760126701,99.79726782661916,146.77217977911567,124.08540869568618,171.63285987368454,149.0,145.0,125.0,121.0,101.0,145.0,125.0,169.0
212,10.600000000000001,0.007317841026607486,-0.1645286353129629,1.7728812479820864,-0.18593560101268514,-1.580916805142973,-0.007230516474859616,0.5927722172768731,0.17232106663026087,0.6258820522169859,2.993557986325055,0.011211185725944373,1.5838058239657786,149.2967581314739,147.14363006175472,130.0702694711611,122.80993864769198,99.92014939946483,146.56376666384847,124.18976365564352,171.7280711316101,149.0,145.0,125.0,121.0,101.0,145.0,125.0,169.0
213,10.65,0.007872481822210009,-0.16436336857128975,1.772550035279993,-0.18546428426707529,-1.5812383747817131,-0.006681774851071243,0.5927561732665483,0.17262431795262118,0.6259576160236756,2.9938581563409645,0.011449152386872097,1.583774951931626,149.4209788190555,147.15155718206483,124.82126676539829,122.40747599828475,99.46497327942643,151.05560135676023,124.3914953366814,172.23855593125603,149.0,145.0,125.0,121.0,101.0,145.0,125.0,169.0
214,10.700000000000001,0.007933259377314261,-0.16434526043364706,1.7723963613473197,-0.1852007017395696,-1.5812374316531574,-0.006781489650734329,0.5927491605397941,0.17265926148738678,0.6260218573502716,2.993986860470118,0.011461473116741743,1.5839356097288912,149.43559930065405,147.33660118848073,124.50967730683213,122.20132132612349,100.30365759886864,146.48549464164924,124.50744757340479,177.00732864483797,149.0,145.0,125.0,121.0,101.0,145.0,125.0,169.0
215,10.75,0.008069650670534667,-0.16328640887074775,1.771566057918208,-0.1857943838001881,-1.5813448591871522,-0.006854725402332562,0.5933954606451772,0.1727330956533388,0.6260374470167396,2.993628023825934,0.011580024583148142,1.5841239418290924,149.26530284161245,147.33225737429464,124.32945043938312,122.89672311938901,99.94102135928205,146.5894064540393,123.96170606612435,171.97172894030587,149.0,145.0,125.0,121.0,101.0,145.0,125.0,169.0
216,10.8,0.008108488794910773,-0.16302823071882377,1.7712778960501483,-0.18571019234836195,-1.5813513735138542,-0.00681329944861675,0.593541345700374,0.17275685633073665,0.626073915178211,2.993681226030774,0.011579780667420833,1.58412137221762,149.15124848188037,147.30406084441242,125.12904623693979,122.99287899779755,100.20945395959194,146.47543243283113,123.89568386895584,177.0578323405927,149.0,145.0,125.0,121.0,101.0,145.0,125.0,169.0
217,10.850000000000001,0.008384689581359961,-0.16206014497230425,1.7705043453060147,-0.1862129277272615,-1.5815390464066725,-0.006718505627902882,0.5941030533473718,0.17290803684975725,0.6260948676303801,2.9933744434696608,0.011753760670008096,1.584272856828501,149.30439689527202,148.10256463092824,125.06838741731197,123.09161517249612,99.95453077144454,147.19094466178223,124.13710663008435,172.40324217858333,149.0,145.0,125.0,121.0,101.0,145.0,125.0,169.0
218,10.9,0.008458047492585496,-0.16183919413480563,1.7701991152872303,-0.18604930027739375,-1.5815636508971496,-0.006636244284539128,0.5942189302098969,0.1729507569799302,0.6261561766619436,2.9934515623056654,0.011765181598687686,1.584262073755565,154.12810190523209,147.65750728815138,124.6547469075628,123.19040713126616,99.81994798232999,147.03504601856505,124.30543547601988,172.509734027233,149.0,145.0,125.0,121.0,101.0,145.0,125.0,169.0
219,10.950000000000001,0.008344764443479757,-0.1609613931687366,1.769174778110079,-0.18594054058910947,-1.581487771588015,-0.006751376704479117,0.5947750674490717,0.172893624986909,0.6263291712330146,2.993416079222123,0.011706190760734913,1.5842728139156312,149.27591885616937,153.14828714256493,124.98159741947262,123.8145441970769,104.63196900549883,147.10593912453368,124.2631158198419,172.59114923922235,149.0,145.0,125.0,121.0,101.0,145.0,125.0,169.0
220,11.0,0.008120378033971587,-0.16112429579075638,1.7693835272682774,-0.18609879580241317,-1.581382426454721,-0.006589431427434622,0.594720763270132,0.17277085118790414,0.6263017326252637,2.9932992416600763,0.011577948278065759,1.5839023027923327,149.5300424079317,147.45136547419074,124.59322640841819,123.42451341467223,105.01730586425619,152.12499324258457,129.28698204438973,172.56026507897153,149.0,145.0,125.0,121.0,101.0,145.0,125.0,169.0
221,11.05,0.007862049899338697,-0.16192177363927174,1.7701999784402798,-0.18604283094989382,-1.5812355357234118,-0.007013822978117368,0.5942731590917756,0.1726249430668022,0.6262068037945786,2.9933737374550557,0.011494683996421265,1.5840864431487525,149.21827485582992,147.9169037116008,124.92000571712296,123.12520425796316,99.56195458862602,146.79518664606226,124.10853870531311,173.00853297586065,149.0,145.0,125.0,121.0,101.0,145.0,125.0,169.0
