AI-SPARC/uncalibrated-visual-servoing/results/data/4_feat_mckf_tr.csv
,t,q_1,q_2,q_3,q_4,q_5,q_6,camera_x,camera_y,camera_z,camera_roll,camera_pitch,camera_yaw,f_1,f_2,f_3,f_4,f_5,f_6,f_7,f_8,desired_f_1,desired_f_2,desired_f_3,desired_f_4,desired_f_5,desired_f_6,desired_f_7,desired_f_8
0,0.0,9.298324584960938e-06,-0.39263248443603516,1.963494062423706,7.200241088867188e-05,-1.5707952976226807,2.384185791015625e-07,0.4463264048099518,0.16906212270259857,0.5921618342399597,-3.141307778251266,0.00012221750102738726,1.5708379755145234,151.4127579737336,65.55722326454034,125.41947565543072,39.58052434456929,99.43609022556392,65.56390977443608,125.41275797373358,91.55722326454034,125.0,121.0,101.0,145.0,125.0,169.0,149.0,145.0
1,0.05,-0.005064249038696289,-0.39167332649230957,1.9558379650115967,0.008013725280761719,-1.5755345821380615,0.0004925727844238281,0.44753187894821167,0.1663030982017517,0.5961059331893921,-3.1400683221571755,0.004847078466419921,1.5652729239369487,148.9650485436893,66.03495145631068,123.04423076923077,40.386538461538464,97.4088291746641,66.1919385796545,123.40847784200385,91.94412331406551,125.0,121.0,101.0,145.0,125.0,169.0,149.0,145.0
2,0.1,-0.010474443435668945,-0.39597582817077637,1.9618723392486572,0.008204460144042969,-1.5758111476898193,-0.003670215606689453,0.445766419172287,0.16384084522724152,0.5939031839370728,-3.138127575263815,0.005108335255922788,1.564034373820593,148.11259541984734,64.67175572519083,122.0,38.86832061068702,96.32509505703422,65.0,122.38049713193116,90.81070745697897,125.0,121.0,101.0,145.0,125.0,169.0,149.0,145.0
3,0.15000000000000002,-0.006627321243286133,-0.39251708984375,1.9554269313812256,0.012534618377685547,-1.5786759853363037,-0.0004410743713378906,0.4469600021839142,0.16529124975204468,0.596285879611969,-3.1367938312278256,0.00800056193394225,1.5646804980080864,148.0,65.14147286821705,122.0,39.4080459770115,96.30285714285715,65.33714285714285,122.38653846153846,91.04423076923077,125.0,121.0,101.0,145.0,125.0,169.0,149.0,145.0
4,0.2,-0.002890348434448242,-0.3886606693267822,1.947796106338501,0.018889665603637695,-1.5814316272735596,0.0016291141510009766,0.44826266169548035,0.1666986644268036,0.5990745425224304,-3.134229207302901,0.010777620353008074,1.5663912284767223,147.89941972920695,65.42940038684719,122.10058027079303,39.57059961315281,96.4657794676806,65.4657794676806,122.38446601941747,91.11844660194174,125.0,121.0,101.0,145.0,125.0,169.0,149.0,145.0
5,0.25,0.00016355514526367188,-0.3860137462615967,1.9412195682525635,0.025996685028076172,-1.584625482559204,0.002536773681640625,0.4489162564277649,0.1677490770816803,0.6016094088554382,-3.1310700312772752,0.013985366816101885,1.568604789002207,147.61673151750972,65.14591439688716,121.99806201550388,39.43023255813954,96.43907156673114,65.06769825918762,122.06876227897838,90.89587426326129,125.0,121.0,101.0,145.0,125.0,169.0,149.0,145.0
6,0.30000000000000004,0.0023741722106933594,-0.3842794895172119,1.9384510517120361,0.028690099716186523,-1.5869781970977783,0.004973649978637695,0.44935908913612366,0.1685224324464798,0.6024318933486938,-3.129453081850139,0.016371216986987434,1.5684296049259547,147.451171875,65.08984375,121.81660231660231,39.3011583011583,96.1598440545809,64.98440545808967,121.93933463796478,90.72211350293541,125.0,121.0,101.0,145.0,125.0,169.0,149.0,145.0
7,0.35000000000000003,0.005463600158691406,-0.38199567794799805,1.9346354007720947,0.032259464263916016,-1.5894830226898193,0.008153676986694336,0.44992542266845703,0.1696871668100357,0.6036237478256226,-3.1274853568432794,0.018932433955315325,1.5684081099272014,147.1972386587771,65.0,121.61434108527132,39.14922480620155,96.02529182879377,64.8171206225681,121.84765625,90.56640625,125.0,121.0,101.0,145.0,125.0,169.0,149.0,145.0
8,0.4,0.00837850570678711,-0.38036394119262695,1.932224988937378,0.03445863723754883,-1.5917584896087646,0.011732101440429688,0.45021575689315796,0.1708025336265564,0.6043006181716919,-3.1261578328477566,0.02127524763928483,1.5678068214663896,147.1304347826087,64.91106719367589,121.47868217054264,39.04457364341085,95.94197292069633,64.68278529980658,121.73972602739725,90.47553816046967,125.0,121.0,101.0,145.0,125.0,169.0,149.0,145.0
9,0.45,0.011611700057983398,-0.37876081466674805,1.9300930500030518,0.036408424377441406,-1.5942614078521729,0.015871286392211914,0.45043617486953735,0.1720452606678009,0.6048280000686646,-3.1248626139752496,0.023864782872636287,1.5669732661705962,146.9090909090909,64.70158102766798,121.3624031007752,38.88178294573643,95.85549132947978,64.52408477842003,121.50097847358121,90.18982387475538,125.0,121.0,101.0,145.0,125.0,169.0,149.0,145.0
10,0.5,0.013482809066772461,-0.37850499153137207,1.9301798343658447,0.036370038986206055,-1.5954978466033936,0.019802093505859375,0.45023536682128906,0.1727936863899231,0.6046651601791382,-3.124678077783292,0.025170716489645657,1.564940222937848,146.8294117647059,64.53529411764706,121.08155339805825,38.68349514563107,95.6455938697318,64.44827586206897,121.455078125,90.107421875,125.0,121.0,101.0,145.0,125.0,169.0,149.0,145.0
11,0.55,0.017599105834960938,-0.37697434425354004,1.9284508228302002,0.036943674087524414,-1.597461462020874,0.025830745697021484,0.4503680169582367,0.17451100051403046,0.6050933003425598,-3.124503854080363,0.027247525142986645,1.5630717223844353,146.853228962818,64.54207436399217,121.11695906432749,38.810916179337234,95.73166023166023,64.51930501930502,121.5243664717349,90.09356725146199,125.0,121.0,101.0,145.0,125.0,169.0,149.0,145.0
12,0.6000000000000001,0.023382902145385742,-0.3737494945526123,1.9242069721221924,0.038683414459228516,-1.5998170375823975,0.03359103202819824,0.45113182067871094,0.17698080837726593,0.6063319444656372,-3.1240695735780415,0.029762626063621213,1.5611564681370105,146.97410358565736,64.83864541832669,121.30724070450098,39.11350293542074,95.982421875,64.859375,121.91159135559921,90.37721021611002,125.0,121.0,101.0,145.0,125.0,169.0,149.0,145.0
13,0.65,0.027857065200805664,-0.3708460330963135,1.9197757244110107,0.04118824005126953,-1.6024105548858643,0.039073944091796875,0.45189958810806274,0.17882013320922852,0.6077622771263123,-3.123353595917025,0.03248547171666049,1.5602221831886844,146.92814371257484,65.00998003992017,121.24171539961014,39.44249512670565,96.01764705882353,65.05294117647058,121.91089108910892,90.62772277227722,125.0,121.0,101.0,145.0,125.0,169.0,149.0,145.0
14,0.7000000000000001,0.032094478607177734,-0.3676586151123047,1.9156086444854736,0.04372596740722656,-1.6053111553192139,0.04372811317443848,0.4528147280216217,0.1805269718170166,0.60887610912323,-3.1220684831528374,0.03553323527473564,1.5599099606185802,146.86,65.126,121.15369649805447,39.54669260700389,95.9706457925636,65.23483365949119,121.84661354581674,90.77290836653387,125.0,121.0,101.0,145.0,125.0,169.0,149.0,145.0
15,0.75,0.03684568405151367,-0.3645956516265869,1.9115040302276611,0.04667544364929199,-1.608764410018921,0.04818224906921387,0.4535294771194458,0.18241862952709198,0.6099616885185242,-3.120482151428749,0.03916048452816523,1.5603466484704,146.76659959758553,65.16297786720322,121.08576998050683,39.56140350877193,95.94901960784314,65.16470588235295,121.75498007968127,90.75498007968127,125.0,121.0,101.0,145.0,125.0,169.0,149.0,145.0
16,0.8,0.04151487350463867,-0.3621370792388916,1.9088938236236572,0.04878354072570801,-1.612504243850708,0.05309104919433594,0.4539129436016083,0.1842445433139801,0.6104004383087158,-3.1189125370960396,0.04310103452724645,1.5602666615320167,146.46184738955824,65.03012048192771,120.94931773879142,39.4541910331384,95.75538160469668,64.98825831702544,121.55020080321285,90.5,125.0,121.0,101.0,145.0,125.0,169.0,149.0,145.0
17,0.8500000000000001,0.04570794105529785,-0.3596987724304199,1.9063432216644287,0.04967379570007324,-1.6144359111785889,0.05877971649169922,0.454475462436676,0.1860552430152893,0.6109211444854736,-3.118492071382023,0.04520147496367464,1.5588448463812932,146.59837728194725,65.17849898580121,121.05068226120858,39.5458089668616,95.88235294117646,65.11764705882354,121.72455089820359,90.64471057884232,125.0,121.0,101.0,145.0,125.0,169.0,149.0,145.0
18,0.9,0.05012083053588867,-0.35729050636291504,1.9037182331085205,0.051021575927734375,-1.6169865131378174,0.06455802917480469,0.4549405574798584,0.18790946900844574,0.6114587187767029,-3.1177836809610016,0.047950819518034635,1.557587751609977,146.5560081466395,65.19551934826885,121.00980392156863,39.582352941176474,95.892578125,65.166015625,121.74,90.716,125.0,121.0,101.0,145.0,125.0,169.0,149.0,145.0
19,0.9500000000000001,0.05524921417236328,-0.35448479652404785,1.9008991718292236,0.052182674407958984,-1.6200792789459229,0.0709536075592041,0.4555000066757202,0.19006142020225525,0.6119637489318848,-3.1171587692454925,0.051268502597614674,1.556446315950565,146.4928716904277,65.29124236252545,120.94861660079052,39.74308300395257,95.93957115009746,65.31968810916179,121.73053892215569,90.76047904191617,125.0,121.0,101.0,145.0,125.0,169.0,149.0,145.0
20,1.0,0.060164451599121094,-0.35207200050354004,1.8985483646392822,0.053285837173461914,-1.6230766773223877,0.07703566551208496,0.4558643102645874,0.19211989641189575,0.612337589263916,-3.1165335141557957,0.05449215086335034,1.5554088627712401,146.42712550607288,65.28744939271255,120.93069306930693,39.76039603960396,95.90679611650485,65.32427184466019,121.75751503006012,90.74949899799599,125.0,121.0,101.0,145.0,125.0,169.0,149.0,145.0
21,1.05,0.06559944152832031,-0.3490917682647705,1.8955247402191162,0.0544278621673584,-1.6260817050933838,0.08379697799682617,0.45645377039909363,0.19444993138313293,0.6128931045532227,-3.116051127036995,0.0577460790538866,1.5542119853115555,146.5,65.44897959183673,120.93849206349206,39.90873015873016,95.97081712062257,65.46692607003891,121.85341365461848,90.83935742971887,125.0,121.0,101.0,145.0,125.0,169.0,149.0,145.0
22,1.1,0.07109737396240234,-0.3464505672454834,1.892747163772583,0.05628466606140137,-1.6295387744903564,0.09049510955810547,0.45676299929618835,0.19675607979297638,0.6133673191070557,-3.1150280602805283,0.06151160670176659,1.55319449094661,146.3530612244898,65.32448979591837,120.8670634920635,39.82142857142857,95.92007797270955,65.36452241715399,121.85282258064517,90.79032258064517,125.0,121.0,101.0,145.0,125.0,169.0,149.0,145.0
23,1.1500000000000001,0.0769803524017334,-0.34307026863098145,1.889561414718628,0.05681300163269043,-1.6327593326568604,0.09804320335388184,0.4575202763080597,0.19931954145431519,0.6139015555381775,-3.1150793520777693,0.06498559653073713,1.5516480065996145,146.44123711340205,65.64742268041238,120.91106719367589,40.05731225296443,95.96875,65.677734375,121.90120967741936,90.99596774193549,125.0,121.0,101.0,145.0,125.0,169.0,149.0,145.0
24,1.2000000000000002,0.08348441123962402,-0.34037280082702637,1.8866932392120361,0.05903887748718262,-1.636979341506958,0.10546326637268066,0.4576151669025421,0.20203760266304016,0.6143724918365479,-3.113950936934581,0.06958970628680208,1.5509709180398292,146.3552361396304,65.47433264887064,120.7936507936508,39.93055555555556,95.97081712062257,65.46692607003891,121.87525150905432,90.82696177062374,125.0,121.0,101.0,145.0,125.0,169.0,149.0,145.0
25,1.25,0.0894918441772461,-0.33789634704589844,1.8847596645355225,0.05938434600830078,-1.6407368183135986,0.11360740661621094,0.4577917158603668,0.20458944141864777,0.614503800868988,-3.1140527079436917,0.0736435954300172,1.5489832254061755,146.2020618556701,65.55670103092784,120.74801587301587,39.992063492063494,95.86549707602339,65.57699805068226,121.8080808080808,90.89090909090909,125.0,121.0,101.0,145.0,125.0,169.0,149.0,145.0
26,1.3,0.09671807289123535,-0.33482789993286133,1.8820126056671143,0.06013035774230957,-1.6446259021759033,0.12266206741333008,0.4580315947532654,0.20773522555828094,0.6148595809936523,-3.114124000251389,0.07787946632632309,1.5473200916321883,146.2744282744283,65.6923076923077,120.8131212723658,40.059642147117295,95.92954990215264,65.73385518590997,121.95731707317073,90.9410569105691,125.0,121.0,101.0,145.0,125.0,169.0,149.0,145.0
27,1.35,0.10367965698242188,-0.3322124481201172,1.8788654804229736,0.06180405616760254,-1.6484549045562744,0.13140606880187988,0.45802417397499084,0.21074756979942322,0.6156030297279358,-3.114166575439816,0.08205847579857276,1.5457087258542028,146.25625,65.71041666666666,120.81908548707753,40.14711729622267,95.97058823529412,65.76470588235294,122.0,91.0,125.0,121.0,101.0,145.0,125.0,169.0,149.0,145.0
28,1.4000000000000001,0.1113433837890625,-0.32892489433288574,1.8753249645233154,0.06330394744873047,-1.6528265476226807,0.14101886749267578,0.45823901891708374,0.21408618986606598,0.616308331489563,-3.1143203778169863,0.08681879992420864,1.5439531162448321,146.2651356993737,65.74947807933194,120.76143141153082,40.45129224652087,96.08267716535433,65.91732283464567,122.0838445807771,91.03476482617587,125.0,121.0,101.0,145.0,125.0,169.0,149.0,145.0
29,1.4500000000000002,0.1167151927947998,-0.32604503631591797,1.8724334239959717,0.06443333625793457,-1.6557958126068115,0.1483297348022461,0.45868465304374695,0.2164822369813919,0.6167905926704407,-3.1142743043644847,0.0901100603215919,1.542164700122017,146.25157232704402,65.89308176100629,120.77644710578842,40.63872255489022,96.11811023622047,66.06299212598425,122.15071283095723,91.15478615071284,125.0,121.0,101.0,145.0,125.0,169.0,149.0,145.0
30,1.5,0.1219024658203125,-0.3231523036956787,1.8696110248565674,0.06571316719055176,-1.6587722301483154,0.15534114837646484,0.45914319157600403,0.21879985928535461,0.6172012090682983,-3.1140183298657904,0.09344079331356848,1.5405161455617906,146.22175732217573,65.94142259414225,120.75050301810865,40.76458752515091,96.13385826771653,66.18307086614173,122.19144602851324,91.18533604887983,125.0,121.0,101.0,145.0,125.0,169.0,149.0,145.0
31,1.55,0.1269831657409668,-0.3201615810394287,1.8665039539337158,0.06717896461486816,-1.6615068912506104,0.16221070289611816,0.45966488122940063,0.22111158072948456,0.6177303791046143,-3.113756524150355,0.0965392775570495,1.5389004282742786,146.22268907563026,65.99159663865547,120.70682730923694,40.86144578313253,96.16568047337279,66.2879684418146,122.25872689938399,91.3141683778234,125.0,121.0,101.0,145.0,125.0,169.0,149.0,145.0
32,1.6,0.1323227882385254,-0.3169727325439453,1.8634626865386963,0.06834936141967773,-1.6646053791046143,0.16921687126159668,0.4602469205856323,0.22353573143482208,0.6181493401527405,-3.11364013372241,0.10000438832326636,1.5374170896598125,146.26624737945494,66.17190775681341,120.63306451612904,41.056451612903224,96.248046875,66.49609375,122.39049586776859,91.5702479338843,125.0,121.0,101.0,145.0,125.0,169.0,149.0,145.0
33,1.6500000000000001,0.1370861530303955,-0.3145105838775635,1.8617947101593018,0.0687406063079834,-1.6680786609649658,0.1752946376800537,0.46055513620376587,0.22560656070709229,0.6180753707885742,-3.113670851732285,0.10379358368125,1.536288838879152,145.91120507399577,66.27272727272727,120.46138211382114,41.11178861788618,96.04892367906066,66.64579256360078,122.24688796680498,91.63278008298755,125.0,121.0,101.0,145.0,125.0,169.0,149.0,145.0
34,1.7000000000000002,0.14360880851745605,-0.3112602233886719,1.8592417240142822,0.06923508644104004,-1.6717984676361084,0.18234014511108398,0.4609220623970032,0.22854773700237274,0.6182021498680115,-3.1138878829548147,0.10786013575126616,1.535957970374083,146.16204690831557,66.5543710021322,120.65789473684211,41.27935222672065,96.2211350293542,66.83365949119374,122.37966804979253,91.73236514522821,125.0,121.0,101.0,145.0,125.0,169.0,149.0,145.0
35,1.75,0.14951372146606445,-0.30933046340942383,1.8575289249420166,0.07134532928466797,-1.6760847568511963,0.1891179084777832,0.46052977442741394,0.23102426528930664,0.6182495355606079,-3.113116244484711,0.11268222621998807,1.5354184470298915,145.77542372881356,66.20550847457628,120.42307692307692,40.991902834008094,96.04109589041096,66.39334637964775,122.2107438016529,91.41322314049587,125.0,121.0,101.0,145.0,125.0,169.0,149.0,145.0
36,1.8,0.15421175956726074,-0.3069612979888916,1.8556029796600342,0.07139348983764648,-1.6784875392913818,0.19553160667419434,0.46081891655921936,0.23319891095161438,0.6184089779853821,-3.1138144559527112,0.1153091657839235,1.5337838795603924,145.8731182795699,66.3741935483871,120.39714867617108,41.14867617107943,96.10371819960861,66.72015655577299,122.37006237006237,91.65696465696466,125.0,121.0,101.0,145.0,125.0,169.0,149.0,145.0
37,1.85,0.16001033782958984,-0.304471492767334,1.853548288345337,0.07155346870422363,-1.6818482875823975,0.20260834693908691,0.46092188358306885,0.235812246799469,0.6185928583145142,-3.114711120279969,0.11891255980759384,1.5326201300289444,145.92656587473002,66.62203023758099,120.4949083503055,41.4745417515275,96.19646365422396,66.950884086444,122.4356846473029,91.80290456431536,125.0,121.0,101.0,145.0,125.0,169.0,149.0,145.0
38,1.9000000000000001,0.16518545150756836,-0.30205702781677246,1.8516018390655518,0.07228374481201172,-1.684927225112915,0.20908117294311523,0.46104487776756287,0.23815253376960754,0.6186766624450684,-3.1149301823882354,0.12233848536199729,1.5315011097450546,145.92857142857142,66.66233766233766,120.4969450101833,41.66802443991853,96.27504911591356,67.00196463654224,122.47390396659708,91.8517745302714,125.0,121.0,101.0,145.0,125.0,169.0,149.0,145.0
39,1.9500000000000002,0.16988420486450195,-0.2995107173919678,1.8498833179473877,0.0727546215057373,-1.6878387928009033,0.2152402400970459,0.46133702993392944,0.24030479788780212,0.6185630559921265,-3.1150170134242634,0.1256148934328504,1.5302291701540018,145.87012987012986,66.72294372294373,120.47336065573771,41.72745901639344,96.23575638506877,67.07269155206286,122.46875,91.91458333333334,125.0,121.0,101.0,145.0,125.0,169.0,149.0,145.0
40,2.0,0.17520785331726074,-0.29657983779907227,1.8478271961212158,0.07337307929992676,-1.6910154819488525,0.22199416160583496,0.46167832612991333,0.24277037382125854,0.6184705495834351,-3.1150864725968725,0.1292121951930888,1.5290164023746222,145.8852813852814,66.82251082251082,120.47736625514403,41.84362139917695,96.26232741617358,67.11439842209073,122.55114822546973,91.98956158663883,125.0,121.0,101.0,145.0,125.0,169.0,149.0,145.0
41,2.0500000000000003,0.1802058219909668,-0.2936694622039795,1.8460018634796143,0.07381391525268555,-1.6941473484039307,0.2285323143005371,0.4620712399482727,0.24509599804878235,0.6182470321655273,-3.1151314703448514,0.13277176520420678,1.5277003101762197,145.8682505399568,66.89416846652267,120.39795918367346,41.90204081632653,96.23031496062993,67.18110236220473,122.53125,92.08541666666666,125.0,121.0,101.0,145.0,125.0,169.0,149.0,145.0
42,2.1,0.18642735481262207,-0.29045557975769043,1.8446986675262451,0.07383227348327637,-1.6982662677764893,0.23636722564697266,0.4623167812824249,0.24793918430805206,0.617570698261261,-3.1152312426112365,0.1374236982672496,1.5263811715941764,145.8426724137931,66.89655172413794,120.27032520325203,41.84552845528455,96.1827111984283,67.19646365422396,122.53125,92.08541666666666,125.0,121.0,101.0,145.0,125.0,169.0,149.0,145.0
43,2.15,0.19260859489440918,-0.28815269470214844,1.844106912612915,0.07334661483764648,-1.702338457107544,0.24422216415405273,0.46209844946861267,0.2506919503211975,0.6169213056564331,-3.116088142857884,0.1418681653933746,1.5249044530539093,145.74945533769062,66.90196078431373,120.21298174442191,41.86612576064909,96.13948919449902,67.17878192534381,122.53125,92.08541666666666,125.0,121.0,101.0,145.0,125.0,169.0,149.0,145.0
44,2.2,0.19813132286071777,-0.28587913513183594,1.8432319164276123,0.07279753684997559,-1.7057092189788818,0.25143933296203613,0.46203261613845825,0.25321125984191895,0.6164712905883789,-3.11711450802971,0.14551699528454445,1.5233384053508718,145.75809935205183,66.98488120950324,120.19066937119675,41.910750507099394,96.11198428290766,67.29469548133595,122.59375,92.20208333333333,125.0,121.0,101.0,145.0,125.0,169.0,149.0,145.0
45,2.25,0.20306754112243652,-0.2838928699493408,1.8420774936676025,0.07254815101623535,-1.708620309829712,0.25784897804260254,0.46194979548454285,0.2554750442504883,0.616314709186554,-3.1182161230821834,0.14862700167100684,1.521947543795712,145.7365010799136,67.11447084233261,120.28920570264766,42.09572301425662,96.31782945736434,67.4922480620155,122.67085953878407,92.32704402515724,125.0,121.0,101.0,145.0,125.0,169.0,149.0,145.0
46,2.3000000000000003,0.2095777988433838,-0.28148937225341797,1.841482400894165,0.07169318199157715,-1.7131330966949463,0.26583313941955566,0.4617020785808563,0.2583759129047394,0.6156519651412964,-3.1196495654381304,0.153411362636126,1.5206254247978215,145.6125541125541,67.27705627705627,120.0569105691057,42.21341463414634,96.12256809338521,67.65369649805447,122.5672268907563,92.44747899159664,125.0,121.0,101.0,145.0,125.0,169.0,149.0,145.0
47,2.35,0.21594762802124023,-0.27986955642700195,1.8414719104766846,0.07103681564331055,-1.7168991565704346,0.2732698917388916,0.4610030949115753,0.26118892431259155,0.6149603724479675,-3.120875966168753,0.15744981729651344,1.5196931416298225,145.73376623376623,67.14069264069263,120.24130879345603,42.16155419222904,96.31334622823985,67.5164410058027,122.71907756813417,92.33962264150944,125.0,121.0,101.0,145.0,125.0,169.0,149.0,145.0
48,2.4000000000000004,0.22371768951416016,-0.2770524024963379,1.8407490253448486,0.06998205184936523,-1.7221062183380127,0.2829456329345703,0.4606374502182007,0.2646802067756653,0.6141998767852783,-3.1228359138901336,0.1629303644343679,1.5179274923510064,145.59429824561403,67.39035087719299,120.07786885245902,42.32172131147541,96.18375241779498,67.75822050290135,122.73949579831933,92.46428571428571,125.0,121.0,101.0,145.0,125.0,169.0,149.0,145.0
49,2.45,0.22823762893676758,-0.27579760551452637,1.8398725986480713,0.07004213333129883,-1.7245800495147705,0.2886481285095215,0.4601927697658539,0.26671504974365234,0.6141850352287292,-3.124045584046706,0.16551946207686452,1.516778510640443,145.62938596491227,67.39912280701755,120.12731006160165,42.40041067761807,96.28654970760233,67.82261208576998,122.88100208768267,92.59707724425887,125.0,121.0,101.0,145.0,125.0,169.0,149.0,145.0
50,2.5,0.2330303192138672,-0.27428603172302246,1.838932752609253,0.06981801986694336,-1.7274458408355713,0.2945282459259033,0.45983457565307617,0.26887795329093933,0.6141150593757629,-3.125513715673798,0.16845595794353105,1.5157100853552896,145.6688596491228,67.58333333333333,120.16056910569105,42.6910569105691,96.3522504892368,67.97455968688845,122.95218295218295,92.74428274428274,125.0,121.0,101.0,145.0,125.0,169.0,149.0,145.0
51,2.5500000000000003,0.23794174194335938,-0.27257370948791504,1.8382432460784912,0.06957626342773438,-1.7305233478546143,0.3005716800689697,0.45951271057128906,0.27110159397125244,0.6137756705284119,-3.1266841075289515,0.17171728842873063,1.5146655025687425,145.69026548672565,67.66592920353982,120.14081632653061,42.73673469387755,96.41325536062378,68.07212475633528,123.02286902286902,92.79625779625779,125.0,121.0,101.0,145.0,125.0,169.0,149.0,145.0
52,2.6,0.24266386032104492,-0.27127909660339355,1.8378822803497314,0.06923031806945801,-1.7336399555206299,0.3064396381378174,0.45901191234588623,0.27318161725997925,0.6134408116340637,-3.128065435962122,0.17494712604663365,1.5135723050235197,145.69026548672565,67.66592920353982,120.13292433537832,42.8118609406953,96.37621832358674,68.10331384015595,123.02092050209205,92.88912133891213,125.0,121.0,101.0,145.0,125.0,169.0,149.0,145.0
53,2.6500000000000004,0.24892020225524902,-0.2691380977630615,1.8372867107391357,0.06868290901184082,-1.7377574443817139,0.31384897232055664,0.4585559368133545,0.27599766850471497,0.61286461353302,-3.1296700115934417,0.17926533819345797,1.5125251284956127,145.69265033407572,67.71714922048997,120.14314928425358,42.92842535787321,96.40900195694717,68.18590998043052,123.02708333333334,92.95208333333333,125.0,121.0,101.0,145.0,125.0,169.0,149.0,145.0
54,2.7,0.2581291198730469,-0.26581239700317383,1.8369219303131104,0.06768655776977539,-1.7440330982208252,0.32439255714416504,0.4579092562198639,0.2801455855369568,0.6116013526916504,-3.1316679716222615,0.18595625898682752,1.5114301112643516,145.65625,67.83482142857143,120.09465020576131,42.96090534979424,96.419921875,68.208984375,123.02510460251047,92.99581589958159,125.0,121.0,101.0,145.0,125.0,169.0,149.0,145.0
55,2.75,0.26346540451049805,-0.2647099494934082,1.8375070095062256,0.06669163703918457,-1.7477600574493408,0.33118414878845215,0.45709162950515747,0.2824264168739319,0.6108048558235168,-3.133486138310085,0.18975728983776824,1.5100078584221635,145.46085011185681,67.76510067114094,119.9896480331263,42.96066252587992,96.33398058252428,68.14174757281553,122.98744769874477,92.97698744769875,125.0,121.0,101.0,145.0,125.0,169.0,149.0,145.0
56,2.8000000000000003,0.26798176765441895,-0.2633082866668701,1.8373267650604248,0.06574606895446777,-1.7505524158477783,0.33702731132507324,0.4566800594329834,0.2844684422016144,0.6103472709655762,-3.1352621973648658,0.19251676562815925,1.5086386884266172,145.5,68.0,120.03534303534303,43.08523908523909,96.40847784200385,68.39113680154142,123.0625,93.025,125.0,121.0,101.0,145.0,125.0,169.0,149.0,145.0
57,2.85,0.2723870277404785,-0.2623934745788574,1.837200403213501,0.06532859802246094,-1.7533023357391357,0.34276580810546875,0.456001877784729,0.28639116883277893,0.6100488901138306,-3.136946481655963,0.19525899971465452,1.507278212108512,145.51467268623026,68.07900677200902,119.98343685300208,43.15734989648033,96.42307692307692,68.46153846153847,123.11642411642411,93.1018711018711,125.0,121.0,101.0,145.0,125.0,169.0,149.0,145.0
58,2.9000000000000004,0.27664637565612793,-0.26170945167541504,1.8373548984527588,0.06473970413208008,-1.7560536861419678,0.3483583927154541,0.4552372992038727,0.28821349143981934,0.6096974015235901,-3.1387517142786208,0.1979505112143827,1.5058917950670798,145.46049661399547,68.15349887133183,119.92164948453608,43.24536082474227,96.42307692307692,68.46153846153847,123.11297071129707,93.14644351464435,125.0,121.0,101.0,145.0,125.0,169.0,149.0,145.0
59,2.95,0.2800712585449219,-0.26125454902648926,1.8376758098602295,0.06403350830078125,-1.7582404613494873,0.353165864944458,0.4545758366584778,0.28966960310935974,0.6093538403511047,-3.140404338549227,0.20003408862061636,1.5044282086328808,145.3882618510158,68.18058690744921,119.88796680497926,43.3402489626556,96.45173745173746,68.4980694980695,123.09243697478992,93.19117647058823,125.0,121.0,101.0,145.0,125.0,169.0,149.0,145.0
60,3.0,0.28383517265319824,-0.26085877418518066,1.8385746479034424,0.06280040740966797,-1.7607595920562744,0.35841989517211914,0.45378750562667847,0.29124191403388977,0.6087095141410828,3.140891685333428,0.2024187000769285,1.5028427028747064,145.24660633484163,68.22850678733032,119.77130977130977,43.37006237006237,96.37596899224806,68.56976744186046,123.13235294117646,93.22478991596638,125.0,121.0,101.0,145.0,125.0,169.0,149.0,145.0
61,3.0500000000000003,0.2868165969848633,-0.26043152809143066,1.838670015335083,0.062056779861450195,-1.7624781131744385,0.36262011528015137,0.4532451331615448,0.2925390303134918,0.6085267663002014,3.139208222758673,0.20394083032218355,1.5014895117606701,145.2579908675799,68.28310502283105,119.78902953586498,43.561181434599156,96.41245136186771,68.6750972762646,123.25265392781316,93.35244161358811,125.0,121.0,101.0,145.0,125.0,169.0,149.0,145.0
62,3.1,0.2899343967437744,-0.25968050956726074,1.8385975360870361,0.061281681060791016,-1.7643377780914307,0.3669002056121826,0.45283499360084534,0.29393577575683594,0.6082956790924072,3.1375630182554572,0.20563041103234173,1.5002115899666764,145.2840909090909,68.4,119.76150627615063,43.71338912133891,96.51076320939335,68.83561643835617,123.35042735042735,93.49145299145299,125.0,121.0,101.0,145.0,125.0,169.0,149.0,145.0
63,3.1500000000000004,0.29304957389831543,-0.25914597511291504,1.8390014171600342,0.0601654052734375,-1.7664105892181396,0.3711080551147461,0.45231151580810547,0.29527726769447327,0.6078941226005554,3.13576301030957,0.20748012149823145,1.4989831005543413,145.250569476082,68.48974943052391,119.77568134171908,43.84486373165618,96.48343079922027,68.98050682261209,123.35181236673775,93.5501066098081,125.0,121.0,101.0,145.0,125.0,169.0,149.0,145.0
64,3.2,0.29684019088745117,-0.25834226608276367,1.839231252670288,0.0592191219329834,-1.7688190937042236,0.3759891986846924,0.45172154903411865,0.2969365417957306,0.6074587106704712,3.133931367316223,0.20972319201397038,1.4977877166515539,145.2619589977221,68.56719817767653,119.73628691983123,43.938818565400844,96.4727626459144,69.1011673151751,123.36652542372882,93.61440677966101,125.0,121.0,101.0,145.0,125.0,169.0,149.0,145.0
65,3.25,0.3013591766357422,-0.2575082778930664,1.839677095413208,0.05818605422973633,-1.771702527999878,0.381608247756958,0.4509256184101105,0.2988855540752411,0.6068804264068604,3.131890132394912,0.21244699903081254,1.49658698513519,145.27002288329518,68.58352402745996,119.73894736842105,43.98315789473684,96.58349705304519,69.17092337917485,123.43312101910828,93.75796178343948,125.0,121.0,101.0,145.0,125.0,169.0,149.0,145.0
66,3.3000000000000003,0.3071787357330322,-0.2568778991699219,1.8416907787322998,0.05543780326843262,-1.7761576175689697,0.38835716247558594,0.44969749450683594,0.3012527823448181,0.6055551767349243,3.1286366045861045,0.21646654408554397,1.4954331480999028,145.24429223744292,68.76255707762557,119.64482029598308,44.164904862579284,96.52427184466019,69.23495145631068,123.41649048625793,93.85200845665962,125.0,121.0,101.0,145.0,125.0,169.0,149.0,145.0
67,3.35,0.3091766834259033,-0.256619930267334,1.8417885303497314,0.054880619049072266,-1.7773454189300537,0.3914477825164795,0.44930586218833923,0.3021077811717987,0.6054336428642273,3.12731065542688,0.21743692009704993,1.4942056871510923,145.25688073394497,68.84174311926606,119.60851063829787,44.317021276595746,96.55836575875486,69.34241245136187,123.44397463002115,93.89217758985201,125.0,121.0,101.0,145.0,125.0,169.0,149.0,145.0
68,3.4000000000000004,0.3111436367034912,-0.2564527988433838,1.842064619064331,0.05427289009094238,-1.7785475254058838,0.39457225799560547,0.4488660991191864,0.3029300570487976,0.605243444442749,3.1260008964113015,0.21843179014095668,1.492919413744478,145.25688073394497,68.84174311926606,119.61965811965813,44.40811965811966,96.56031128404669,69.44941634241245,123.4620253164557,93.9113924050633,125.0,121.0,101.0,145.0,125.0,169.0,149.0,145.0
69,3.45,0.3137526512145996,-0.2561802864074707,1.842590093612671,0.053464651107788086,-1.7802050113677979,0.3983910083770752,0.44828715920448303,0.304023414850235,0.6048582792282104,3.1244947901598557,0.21989605671346926,1.4915897723902325,145.26036866359448,68.8963133640553,119.5501066098081,44.43496801705757,96.53398058252426,69.51067961165049,123.48414376321352,93.97885835095137,125.0,121.0,101.0,145.0,125.0,169.0,149.0,145.0
70,3.5,0.3157212734222412,-0.2559983730316162,1.842642068862915,0.053031206130981445,-1.7813351154327393,0.4015195369720459,0.44785308837890625,0.30486270785331726,0.6047910451889038,3.1231616796401984,0.22080270391871598,1.4902917410149692,145.2811059907834,68.9447004608295,119.56652360515021,44.58583690987125,96.53307392996109,69.65953307392996,123.54334038054968,94.06342494714588,125.0,121.0,101.0,145.0,125.0,169.0,149.0,145.0
71,3.5500000000000003,0.3180882930755615,-0.2556331157684326,1.8426496982574463,0.052617788314819336,-1.782721757888794,0.40503358840942383,0.4473923146724701,0.30588728189468384,0.6046614646911621,3.1217822675539786,0.22199509616072313,1.4890237769540642,145.27146171693735,69.02320185614849,119.5936170212766,44.659574468085104,96.564453125,69.751953125,123.55602536997885,94.10782241014799,125.0,121.0,101.0,145.0,125.0,169.0,149.0,145.0
72,3.6,0.32093334197998047,-0.2553079128265381,1.8429701328277588,0.05203723907470703,-1.7844784259796143,0.409088134765625,0.4467609226703644,0.30708473920822144,0.6043652296066284,3.120222570379454,0.22355239493121845,1.487693709810357,145.2214452214452,69.08158508158508,119.57234042553192,44.67446808510638,96.5440313111546,69.76516634050881,123.55602536997885,94.10782241014799,125.0,121.0,101.0,145.0,125.0,169.0,149.0,145.0
73,3.6500000000000004,0.3232994079589844,-0.2550034523010254,1.842820405960083,0.05183053016662598,-1.7857816219329834,0.41269707679748535,0.4462611973285675,0.3081056773662567,0.6043505072593689,3.1188247481726354,0.22464564787639443,1.4863208430413863,145.21728971962617,69.15654205607477,119.5936170212766,44.808510638297875,96.63209393346379,69.89432485322897,123.59787234042552,94.1659574468085,125.0,121.0,101.0,145.0,125.0,169.0,149.0,145.0
74,3.7,0.32611918449401855,-0.2547600269317627,1.8431065082550049,0.05136394500732422,-1.7874963283538818,0.4168233871459961,0.44558578729629517,0.30927765369415283,0.604108989238739,3.117237379266132,0.22614288460506024,1.484884288967096,145.1737089201878,69.1830985915493,119.52350427350427,44.8440170940171,96.71037181996086,69.95499021526419,123.61995753715499,94.18046709129511,125.0,121.0,101.0,145.0,125.0,169.0,149.0,145.0
75,3.75,0.32897472381591797,-0.25487351417541504,1.8440449237823486,0.0504002571105957,-1.7893893718719482,0.42101550102233887,0.4447188377380371,0.3103863000869751,0.6036669015884399,3.1153587473053066,0.22771076842866622,1.4833644433519853,145.1007025761124,69.18266978922716,119.43440860215054,44.898924731182795,96.61643835616438,69.92759295499022,123.59787234042552,94.1659574468085,125.0,121.0,101.0,145.0,125.0,169.0,149.0,145.0
76,3.8000000000000003,0.331439733505249,-0.25463294982910156,1.8441107273101807,0.0499727725982666,-1.7907226085662842,0.42484450340270996,0.4441525340080261,0.3114360272884369,0.6035627722740173,3.113802008002978,0.22877291743753433,1.4818402134915059,145.1007025761124,69.18266978922716,119.45258620689656,45.0,96.72781065088758,70.02366863905326,123.67521367521367,94.2457264957265,125.0,121.0,101.0,145.0,125.0,169.0,149.0,145.0
77,3.85,0.3341693878173828,-0.25438904762268066,1.8445684909820557,0.049103736877441406,-1.7924034595489502,0.4289395809173584,0.4435169994831085,0.3125739097595215,0.603244960308075,3.1119831754114604,0.23011601612861327,1.4802856393039843,145.04895104895104,69.26806526806527,119.43103448275862,45.08405172413793,96.6990099009901,70.10891089108911,123.69164882226981,94.32119914346895,125.0,121.0,101.0,145.0,125.0,169.0,149.0,145.0
78,3.9000000000000004,0.3367307186126709,-0.25408196449279785,1.8446886539459229,0.04851794242858887,-1.7938697338104248,0.432819128036499,0.44296014308929443,0.3136674761772156,0.6030880212783813,3.110302879714424,0.23126406257760315,1.4787886502344911,145.05336426914153,69.35498839907193,119.4077253218884,45.21888412017167,96.75196850393701,70.21259842519684,123.71827956989247,94.40430107526882,125.0,121.0,101.0,145.0,125.0,169.0,149.0,145.0
79,3.95,0.3393137454986572,-0.2539098262786865,1.84517502784729,0.0477144718170166,-1.7954370975494385,0.43676066398620605,0.4423176646232605,0.3147323727607727,0.6027795076370239,3.108566252129027,0.23249768018763672,1.4772452866723498,145.0418604651163,69.37906976744186,119.34557235421167,45.31101511879049,96.73267326732673,70.27128712871287,123.73275862068965,94.42672413793103,125.0,121.0,101.0,145.0,125.0,169.0,149.0,145.0
80,4.0,0.3419382572174072,-0.25365471839904785,1.8455584049224854,0.046965599060058594,-1.796966791152954,0.440779447555542,0.44170141220092773,0.3158343434333801,0.6024909019470215,3.1068492247081703,0.2336989074981839,1.4756699041722736,145.06511627906977,69.43023255813954,119.36285097192224,45.423326133909285,96.80990099009901,70.31287128712871,123.81086956521739,94.45,125.0,121.0,101.0,145.0,125.0,169.0,149.0,145.0
81,4.05,0.3442513942718506,-0.2533581256866455,1.8457953929901123,0.046317338943481445,-1.7983372211456299,0.4445531368255615,0.4411989450454712,0.3168186545372009,0.6022656559944153,3.105245926128807,0.23475272107230047,1.4740357785565392,145.06511627906977,69.43023255813954,119.37608695652175,45.49130434782609,96.86055776892431,70.40239043824701,123.87418655097613,94.4945770065076,125.0,121.0,101.0,145.0,125.0,169.0,149.0,145.0
82,4.1000000000000005,0.34677839279174805,-0.2529482841491699,1.846003770828247,0.0455784797668457,-1.799891710281372,0.44854044914245605,0.44069620966911316,0.3179045021533966,0.6020135879516602,3.1034947007080946,0.23595419982277688,1.4723855745460257,145.05854800936768,69.52459016393442,119.31140350877193,45.56140350877193,96.858,70.7,124.03679653679653,94.56060606060606,125.0,121.0,101.0,145.0,125.0,169.0,149.0,145.0
83,4.15,0.34898948669433594,-0.2525146007537842,1.845325231552124,0.04560422897338867,-1.8010828495025635,0.45189356803894043,0.44031065702438354,0.31889069080352783,0.6022632122039795,3.101955567745492,0.23679895075502233,1.471059139485229,145.01405152224825,69.65807962529274,119.35384615384615,45.79120879120879,96.94246031746032,70.86309523809524,124.15217391304348,94.73695652173913,125.0,121.0,101.0,145.0,125.0,169.0,149.0,145.0
84,4.2,0.3511176109313965,-0.2519865036010742,1.8447163105010986,0.0455317497253418,-1.8023083209991455,0.455075740814209,0.4399949312210083,0.3198516368865967,0.6024267673492432,3.1004977299222904,0.23770405957942567,1.4698367098528253,145.02375296912115,69.82422802850357,119.40305010893246,46.01525054466231,96.97609561752988,70.99003984063745,124.15800865800865,94.9069264069264,125.0,121.0,101.0,145.0,125.0,169.0,149.0,145.0
85,4.25,0.3534712791442871,-0.25150299072265625,1.8445379734039307,0.045237064361572266,-1.803772211074829,0.45854997634887695,0.43956902623176575,0.3208770751953125,0.6023502945899963,3.0990057739922507,0.2388766877378353,1.4685640997965135,144.99521531100478,69.94736842105263,119.35087719298245,46.21271929824562,96.99801587301587,71.08928571428571,124.14750542299349,94.93058568329718,125.0,121.0,101.0,145.0,125.0,169.0,149.0,145.0
86,4.3,0.3556506633758545,-0.25106215476989746,1.8444092273712158,0.045022010803222656,-1.8050739765167236,0.46192336082458496,0.43915727734565735,0.3218271732330322,0.6022517681121826,3.097682904811703,0.23993996006308843,1.4672442758555626,145.0071942446043,69.99520383693046,119.26695842450766,46.29540481400438,96.98997995991984,71.23246492985972,124.2156862745098,95.05882352941177,125.0,121.0,101.0,145.0,125.0,169.0,149.0,145.0
87,4.3500000000000005,0.35778355598449707,-0.2506890296936035,1.8442928791046143,0.04477810859680176,-1.8063633441925049,0.4651486873626709,0.4387297034263611,0.32274556159973145,0.6021832227706909,3.096316119589291,0.24095319800824008,1.4660090906418435,145.05263157894737,70.06698564593302,119.21633554083886,46.36644591611479,97.00602409638554,71.25301204819277,124.2156862745098,95.05882352941177,125.0,121.0,101.0,145.0,125.0,169.0,149.0,145.0
88,4.4,0.3596336841583252,-0.25045132637023926,1.8441746234893799,0.044631242752075195,-1.80745530128479,0.46819186210632324,0.43831244111061096,0.3235294222831726,0.6021732687950134,3.0950399773360004,0.24177481174967522,1.464676376520019,145.0071942446043,70.12230215827338,119.21507760532151,46.5410199556541,97.02434077079107,71.34482758620689,124.2582056892779,95.14660831509846,125.0,121.0,101.0,145.0,125.0,169.0,149.0,145.0
89,4.45,0.3615572452545166,-0.25006532669067383,1.8440220355987549,0.04445171356201172,-1.8085882663726807,0.4713006019592285,0.43794548511505127,0.32437029480934143,0.6021125316619873,3.093798188606095,0.24266169400225954,1.4633644487764557,145.0071942446043,70.12230215827338,119.22566371681415,46.56637168141593,97.04056795131847,71.48073022312373,124.27947598253274,95.20524017467248,125.0,121.0,101.0,145.0,125.0,169.0,149.0,145.0
90,4.5,0.3639836311340332,-0.24963688850402832,1.8439819812774658,0.04417061805725098,-1.8100764751434326,0.47488856315612793,0.43744537234306335,0.3254096508026123,0.6019707322120667,3.092313640345505,0.2438611515535202,1.4620561024130656,144.93509615384616,70.1514423076923,119.22321428571429,46.640625,97.0784708249497,71.62374245472837,124.35964912280701,95.33991228070175,125.0,121.0,101.0,145.0,125.0,169.0,149.0,145.0
91,4.55,0.3667111396789551,-0.249131441116333,1.8440568447113037,0.043631553649902344,-1.8118393421173096,0.4786043167114258,0.4369033873081207,0.3265741765499115,0.6017442345619202,3.090596269620105,0.24525982192723575,1.4608876369151407,144.9496402877698,70.3357314148681,119.20444444444445,46.74666666666667,97.03413654618474,71.76104417670683,124.39737991266375,95.37772925764192,125.0,121.0,101.0,145.0,125.0,169.0,149.0,145.0
92,4.6000000000000005,0.368807315826416,-0.24875140190124512,1.8435900211334229,0.04378914833068848,-1.8130223751068115,0.48174500465393066,0.4364762604236603,0.32748350501060486,0.601865828037262,3.08931415503745,0.246176373962843,1.4597093874989988,144.88942307692307,70.38461538461539,119.15280898876405,46.885393258426966,97.12877263581488,71.841046277666,124.41048034934498,95.41048034934498,125.0,121.0,101.0,145.0,125.0,169.0,149.0,145.0
93,4.65,0.3708374500274658,-0.24843573570251465,1.84334397315979,0.04375004768371582,-1.8142120838165283,0.4848344326019287,0.4360351860523224,0.3283500075340271,0.6018924713134766,3.0879987479462585,0.24707755641777523,1.458506638282434,144.83213429256594,70.50119904076739,119.14253393665159,47.05429864253394,97.15322580645162,71.90322580645162,124.40262582056893,95.43544857768053,125.0,121.0,101.0,145.0,125.0,169.0,149.0,145.0
94,4.7,0.37270569801330566,-0.24811315536499023,1.8431031703948975,0.04374814033508301,-1.8152668476104736,0.48782849311828613,0.43563878536224365,0.3291569948196411,0.6019046306610107,3.086811442992265,0.24788355615900057,1.45725744373883,144.81927710843374,70.52048192771085,119.07272727272728,47.097727272727276,97.1350806451613,71.9475806451613,124.43859649122807,95.48026315789474,125.0,121.0,101.0,145.0,125.0,169.0,149.0,145.0
95,4.75,0.3745086193084717,-0.24778246879577637,1.842780351638794,0.04376363754272461,-1.8162567615509033,0.49074625968933105,0.4352706968784332,0.32994499802589417,0.6019648909568787,3.0856166923934363,0.24860505940197672,1.456009609661699,144.82766990291262,70.62135922330097,119.04954954954955,47.252252252252255,97.19433198380567,72.03036437246963,124.47692307692307,95.55164835164835,125.0,121.0,101.0,145.0,125.0,169.0,149.0,145.0
96,4.800000000000001,0.376147985458374,-0.24751687049865723,1.8425638675689697,0.0437312126159668,-1.8171794414520264,0.49353504180908203,0.434915691614151,0.3306528329849243,0.6019905209541321,3.0844776165361805,0.24926633932982148,1.4547325303066554,144.8131067961165,70.67233009708738,119.0067264573991,47.34080717488789,97.21384928716904,72.12627291242363,124.48684210526316,95.57675438596492,125.0,121.0,101.0,145.0,125.0,169.0,149.0,145.0
97,4.8500000000000005,0.3777811527252197,-0.24728751182556152,1.8423688411712646,0.04371070861816406,-1.818086862564087,0.49633336067199707,0.4345411956310272,0.33135148882865906,0.6020198464393616,3.0833354042441745,0.24990865979808416,1.4534386640096764,144.74146341463415,70.71219512195123,118.99548532731377,47.43566591422122,97.17142857142858,72.26530612244898,124.47921225382932,95.60175054704595,125.0,121.0,101.0,145.0,125.0,169.0,149.0,145.0
98,4.9,0.3796570301055908,-0.24692964553833008,1.8419973850250244,0.04383969306945801,-1.8190581798553467,0.499347448348999,0.4341503381729126,0.3321763277053833,0.6020864248275757,3.0821940531648258,0.25063953625272456,1.4521832575016214,144.72058823529412,70.75490196078431,118.97742663656885,47.48306997742664,97.14959016393442,72.35655737704919,124.57768052516411,95.61269146608315,125.0,121.0,101.0,145.0,125.0,169.0,149.0,145.0
99,4.95,0.3813614845275879,-0.2464284896850586,1.841137170791626,0.04428553581237793,-1.8198354244232178,0.5021376609802246,0.43389323353767395,0.33297640085220337,0.6023702025413513,3.081175281092456,0.2511942098599814,1.4509893245276866,144.69117647058823,70.79166666666667,119.01357466063348,47.59049773755656,97.23770491803279,72.46926229508196,124.5934065934066,95.65494505494506,125.0,121.0,101.0,145.0,125.0,169.0,149.0,145.0
100,5.0,0.3831288814544678,-0.2458934783935547,1.8402884006500244,0.04471254348754883,-1.8206779956817627,0.5049974918365479,0.4336323142051697,0.33380454778671265,0.6026315689086914,3.0801268608624675,0.25181097164967703,1.4497887148183883,144.70197044334975,70.89162561576354,119.05720823798627,47.78032036613272,97.42299794661191,72.55236139630391,124.68805309734513,95.73672566371681,125.0,121.0,101.0,145.0,125.0,169.0,149.0,145.0
101,5.050000000000001,0.38451170921325684,-0.24545621871948242,1.8396289348602295,0.044966697692871094,-1.8214051723480225,0.5075032711029053,0.43344470858573914,0.3344544470310211,0.6028322577476501,3.079149891572938,0.2523060432493207,1.4485551039579971,144.72413793103448,70.94581280788178,119.00459770114942,47.94712643678161,97.43032786885246,72.70491803278688,124.70378619153675,95.79732739420935,125.0,121.0,101.0,145.0,125.0,169.0,149.0,145.0
102,5.1000000000000005,0.385967493057251,-0.24497509002685547,1.838939905166626,0.04528164863586426,-1.822155237197876,0.5100762844085693,0.43324998021125793,0.3351415991783142,0.6030242443084717,3.0782084508789436,0.2528501558218042,1.4473402084632028,144.65024630541873,71.01477832512315,119.0,48.0,97.50306748466258,72.78527607361963,124.76769911504425,95.96460176991151,125.0,121.0,101.0,145.0,125.0,169.0,149.0,145.0
103,5.15,0.38744139671325684,-0.24463462829589844,1.8385694026947021,0.0453031063079834,-1.8230183124542236,0.5126118659973145,0.4329834580421448,0.3357989192008972,0.6031079888343811,3.0771113311024902,0.2534359874846127,1.4461498316321943,144.66004962779155,71.13151364764268,118.93271461716937,48.067285382830626,97.51434426229508,72.92008196721312,124.78619153674833,96.06681514476615,125.0,121.0,101.0,145.0,125.0,169.0,149.0,145.0
104,5.2,0.3889174461364746,-0.24447345733642578,1.8383748531341553,0.04529094696044922,-1.8239023685455322,0.5151386260986328,0.4326217770576477,0.3364158570766449,0.6031716465950012,3.075968365334557,0.2540173070722637,1.4449584691530017,144.66004962779155,71.13151364764268,118.93563218390804,48.16551724137931,97.51329243353783,73.02249488752557,124.81473214285714,96.16294642857143,125.0,121.0,101.0,145.0,125.0,169.0,149.0,145.0
105,5.25,0.39068055152893066,-0.24420666694641113,1.8382017612457275,0.045228004455566406,-1.824981927871704,0.5179276466369629,0.432220458984375,0.3371621072292328,0.6031748056411743,3.074722387127846,0.25478465631197733,1.4437891426568774,144.59950248756218,71.17661691542288,118.8919540229885,48.301149425287356,97.45884773662551,73.11316872427983,124.81473214285714,96.16294642857143,125.0,121.0,101.0,145.0,125.0,169.0,149.0,145.0
106,5.300000000000001,0.3924887180328369,-0.243757963180542,1.8377506732940674,0.045358896255493164,-1.8259785175323486,0.520761251449585,0.43189164996147156,0.3379729390144348,0.6032470464706421,3.0735909517003708,0.2555215312490742,1.4426444037510118,144.58145363408522,71.24561403508773,118.88302752293578,48.41743119266055,97.5082304526749,73.22633744855968,124.84875846501129,96.22799097065463,125.0,121.0,101.0,145.0,125.0,169.0,149.0,145.0
107,5.3500000000000005,0.39429450035095215,-0.24333596229553223,1.8373634815216064,0.0454559326171875,-1.8269951343536377,0.5235879421234131,0.43154773116111755,0.33877381682395935,0.6032942533493042,3.0724485879840984,0.2562729021673927,1.4415030145148608,144.58145363408522,71.24561403508773,118.83833718244804,48.47806004618938,97.59710743801652,73.31818181818181,124.88208616780045,96.26984126984127,125.0,121.0,101.0,145.0,125.0,169.0,149.0,145.0
108,5.4,0.39609336853027344,-0.2430112361907959,1.8371565341949463,0.045379638671875,-1.8280723094940186,0.5263946056365967,0.4311615526676178,0.33954691886901855,0.6032909154891968,3.07119384789163,0.2570282481152735,1.4403494379318948,144.57142857142858,71.29573934837093,118.87759815242494,48.64434180138568,97.6701244813278,73.42116182572614,124.93227990970655,96.34988713318285,125.0,121.0,101.0,145.0,125.0,169.0,149.0,145.0
109,5.45,0.39792919158935547,-0.2425990104675293,1.836991548538208,0.04523110389709473,-1.8292200565338135,0.5292410850524902,0.430805504322052,0.34034669399261475,0.6032216548919678,3.0699384623728014,0.25786569391358294,1.4391995356337024,144.55137844611528,71.39348370927318,118.82638888888889,48.77777777777778,97.65762004175366,73.51148225469728,124.99774774774775,96.4481981981982,125.0,121.0,101.0,145.0,125.0,169.0,149.0,145.0
110,5.5,0.39958691596984863,-0.24215149879455566,1.8366591930389404,0.0452113151550293,-1.830211877822876,0.5318882465362549,0.4305230975151062,0.34109076857566833,0.6032299995422363,3.068809451741442,0.258576437964529,1.4380843523146618,144.58438287153652,71.59949622166246,118.85314685314685,48.85314685314685,97.6875,73.625,124.99097065462755,96.47404063205417,125.0,121.0,101.0,145.0,125.0,169.0,149.0,145.0
111,5.550000000000001,0.40111804008483887,-0.24194717407226562,1.8364546298980713,0.045323848724365234,-1.8311293125152588,0.5344996452331543,0.430144727230072,0.3417299687862396,0.6032662987709045,3.067737465471049,0.2592286166015403,1.436886376382303,144.48872180451127,71.6265664160401,118.80841121495327,48.94626168224299,97.69665271966527,73.6652719665272,124.99097065462755,96.47404063205417,125.0,121.0,101.0,145.0,125.0,169.0,149.0,145.0
112,5.6000000000000005,0.4025390148162842,-0.24169182777404785,1.8361713886260986,0.04542279243469238,-1.831935167312622,0.5370054244995117,0.42983049154281616,0.3423442542552948,0.6033270955085754,3.066712593244387,0.25977004116130037,1.4356851417739909,144.4256926952141,71.70277078085643,118.76046511627906,49.0,97.70649895178197,73.68972746331237,125.0,96.5,125.0,121.0,101.0,145.0,125.0,169.0,149.0,145.0
113,5.65,0.40380263328552246,-0.24149465560913086,1.8358886241912842,0.045508384704589844,-1.8326256275177002,0.5393722057342529,0.4295397102832794,0.34289005398750305,0.6034168601036072,3.065719179375123,0.2601820110034659,1.4344598296092907,144.41854636591478,71.75438596491227,118.7139534883721,49.05813953488372,97.7050209205021,73.76569037656904,124.97278911564626,96.5578231292517,125.0,121.0,101.0,145.0,125.0,169.0,149.0,145.0
114,5.7,0.40518736839294434,-0.24139118194580078,1.83579421043396,0.045510292053222656,-1.8334009647369385,0.5418915748596191,0.4291568398475647,0.34345874190330505,0.6034400463104248,3.0646466578290936,0.2606574868612382,1.4331948774908918,144.41854636591478,71.75438596491227,118.65116279069767,49.13488372093023,97.7223382045929,73.839248434238,124.97278911564626,96.5578231292517,125.0,121.0,101.0,145.0,125.0,169.0,149.0,145.0
115,5.75,0.4066026210784912,-0.2413032054901123,1.8357341289520264,0.04548525810241699,-1.8341848850250244,0.5444657802581787,0.4287555515766144,0.3440365493297577,0.6034502387046814,3.0635447661737008,0.26112867597217904,1.4319006603737052,144.367758186398,71.75566750629723,118.55737704918033,49.21077283372365,97.6881496881497,73.87525987525987,124.97278911564626,96.5578231292517,125.0,121.0,101.0,145.0,125.0,169.0,149.0,145.0
116,5.800000000000001,0.40798449516296387,-0.24112915992736816,1.8355271816253662,0.045507192611694336,-1.8348801136016846,0.5470051765441895,0.4284103810787201,0.34462836384773254,0.6035071611404419,3.062484446616476,0.26151634649769767,1.4306111276478104,144.367758186398,71.75566750629723,118.54332552693208,49.24590163934426,97.71933471933473,73.95634095634095,124.96818181818182,96.5840909090909,125.0,121.0,101.0,145.0,125.0,169.0,149.0,145.0
117,5.8500000000000005,0.409487247467041,-0.24100065231323242,1.8354194164276123,0.04546189308166504,-1.8356678485870361,0.5496857166290283,0.4280029237270355,0.34525418281555176,0.6035305261611938,3.06132212368082,0.26196106659543134,1.4292865796843182,144.3409090909091,71.76010101010101,118.4895104895105,49.29370629370629,97.67849686847599,74.08141962421712,125.0068493150685,96.61872146118722,125.0,121.0,101.0,145.0,125.0,169.0,149.0,145.0
118,5.9,0.41111040115356445,-0.24075746536254883,1.8350541591644287,0.0455775260925293,-1.8364660739898682,0.5524184703826904,0.42761650681495667,0.34595787525177,0.6036497950553894,3.0601529268965253,0.26241520388023537,1.4280315905334575,144.33417721518987,71.7873417721519,118.53255813953488,49.43255813953488,97.75313807531381,74.2071129707113,125.09817351598174,96.6917808219178,125.0,121.0,101.0,145.0,125.0,169.0,149.0,145.0
119,5.95,0.4127192497253418,-0.24039244651794434,1.8345634937286377,0.04572248458862305,-1.8372900485992432,0.555095911026001,0.4272995889186859,0.34668025374412537,0.6037870645523071,3.0590039997557152,0.2629046157173142,1.4268224789468145,144.33333333333334,71.83969465648855,118.52680652680652,49.61072261072261,97.83716075156576,74.36116910229646,125.11845102505694,96.71070615034168,125.0,121.0,101.0,145.0,125.0,169.0,149.0,145.0
120,6.0,0.41420555114746094,-0.24001407623291016,1.8340423107147217,0.04589557647705078,-1.838043451309204,0.5576469898223877,0.42702704668045044,0.34735792875289917,0.6039336919784546,3.057934264299946,0.26334666192330114,1.4256277325816085,144.40561224489795,71.9515306122449,118.54098360655738,49.7423887587822,97.86134453781513,74.41806722689076,125.14806378132118,96.749430523918,125.0,121.0,101.0,145.0,125.0,169.0,149.0,145.0
121,6.050000000000001,0.4156365394592285,-0.2396554946899414,1.833514928817749,0.04616808891296387,-1.8387620449066162,0.5602314472198486,0.42675280570983887,0.3480072319507599,0.6040840744972229,3.056935066162836,0.26379103624002215,1.4243614900118187,144.35549872122763,72.0076726342711,118.46099290780141,49.815602836879435,97.86638830897704,74.46972860125261,125.16247139588101,96.79862700228833,125.0,121.0,101.0,145.0,125.0,169.0,149.0,145.0
122,6.1000000000000005,0.4170055389404297,-0.23935747146606445,1.8330614566802979,0.04636716842651367,-1.8394343852996826,0.562751293182373,0.426469624042511,0.34862220287323,0.60422283411026,3.0559246791341135,0.26416699961282974,1.4230895419986689,144.3299232736573,72.05626598465473,118.44655581947744,49.902612826603324,97.82526315789474,74.58315789473684,125.27816091954023,96.9448275862069,125.0,121.0,101.0,145.0,125.0,169.0,149.0,145.0
123,6.15,0.4185338020324707,-0.2389063835144043,1.8324253559112549,0.046648263931274414,-1.8401954174041748,0.5653407573699951,0.4262133240699768,0.34933239221572876,0.6043976545333862,3.0548887684406827,0.26463731856498957,1.4219094451014904,144.35805626598466,72.1074168797954,118.472553699284,49.9928400954654,97.88818565400844,74.67510548523207,125.28074245939675,97.01624129930394,125.0,121.0,101.0,145.0,125.0,169.0,149.0,145.0
124,6.2,0.42020153999328613,-0.2385110855102539,1.8319833278656006,0.04683566093444824,-1.8410966396331787,0.5681147575378418,0.42587727308273315,0.3500756025314331,0.6044835448265076,3.0537595773904487,0.26522912658597564,1.4206780407604376,144.25,72.17268041237114,118.45584725536993,50.042959427207634,97.90677966101696,74.71398305084746,125.29930394431554,97.04408352668213,125.0,121.0,101.0,145.0,125.0,169.0,149.0,145.0
125,6.25,0.4217352867126465,-0.2381594181060791,1.831543207168579,0.046977996826171875,-1.8418991565704346,0.5707509517669678,0.4255674481391907,0.35076165199279785,0.6045936346054077,3.0526434560691076,0.2656991119999504,1.4194408962370877,144.26614987080103,72.29457364341086,118.39712918660287,50.13157894736842,97.91507430997876,74.73885350318471,125.32558139534883,97.03953488372093,125.0,121.0,101.0,145.0,125.0,169.0,149.0,145.0
126,6.300000000000001,0.42301034927368164,-0.23789191246032715,1.83103346824646,0.047234296798706055,-1.842505693435669,0.5731909275054932,0.42529767751693726,0.3513348400592804,0.6047794818878174,3.0516537974997986,0.26599580181009075,1.4181534605139778,144.29427083333334,72.375,118.31353919239905,50.220902612826606,98.00849256900213,74.88110403397027,125.34965034965035,97.05361305361305,125.0,121.0,101.0,145.0,125.0,169.0,149.0,145.0
127,6.3500000000000005,0.42409515380859375,-0.23781633377075195,1.8306443691253662,0.04745912551879883,-1.843022108078003,0.575432538986206,0.4249953627586365,0.3517909646034241,0.6049870252609253,3.0506771017954084,0.2661752145644168,1.4168627049485256,144.2976501305483,72.40469973890339,118.26746987951807,50.325301204819276,98.0828025477707,75.10615711252655,125.37762237762237,97.08857808857809,125.0,121.0,101.0,145.0,125.0,169.0,149.0,145.0
128,6.4,0.42516231536865234,-0.23780059814453125,1.830242395401001,0.04771232604980469,-1.843538522720337,0.5775806903839111,0.4246712625026703,0.3522266149520874,0.6052324175834656,3.049686022811375,0.2663370750096553,1.4156411880087216,144.22251308900525,72.41884816753927,118.28057553956835,50.513189448441246,98.04264392324095,75.2452025586354,125.39302325581396,97.18372093023255,125.0,121.0,101.0,145.0,125.0,169.0,149.0,145.0
129,6.45,0.42641663551330566,-0.2375655174255371,1.8296988010406494,0.048021793365478516,-1.8441250324249268,0.5798871517181396,0.4243902564048767,0.35278522968292236,0.6054514050483704,3.0487271253515487,0.2666150610734444,1.414468594251288,144.23237597911228,72.49608355091384,118.24819277108433,50.689156626506026,98.08528784648188,75.26226012793177,125.43488372093023,97.20697674418605,125.0,121.0,101.0,145.0,125.0,169.0,149.0,145.0
130,6.5,0.42747974395751953,-0.2372903823852539,1.8291118144989014,0.04834437370300293,-1.8445875644683838,0.5820484161376953,0.4241909086704254,0.35328176617622375,0.6056750416755676,3.047885424713897,0.26680456917549517,1.4132659631862843,144.2109375,72.51302083333333,118.24759615384616,50.71634615384615,98.11727078891258,75.30063965884861,125.47222222222223,97.24537037037037,125.0,121.0,101.0,145.0,125.0,169.0,149.0,145.0
131,6.550000000000001,0.428544282913208,-0.23701834678649902,1.8285210132598877,0.04863762855529785,-1.8450663089752197,0.5842201709747314,0.4239925742149353,0.35377785563468933,0.6059056520462036,3.0469992239249226,0.2669841401408812,1.4120442322281601,144.13947368421051,72.57894736842105,118.28019323671498,50.81884057971015,98.12903225806451,75.41290322580645,125.48372093023256,97.32558139534883,125.0,121.0,101.0,145.0,125.0,169.0,149.0,145.0
132,6.6000000000000005,0.4296863079071045,-0.23672771453857422,1.827958345413208,0.04891848564147949,-1.8455922603607178,0.5864651203155518,0.4237746596336365,0.35430634021759033,0.6061100363731384,3.046092906886583,0.2672126319456707,1.4108280200101186,144.1315789473684,72.61315789473684,118.23855421686747,50.87228915662651,98.14989293361884,75.4967880085653,125.55244755244755,97.36130536130536,125.0,121.0,101.0,145.0,125.0,169.0,149.0,145.0
133,6.65,0.4307706356048584,-0.2364208698272705,1.8272807598114014,0.04925680160522461,-1.8460752964019775,0.5886216163635254,0.4235883355140686,0.3548198342323303,0.6063762903213501,3.045199223598707,0.26738785003669624,1.4096394198163724,144.1233595800525,72.64041994750656,118.23300970873787,51.00728155339806,98.18064516129033,75.58494623655913,125.6767441860465,97.52790697674419,125.0,121.0,101.0,145.0,125.0,169.0,149.0,145.0
134,6.7,0.4319174289703369,-0.23602557182312012,1.8266184329986572,0.04950356483459473,-1.8466455936431885,0.5907907485961914,0.4234294295310974,0.35537290573120117,0.6065964102745056,3.0442609480890828,0.26763967993833393,1.4084953448466089,144.06068601583112,72.71240105540898,118.20048309178743,51.16425120772947,98.2034632034632,75.74025974025975,125.68705882352941,97.66117647058823,125.0,121.0,101.0,145.0,125.0,169.0,149.0,145.0
135,6.75,0.4331533908843994,-0.2356572151184082,1.826112985610962,0.049643754959106445,-1.8472883701324463,0.5930190086364746,0.42322343587875366,0.35595038533210754,0.6067380309104919,3.043282292000999,0.26795483704435313,1.4073791544691718,144.0395778364116,72.86807387862797,118.17433414043583,51.23728813559322,98.21475054229936,75.83947939262472,125.70685579196217,97.71394799054373,125.0,121.0,101.0,145.0,125.0,169.0,149.0,145.0
136,6.800000000000001,0.43428874015808105,-0.23541569709777832,1.8256542682647705,0.049834489822387695,-1.8478591442108154,0.5951573848724365,0.42298364639282227,0.35645991563796997,0.6069090962409973,3.0423422513989724,0.2681999193804732,1.406253284710961,144.0316622691293,72.90765171503958,118.14004914004914,51.37100737100737,98.28540305010893,75.95424836601308,125.73349056603773,97.72169811320755,125.0,121.0,101.0,145.0,125.0,169.0,149.0,145.0
137,6.8500000000000005,0.4353499412536621,-0.2351701259613037,1.8251769542694092,0.050026893615722656,-1.8483870029449463,0.5972187519073486,0.42277124524116516,0.3569425940513611,0.6070894598960876,3.0414369499841856,0.2684064882211198,1.4051327252244683,143.9920634920635,72.97089947089947,118.1256157635468,51.44088669950739,98.32461873638344,76.08496732026144,125.75355450236967,97.82938388625593,125.0,121.0,101.0,145.0,125.0,169.0,149.0,145.0
138,6.9,0.4364800453186035,-0.23500466346740723,1.8248493671417236,0.05012845993041992,-1.8489878177642822,0.599327802658081,0.42249512672424316,0.357429176568985,0.6072226762771606,3.0404550697683947,0.268654605257675,1.4040214300378349,144.02374670184696,73.05540897097626,118.15724815724816,51.50859950859951,98.35964912280701,76.21491228070175,125.75707547169812,97.88207547169812,125.0,121.0,101.0,145.0,125.0,169.0,149.0,145.0
139,6.95,0.4376959800720215,-0.2349250316619873,1.8246161937713623,0.050252676010131836,-1.849661111831665,0.601550817489624,0.4221419394016266,0.357923299074173,0.6073369383811951,3.039424930042324,0.26896538180628193,1.4028785625012663,144.02374670184696,73.05540897097626,118.0911330049261,51.60344827586207,98.35589519650655,76.26419213973799,125.75707547169812,97.88207547169812,125.0,121.0,101.0,145.0,125.0,169.0,149.0,145.0
140,7.0,0.43890976905822754,-0.23478078842163086,1.8243029117584229,0.05040764808654785,-1.8503000736236572,0.6037890911102295,0.4218212068080902,0.35843518376350403,0.6074666380882263,3.038421439257724,0.26925151519752405,1.4017235828372363,143.994708994709,73.12169312169313,118.08374384236453,51.73645320197044,98.39869281045752,76.3202614379085,125.76179245283019,97.91745283018868,125.0,121.0,101.0,145.0,125.0,169.0,149.0,145.0
141,7.050000000000001,0.4400641918182373,-0.23464584350585938,1.824052095413208,0.050516366958618164,-1.8509094715118408,0.6060020923614502,0.4215134084224701,0.3589211404323578,0.6075630784034729,3.037447444488852,0.2695166739272855,1.4005391319693596,143.96808510638297,73.22074468085107,118.11274509803921,51.78431372549019,98.39308855291577,76.38444924406048,125.80331753554502,97.95260663507109,125.0,121.0,101.0,145.0,125.0,169.0,149.0,145.0
142,7.1000000000000005,0.44118452072143555,-0.23451852798461914,1.8237078189849854,0.05073070526123047,-1.8514792919158936,0.6081943511962891,0.42121192812919617,0.3593936562538147,0.6077156066894531,3.036503492148774,0.26975157397257576,1.3993454963350886,143.95466666666667,73.24533333333333,118.08823529411765,51.865196078431374,98.43790849673202,76.54030501089325,125.8388625592417,97.99289099526067,125.0,121.0,101.0,145.0,125.0,169.0,149.0,145.0
143,7.15,0.4423336982727051,-0.234391450881958,1.8233282566070557,0.050968170166015625,-1.8520700931549072,0.6103780269622803,0.4209017753601074,0.35987740755081177,0.6078901886940002,3.035538113228789,0.2699945304917552,1.3981859298612633,143.94652406417111,73.27272727272727,118.02689486552568,51.955990220048896,98.41703056768559,76.55458515283843,125.8313539192399,98.0190023752969,125.0,121.0,101.0,145.0,125.0,169.0,149.0,145.0
144,7.2,0.44349026679992676,-0.23423480987548828,1.8229467868804932,0.051197052001953125,-1.8526403903961182,0.6126077175140381,0.4206011891365051,0.3603726625442505,0.6080499291419983,3.03458700966225,0.270224063920715,1.3969912620512177,143.94652406417111,73.27272727272727,117.96059113300493,52.11576354679803,98.39824945295405,76.62800875273523,125.8313539192399,98.0190023752969,125.0,121.0,101.0,145.0,125.0,169.0,149.0,145.0
145,7.25,0.4446375370025635,-0.233931303024292,1.8223931789398193,0.05151224136352539,-1.853149175643921,0.6148357391357422,0.4203750193119049,0.36090409755706787,0.6082369685173035,3.0337230075825556,0.27043797186613716,1.3958084751392452,143.93582887700535,73.36363636363636,117.97766749379653,52.168734491315135,98.41318681318681,76.72087912087912,125.8400954653938,98.06205250596659,125.0,121.0,101.0,145.0,125.0,169.0,149.0,145.0
146,7.300000000000001,0.44582080841064453,-0.23369479179382324,1.8218810558319092,0.05186891555786133,-1.8536789417266846,0.6171295642852783,0.42009809613227844,0.36143171787261963,0.6084282994270325,3.032839994099902,0.27066674093492604,1.3945952947801945,143.91466666666668,73.38133333333333,117.91604938271605,52.291358024691355,98.39427312775331,76.73788546255507,125.85885167464114,98.08373205741627,125.0,121.0,101.0,145.0,125.0,169.0,149.0,145.0
147,7.3500000000000005,0.44695115089416504,-0.23335719108581543,1.8212635517120361,0.052245140075683594,-1.8541409969329834,0.6193852424621582,0.4198893904685974,0.361967533826828,0.6086329221725464,3.0320198377773098,0.27085168324620884,1.3933775166520224,143.84718498659518,73.45844504021447,117.92307692307692,52.34739454094293,98.439293598234,76.8543046357616,125.9307875894988,98.09307875894989,125.0,121.0,101.0,145.0,125.0,169.0,149.0,145.0
148,7.4,0.4479520320892334,-0.23302388191223145,1.8204948902130127,0.05271172523498535,-1.8545153141021729,0.6214606761932373,0.4197276830673218,0.3624575436115265,0.6089296936988831,3.0312474442142636,0.27094487000250533,1.3922099534947059,143.86827956989248,73.52956989247312,117.92019950124688,52.47630922693267,98.49555555555555,76.95111111111112,125.98329355608593,98.11217183770883,125.0,121.0,101.0,145.0,125.0,169.0,149.0,145.0
149,7.45,0.44882965087890625,-0.2326667308807373,1.8196251392364502,0.053258657455444336,-1.8548142910003662,0.6234173774719238,0.41961923241615295,0.3629075586795807,0.6092734336853027,3.0305543179976304,0.270989501716739,1.3910489138350859,143.88948787061994,73.55256064690028,117.92019950124688,52.47630922693267,98.529933481153,77.05986696230599,126.02619047619048,98.18333333333334,125.0,121.0,101.0,145.0,125.0,169.0,149.0,145.0
150,7.5,0.44981908798217773,-0.23236870765686035,1.8188049793243408,0.053793907165527344,-1.8552114963531494,0.6254761219024658,0.41944441199302673,0.3633829653263092,0.6096181273460388,3.0297544877240132,0.2710885397837524,1.3898804110712886,143.8590785907859,73.59349593495935,117.93034825870647,52.56716417910448,98.62360801781738,77.15144766146993,126.04545454545455,98.22488038277513,125.0,121.0,101.0,145.0,125.0,169.0,149.0,145.0
151,7.550000000000001,0.4507462978363037,-0.23212194442749023,1.8180816173553467,0.05423736572265625,-1.8556091785430908,0.6274726390838623,0.4192679226398468,0.36382049322128296,0.609934389591217,3.02893260495536,0.2711652159216603,1.3887036905181045,143.8211382113821,73.62872628726288,117.91478696741855,52.67669172932331,98.6430155210643,77.2549889135255,126.08393285371703,98.29976019184652,125.0,121.0,101.0,145.0,125.0,169.0,149.0,145.0
152,7.6000000000000005,0.4517080783843994,-0.23183655738830566,1.817350149154663,0.054662227630615234,-1.8560292720794678,0.6294832229614258,0.41909927129745483,0.3642798662185669,0.6102374196052551,3.028101536357495,0.27126401818096485,1.3875477890747847,143.7972972972973,73.64324324324325,117.8894472361809,52.87437185929648,98.56888888888889,77.34222222222222,126.06904761904762,98.37619047619047,125.0,121.0,101.0,145.0,125.0,169.0,149.0,145.0
153,7.65,0.4528322219848633,-0.23136353492736816,1.816504716873169,0.05516386032104492,-1.856489896774292,0.6316788196563721,0.41895946860313416,0.36484771966934204,0.610509991645813,3.027319388111846,0.27146154508611503,1.3863921553184466,143.83106267029973,73.71662125340599,117.87626262626263,52.95959595959596,98.65478841870824,77.43875278396436,126.04761904761905,98.47857142857143,125.0,121.0,101.0,145.0,125.0,169.0,149.0,145.0
154,7.7,0.4540214538574219,-0.23107194900512695,1.8160216808319092,0.055475711822509766,-1.857055902481079,0.6339941024780273,0.4187021851539612,0.36538684368133545,0.6106571555137634,3.026429807993226,0.27172314061422276,1.3851671715828204,143.75476839237058,73.76294277929155,117.8391959798995,52.99748743718593,98.61469933184856,77.57906458797328,126.0959232613909,98.53717026378897,125.0,121.0,101.0,145.0,125.0,169.0,149.0,145.0
155,7.75,0.45528411865234375,-0.23074078559875488,1.815382719039917,0.0558924674987793,-1.8576233386993408,0.6363074779510498,0.41844093799591064,0.3659675419330597,0.6108783483505249,3.025528141183123,0.27197516151123985,1.384013718605081,143.74043715846994,73.78688524590164,117.84886649874055,53.1536523929471,98.61073825503355,77.62863534675616,126.144578313253,98.62650602409639,125.0,121.0,101.0,145.0,125.0,169.0,149.0,145.0
156,7.800000000000001,0.4565865993499756,-0.23027253150939941,1.814673662185669,0.05631089210510254,-1.8582122325897217,0.6386737823486328,0.418232262134552,0.36659592390060425,0.6110724806785583,3.0246551640318433,0.2722781053619536,1.3828596432028752,143.72451790633608,73.86225895316804,117.82278481012658,53.30126582278481,98.70155902004454,77.75278396436525,126.21844660194175,98.69902912621359,125.0,121.0,101.0,145.0,125.0,169.0,149.0,145.0
157,7.8500000000000005,0.45774030685424805,-0.22984099388122559,1.8140051364898682,0.0566706657409668,-1.8587496280670166,0.6408529281616211,0.4180600941181183,0.3671574592590332,0.6112644672393799,3.023818230632618,0.2725247143850896,1.381740907502114,143.74792243767314,73.97506925207756,117.82025316455696,53.38481012658228,98.8108108108108,77.89189189189189,126.29055690072639,98.7820823244552,125.0,121.0,101.0,145.0,125.0,169.0,149.0,145.0
158,7.9,0.4587993621826172,-0.22954320907592773,1.813452959060669,0.05698728561401367,-1.8592822551727295,0.64292311668396,0.4178551733493805,0.36764633655548096,0.6114539504051208,3.022962338571143,0.2727409661549476,1.3806269664706754,143.75277777777777,74.00555555555556,117.81060606060606,53.43181818181818,98.75225225225225,77.97297297297297,126.29055690072639,98.7820823244552,125.0,121.0,101.0,145.0,125.0,169.0,149.0,145.0
159,7.95,0.45995068550109863,-0.22917580604553223,1.812737226486206,0.057462453842163086,-1.8598206043243408,0.6451036930084229,0.41764795780181885,0.3681904077529907,0.6117007732391357,3.0221234098857255,0.272986274073495,1.3795050624134093,143.68523676880224,74.04456824512535,117.76903553299492,53.46192893401015,98.75,78.01351351351352,126.29440389294403,98.81265206812652,125.0,121.0,101.0,145.0,125.0,169.0,149.0,145.0
160,8.0,0.4610929489135742,-0.22883963584899902,1.8120434284210205,0.05790281295776367,-1.860339879989624,0.6472747325897217,0.4174301028251648,0.3687260150909424,0.6119515895843506,3.0212612221650543,0.27318865000023596,1.3783759575681902,143.67036011080333,74.14681440443213,117.74936061381074,53.57800511508952,98.76749435665914,78.11512415349887,126.34963325183374,98.81662591687042,125.0,121.0,101.0,145.0,125.0,169.0,149.0,145.0
161,8.05,0.46210265159606934,-0.2284860610961914,1.8112008571624756,0.05846858024597168,-1.860750436782837,0.6493048667907715,0.41726574301719666,0.369219571352005,0.6122788786888123,3.0205008031256075,0.2733157510120883,1.377268636130529,143.67036011080333,74.14681440443213,117.72890025575448,53.72378516624041,98.82539682539682,78.17006802721089,126.33333333333333,98.83823529411765,125.0,121.0,101.0,145.0,125.0,169.0,149.0,145.0
162,8.1,0.4631047248840332,-0.22809314727783203,1.8104078769683838,0.05896925926208496,-1.8611657619476318,0.6513626575469971,0.4171217083930969,0.36971890926361084,0.6125572919845581,3.019749001747474,0.2734561569510809,1.3761300630112874,143.64166666666668,74.15,117.75064267352185,53.768637532133674,98.8529411764706,78.17420814479638,126.38083538083538,98.8943488943489,125.0,121.0,101.0,145.0,125.0,169.0,149.0,145.0
163,8.15,0.46411824226379395,-0.2276601791381836,1.8096120357513428,0.05941629409790039,-1.8616106510162354,0.6534478664398193,0.41699719429016113,0.3702327013015747,0.6128226518630981,3.0189561607544184,0.2736044982278341,1.3749684538997342,143.64166666666668,74.2611111111111,117.76030927835052,53.79639175257732,98.97505668934241,78.38321995464852,126.41176470588235,99.00735294117646,125.0,121.0,101.0,145.0,125.0,169.0,149.0,145.0
164,8.200000000000001,0.4651658535003662,-0.2274477481842041,1.8090689182281494,0.05976295471191406,-1.8621418476104736,0.655531644821167,0.41675156354904175,0.37069711089134216,0.6130487322807312,3.018049809721445,0.2737764048614782,1.373816949077583,143.6027777777778,74.35555555555555,117.67875647668394,54.02849740932643,99.00226757369614,78.47392290249434,126.4054054054054,99.03439803439804,125.0,121.0,101.0,145.0,125.0,169.0,149.0,145.0
165,8.25,0.4660811424255371,-0.2272183895111084,1.808544397354126,0.06009197235107422,-1.8625671863555908,0.6574945449829102,0.41655614972114563,0.3711177706718445,0.6132524013519287,3.017259062608218,0.2738884481408852,1.3726735197746405,143.58287292817678,74.38397790055248,117.64490861618799,54.17232375979112,99.02494331065759,78.61678004535148,126.43872549019608,99.08578431372548,125.0,121.0,101.0,145.0,125.0,169.0,149.0,145.0
166,8.3,0.4670078754425049,-0.22693181037902832,1.8079564571380615,0.06044769287109375,-1.8629891872406006,0.6594388484954834,0.41638511419296265,0.37155789136886597,0.6134647130966187,3.016492067905815,0.2740119972790941,1.3715652632717366,143.5745856353591,74.40883977900552,117.63471502590673,54.295336787564764,99.04566210045662,78.73744292237443,126.46210268948656,99.10268948655256,125.0,121.0,101.0,145.0,125.0,169.0,149.0,145.0
167,8.35,0.46793627738952637,-0.22658371925354004,1.8072717189788818,0.06086468696594238,-1.8633968830108643,0.6613740921020508,0.416242778301239,0.3720153868198395,0.6137024760246277,3.0157566507264746,0.27413930440262785,1.3704752091304768,143.5290858725762,74.50692520775624,117.58181818181818,54.35584415584415,99.15296803652969,78.84703196347031,126.56265356265357,99.23587223587224,125.0,121.0,101.0,145.0,125.0,169.0,149.0,145.0
168,8.4,0.46877050399780273,-0.2263622283935547,1.8067491054534912,0.06113910675048828,-1.863802194595337,0.6631679534912109,0.41607657074928284,0.37240347266197205,0.6139142513275146,3.01497422795389,0.2742140060284326,1.3694129320403088,143.48066298342542,74.5524861878453,117.57402597402597,54.4025974025974,99.15296803652969,78.84703196347031,126.54814814814814,99.28888888888889,125.0,121.0,101.0,145.0,125.0,169.0,149.0,145.0
169,8.450000000000001,0.46962952613830566,-0.22617363929748535,1.806321382522583,0.06134510040283203,-1.8642256259918213,0.665022611618042,0.4158841371536255,0.3727920651435852,0.6140867471694946,3.0141569780356656,0.2742897735873479,1.3683098072649766,143.4317548746518,74.62395543175488,117.59067357512953,54.47150259067357,99.18119266055047,78.89449541284404,126.54814814814814,99.28888888888889,125.0,121.0,101.0,145.0,125.0,169.0,149.0,145.0
170,8.5,0.470430850982666,-0.22600817680358887,1.8058903217315674,0.061562299728393555,-1.8646070957183838,0.6668441295623779,0.41570037603378296,0.3731543719768524,0.6142717003822327,3.013362846576172,0.27432472232710975,1.3671838983558584,143.3623595505618,74.66292134831461,117.56623376623376,54.53506493506494,99.13793103448276,78.99540229885058,126.55445544554455,99.31683168316832,125.0,121.0,101.0,145.0,125.0,169.0,149.0,145.0
171,8.55,0.4712843894958496,-0.22579479217529297,1.8053557872772217,0.061853885650634766,-1.8649804592132568,0.6686973571777344,0.41552045941352844,0.3735516667366028,0.6144931316375732,3.012579755294321,0.2743586544823869,1.3660827929661972,143.34550561797752,74.74157303370787,117.52331606217616,54.59326424870466,99.13394919168591,79.0715935334873,126.56716417910448,99.37064676616916,125.0,121.0,101.0,145.0,125.0,169.0,149.0,145.0
172,8.6,0.47214531898498535,-0.22562813758850098,1.8048512935638428,0.06215620040893555,-1.865347146987915,0.6705658435821533,0.4153130352497101,0.37394052743911743,0.6147180795669556,3.011791318019786,0.27438079177502084,1.3649723211552034,143.31549295774647,74.73802816901409,117.48177083333333,54.6640625,99.14549653579677,79.11778290993071,126.5725,99.4275,125.0,121.0,101.0,145.0,125.0,169.0,149.0,145.0
173,8.65,0.4730551242828369,-0.22544622421264648,1.804396390914917,0.06238913536071777,-1.8657476902008057,0.6724879741668701,0.4150966703891754,0.3743513226509094,0.6149090528488159,3.0109617954106502,0.2744167323322973,1.3638508239687177,143.3399433427762,74.85835694050992,117.49738219895288,54.76439790575916,99.22041763341068,79.26218097447796,126.5725,99.4275,125.0,121.0,101.0,145.0,125.0,169.0,149.0,145.0
174,8.700000000000001,0.4738891124725342,-0.22536230087280273,1.8039777278900146,0.06268024444580078,-1.8661062717437744,0.6743600368499756,0.414854496717453,0.3747071325778961,0.615121066570282,3.010170429255984,0.27442281055476525,1.3627094157578314,143.3276836158192,74.88418079096046,117.49081364829397,54.89238845144357,99.22041763341068,79.26218097447796,126.5725,99.4275,125.0,121.0,101.0,145.0,125.0,169.0,149.0,145.0
175,8.75,0.474682092666626,-0.2252042293548584,1.8035008907318115,0.06299018859863281,-1.8664219379425049,0.6762397289276123,0.41466155648231506,0.37506797909736633,0.6153296232223511,3.0094322064262737,0.27441413473168114,1.3615310670170924,143.3276836158192,74.88418079096046,117.45502645502646,54.957671957671955,99.20417633410673,79.34802784222738,126.59899749373433,99.43859649122807,125.0,121.0,101.0,145.0,125.0,169.0,149.0,145.0
176,8.8,0.47551560401916504,-0.22497320175170898,1.8028881549835205,0.06338381767272949,-1.8667352199554443,0.678149938583374,0.4144901931285858,0.3754652142524719,0.615581750869751,3.008703038725376,0.2744112367885326,1.3603662465652075,143.3361581920904,74.94067796610169,117.41534391534391,55.03703703703704,99.24193548387096,79.47235023041475,126.62311557788945,99.45477386934674,125.0,121.0,101.0,145.0,125.0,169.0,149.0,145.0
177,8.85,0.47631311416625977,-0.22476601600646973,1.802234411239624,0.0638272762298584,-1.8670189380645752,0.6800131797790527,0.41431882977485657,0.3758438229560852,0.6158683896064758,3.0079948369831477,0.2743807154486996,1.3592144881827863,143.3361581920904,74.94067796610169,117.41688654353563,55.15831134564644,99.25925925925925,79.61805555555556,126.59193954659949,99.53148614609572,125.0,121.0,101.0,145.0,125.0,169.0,149.0,145.0
178,8.9,0.4772677421569824,-0.2245347499847412,1.8016598224639893,0.06423330307006836,-1.867403268814087,0.6820347309112549,0.41410019993782043,0.37628373503685,0.6160951852798462,3.0072272807850036,0.27444717409083563,1.3580599657573509,143.23361823361824,75.01994301994301,117.46296296296296,55.27777777777778,99.26497695852535,79.71428571428571,126.60858585858585,99.55555555555556,125.0,121.0,101.0,145.0,125.0,169.0,149.0,145.0
179,8.950000000000001,0.4781761169433594,-0.22425007820129395,1.8009846210479736,0.0646977424621582,-1.8677361011505127,0.6839950084686279,0.41392332315444946,0.37672263383865356,0.616353452205658,3.0065200691158274,0.2744872692759112,1.3569307435190918,143.2528409090909,75.04545454545455,117.41005291005291,55.36507936507937,99.36805555555556,79.82175925925925,126.63476070528968,99.63727959697734,125.0,121.0,101.0,145.0,125.0,169.0,149.0,145.0
180,9.0,0.4790785312652588,-0.22404909133911133,1.800487756729126,0.06502175331115723,-1.8681128025054932,0.685943603515625,0.413709819316864,0.3771335482597351,0.6165524125099182,3.0057503826378857,0.27453165993193085,1.3557921540544358,143.2528409090909,75.04545454545455,117.36745406824147,55.41207349081365,99.35334872979215,79.84295612009238,126.70854271356784,99.66582914572864,125.0,121.0,101.0,145.0,125.0,169.0,149.0,145.0
181,9.05,0.47997188568115234,-0.22377347946166992,1.7998583316802979,0.06539583206176758,-1.8684728145599365,0.6878781318664551,0.4135389029979706,0.37756335735321045,0.616794764995575,3.0049873365800104,0.2745575133976656,1.3546598210298653,143.2528409090909,75.04545454545455,117.39050131926122,55.45382585751979,99.38337182448036,79.88683602771363,126.73366834170854,99.71356783919597,125.0,121.0,101.0,145.0,125.0,169.0,149.0,145.0
182,9.1,0.48091721534729004,-0.2234787940979004,1.7992393970489502,0.06574368476867676,-1.8688819408416748,0.6898837089538574,0.4133603274822235,0.3780159056186676,0.6170238852500916,3.00417460414053,0.27461209039531415,1.3535012952555396,143.2528409090909,75.04545454545455,117.40105540897098,55.556728232189975,99.38425925925925,79.99537037037037,126.84210526315789,99.77694235588973,125.0,121.0,101.0,145.0,125.0,169.0,149.0,145.0
183,9.15,0.4818859100341797,-0.22304487228393555,1.7984106540679932,0.06618857383728027,-1.869304895401001,0.6918628215789795,0.41324469447135925,0.3785144090652466,0.6173089742660522,3.0033804781386118,0.27469548377254366,1.3523976969275615,143.1937321937322,75.13390313390313,117.36772486772487,55.6931216931217,99.41435185185185,80.08101851851852,126.8681592039801,99.8407960199005,125.0,121.0,101.0,145.0,125.0,169.0,149.0,145.0
184,9.200000000000001,0.48278355598449707,-0.22263503074645996,1.7976276874542236,0.06659626960754395,-1.8696825504302979,0.6937649250030518,0.4131413698196411,0.3789805769920349,0.6175793409347534,3.002624764028404,0.274743176100843,1.3513040935361085,143.18103448275863,75.21264367816092,117.37700534759358,55.79679144385027,99.43457943925233,80.1588785046729,126.88059701492537,99.91542288557214,125.0,121.0,101.0,145.0,125.0,169.0,149.0,145.0
185,9.25,0.48369479179382324,-0.22225093841552734,1.796905755996704,0.06698989868164062,-1.8700759410858154,0.695702314376831,0.4130178391933441,0.37944290041923523,0.6178243160247803,3.0018645415913223,0.27480982693182276,1.3501899707473457,143.1742857142857,75.32,117.34048257372655,55.919571045576404,99.48356807511738,80.23239436619718,126.9077306733167,99.98503740648378,125.0,121.0,101.0,145.0,125.0,169.0,149.0,145.0
186,9.3,0.4845304489135742,-0.2219376564025879,1.7962791919708252,0.06734204292297363,-1.8704359531402588,0.6975822448730469,0.4128839373588562,0.37985774874687195,0.6180464029312134,3.0011288527312656,0.274845887327549,1.349060196808897,143.17948717948718,75.35042735042735,117.31451612903226,55.93010752688172,99.47529411764705,80.34588235294117,126.9225,100.01,125.0,121.0,101.0,145.0,125.0,169.0,149.0,145.0
187,9.35,0.48543572425842285,-0.22163796424865723,1.7956006526947021,0.0677640438079834,-1.8708221912384033,0.6995241641998291,0.4127175211906433,0.3802958130836487,0.6183049082756042,3.000360041062739,0.2748936578893643,1.3479334845721969,143.13793103448276,75.41379310344827,117.28763440860214,56.01881720430107,99.52470588235295,80.48941176470588,126.94206549118388,100.06801007556675,125.0,121.0,101.0,145.0,125.0,169.0,149.0,145.0
188,9.4,0.48633599281311035,-0.22138261795043945,1.794968843460083,0.06815934181213379,-1.8712103366851807,0.7014336585998535,0.412531316280365,0.3807200789451599,0.6185582876205444,2.999580047774762,0.27493081406669667,1.3468304269000912,143.11680911680912,75.54415954415954,117.32972972972973,56.116216216216216,99.55319148936171,80.56501182033097,126.97732997481108,100.14609571788414,125.0,121.0,101.0,145.0,125.0,169.0,149.0,145.0
189,9.450000000000001,0.48719000816345215,-0.22118043899536133,1.7943785190582275,0.06857466697692871,-1.8715808391571045,0.7033212184906006,0.4123322069644928,0.381111204624176,0.6188100576400757,2.9988235312455083,0.2749597055297711,1.34570698448707,143.1082621082621,75.58404558404558,117.32171581769437,56.23056300268097,99.59715639810426,80.67298578199052,127.00502512562814,100.15326633165829,125.0,121.0,101.0,145.0,125.0,169.0,149.0,145.0
190,9.5,0.4880080223083496,-0.2209479808807373,1.7937233448028564,0.06902861595153809,-1.8719236850738525,0.7051663398742676,0.41216108202934265,0.3814975619316101,0.6190845370292664,2.9981006755797273,0.27497659383793877,1.3445951155401963,143.1082621082621,75.58404558404558,117.2566844919786,56.32620320855615,99.59004739336493,80.72274881516587,127.03274559193954,100.15869017632242,125.0,121.0,101.0,145.0,125.0,169.0,149.0,145.0
191,9.55,0.4888172149658203,-0.22064566612243652,1.7929704189300537,0.06952071189880371,-1.8722398281097412,0.7070028781890869,0.4120270907878876,0.38190165162086487,0.6193817257881165,2.997405526155131,0.274978323403925,1.3434889122074691,143.13832853025937,75.70028818443804,117.26133333333334,56.434666666666665,99.61320754716981,80.76415094339623,127.08905852417303,100.34605597964376,125.0,121.0,101.0,145.0,125.0,169.0,149.0,145.0
192,9.600000000000001,0.48966550827026367,-0.22043585777282715,1.7924416065216064,0.06989932060241699,-1.8726303577423096,0.7089157104492188,0.4118310213088989,0.38228946924209595,0.6195918917655945,2.996652664259466,0.27503587171071026,1.3423391463191339,143.1184971098266,75.7514450867052,117.25268817204301,56.51075268817204,99.63207547169812,80.83962264150944,127.0690537084399,100.39386189258312,125.0,121.0,101.0,145.0,125.0,169.0,149.0,145.0
193,9.65,0.4905564785003662,-0.22026634216308594,1.7919981479644775,0.07024741172790527,-1.8730475902557373,0.7108995914459229,0.41159677505493164,0.38268113136291504,0.6197698712348938,2.995871895174127,0.2751113007832139,1.3411586675713851,143.09195402298852,75.75862068965517,117.14673913043478,56.58423913043478,99.62676056338029,80.93896713615024,127.04358974358975,100.40512820512821,125.0,121.0,101.0,145.0,125.0,169.0,149.0,145.0
194,9.700000000000001,0.49149203300476074,-0.22010087966918945,1.791565179824829,0.07058215141296387,-1.8734610080718994,0.7129151821136475,0.4113439619541168,0.3830907642841339,0.6199444532394409,2.9950778954390533,0.27517105615937504,1.339988951753685,143.00290697674419,75.79651162790698,117.15217391304348,56.641304347826086,99.60421545667447,80.9976580796253,127.0719794344473,100.40874035989717,125.0,121.0,101.0,145.0,125.0,169.0,149.0,145.0
195,9.75,0.492401123046875,-0.21987342834472656,1.7909915447235107,0.07098650932312012,-1.8738253116607666,0.7148890495300293,0.411132276058197,0.3835108280181885,0.6201717257499695,2.9943220561028014,0.27519320719149193,1.3388394726892612,143.0262390670554,75.8192419825073,117.18904109589042,56.76712328767123,99.65176470588236,81.06117647058824,127.13471502590673,100.45854922279793,125.0,121.0,101.0,145.0,125.0,169.0,149.0,145.0
196,9.8,0.49329471588134766,-0.219573974609375,1.7903578281402588,0.07140874862670898,-1.874202013015747,0.7168591022491455,0.4109615385532379,0.3839421272277832,0.6203987002372742,2.9935814703270958,0.275243816095232,1.3376832626344992,143.00877192982455,75.84210526315789,117.19505494505495,56.7967032967033,99.66430260047281,81.12529550827423,127.21298701298701,100.45454545454545,125.0,121.0,101.0,145.0,125.0,169.0,149.0,145.0
197,9.850000000000001,0.4941365718841553,-0.21921849250793457,1.789546251296997,0.07192659378051758,-1.8745381832122803,0.7187573909759521,0.41084006428718567,0.38437220454216003,0.6207047700881958,2.992868419174577,0.27525499005236026,1.3365485243187227,143.0234604105572,75.87096774193549,117.1008174386921,56.97275204359673,99.62768496420048,81.24821002386635,127.21298701298701,100.45454545454545,125.0,121.0,101.0,145.0,125.0,169.0,149.0,145.0
198,9.9,0.4949941635131836,-0.21876239776611328,1.7885940074920654,0.07255244255065918,-1.8748323917388916,0.7206599712371826,0.4107566475868225,0.3848378658294678,0.6210389733314514,2.99223488712436,0.2752778152558897,1.3354444061695816,143.00292397660817,75.94736842105263,117.08423913043478,56.994565217391305,99.74457831325302,81.4578313253012,127.21298701298701,100.45454545454545,125.0,121.0,101.0,145.0,125.0,169.0,149.0,145.0
199,9.950000000000001,0.4958047866821289,-0.2184455394744873,1.787703275680542,0.07317972183227539,-1.875112771987915,0.722475528717041,0.4106232225894928,0.3852485716342926,0.6214065551757812,2.9915748980718186,0.2752507825162164,1.3343677995637961,142.95029239766083,75.97076023391813,117.06284153005464,57.057377049180324,99.75302663438256,81.47941888619854,127.25974025974025,100.46753246753246,125.0,121.0,101.0,145.0,125.0,169.0,149.0,145.0
200,10.0,0.49655580520629883,-0.21808409690856934,1.7867300510406494,0.07381749153137207,-1.8753468990325928,0.7242288589477539,0.4105354845523834,0.3856520652770996,0.6218043565750122,2.9909427087894853,0.2751781936412854,1.3332953507102432,142.93859649122808,76.02923976608187,117.01643835616439,57.12054794520548,99.8623188405797,81.55797101449275,127.28756476683938,100.54145077720207,125.0,121.0,101.0,145.0,125.0,169.0,149.0,145.0
201,10.05,0.4972507953643799,-0.21784067153930664,1.7859570980072021,0.07429814338684082,-1.875593900680542,0.7259292602539062,0.4104141891002655,0.3860013484954834,0.6221462488174438,2.990259345450265,0.27507299585713796,1.3322048303875687,142.9266862170088,76.05571847507332,116.88919667590028,57.229916897506925,99.8578313253012,81.60722891566265,127.34366925064599,100.60206718346254,125.0,121.0,101.0,145.0,125.0,169.0,149.0,145.0
202,10.100000000000001,0.4979395866394043,-0.21756863594055176,1.7851941585540771,0.07472729682922363,-1.8758299350738525,0.7276022434234619,0.4103112518787384,0.38635802268981934,0.6224709749221802,2.989580991771161,0.27495315746456317,1.3311344934450953,142.87683284457478,76.0791788856305,116.974930362117,57.41504178272981,99.8671497584541,81.73188405797102,127.32558139534883,100.70284237726098,125.0,121.0,101.0,145.0,125.0,169.0,149.0,145.0
203,10.15,0.4987215995788574,-0.21721243858337402,1.7844274044036865,0.07516312599182129,-1.8761255741119385,0.7293756008148193,0.41021114587783813,0.38676872849464417,0.6227532029151917,2.988900274625112,0.27491930734419423,1.3300661381557684,142.88823529411764,76.10882352941177,117.0,57.5,99.85851318944844,81.80815347721823,127.34974093264249,100.72020725388602,125.0,121.0,101.0,145.0,125.0,169.0,149.0,145.0
204,10.200000000000001,0.499530553817749,-0.2167973518371582,1.7835533618927002,0.07568812370300293,-1.8764221668243408,0.7311880588531494,0.41012755036354065,0.3872053623199463,0.6230670213699341,2.988237946142953,0.2749075689412644,1.32899227188277,142.89675516224187,76.1740412979351,117.02793296089385,57.614525139664806,99.90120481927711,81.98795180722891,127.4296875,100.79947916666667,125.0,121.0,101.0,145.0,125.0,169.0,149.0,145.0
205,10.25,0.5003502368927002,-0.21636080741882324,1.7826077938079834,0.07628154754638672,-1.876739740371704,0.7329704761505127,0.4100498557090759,0.38764944672584534,0.623410701751709,2.9875838678578135,0.2749252281453667,1.3279625668706538,142.8849557522124,76.20648967551622,117.03661971830986,57.74084507042254,99.94915254237289,82.01937046004842,127.44764397905759,100.84816753926701,125.0,121.0,101.0,145.0,125.0,169.0,149.0,145.0
206,10.3,0.5011436939239502,-0.21590042114257812,1.78169846534729,0.07682633399963379,-1.8770573139190674,0.7347536087036133,0.40999358892440796,0.38808900117874146,0.6237215995788574,2.9869374497722334,0.27494890461556554,1.326907158355701,142.84569732937686,76.35311572700297,117.05865921787709,57.81843575418994,100.02433090024331,82.17031630170317,127.44908616187989,100.87728459530027,125.0,121.0,101.0,145.0,125.0,169.0,149.0,145.0
207,10.350000000000001,0.5018575191497803,-0.2155592441558838,1.7808640003204346,0.07738256454467773,-1.877331018447876,0.7364604473114014,0.40990498661994934,0.38846632838249207,0.6240451335906982,2.9863176010217796,0.27492898094946744,1.3258497773923335,142.84272997032642,76.41246290801188,116.991643454039,57.86908077994429,100.05134474327629,82.32518337408312,127.48051948051948,100.91688311688311,125.0,121.0,101.0,145.0,125.0,169.0,149.0,145.0
208,10.4,0.5025804042816162,-0.21526288986206055,1.7800257205963135,0.07796216011047363,-1.8776037693023682,0.7381436824798584,0.40979087352752686,0.388835608959198,0.6243931651115417,2.985685228535374,0.27489313317628694,1.324819668565378,142.77245508982037,76.52095808383234,116.95543175487465,58.030640668523674,100.07560975609756,82.34146341463415,127.51302083333333,101.0546875,125.0,121.0,101.0,145.0,125.0,169.0,149.0,145.0
209,10.450000000000001,0.5032663345336914,-0.2149970531463623,1.7793395519256592,0.07842040061950684,-1.8778703212738037,0.739811897277832,0.4096749424934387,0.3891814351081848,0.6246673464775085,2.9850614315080684,0.27485413039013745,1.323769616678245,142.77710843373495,76.56024096385542,116.89106145251397,58.12011173184357,100.08009708737865,82.3883495145631,127.55091383812011,101.12271540469973,125.0,121.0,101.0,145.0,125.0,169.0,149.0,145.0
210,10.5,0.5039622783660889,-0.21472406387329102,1.7786715030670166,0.0788569450378418,-1.8781425952911377,0.7414946556091309,0.40955883264541626,0.389533132314682,0.6249277591705322,2.984431153488975,0.27481834351236006,1.3227142618687615,142.75301204819277,76.60240963855422,116.8861111111111,58.15833333333333,100.13513513513513,82.52579852579852,127.55235602094241,101.15183246073299,125.0,121.0,101.0,145.0,125.0,169.0,149.0,145.0
211,10.55,0.5046730041503906,-0.21450090408325195,1.7780373096466064,0.0792851448059082,-1.8784301280975342,0.7431807518005371,0.4094131588935852,0.3898766040802002,0.6251934766769409,2.983771660704761,0.2747747712099506,1.3216643640201746,142.75301204819277,76.60240963855422,116.89635854341736,58.23249299719888,100.12039312039312,82.57739557739558,127.53805774278216,101.1758530183727,125.0,121.0,101.0,145.0,125.0,169.0,149.0,145.0
212,10.600000000000001,0.505448579788208,-0.2142343521118164,1.7773654460906982,0.07974839210510254,-1.8787448406219482,0.7449567317962646,0.4092623293399811,0.39025548100471497,0.625457763671875,2.9830975130776793,0.27476397060191593,1.32059189662911,142.7807807807808,76.69069069069069,116.90756302521008,58.33613445378151,100.10098522167488,82.5960591133005,127.55408970976254,101.21899736147758,125.0,121.0,101.0,145.0,125.0,169.0,149.0,145.0
213,10.65,0.5062167644500732,-0.2139601707458496,1.7766697406768799,0.08027982711791992,-1.8790433406829834,0.7467803955078125,0.40911293029785156,0.3906322717666626,0.6257266998291016,2.982460669452117,0.2747677418413265,1.3194753436022382,142.6878787878788,76.67878787878787,116.90730337078652,58.36516853932584,100.11138613861387,82.67821782178218,127.55408970976254,101.21899736147758,125.0,121.0,101.0,145.0,125.0,169.0,149.0,145.0
214,10.700000000000001,0.507000207901001,-0.2136516571044922,1.7759149074554443,0.08080363273620605,-1.879335641860962,0.7485921382904053,0.4089775085449219,0.39102745056152344,0.6260175704956055,2.981806374380101,0.27474533284955877,1.3183812982158234,142.65454545454546,76.72121212121212,116.8158640226629,58.436260623229465,100.12158808933002,82.70471464019852,127.57217847769029,101.26771653543307,125.0,121.0,101.0,145.0,125.0,169.0,149.0,145.0
215,10.75,0.507760763168335,-0.21336650848388672,1.7752201557159424,0.08126163482666016,-1.8796093463897705,0.75038743019104,0.40884020924568176,0.3914091885089874,0.6262863874435425,2.9811479629366717,0.2746902169088463,1.3172768817608311,142.65548780487805,76.77743902439025,116.84045584045585,58.60968660968661,100.11910669975187,82.75930521091811,127.58115183246073,101.29581151832461,125.0,121.0,101.0,145.0,125.0,169.0,149.0,145.0
216,10.8,0.5085000991821289,-0.21301031112670898,1.7744572162628174,0.08178138732910156,-1.8798563480377197,0.7521951198577881,0.4087408185005188,0.3918023407459259,0.6265555620193481,2.980553682132106,0.2746571852798497,1.3161555159524572,142.65548780487805,76.77743902439025,116.8409090909091,58.63920454545455,100.17079207920793,82.92079207920793,127.64566929133858,101.35170603674541,125.0,121.0,101.0,145.0,125.0,169.0,149.0,145.0
217,10.850000000000001,0.509291410446167,-0.2126469612121582,1.7736451625823975,0.08231949806213379,-1.8801538944244385,0.7540020942687988,0.40862905979156494,0.3922156095504761,0.6268531680107117,2.979905241692707,0.27464376290102127,1.3150756186537271,142.68693009118542,76.86322188449849,116.79886685552408,58.742209631728045,100.19117647058823,83.04656862745098,127.70899470899471,101.3941798941799,125.0,121.0,101.0,145.0,125.0,169.0,149.0,145.0
218,10.9,0.5100443363189697,-0.2122936248779297,1.7727782726287842,0.08292675018310547,-1.8804237842559814,0.7557556629180908,0.40852412581443787,0.3926115334033966,0.6271859407424927,2.979294369820857,0.27461990269194886,1.3140167627747645,142.64350453172204,76.93655589123867,116.77247191011236,58.85112359550562,100.22167487684729,83.14285714285714,127.69066666666667,101.456,125.0,121.0,101.0,145.0,125.0,169.0,149.0,145.0
219,10.950000000000001,0.5108044147491455,-0.21198463439941406,1.772003412246704,0.08348870277404785,-1.8806955814361572,0.757526159286499,0.4083932042121887,0.3929973840713501,0.6274847984313965,2.9786780160053987,0.2745951801249935,1.312947699675108,142.61515151515152,76.94545454545455,116.71549295774648,58.89014084507042,100.2512315270936,83.23152709359606,127.69066666666667,101.456,125.0,121.0,101.0,145.0,125.0,169.0,149.0,145.0
220,11.0,0.5115621089935303,-0.21168947219848633,1.771226167678833,0.08403396606445312,-1.880957841873169,0.7592825889587402,0.40825754404067993,0.3933809995651245,0.6277950406074524,2.978047979406505,0.27454158076529733,1.3118862218297482,142.61515151515152,76.94545454545455,116.68820224719101,59.008426966292134,100.26666666666667,83.35308641975308,127.74270557029178,101.48541114058355,125.0,121.0,101.0,145.0,125.0,169.0,149.0,145.0
221,11.05,0.5123250484466553,-0.2113206386566162,1.7703444957733154,0.08462262153625488,-1.881218671798706,0.7610085010528564,0.40815702080726624,0.39378705620765686,0.628130316734314,2.977436964105873,0.2744994843400273,1.3108633360290145,142.58536585365854,77.05182926829268,116.70338983050847,59.07627118644068,100.29353233830845,83.39303482587064,127.73670212765957,101.51329787234043,125.0,121.0,101.0,145.0,125.0,169.0,149.0,145.0
222,11.100000000000001,0.5130429267883301,-0.21100974082946777,1.7695119380950928,0.08521652221679688,-1.8814475536346436,0.7627313137054443,0.4080416262149811,0.39416033029556274,0.6284630298614502,2.9768464989175056,0.27443158596063294,1.3098018433407908,142.56269113149847,77.07033639143731,116.64305949008498,59.11614730878187,100.32506203473946,83.46401985111663,127.81818181818181,101.58823529411765,125.0,121.0,101.0,145.0,125.0,169.0,149.0,145.0
223,11.15,0.5137569904327393,-0.21069860458374023,1.7686870098114014,0.08575987815856934,-1.8816912174224854,0.764418363571167,0.4079324007034302,0.3945331573486328,0.6287961006164551,2.976223788374128,0.2743485486983663,1.3087631888191715,142.5640243902439,77.14329268292683,116.70170454545455,59.1875,100.33663366336634,83.49009900990099,127.85828877005348,101.61497326203208,125.0,121.0,101.0,145.0,125.0,169.0,149.0,145.0
224,11.200000000000001,0.5144360065460205,-0.210371732711792,1.7678020000457764,0.08636760711669922,-1.8819143772125244,0.7661068439483643,0.4078409671783447,0.39489641785621643,0.6291536092758179,2.9756303719239785,0.2742641075700912,1.3076946355850267,142.5290519877676,77.22018348623853,116.72285714285714,59.29142857142857,100.3790523690773,83.5785536159601,127.85522788203754,101.66487935656836,125.0,121.0,101.0,145.0,125.0,169.0,149.0,145.0
225,11.25,0.5151000022888184,-0.21007704734802246,1.7669718265533447,0.08695864677429199,-1.8821337223052979,0.7677967548370361,0.4077380299568176,0.3952445983886719,0.6294933557510376,2.975042818571929,0.2741788547993505,1.306611107760383,142.53963414634146,77.30182926829268,116.70689655172414,59.45977011494253,100.45226130653266,83.63065326633166,127.87096774193549,101.69086021505376,125.0,121.0,101.0,145.0,125.0,169.0,149.0,145.0
226,11.3,0.515657901763916,-0.20979714393615723,1.7661926746368408,0.08751463890075684,-1.88230299949646,0.7694122791290283,0.4076656103134155,0.39554834365844727,0.6298086047172546,2.974513940730948,0.27407067435895466,1.3055045886767114,142.57668711656441,77.42331288343559,116.68115942028986,59.52463768115942,100.40862944162437,83.71827411167513,127.88617886178862,101.7479674796748,125.0,121.0,101.0,145.0,125.0,169.0,149.0,145.0
227,11.350000000000001,0.5162570476531982,-0.2095656394958496,1.7653915882110596,0.08819580078125,-1.8824684619903564,0.771106481552124,0.4075455963611603,0.39585262537002563,0.6301533579826355,2.9740056331445825,0.27398418287319604,1.304369897889682,142.55076923076922,77.40307692307692,116.64450867052022,59.5635838150289,100.3527918781726,83.79441624365482,127.88617886178862,101.8048780487805,125.0,121.0,101.0,145.0,125.0,169.0,149.0,145.0
